;FLAVOR:Marlin
;TIME:3075
;Filament used: 5.4609m
;Layer height: 0.32
;MINX:119.459
;MINY:119.459
;MINZ:0.24
;MAXX:180.541
;MAXY:180.541
;MAXZ:46.96
;Generated with Cura_SteamEngine 5.0.0
M140 S70
M105
M190 S70
M104 S245
M105
M109 S245
M82 ;absolute extrusion mode
; Ender 3 Max Custom Start G-code
G92 E0 ; Reset Extruder
G28 ; Home all axes
G1 Z2.0 F3000 ; Move Z Axis up little to prevent scratching of Heat Bed
G1 X0.1 Y20 Z0.3 F5000.0 ; Move to start position
G1 X0.1 Y200.0 Z0.3 F1500.0 E15 ; Draw the first line
G1 X0.4 Y200.0 Z0.3 F5000.0 ; Move to side a little
G1 X0.4 Y20 Z0.3 F1500.0 E30 ; Draw the second line
G92 E0 ; Reset Extruder
G1 Z2.0 F3000 ; Move Z Axis up little to prevent scratching of Heat Bed
G1 X5 Y20 Z0.3 F5000.0 ; Move over to prevent blob squish
G92 E0
G92 E0
G1 F2100 E-5
;LAYER_COUNT:146
;LAYER:0
M107
G1 F300 Z0.56
G0 F6000 X123.507 Y123.116 Z0.56
G1 F300 Z0.56
G0 F6000 X119.459 Y132.684
;TYPE:SKIRT
G1 F300 Z0.24
G1 F2100 E0
G1 F1800 X119.502 Y131.661 E0.07417
G1 X119.52 Y131.447 E0.08973
G1 X119.643 Y130.466 E0.16135
G1 X119.855 Y129.454 E0.23625
G1 X119.907 Y129.25 E0.2515
G1 X120.19 Y128.303 E0.3231
G1 X120.548 Y127.382 E0.39468
G1 X120.98 Y126.493 E0.46628
G1 X121.426 Y125.729 E0.53037
G1 X121.632 Y125.404 E0.55824
G1 X122.194 Y124.592 E0.62978
G1 X122.821 Y123.827 E0.70143
G1 X123.507 Y123.116 E0.773
G1 X124.248 Y122.463 E0.84455
G1 X125.407 Y121.629 E0.94798
G1 X125.724 Y121.428 E0.97517
G1 X126.579 Y120.933 E1.04674
G1 X127.471 Y120.509 E1.11829
G1 X128.395 Y120.158 E1.18989
G1 X129.549 Y119.835 E1.2767
G1 X129.786 Y119.781 E1.29431
G1 X130.758 Y119.601 E1.36592
G1 X131.601 Y119.508 E1.42735
G1 X132.689 Y119.459 E1.50625
G1 X167.311 Y119.46 E4.01429
G1 X168.256 Y119.497 E4.0828
G1 X168.475 Y119.514 E4.09871
G1 X169.456 Y119.63 E4.17027
G1 X170.532 Y119.852 E4.24985
G1 X170.737 Y119.904 E4.26518
G1 X171.684 Y120.185 E4.33673
G1 X172.606 Y120.543 E4.40838
G1 X173.495 Y120.973 E4.47992
G1 X174.286 Y121.435 E4.54628
G1 X174.61 Y121.641 E4.57409
G1 X175.422 Y122.205 E4.64571
G1 X176.185 Y122.832 E4.71725
G1 X176.896 Y123.519 E4.78887
G1 X177.548 Y124.261 E4.86042
G1 X178.352 Y125.377 E4.96006
G1 X178.553 Y125.692 E4.98713
G1 X179.05 Y126.546 E5.05871
G1 X179.477 Y127.437 E5.13028
G1 X179.83 Y128.36 E5.20187
G1 X180.165 Y129.547 E5.29121
G1 X180.219 Y129.784 E5.30882
G1 X180.399 Y130.756 E5.38043
G1 X180.49 Y131.565 E5.43941
G1 X180.541 Y132.682 E5.52041
G1 X180.541 Y149.76 E6.75755
G1 X180.47 Y151.071 E6.85266
G1 X180.447 Y151.284 E6.86817
G1 X180.302 Y152.261 E6.93972
G1 X179.959 Y153.625 E7.04161
G1 X179.896 Y153.826 E7.05687
G1 X179.563 Y154.756 E7.12843
G1 X179.155 Y155.656 E7.20001
G1 X178.676 Y156.52 E7.27157
G1 X178.217 Y157.22 E7.33221
G1 X177.981 Y157.554 E7.36184
G1 X177.378 Y158.337 E7.43343
G1 X176.643 Y159.142 E7.51239
G1 X159.123 Y176.661 E9.3072
G1 X158.227 Y177.472 E9.39475
G1 X158.061 Y177.608 E9.4103
G1 X157.272 Y178.203 E9.48188
G1 X156.041 Y178.951 E9.58623
G1 X155.858 Y179.048 E9.60123
G1 X154.967 Y179.475 E9.67281
G1 X154.045 Y179.829 E9.74435
G1 X153.096 Y180.107 E9.81598
G1 X152.388 Y180.261 E9.86847
G1 X152.009 Y180.332 E9.8964
G1 X151.031 Y180.475 E9.968
G1 X149.76 Y180.541 E10.0602
G1 X132.688 Y180.54 E11.29691
G1 X131.744 Y180.503 E11.36534
G1 X131.525 Y180.486 E11.38126
G1 X130.544 Y180.37 E11.45281
G1 X129.468 Y180.148 E11.5324
G1 X129.263 Y180.096 E11.54772
G1 X128.316 Y179.815 E11.61928
G1 X127.394 Y179.457 E11.69093
G1 X126.505 Y179.027 E11.76247
G1 X125.714 Y178.565 E11.82882
G1 X125.39 Y178.359 E11.85664
G1 X124.578 Y177.795 E11.92826
G1 X123.815 Y177.168 E11.9998
G1 X123.104 Y176.481 E12.07142
G1 X122.452 Y175.739 E12.14297
G1 X121.629 Y174.593 E12.24518
G1 X121.428 Y174.276 E12.27237
G1 X120.933 Y173.421 E12.34394
G1 X120.509 Y172.529 E12.41548
G1 X120.158 Y171.605 E12.48708
G1 X119.835 Y170.451 E12.57389
G1 X119.781 Y170.214 E12.5915
G1 X119.601 Y169.242 E12.66311
G1 X119.511 Y168.447 E12.72107
G1 X119.459 Y167.318 E12.80294
G1 X119.459 Y134.047 E15.21311
G0 F1620 X119.459 Y132.684
G0 F6000 X120.119 Y132.684
G1 F1800 X120.16 Y131.716 E15.2833
G1 X120.178 Y131.502 E15.29885
G1 X120.298 Y130.548 E15.36851
G1 X120.495 Y129.617 E15.43744
G1 X120.547 Y129.413 E15.45269
G1 X120.823 Y128.493 E15.52227
G1 X121.174 Y127.598 E15.59191
G1 X121.599 Y126.736 E15.66153
G1 X121.984 Y126.083 E15.71645
G1 X122.19 Y125.758 E15.74432
G1 X122.737 Y124.968 E15.81393
G1 X123.349 Y124.227 E15.88355
G1 X124.02 Y123.539 E15.95317
G1 X124.746 Y122.909 E16.0228
G1 X125.76 Y122.187 E16.11297
G1 X126.077 Y121.986 E16.14016
G1 X126.909 Y121.505 E16.20978
G1 X127.779 Y121.096 E16.27942
G1 X128.679 Y120.76 E16.34901
G1 X129.696 Y120.479 E16.42545
G1 X129.933 Y120.425 E16.44305
G1 X130.878 Y120.25 E16.51267
G1 X131.66 Y120.165 E16.56966
G1 X132.689 Y120.119 E16.64427
G1 X167.311 Y120.12 E19.15231
G1 X168.205 Y120.155 E19.21712
G1 X168.424 Y120.172 E19.23303
G1 X169.378 Y120.286 E19.30263
G1 X170.37 Y120.492 E19.37603
G1 X170.575 Y120.544 E19.39135
G1 X171.496 Y120.818 E19.46096
G1 X172.391 Y121.169 E19.5306
G1 X173.253 Y121.592 E19.60015
G1 X173.932 Y121.992 E19.65724
G1 X174.256 Y122.198 E19.68506
G1 X175.045 Y122.747 E19.75469
G1 X175.785 Y123.36 E19.8243
G1 X176.472 Y124.032 E19.89391
G1 X177.101 Y124.759 E19.96355
G1 X177.796 Y125.732 E20.05017
G1 X177.997 Y126.047 E20.07724
G1 X178.479 Y126.878 E20.14683
G1 X178.892 Y127.746 E20.21646
G1 X179.23 Y128.646 E20.28611
G1 X179.521 Y129.694 E20.3649
G1 X179.575 Y129.931 E20.38251
G1 X179.75 Y130.876 E20.45213
G1 X179.833 Y131.625 E20.50672
G1 X179.881 Y132.682 E20.58336
G1 X179.881 Y149.76 E21.8205
G1 X179.814 Y151 E21.91046
G1 X179.791 Y151.213 E21.92598
G1 X179.648 Y152.163 E21.99557
G1 X179.329 Y153.427 E22.09001
G1 X179.266 Y153.628 E22.10527
G1 X178.941 Y154.533 E22.17493
G1 X178.542 Y155.407 E22.24453
G1 X178.071 Y156.245 E22.31416
G1 X177.678 Y156.839 E22.36576
G1 X177.442 Y157.173 E22.39538
G1 X176.855 Y157.934 E22.46501
G1 X176.176 Y158.675 E22.53781
G1 X158.656 Y176.194 E24.33262
G1 X157.809 Y176.961 E24.4154
G1 X157.643 Y177.097 E24.43094
G1 X156.875 Y177.675 E24.50057
G1 X155.732 Y178.368 E24.5974
G1 X155.549 Y178.465 E24.61241
G1 X154.682 Y178.879 E24.68201
G1 X153.784 Y179.22 E24.75159
G1 X152.86 Y179.485 E24.82122
G1 X152.267 Y179.613 E24.86517
G1 X151.888 Y179.684 E24.8931
G1 X150.937 Y179.821 E24.9627
G1 X149.76 Y179.881 E25.04808
G1 X132.688 Y179.88 E26.28478
G1 X131.795 Y179.845 E26.34952
G1 X131.576 Y179.828 E26.36543
G1 X130.622 Y179.714 E26.43503
G1 X129.63 Y179.508 E26.50843
G1 X129.425 Y179.456 E26.52375
G1 X128.504 Y179.182 E26.59336
G1 X127.609 Y178.831 E26.663
G1 X126.747 Y178.408 E26.73256
G1 X126.068 Y178.008 E26.78964
G1 X125.744 Y177.802 E26.81746
G1 X124.955 Y177.253 E26.88709
G1 X124.215 Y176.64 E26.9567
G1 X123.528 Y175.968 E27.02631
G1 X122.899 Y175.241 E27.09595
G1 X122.187 Y174.24 E27.18494
G1 X121.986 Y173.923 E27.21213
G1 X121.505 Y173.091 E27.28175
G1 X121.096 Y172.221 E27.35139
G1 X120.76 Y171.321 E27.42098
G1 X120.479 Y170.304 E27.49741
G1 X120.425 Y170.067 E27.51502
G1 X120.25 Y169.122 E27.58464
G1 X120.169 Y168.386 E27.63828
G1 X120.119 Y167.318 E27.71573
G1 X120.119 Y134.047 E30.1259
G0 F1620 X120.119 Y132.684
G0 F6000 X120.779 Y132.684
G1 F1800 X120.817 Y131.771 E30.1921
G1 X120.835 Y131.557 E30.20765
G1 X120.953 Y130.632 E30.2752
G1 X121.134 Y129.78 E30.3383
G1 X121.186 Y129.576 E30.35355
G1 X121.455 Y128.683 E30.42111
G1 X121.8 Y127.815 E30.48877
G1 X122.218 Y126.981 E30.55635
G1 X122.541 Y126.436 E30.60225
G1 X122.747 Y126.111 E30.63012
G1 X123.28 Y125.345 E30.69772
G1 X123.876 Y124.627 E30.76532
G1 X124.532 Y123.963 E30.83293
G1 X125.242 Y123.358 E30.90051
G1 X126.113 Y122.744 E30.9777
G1 X126.43 Y122.543 E31.00489
G1 X127.239 Y122.077 E31.07253
G1 X128.085 Y121.683 E31.14013
G1 X128.961 Y121.362 E31.20772
G1 X129.843 Y121.122 E31.27393
G1 X130.08 Y121.068 E31.29154
G1 X130.998 Y120.9 E31.35914
G1 X131.719 Y120.822 E31.41168
G1 X132.689 Y120.779 E31.48202
G1 X167.311 Y120.78 E33.99005
G1 X168.154 Y120.813 E34.05117
G1 X168.373 Y120.83 E34.06708
G1 X169.299 Y120.942 E34.13465
G1 X170.208 Y121.131 E34.20191
G1 X170.413 Y121.183 E34.21723
G1 X171.306 Y121.451 E34.28477
G1 X172.174 Y121.795 E34.3524
G1 X173.009 Y122.211 E34.41998
G1 X173.578 Y122.549 E34.46792
G1 X173.902 Y122.755 E34.49574
G1 X174.667 Y123.289 E34.56332
G1 X175.384 Y123.887 E34.63095
G1 X176.047 Y124.543 E34.69852
G1 X176.651 Y125.254 E34.7661
G1 X177.239 Y126.087 E34.83996
G1 X177.44 Y126.402 E34.86703
G1 X177.908 Y127.21 E34.93467
G1 X178.305 Y128.054 E35.00224
G1 X178.628 Y128.929 E35.0698
G1 X178.878 Y129.841 E35.13831
G1 X178.932 Y130.078 E35.15591
G1 X179.1 Y130.996 E35.22352
G1 X179.175 Y131.685 E35.27373
G1 X179.221 Y132.682 E35.34603
G1 X179.221 Y149.76 E36.58317
G1 X179.158 Y150.929 E36.66797
G1 X179.135 Y151.142 E36.68349
G1 X178.995 Y152.065 E36.75112
G1 X178.7 Y153.23 E36.83818
G1 X178.637 Y153.431 E36.85343
G1 X178.32 Y154.309 E36.92106
G1 X177.929 Y155.156 E36.98864
G1 X177.466 Y155.967 E37.05628
G1 X177.139 Y156.458 E37.09902
G1 X176.903 Y156.792 E37.12864
G1 X176.332 Y157.531 E37.1963
G1 X175.709 Y158.209 E37.263
G1 X158.189 Y175.728 E39.05781
G1 X157.39 Y176.451 E39.13587
G1 X157.224 Y176.587 E39.15141
G1 X156.478 Y177.147 E39.21898
G1 X155.423 Y177.785 E39.3083
G1 X155.24 Y177.882 E39.3233
G1 X154.398 Y178.283 E39.39086
G1 X153.524 Y178.611 E39.45849
G1 X152.625 Y178.863 E39.52612
G1 X151.766 Y179.035 E39.58958
G1 X150.842 Y179.167 E39.6572
G1 X149.76 Y179.221 E39.73567
G1 X132.688 Y179.22 E40.97238
G1 X131.846 Y179.187 E41.03342
G1 X131.627 Y179.17 E41.04933
G1 X130.701 Y179.058 E41.1169
G1 X129.792 Y178.869 E41.18416
G1 X129.587 Y178.817 E41.19948
G1 X128.694 Y178.549 E41.26702
G1 X127.826 Y178.205 E41.33466
G1 X126.991 Y177.789 E41.40223
G1 X126.422 Y177.451 E41.45018
G1 X126.098 Y177.245 E41.47799
G1 X125.333 Y176.711 E41.54557
G1 X124.616 Y176.113 E41.61321
G1 X123.953 Y175.457 E41.68077
G1 X123.349 Y174.746 E41.74835
G1 X122.744 Y173.887 E41.82446
G1 X122.543 Y173.57 E41.85165
G1 X122.077 Y172.761 E41.91929
G1 X121.683 Y171.915 E41.98689
G1 X121.362 Y171.039 E42.05448
G1 X121.122 Y170.157 E42.12069
G1 X121.068 Y169.92 E42.1383
G1 X120.9 Y169.002 E42.2059
G1 X120.826 Y168.325 E42.25524
G1 X120.779 Y167.318 E42.32827
G1 X120.779 Y134.047 E44.73844
G0 F1620 X120.779 Y132.684
G0 F6000 X121.439 Y132.684
G1 F1800 X121.475 Y131.827 E44.80057
G1 X121.493 Y131.613 E44.81613
G1 X121.609 Y130.716 E44.88165
G1 X121.774 Y129.943 E44.93891
G1 X121.826 Y129.739 E44.95416
G1 X122.088 Y128.873 E45.0197
G1 X122.425 Y128.034 E45.0852
G1 X122.835 Y127.228 E45.1507
G1 X123.099 Y126.789 E45.18781
G1 X123.305 Y126.464 E45.21569
G1 X123.822 Y125.723 E45.28114
G1 X124.403 Y125.029 E45.34671
G1 X125.043 Y124.39 E45.41222
G1 X125.737 Y123.81 E45.47774
G1 X126.467 Y123.301 E45.54221
G1 X126.784 Y123.1 E45.5694
G1 X127.568 Y122.65 E45.63488
G1 X128.39 Y122.271 E45.70045
G1 X129.241 Y121.966 E45.76594
G1 X129.989 Y121.766 E45.82203
G1 X130.226 Y121.712 E45.83964
G1 X131.116 Y121.55 E45.90517
G1 X131.777 Y121.48 E45.95332
G1 X132.689 Y121.439 E46.01945
G1 X167.311 Y121.44 E48.52749
G1 X168.103 Y121.471 E48.58491
G1 X168.322 Y121.488 E48.60082
G1 X169.219 Y121.597 E48.66627
G1 X170.045 Y121.771 E48.72742
G1 X170.25 Y121.823 E48.74274
G1 X171.116 Y122.084 E48.80827
G1 X171.956 Y122.42 E48.8738
G1 X172.762 Y122.83 E48.93931
G1 X173.224 Y123.106 E48.97829
G1 X173.548 Y123.312 E49.00611
G1 X174.289 Y123.831 E49.07164
G1 X174.981 Y124.413 E49.13714
G1 X175.619 Y125.053 E49.20261
G1 X176.199 Y125.748 E49.26818
G1 X176.683 Y126.442 E49.32947
G1 X176.884 Y126.757 E49.35654
G1 X177.336 Y127.54 E49.42204
G1 X177.718 Y128.36 E49.48757
G1 X178.025 Y129.211 E49.5531
G1 X178.234 Y129.987 E49.61132
G1 X178.288 Y130.224 E49.62893
G1 X178.501 Y131.561 E49.727
G1 X178.518 Y131.746 E49.74046
G1 X178.561 Y132.682 E49.80834
G1 X178.561 Y149.76 E51.04548
G1 X178.502 Y150.858 E51.12513
G1 X178.479 Y151.071 E51.14065
G1 X178.342 Y151.965 E51.20617
G1 X178.07 Y153.033 E51.286
G1 X178.007 Y153.234 E51.30126
G1 X177.698 Y154.084 E51.36678
G1 X177.316 Y154.904 E51.43231
G1 X176.863 Y155.686 E51.49778
G1 X176.364 Y156.411 E51.56154
G1 X175.81 Y157.126 E51.62706
G1 X175.242 Y157.742 E51.68776
G1 X157.722 Y175.261 E53.48257
G1 X156.972 Y175.94 E53.55586
G1 X156.806 Y176.076 E53.5714
G1 X156.082 Y176.618 E53.63692
G1 X155.114 Y177.202 E53.71881
G1 X154.931 Y177.299 E53.73382
G1 X154.114 Y177.687 E53.79933
G1 X153.266 Y178.001 E53.86484
G1 X152.024 Y178.315 E53.95764
G1 X151.645 Y178.386 E53.98558
G1 X150.749 Y178.513 E54.05113
G1 X149.76 Y178.561 E54.12286
G1 X132.688 Y178.56 E55.35956
G1 X131.897 Y178.529 E55.41691
G1 X131.678 Y178.512 E55.43282
G1 X130.781 Y178.403 E55.49828
G1 X129.955 Y178.229 E55.55943
G1 X129.75 Y178.177 E55.57475
G1 X128.884 Y177.916 E55.64027
G1 X128.044 Y177.58 E55.70581
G1 X127.238 Y177.17 E55.77131
G1 X126.776 Y176.894 E55.8103
G1 X126.452 Y176.688 E55.83811
G1 X125.711 Y176.169 E55.90365
G1 X125.019 Y175.587 E55.96915
G1 X124.381 Y174.947 E56.03461
G1 X123.801 Y174.252 E56.10019
G1 X123.301 Y173.533 E56.16363
G1 X123.1 Y173.216 E56.19082
G1 X122.65 Y172.432 E56.2563
G1 X122.271 Y171.61 E56.32187
G1 X121.966 Y170.759 E56.38736
G1 X121.766 Y170.011 E56.44345
G1 X121.712 Y169.774 E56.46106
G1 X121.5 Y168.447 E56.5584
G1 X121.483 Y168.264 E56.57172
G1 X121.439 Y167.318 E56.64032
G1 X121.439 Y134.047 E59.05049
G0 F1620 X121.439 Y132.684
G0 F6000 X122.099 Y132.684
G1 F1800 X122.133 Y131.882 E59.10864
G1 X122.151 Y131.668 E59.1242
G1 X122.264 Y130.8 E59.18761
G1 X122.414 Y130.106 E59.23904
G1 X122.466 Y129.902 E59.25429
G1 X122.72 Y129.065 E59.31765
G1 X123.05 Y128.255 E59.38101
G1 X123.656 Y127.143 E59.47275
G1 X123.862 Y126.818 E59.50063
G1 X124.364 Y126.101 E59.56403
G1 X124.928 Y125.433 E59.62736
G1 X125.552 Y124.82 E59.69073
G1 X126.229 Y124.266 E59.7541
G1 X126.82 Y123.859 E59.80608
G1 X127.137 Y123.658 E59.83327
G1 X127.897 Y123.224 E59.89667
G1 X128.693 Y122.861 E59.96005
G1 X129.518 Y122.572 E60.02337
G1 X130.136 Y122.409 E60.06967
G1 X130.373 Y122.355 E60.08728
G1 X131.646 Y122.154 E60.18064
G1 X131.836 Y122.137 E60.19446
G1 X132.689 Y122.099 E60.25631
G1 X167.311 Y122.1 E62.76435
G1 X168.052 Y122.129 E62.81807
G1 X168.271 Y122.146 E62.83398
G1 X169.139 Y122.253 E62.89733
G1 X169.883 Y122.411 E62.95243
G1 X170.088 Y122.463 E62.96775
G1 X170.925 Y122.716 E63.03109
G1 X171.736 Y123.045 E63.09449
G1 X172.87 Y123.663 E63.18805
G1 X173.194 Y123.869 E63.21586
G1 X173.91 Y124.372 E63.27925
G1 X174.577 Y124.938 E63.34262
G1 X175.189 Y125.562 E63.40593
G1 X175.742 Y126.24 E63.46931
G1 X176.127 Y126.797 E63.51836
G1 X176.328 Y127.112 E63.54543
G1 X176.764 Y127.87 E63.60878
G1 X177.129 Y128.665 E63.67215
G1 X177.42 Y129.49 E63.73552
G1 X177.591 Y130.134 E63.78379
G1 X177.645 Y130.371 E63.8014
G1 X177.844 Y131.621 E63.89309
G1 X177.861 Y131.806 E63.90655
G1 X177.901 Y132.682 E63.97007
G1 X177.901 Y149.76 E65.20721
G1 X177.846 Y150.787 E65.28171
G1 X177.823 Y151 E65.29723
G1 X177.689 Y151.865 E65.36064
G1 X177.44 Y152.835 E65.43319
G1 X177.377 Y153.036 E65.44844
G1 X177.077 Y153.858 E65.51183
G1 X176.704 Y154.649 E65.57518
G1 X176.061 Y155.697 E65.66425
G1 X175.825 Y156.031 E65.69388
G1 X175.288 Y156.721 E65.75722
G1 X174.776 Y157.275 E65.81186
G1 X157.256 Y174.794 E67.60667
G1 X156.554 Y175.43 E67.67529
G1 X156.388 Y175.566 E67.69084
G1 X155.687 Y176.089 E67.7542
G1 X154.805 Y176.619 E67.82874
G1 X154.622 Y176.716 E67.84374
G1 X153.831 Y177.09 E67.90712
G1 X153.009 Y177.39 E67.97051
G1 X151.902 Y177.666 E68.05316
G1 X151.523 Y177.737 E68.08109
G1 X150.657 Y177.859 E68.14444
G1 X149.76 Y177.901 E68.20949
G1 X132.688 Y177.9 E69.4462
G1 X131.948 Y177.871 E69.49985
G1 X131.729 Y177.854 E69.51576
G1 X130.861 Y177.747 E69.57911
G1 X130.117 Y177.589 E69.63421
G1 X129.912 Y177.537 E69.64953
G1 X129.075 Y177.284 E69.71287
G1 X128.264 Y176.955 E69.77627
G1 X127.13 Y176.337 E69.86983
G1 X126.806 Y176.131 E69.89764
G1 X126.09 Y175.628 E69.96103
G1 X125.423 Y175.062 E70.0244
G1 X124.811 Y174.438 E70.08771
