;FLAVOR:Marlin
;TIME:2794
;Filament used: 3.99714m
;Layer height: 0.32
;MINX:119.189
;MINY:119.19
;MINZ:0.24
;MAXX:180.81
;MAXY:180.81
;MAXZ:45.04
;Generated with Cura_SteamEngine 5.0.0
M140 S70
M105
M190 S70
M104 S245
M105
M109 S245
M82 ;absolute extrusion mode
; Ender 3 Max Custom Start G-code
G92 E0 ; Reset Extruder
G28 ; Home all axes
G1 Z2.0 F3000 ; Move Z Axis up little to prevent scratching of Heat Bed
G1 X0.1 Y20 Z0.3 F5000.0 ; Move to start position
G1 X0.1 Y200.0 Z0.3 F1500.0 E15 ; Draw the first line
G1 X0.4 Y200.0 Z0.3 F5000.0 ; Move to side a little
G1 X0.4 Y20 Z0.3 F1500.0 E30 ; Draw the second line
G92 E0 ; Reset Extruder
G1 Z2.0 F3000 ; Move Z Axis up little to prevent scratching of Heat Bed
G1 X5 Y20 Z0.3 F5000.0 ; Move over to prevent blob squish
G92 E0
G92 E0
G1 F2100 E-5
;LAYER_COUNT:141
;LAYER:0
M107
G1 F300 Z0.56
G0 F6000 X122.736 Y122.931 Z0.56
G1 F300 Z0.56
G0 F6000 X119.192 Y132.252
;TYPE:SKIRT
G1 F300 Z0.24
G1 F2100 E0
G1 F1800 X119.201 Y131.622 E0.04564
G1 X119.233 Y130.932 E0.09568
G1 X119.262 Y130.557 E0.12293
G1 X119.374 Y129.626 E0.19085
G1 X119.57 Y128.687 E0.26034
G1 X119.645 Y128.393 E0.28232
G1 X119.915 Y127.496 E0.35018
G1 X120.261 Y126.624 E0.41814
G1 X120.641 Y125.843 E0.48106
G1 X121.098 Y125.024 E0.549
G1 X121.623 Y124.248 E0.61687
G1 X122.111 Y123.63 E0.67391
G1 X122.736 Y122.931 E0.74184
G1 X123.417 Y122.287 E0.80973
G1 X124.093 Y121.743 E0.87259
G1 X124.857 Y121.2 E0.94049
G1 X126.024 Y120.541 E1.03758
G1 X126.246 Y120.433 E1.05546
G1 X127.106 Y120.06 E1.12337
G1 X128.174 Y119.71 E1.20478
G1 X128.546 Y119.609 E1.2327
G1 X129.461 Y119.402 E1.30066
G1 X130.57 Y119.258 E1.38167
G1 X130.89 Y119.233 E1.40493
G1 X131.563 Y119.202 E1.45373
G1 X132.349 Y119.19 E1.51067
G1 X167.776 Y119.194 E4.07703
G1 X168.591 Y119.21 E4.13608
G1 X169.526 Y119.268 E4.20394
G1 X170.56 Y119.427 E4.27972
G1 X171.112 Y119.539 E4.32052
G1 X172.022 Y119.765 E4.38845
G1 X172.91 Y120.067 E4.45639
G1 X173.781 Y120.45 E4.52532
G1 X174.039 Y120.577 E4.54615
G1 X174.861 Y121.026 E4.614
G1 X175.941 Y121.769 E4.70896
G1 X176.154 Y121.935 E4.72853
G1 X176.868 Y122.542 E4.79641
G1 X177.528 Y123.208 E4.86434
G1 X178.104 Y123.892 E4.92911
G1 X178.659 Y124.648 E4.99705
G1 X179.315 Y125.762 E5.0907
G1 X179.466 Y126.057 E5.11471
G1 X179.857 Y126.909 E5.18262
G1 X180.292 Y128.197 E5.2811
G1 X180.395 Y128.578 E5.30969
G1 X180.601 Y129.492 E5.37756
G1 X180.742 Y130.581 E5.45711
G1 X180.766 Y130.885 E5.4792
G1 X180.798 Y131.56 E5.52815
G1 X180.81 Y132.327 E5.58372
G1 X180.808 Y167.691 E8.14551
G1 X180.798 Y168.411 E8.19767
G1 X180.763 Y169.148 E8.25112
G1 X180.737 Y169.468 E8.27438
G1 X180.621 Y170.398 E8.34227
G1 X180.439 Y171.267 E8.40659
G1 X180.358 Y171.588 E8.43057
G1 X180.09 Y172.486 E8.49845
G1 X179.6 Y173.674 E8.59155
G1 X179.463 Y173.958 E8.61439
G1 X179.021 Y174.784 E8.68225
G1 X178.229 Y175.944 E8.784
G1 X178.062 Y176.158 E8.80367
G1 X177.454 Y176.872 E8.8716
G1 X176.788 Y177.531 E8.93947
G1 X176.156 Y178.064 E8.99936
G1 X175.929 Y178.241 E9.02021
G1 X175.166 Y178.785 E9.0881
G1 X173.998 Y179.447 E9.18535
G1 X173.773 Y179.557 E9.20349
G1 X172.914 Y179.933 E9.27142
G1 X171.826 Y180.29 E9.35437
G1 X171.454 Y180.391 E9.38229
G1 X170.539 Y180.598 E9.45025
G1 X169.31 Y180.75 E9.53996
G1 X168.878 Y180.779 E9.57133
G1 X168.277 Y180.803 E9.6149
G1 X167.651 Y180.81 E9.66025
G1 X132.223 Y180.806 E12.22667
G1 X131.409 Y180.79 E12.28565
G1 X130.473 Y180.731 E12.35359
G1 X129.458 Y180.576 E12.42797
G1 X128.911 Y180.466 E12.46839
G1 X128.001 Y180.242 E12.53628
G1 X127.113 Y179.942 E12.60417
G1 X126.253 Y179.566 E12.67217
G1 X125.989 Y179.437 E12.69345
G1 X125.165 Y178.99 E12.76136
G1 X124.039 Y178.216 E12.86034
G1 X123.827 Y178.05 E12.87985
G1 X123.114 Y177.441 E12.94777
G1 X122.456 Y176.774 E13.01565
G1 X121.896 Y176.108 E13.07868
G1 X121.341 Y175.352 E13.14662
G1 X120.666 Y174.2 E13.24334
G1 X120.486 Y173.845 E13.27217
G1 X120.098 Y172.992 E13.34006
G1 X119.784 Y172.108 E13.40801
G1 X119.609 Y171.473 E13.45573
G1 X119.537 Y171.177 E13.4778
G1 X119.355 Y170.257 E13.54573
G1 X119.263 Y169.484 E13.60212
G1 X119.235 Y169.145 E13.62677
G1 X119.199 Y168.381 E13.68217
G1 X119.189 Y167.537 E13.74332
G1 X119.192 Y133.615 E16.20065
G0 F1620 X119.192 Y132.252
G0 F6000 X119.852 Y132.261
G1 F1800 X119.861 Y131.631 E16.24629
G1 X119.891 Y130.983 E16.29328
G1 X119.92 Y130.608 E16.32053
G1 X120.03 Y129.705 E16.38642
G1 X120.21 Y128.851 E16.44965
G1 X120.285 Y128.557 E16.47163
G1 X120.548 Y127.687 E16.53747
G1 X121.066 Y126.468 E16.63341
G1 X121.231 Y126.14 E16.66001
G1 X121.675 Y125.347 E16.72585
G1 X122.186 Y124.596 E16.79165
G1 X122.622 Y124.048 E16.84238
G1 X123.228 Y123.371 E16.9082
G1 X123.892 Y122.75 E16.97406
G1 X124.498 Y122.264 E17.03033
G1 X125.239 Y121.739 E17.09612
G1 X126.313 Y121.135 E17.18538
G1 X126.535 Y121.027 E17.20326
G1 X127.369 Y120.666 E17.26909
G1 X128.347 Y120.347 E17.34361
G1 X128.719 Y120.246 E17.37154
G1 X129.606 Y120.047 E17.43739
G1 X130.621 Y119.916 E17.51153
G1 X130.941 Y119.891 E17.53478
G1 X131.574 Y119.861 E17.58068
G1 X132.349 Y119.85 E17.63683
G1 X167.763 Y119.854 E20.20224
G1 X168.578 Y119.87 E20.26129
G1 X169.485 Y119.928 E20.32713
G1 X170.429 Y120.074 E20.39633
G1 X170.981 Y120.186 E20.43713
G1 X171.863 Y120.406 E20.50298
G1 X172.722 Y120.702 E20.5688
G1 X173.489 Y121.042 E20.62957
G1 X173.747 Y121.169 E20.6504
G1 X174.544 Y121.606 E20.71625
G1 X175.535 Y122.289 E20.80343
G1 X175.748 Y122.455 E20.823
G1 X176.44 Y123.045 E20.88887
G1 X177.077 Y123.693 E20.9547
G1 X177.589 Y124.305 E21.0125
G1 X178.126 Y125.038 E21.07832
G1 X178.727 Y126.063 E21.1644
G1 X178.878 Y126.358 E21.1884
G1 X179.257 Y127.185 E21.2543
G1 X179.655 Y128.369 E21.34479
G1 X179.758 Y128.75 E21.37338
G1 X179.956 Y129.637 E21.43922
G1 X180.084 Y130.633 E21.51196
G1 X180.108 Y130.937 E21.53405
G1 X180.138 Y131.571 E21.58003
G1 X180.15 Y132.327 E21.6348
G1 X180.148 Y167.681 E24.19587
G1 X180.138 Y168.401 E24.24803
G1 X180.105 Y169.095 E24.29836
G1 X180.079 Y169.415 E24.32162
G1 X179.966 Y170.316 E24.3874
G1 X179.799 Y171.105 E24.44582
G1 X179.718 Y171.426 E24.4698
G1 X179.457 Y172.297 E24.53567
G1 X179.006 Y173.387 E24.62112
G1 X178.869 Y173.671 E24.64396
G1 X178.439 Y174.472 E24.70982
G1 X177.709 Y175.538 E24.80341
G1 X177.542 Y175.752 E24.82308
G1 X176.952 Y176.443 E24.8889
G1 X176.303 Y177.08 E24.95477
G1 X175.75 Y177.543 E25.00702
G1 X175.523 Y177.72 E25.02787
G1 X174.782 Y178.247 E25.09374
G1 X173.708 Y178.854 E25.18311
G1 X173.483 Y178.964 E25.20125
G1 X172.65 Y179.327 E25.26707
G1 X171.653 Y179.653 E25.34306
G1 X171.281 Y179.754 E25.37098
G1 X170.394 Y179.953 E25.43684
G1 X169.266 Y180.092 E25.51917
G1 X168.834 Y180.121 E25.55053
G1 X168.268 Y180.143 E25.59156
G1 X167.651 Y180.15 E25.63626
G1 X132.236 Y180.146 E28.20175
G1 X131.422 Y180.13 E28.26072
G1 X130.515 Y180.072 E28.32656
G1 X129.588 Y179.929 E28.39451
G1 X129.041 Y179.819 E28.43493
G1 X128.159 Y179.601 E28.50074
G1 X127.3 Y179.306 E28.56654
G1 X126.543 Y178.973 E28.62644
G1 X126.279 Y178.844 E28.64773
G1 X125.481 Y178.41 E28.71353
G1 X124.445 Y177.696 E28.80468
G1 X124.233 Y177.53 E28.82418
G1 X123.543 Y176.939 E28.89
G1 X122.908 Y176.289 E28.95582
G1 X122.411 Y175.695 E29.01193
G1 X121.874 Y174.962 E29.07775
G1 X121.255 Y173.902 E29.16667
G1 X121.075 Y173.547 E29.19551
G1 X120.7 Y172.719 E29.26135
G1 X120.399 Y171.861 E29.32722
G1 X120.251 Y171.317 E29.36806
G1 X120.179 Y171.021 E29.39013
G1 X120.003 Y170.129 E29.45599
G1 X119.921 Y169.429 E29.50704
G1 X119.893 Y169.09 E29.53169
G1 X119.859 Y168.372 E29.58376
G1 X119.849 Y167.537 E29.64425
G1 X119.852 Y133.624 E32.10093
G0 F1620 X119.852 Y132.261
G1 F2100 E27.10093
G1 F300 Z0.56
;MESH:2020-outside-corner,thick=1.8,pan=3,bot-pan=0.stl
G0 F6000 X147.237 Y147.931 Z0.56
;TYPE:WALL-INNER
G1 F300 Z0.24
G1 F2100 E32.10093
G1 F1800 X146.951 Y148.157 E32.12301
G1 X146.453 Y148.527 E32.1606
G1 X146.313 Y148.616 E32.17065
G1 X145.58 Y149.027 E32.22156
G1 X145.317 Y149.14 E32.23891
G1 X144.684 Y149.384 E32.28001
G1 X144.381 Y149.467 E32.29904
G1 X143.728 Y149.627 E32.33978
G1 X143.43 Y149.667 E32.35799
G1 X142.755 Y149.74 E32.39913
G1 X142.474 Y149.742 E32.41615
G1 X141.788 Y149.722 E32.45773
G1 X141.495 Y149.685 E32.47563
G1 X140.811 Y149.574 E32.51761
G1 X140.516 Y149.495 E32.53611
G1 X139.862 Y149.294 E32.57757
G1 X139.544 Y149.16 E32.59847
G1 X139.045 Y148.935 E32.63164
G1 X138.666 Y148.717 E32.65813
G1 X138.178 Y148.412 E32.69299
G1 X137.996 Y148.28 E32.70661
G1 X137.411 Y147.793 E32.75273
G1 X137.249 Y147.638 E32.76632
G1 X136.733 Y147.074 E32.81263
G1 X136.596 Y146.903 E32.82591
G1 X136.162 Y146.279 E32.87196
G1 X136.049 Y146.092 E32.88519
G1 X135.701 Y145.416 E32.93126
G1 X135.613 Y145.213 E32.94466
G1 X135.359 Y144.495 E32.99081
G1 X135.298 Y144.282 E33.00423
G1 X135.132 Y143.485 E33.05355
G1 X135.112 Y143.321 E33.06356
G1 X135.056 Y142.559 E33.10986
G1 X135.054 Y142.338 E33.12325
G1 X135.101 Y141.556 E33.17071
G1 X135.131 Y141.328 E33.18464
G1 X135.277 Y140.606 E33.22927
G1 X135.331 Y140.405 E33.24188
G1 X135.574 Y139.685 E33.28792
G1 X135.66 Y139.477 E33.30156
G1 X135.999 Y138.796 E33.34765
G1 X136.11 Y138.606 E33.36098
G1 X136.538 Y137.974 E33.40722
G1 X136.67 Y137.804 E33.42026
G1 X137.174 Y137.236 E33.46627
G1 X137.336 Y137.077 E33.48002
G1 X137.915 Y136.582 E33.52618
G1 X138.09 Y136.452 E33.53938
G1 X138.729 Y136.037 E33.58555
G1 X138.919 Y135.932 E33.5987
G1 X139.606 Y135.605 E33.6448
G1 X139.812 Y135.524 E33.65821
G1 X140.552 Y135.288 E33.70527
G1 X140.772 Y135.235 E33.71898
G1 X141.528 Y135.104 E33.76546
G1 X141.752 Y135.081 E33.77911
G1 X142.493 Y135.054 E33.82403
G1 X142.708 Y135.061 E33.83706
G1 X143.466 Y135.132 E33.88319
G1 X143.68 Y135.167 E33.89633
G1 X144.423 Y135.338 E33.94252
G1 X144.634 Y135.402 E33.95588
G1 X145.343 Y135.669 E34.00178
G1 X145.547 Y135.762 E34.01536
G1 X146.218 Y136.125 E34.06159
G1 X146.399 Y136.239 E34.07455
G1 X147.015 Y136.684 E34.12059
G1 X147.188 Y136.828 E34.13422
G1 X147.74 Y137.355 E34.18046
G1 X147.891 Y137.52 E34.19401
G1 X148.365 Y138.115 E34.2401
G1 X148.625 Y138.518 E34.26916
G1 X148.901 Y138.977 E34.30161
G1 X149.054 Y139.306 E34.32359
G1 X149.3 Y139.873 E34.36104
G1 X149.418 Y140.254 E34.3852
G1 X149.567 Y140.785 E34.41862
G1 X149.634 Y141.17 E34.44229
G1 X149.719 Y141.758 E34.47829
G1 X149.735 Y142.197 E34.50491
G1 X149.738 Y142.729 E34.53714
G1 X149.697 Y143.176 E34.56433
G1 X149.626 Y143.728 E34.59805
G1 X149.531 Y144.132 E34.6232
G1 X149.388 Y144.67 E34.65692
G1 X149.24 Y145.057 E34.68203
G1 X149.013 Y145.606 E34.71802
G1 X148.857 Y145.893 E34.73781
G1 X148.519 Y146.467 E34.77817
G1 X148.367 Y146.676 E34.79383
G1 X148.165 Y146.934 E34.81368
G0 F1620 X147.913 Y147.256
G0 X147.622 Y147.553
G0 X147.237 Y147.931
G1 F2100 E29.81368
G1 F300 Z0.56
G0 F6000 X135.714 Y142.511 Z0.56
G1 F300 Z0.24
G1 F2100 E34.81368
G1 F1800 X135.713 Y142.378 E34.82174
G1 X135.76 Y141.595 E34.86926
G1 X135.778 Y141.458 E34.87764
G1 X135.924 Y140.736 E34.92226
G1 X135.956 Y140.616 E34.92979
G1 X136.199 Y139.896 E34.97583
G1 X136.251 Y139.771 E34.98403
G1 X136.59 Y139.09 E35.03012
G1 X136.657 Y138.976 E35.03813
G1 X137.085 Y138.344 E35.08438
G1 X137.164 Y138.242 E35.09219
G1 X137.701 Y137.639 E35.14111
G1 X137.765 Y137.579 E35.14643
G1 X138.344 Y137.084 E35.19258
G1 X138.449 Y137.006 E35.20051
G1 X139.088 Y136.591 E35.24667
G1 X139.202 Y136.528 E35.25456
G1 X139.889 Y136.202 E35.30063
G1 X140.013 Y136.153 E35.30871
G1 X140.753 Y135.917 E35.35577
G1 X140.884 Y135.885 E35.36394
G1 X141.641 Y135.754 E35.41048
G1 X141.775 Y135.74 E35.41865
G1 X142.551 Y135.714 E35.46569
G1 X142.645 Y135.718 E35.47139
G1 X143.403 Y135.79 E35.51752
G1 X143.532 Y135.811 E35.52544
G1 X144.275 Y135.982 E35.57163
G1 X144.401 Y136.02 E35.57961
G1 X145.11 Y136.287 E35.62551
G1 X145.233 Y136.343 E35.63369
G1 X145.904 Y136.706 E35.67992
G1 X146.012 Y136.774 E35.68765
G1 X146.628 Y137.219 E35.73369
G1 X146.732 Y137.305 E35.74187
G1 X147.284 Y137.832 E35.7881
G1 X147.375 Y137.932 E35.7963
G1 X147.849 Y138.527 E35.84239
G1 X148.06 Y138.86 E35.86627
G1 X148.326 Y139.301 E35.89747
G1 X148.449 Y139.57 E35.91539
G1 X148.688 Y140.121 E35.95178
G1 X148.783 Y140.433 E35.97154
G1 X148.93 Y140.956 E36.00446
G1 X148.98 Y141.264 E36.02336
G1 X149.065 Y141.846 E36.059
G1 X149.075 Y142.201 E36.08051
G1 X149.078 Y142.733 E36.11275
G1 X149.043 Y143.092 E36.1346
G1 X148.972 Y143.637 E36.1679
G1 X148.893 Y143.963 E36.18822
G1 X148.754 Y144.486 E36.22101
G1 X148.629 Y144.806 E36.24182
G1 X148.41 Y145.337 E36.27662
G1 X148.287 Y145.559 E36.292
G1 X147.959 Y146.117 E36.33122
G1 X147.847 Y146.27 E36.3427
G1 X147.408 Y146.831 E36.38586
G1 X147.159 Y147.083 E36.40733
G1 X146.786 Y147.449 E36.43899
G1 X146.556 Y147.627 E36.45661
G1 X146.074 Y147.987 E36.49306
G1 X145.99 Y148.04 E36.49907
G1 X145.271 Y148.443 E36.54901
G1 X145.079 Y148.524 E36.56164
G1 X144.461 Y148.763 E36.60178
G1 X144.223 Y148.826 E36.6167
G1 X143.591 Y148.981 E36.65612
G1 X143.359 Y149.011 E36.6703
G1 X142.705 Y149.082 E36.71015
G1 X142.492 Y149.082 E36.72306
G1 X141.82 Y149.062 E36.76379
G1 X141.6 Y149.034 E36.77723
G1 X140.933 Y148.926 E36.81817
G1 X140.709 Y148.864 E36.83225
G1 X140.072 Y148.669 E36.87261
G1 X139.815 Y148.559 E36.88955
G1 X139.282 Y148.317 E36.92501
G1 X139.016 Y148.157 E36.94382
G1 X138.528 Y147.852 E36.97868
G1 X138.418 Y147.772 E36.98693
G1 X137.833 Y147.285 E37.03304
G1 X137.736 Y147.193 E37.04114
G1 X137.22 Y146.629 E37.08746
G1 X137.138 Y146.526 E37.09543
G1 X136.704 Y145.902 E37.14148
G1 X136.636 Y145.79 E37.14942
G1 X136.288 Y145.114 E37.19549
G1 X136.235 Y144.992 E37.20355
G1 X135.981 Y144.274 E37.24969
G1 X135.944 Y144.146 E37.25776
G1 X135.884 Y143.861 E37.27541
G0 F1620 X135.782 Y143.371
G0 X135.77 Y143.273
G0 X135.714 Y142.511
G1 F2100 E32.27541
G1 F300 Z0.56
G0 F6000 X144.223 Y148.146 Z0.56
;TYPE:WALL-OUTER
G1 F300 Z0.24
G1 F2100 E37.27541
G1 F1800 X143.454 Y148.335 E37.32286
G1 X143.288 Y148.355 E37.33288
G1 X142.654 Y148.424 E37.3711
G1 X142.51 Y148.422 E37.37973
G1 X141.834 Y148.402 E37.42026
G1 X141.055 Y148.277 E37.46754
G1 X140.902 Y148.233 E37.47708
G1 X140.268 Y148.038 E37.51684
G1 X139.576 Y147.726 E37.56233
G1 X139.365 Y147.597 E37.57715
G1 X138.877 Y147.292 E37.61163
G1 X138.84 Y147.265 E37.61438
G1 X138.255 Y146.778 E37.65999
G1 X138.223 Y146.747 E37.66266
G1 X137.707 Y146.183 E37.70848
G1 X137.68 Y146.149 E37.71108
G1 X137.246 Y145.525 E37.75663
G1 X137.223 Y145.488 E37.75924
G1 X136.875 Y144.812 E37.8048
G1 X136.857 Y144.771 E37.80749
G1 X136.603 Y144.053 E37.85313
G1 X136.59 Y144.01 E37.85582
G1 X136.432 Y143.257 E37.90193
G1 X136.428 Y143.225 E37.90386
G1 X136.372 Y142.463 E37.94965
G1 X136.372 Y142.418 E37.95235
G1 X136.419 Y141.635 E37.99935
G1 X136.425 Y141.589 E38.00213
G1 X136.571 Y140.867 E38.04628
G1 X136.582 Y140.827 E38.04876
G1 X136.825 Y140.107 E38.0943
G1 X136.842 Y140.065 E38.09702
G1 X137.181 Y139.384 E38.14261
G1 X137.203 Y139.346 E38.14524
G1 X137.631 Y138.714 E38.19098
G1 X137.658 Y138.68 E38.19358
G1 X138.173 Y138.101 E38.24002
G1 X138.194 Y138.081 E38.24176
G1 X138.773 Y137.586 E38.28741
G1 X138.808 Y137.56 E38.29002
G1 X139.447 Y137.145 E38.33568
G1 X139.485 Y137.124 E38.33829
G1 X140.172 Y136.798 E38.38386
G1 X140.213 Y136.782 E38.38649
G1 X140.953 Y136.546 E38.43304
G1 X140.997 Y136.535 E38.43576
G1 X141.753 Y136.404 E38.48174
G1 X141.798 Y136.4 E38.48445
G1 X142.551 Y136.374 E38.5296
G1 X142.583 Y136.375 E38.53152
G1 X143.341 Y136.447 E38.57715
G1 X143.384 Y136.454 E38.57976
G1 X144.127 Y136.625 E38.62545
G1 X144.169 Y136.638 E38.62808
G1 X144.878 Y136.905 E38.67349
G1 X144.919 Y136.923 E38.67617
G1 X145.59 Y137.286 E38.72189
G1 X145.626 Y137.309 E38.72445
G1 X146.242 Y137.754 E38.76999
G1 X146.276 Y137.783 E38.77267
G1 X146.828 Y138.31 E38.8184
G1 X146.859 Y138.343 E38.82112
G1 X147.333 Y138.938 E38.86671
G1 X147.495 Y139.202 E38.88527
G1 X147.751 Y139.625 E38.9149
G1 X148.073 Y140.361 E38.96304
G1 X148.147 Y140.612 E38.97872
G1 X148.292 Y141.127 E39.01079
G1 X148.327 Y141.358 E39.02479
G1 X148.411 Y141.935 E39.05973
G1 X148.415 Y142.205 E39.07591
G1 X148.418 Y142.737 E39.1078
