;FLAVOR:Marlin
;TIME:465
;Filament used: 0.610179m
;Layer height: 0.32
;MINX:117.507
;MINY:110.301
;MINZ:0.24
;MAXX:148.95
;MAXY:189.7
;MAXZ:1.2
;Generated with Cura_SteamEngine 5.0.0
M140 S70
M105
M190 S70
M104 S245
M105
M109 S245
M82 ;absolute extrusion mode
; Ender 3 Max Custom Start G-code
G92 E0 ; Reset Extruder
G28 ; Home all axes
G1 Z2.0 F3000 ; Move Z Axis up little to prevent scratching of Heat Bed
G1 X0.1 Y20 Z0.3 F5000.0 ; Move to start position
G1 X0.1 Y200.0 Z0.3 F1500.0 E15 ; Draw the first line
G1 X0.4 Y200.0 Z0.3 F5000.0 ; Move to side a little
G1 X0.4 Y20 Z0.3 F1500.0 E30 ; Draw the second line
G92 E0 ; Reset Extruder
G1 Z2.0 F3000 ; Move Z Axis up little to prevent scratching of Heat Bed
G1 X5 Y20 Z0.3 F5000.0 ; Move over to prevent blob squish
G92 E0
G92 E0
G1 F2100 E-5
;LAYER_COUNT:3
;LAYER:0
M107
G1 F300 Z0.56
;MESH:2080-washer-mean-well-hlg-240h.2.stl
G0 F6000 X129.445 Y118.906 Z0.56
;TYPE:WALL-INNER
G1 F300 Z0.24
G1 F2100 E0
G1 F1629.6 X129.541 Y119.214 E0.02159
G1 F1569.4 X129.563 Y119.514 E0.04249
G1 F1601.1 X129.586 Y119.814 E0.06299
G1 F1623 X129.592 Y119.98 E0.07415
G1 X129.588 Y120.126 E0.08396
G1 F1605.4 X129.569 Y120.422 E0.10411
G1 F1577.7 X129.549 Y120.718 E0.12462
G1 F1594.6 X129.478 Y121.027 E0.1463
G1 F1666.2 X129.381 Y121.307 E0.1657
G1 F1754.8 X129.284 Y121.588 E0.18417
G1 F1800 X129.178 Y121.866 E0.2022
G1 X128.921 Y122.392 E0.23767
G1 X128.762 Y122.653 E0.25618
G1 X128.407 Y123.13 E0.29221
G1 X128.2 Y123.359 E0.31091
G1 X127.768 Y123.757 E0.3465
G1 X127.529 Y123.939 E0.3647
G1 X127.026 Y124.254 E0.40066
G1 X126.804 Y124.372 E0.41589
G1 X126.203 Y124.608 E0.45501
G1 X125.918 Y124.691 E0.47299
G1 X125.308 Y124.81 E0.51065
G1 X125.032 Y124.834 E0.52743
G1 X124.431 Y124.837 E0.56385
G1 X124.135 Y124.811 E0.58185
G1 X123.553 Y124.705 E0.61769
G1 X123.26 Y124.623 E0.63612
G1 X122.707 Y124.412 E0.67198
G1 X122.439 Y124.281 E0.69006
G1 X121.93 Y123.972 E0.72613
G1 X121.675 Y123.781 E0.74544
G1 X121.242 Y123.387 E0.78091
G1 X121.048 Y123.176 E0.79827
G1 X120.69 Y122.712 E0.83378
G1 X120.521 Y122.442 E0.85308
G1 X120.255 Y121.911 E0.88906
G1 X120.149 Y121.642 E0.90658
G1 F1754.8 X120.051 Y121.371 E0.92449
G1 F1670.9 X119.952 Y121.099 E0.94338
G1 F1590.4 X119.873 Y120.786 E0.96552
G1 F1569.4 X119.851 Y120.486 E0.98642
G1 F1601.1 X119.828 Y120.186 E1.00691
G1 F1618.5 X119.826 Y119.874 E1.02794
G1 F1605.4 X119.845 Y119.578 E1.04809
G1 F1579.8 X119.865 Y119.282 E1.06857
G1 F1636.4 X119.954 Y118.978 E1.08968
G1 F1736.8 X120.041 Y118.695 E1.10827
G1 F1778.4 X120.129 Y118.412 E1.12644
G1 F1800 X120.236 Y118.134 E1.14449
G1 X120.493 Y117.608 E1.17996
G1 X120.652 Y117.347 E1.19847
G1 X121.007 Y116.87 E1.2345
G1 X121.214 Y116.64 E1.25325
G1 X121.646 Y116.243 E1.28879
G1 X121.886 Y116.06 E1.30708
G1 X122.422 Y115.724 E1.34541
G1 X122.664 Y115.606 E1.36172
G1 X123.21 Y115.392 E1.39725
G1 X123.496 Y115.309 E1.41529
G1 X124.106 Y115.19 E1.45295
G1 X124.382 Y115.166 E1.46973
G1 X124.983 Y115.163 E1.50614
G1 X125.277 Y115.188 E1.52402
G1 X125.858 Y115.293 E1.55979
G1 X126.157 Y115.377 E1.57861
G1 X126.709 Y115.589 E1.61443
G1 X126.977 Y115.72 E1.63251
G1 X127.482 Y116.027 E1.66831
G1 X127.739 Y116.219 E1.68775
G1 X128.171 Y116.613 E1.72317
G1 X128.365 Y116.825 E1.74058
G1 X128.724 Y117.289 E1.77613
G1 X128.892 Y117.557 E1.79529
G1 X129.157 Y118.085 E1.83109
G1 X129.264 Y118.355 E1.84868
G1 F1778.4 X129.354 Y118.63 E1.86642
G1 F1734.3 X129.445 Y118.906 E1.8847
G1 F2100 E-3.1153
G1 F300 Z0.56
G0 F6000 X120.572 Y119.343 Z0.56
G1 F300 Z0.24
G1 F2100 E1.8847
G1 F1802.7 X120.606 Y119.161 E1.8959
G1 X120.765 Y118.591 E1.9317
G1 F1800 X120.829 Y118.424 E1.94253
G1 X121.086 Y117.898 E1.978
G1 X121.181 Y117.741 E1.98912
G1 X121.536 Y117.264 E2.02515
G1 X121.66 Y117.126 E2.03639
G1 X122.092 Y116.729 E2.07193
G1 X122.534 Y116.434 E2.10413
G1 X122.76 Y116.292 E2.1203
G1 X122.905 Y116.221 E2.13008
G1 X123.451 Y116.007 E2.16561
G1 X123.622 Y115.957 E2.17641
G1 X124.22 Y115.84 E2.21332
G1 X124.385 Y115.826 E2.22336
G1 X124.983 Y115.823 E2.25959
G1 X125.159 Y115.838 E2.27029
G1 X125.741 Y115.943 E2.30612
G1 X125.92 Y115.993 E2.31738
G1 X126.472 Y116.205 E2.35321
G1 X126.761 Y116.361 E2.3731
G1 X127.14 Y116.592 E2.4
G1 X127.295 Y116.707 E2.41169
G1 X127.727 Y117.101 E2.44711
G1 X127.843 Y117.228 E2.45753
G1 X128.201 Y117.692 E2.49304
G1 X128.302 Y117.853 E2.50456
G1 X128.567 Y118.381 E2.54035
G1 X128.632 Y118.543 E2.55092
G1 X128.796 Y119.099 E2.58605
G1 X128.833 Y119.284 E2.59748
G1 X128.892 Y119.883 E2.63394
G1 X128.897 Y119.98 E2.63983
G1 X128.893 Y120.066 E2.64504
G1 X128.842 Y120.657 E2.68098
G1 F1802.7 X128.808 Y120.839 E2.69218
G1 X128.649 Y121.409 E2.72798
G1 F1800 X128.585 Y121.576 E2.73882
G1 X128.328 Y122.102 E2.77429
G1 X128.233 Y122.259 E2.78541
G1 X127.878 Y122.736 E2.82143
G1 X127.753 Y122.873 E2.83267
G1 X127.322 Y123.271 E2.86821
G1 X127.178 Y123.38 E2.87915
G1 X126.675 Y123.696 E2.91514
G1 X126.509 Y123.78 E2.92641
G1 X125.962 Y123.994 E2.962
G1 X125.791 Y124.043 E2.97278
G1 X125.194 Y124.16 E3.00964
G1 X125.029 Y124.174 E3.01967
G1 X124.431 Y124.177 E3.0559
G1 X124.253 Y124.162 E3.06672
G1 X123.671 Y124.056 E3.10256
G1 X123.496 Y124.007 E3.11357
G1 X122.943 Y123.796 E3.14944
G1 X122.782 Y123.717 E3.1603
G1 X122.273 Y123.408 E3.19638
G1 X122.119 Y123.293 E3.20802
G1 X121.687 Y122.899 E3.24345
G1 X121.571 Y122.772 E3.25387
G1 X121.213 Y122.308 E3.28937
G1 X121.111 Y122.147 E3.30092
G1 X120.845 Y121.616 E3.3369
G1 X120.781 Y121.454 E3.34746
G1 X120.617 Y120.901 E3.3824
G1 X120.581 Y120.716 E3.39382
G1 X120.579 Y120.702 E3.39468
G0 F1620 X120.522 Y120.117
G0 X120.521 Y119.934
G0 X120.572 Y119.343
G0 F6000 X121.23 Y119.4
;TYPE:WALL-OUTER
G1 F1802.7 X121.242 Y119.34 E3.39834
G1 X121.401 Y118.769 E3.43381
G1 F1800 X121.422 Y118.714 E3.43734
G1 X121.679 Y118.188 E3.47242
G1 X121.711 Y118.135 E3.47613
G1 X122.066 Y117.658 E3.51176
G1 X122.107 Y117.612 E3.51546
G1 X122.539 Y117.215 E3.55062
G1 X122.884 Y116.993 E3.5752
G1 X123.098 Y116.859 E3.59033
G1 X123.146 Y116.835 E3.59355
G1 X123.692 Y116.621 E3.62869
G1 X123.749 Y116.605 E3.63224
G1 X124.334 Y116.49 E3.66797
G1 X124.389 Y116.486 E3.67128
G1 X124.983 Y116.483 E3.70687
G1 X125.042 Y116.488 E3.71042
G1 X125.624 Y116.593 E3.74586
G1 X125.684 Y116.609 E3.74958
G1 X126.236 Y116.821 E3.78502
G1 X126.572 Y117.018 E3.80836
G1 X126.798 Y117.156 E3.82423
G1 X126.85 Y117.195 E3.82813
G1 X127.282 Y117.589 E3.86317
G1 X127.321 Y117.631 E3.8666
G1 X127.679 Y118.095 E3.90172
G1 X127.712 Y118.149 E3.90551
G1 X127.977 Y118.677 E3.94092
G1 X127.999 Y118.731 E3.94441
G1 X128.164 Y119.287 E3.97917
G1 X128.176 Y119.348 E3.98289
G1 X128.237 Y119.98 E4.02095
G1 X128.181 Y120.628 E4.05992
G1 X128.013 Y121.231 E4.09744
G1 X127.992 Y121.286 E4.10096
G1 X127.735 Y121.812 E4.13605
G1 X127.703 Y121.865 E4.13976
G1 X127.348 Y122.342 E4.17539
G1 X127.307 Y122.387 E4.17904
G1 X126.875 Y122.785 E4.21424
G1 X126.827 Y122.821 E4.21784
G1 X126.324 Y123.137 E4.25344
G1 X126.269 Y123.165 E4.25713
G1 X125.722 Y123.379 E4.29233
G1 X125.665 Y123.395 E4.29588
G1 X125.08 Y123.51 E4.33161
G1 X125.025 Y123.514 E4.33492
G1 X124.431 Y123.517 E4.37051
G1 X124.371 Y123.512 E4.37412
G1 X123.789 Y123.406 E4.40957
G1 X123.731 Y123.39 E4.41318
G1 X123.162 Y123.172 E4.4497
G1 X123.124 Y123.153 E4.45224
G1 X122.615 Y122.844 E4.48793
G1 X122.564 Y122.805 E4.49177
G1 X122.132 Y122.411 E4.52681
G1 X122.093 Y122.369 E4.53025
G1 X121.735 Y121.905 E4.56537
G1 X121.701 Y121.851 E4.56919
G1 X121.435 Y121.32 E4.60478
G1 X121.414 Y121.266 E4.60826
G1 X121.262 Y120.756 E4.64015
G0 F1620 X121.25 Y120.713
G0 X121.238 Y120.652
G0 X121.179 Y120.053
G0 X121.179 Y119.991
G0 X121.23 Y119.4
G0 F6000 X121.242 Y119.34
G0 X121.311 Y119.091
G1 F2100 E-0.35985
G1 F300 Z0.56
G0 F6000 X130.356 Y129.555 Z0.56
;TYPE:WALL-INNER
G1 F300 Z0.24
G1 F2100 E4.64015
G1 F1800 X130.357 Y121.735 E5.11394
G1 F1754.8 X130.34 Y121.439 E5.13236
G1 F1666.2 X130.322 Y121.143 E5.15177
G1 F1594.6 X130.307 Y120.75 E5.17867
G1 F1577.7 X130.313 Y120.453 E5.1992
G1 F1605.4 X130.32 Y120.156 E5.21938
G1 F1618.5 X130.32 Y119.779 E5.24478
G1 F1601.1 X130.313 Y119.478 E5.26529
G1 F1569.4 X130.305 Y119.177 E5.28622
G1 F1629.6 X130.34 Y118.777 E5.31309
G1 F1734.3 X130.348 Y118.487 E5.33133
G1 F1778.4 X130.357 Y118.197 E5.34912
G1 F1800 X130.357 Y114.143 E5.59474
G1 X130.338 Y113.832 E5.61362
G1 X130.287 Y113.501 E5.63391
G1 X130.181 Y113.177 E5.65456
G1 X130.039 Y112.9 E5.67342
G1 X129.83 Y112.611 E5.69503
G1 X129.596 Y112.376 E5.71512
G1 X129.334 Y112.186 E5.73473
G1 X129.025 Y112.028 E5.75576
G1 X128.721 Y111.927 E5.77517
G1 X128.366 Y111.869 E5.79696
G1 X128.058 Y111.851 E5.81565
G1 X126.811 Y111.85 E5.8912
G1 X121.276 Y111.85 E6.22655
G1 X120.866 Y111.882 E6.25147
G1 X120.54 Y111.96 E6.27178
G1 X120.24 Y112.087 E6.29151
G1 X119.941 Y112.27 E6.31275
G1 X119.689 Y112.486 E6.33286
G1 X119.478 Y112.734 E6.35259
G1 X119.297 Y113.029 E6.37356
G1 X119.172 Y113.333 E6.39347
G1 X119.089 Y113.666 E6.41427
G1 X119.058 Y114.066 E6.43857
G1 X119.058 Y118.265 E6.69298
G1 F1778.4 X119.065 Y118.561 E6.71113
G1 F1736.8 X119.073 Y118.857 E6.72972
G1 F1636.4 X119.107 Y119.25 E6.75601
G1 F1579.8 X119.101 Y119.547 E6.77652
G1 F1605.4 X119.094 Y119.844 E6.7967
G1 F1618.5 X119.094 Y120.221 E6.8221
G1 F1601.1 X119.101 Y120.522 E6.84261
G1 F1569.4 X119.109 Y120.823 E6.86354
G1 F1590.4 X119.092 Y121.223 E6.89099
G1 F1670.9 X119.075 Y121.511 E6.90982
G1 F1754.8 X119.058 Y121.8 E6.92781
G1 F1800 X119.058 Y129.249 E7.37912
G1 X128.928 Y129.251 E7.97711
G1 X129.031 Y129.262 E7.98339
G0 F1620 X129.58 Y129.319
G0 X129.933 Y129.405
G0 X130.356 Y129.555
G0 F6000 X131.017 Y130.802
G1 F1800 X131.017 Y114.143 E8.9927
G1 X130.996 Y113.78 E9.01473
G1 X130.929 Y113.348 E9.04122
G1 X130.789 Y112.92 E9.0685
G1 X130.601 Y112.555 E9.09338
G1 X130.473 Y112.346 E9.10822
G1 X130.189 Y112.014 E9.13469
G1 X129.861 Y111.734 E9.16082
G1 X129.481 Y111.501 E9.18783
G1 X129.081 Y111.336 E9.21404
G1 X128.647 Y111.229 E9.24113
G1 X128.164 Y111.191 E9.27048
G1 X126.811 Y111.19 E9.35245
G1 X121.25 Y111.19 E9.68938
G1 X120.763 Y111.228 E9.71897
G1 X120.333 Y111.331 E9.74576
G1 X119.937 Y111.498 E9.7718
G1 X119.553 Y111.734 E9.79911
G1 X119.22 Y112.018 E9.82562
G1 X118.942 Y112.345 E9.85163
G1 X118.707 Y112.728 E9.87885
G1 X118.543 Y113.126 E9.90493
G1 X118.435 Y113.56 E9.93203
G1 X118.398 Y114.04 E9.9612
G1 F1802.7 X118.396 Y118.857 E10.2526
G1 X118.398 Y119.25 E10.27638
G1 F1800 X118.397 Y120.981 E10.38125
G1 X118.398 Y121.8 E10.43087
G1 X118.398 Y129.909 E10.92217
G1 X128.928 Y129.911 E11.56015
G1 X129.498 Y129.974 E11.59489
G1 X129.869 Y130.093 E11.6185
G0 F1620 X130.132 Y130.177
G0 X130.713 Y130.524
G0 X131.017 Y130.802
G0 F6000 X131.356 Y132.308
;TYPE:WALL-OUTER
G1 F1084.9 X131.433 Y132.417 E11.63177
G1 X131.486 Y132.287 E11.64572
G1 F1251.8 X131.578 Y132.063 E11.66659
G1 F1552.9 X131.671 Y131.839 E11.68344
G1 F1783.8 X131.677 Y131.238 E11.71978
G1 F1800 X131.677 Y114.143 E12.74425
G1 X131.666 Y113.88 E12.76003
G1 X131.633 Y113.453 E12.7857
G1 X131.505 Y112.92 E12.81855
G1 X131.297 Y112.428 E12.85056
G1 X131.009 Y111.957 E12.88364
G1 X130.657 Y111.546 E12.91607
G1 X130.25 Y111.198 E12.94816
G1 X129.781 Y110.911 E12.98111
G1 X129.287 Y110.707 E13.01314
G1 X128.753 Y110.575 E13.04611
G1 X128.19 Y110.531 E13.07995
G1 X126.811 Y110.53 E13.16259
G1 X121.224 Y110.53 E13.49741
G1 X120.66 Y110.574 E13.53131
G1 X120.127 Y110.702 E13.56416
G1 X119.635 Y110.91 E13.59617
G1 X119.407 Y111.049 E13.61217
G1 X119.164 Y111.198 E13.62926
G1 X118.752 Y111.55 E13.66173
G1 X118.406 Y111.957 E13.69374
G1 X118.117 Y112.427 E13.72681
G1 X117.914 Y112.92 E13.75876
G1 X117.781 Y113.454 E13.79174
G1 X117.738 Y114.014 E13.8254
G1 F1802.7 X117.736 Y118.857 E14.11519
G1 X117.738 Y119.25 E14.13871
G1 F1800 X117.737 Y120.981 E14.24244
G1 X117.738 Y121.8 E14.29152
G1 X117.738 Y130.569 E14.81703
G1 X128.928 Y130.571 E15.48763
G1 X129.416 Y130.629 E15.51708
G1 X129.908 Y130.798 E15.54826
G1 X130.353 Y131.077 E15.57973
G1 X130.72 Y131.442 E15.61075
G1 X130.999 Y131.876 E15.64167
G1 F1783.8 X131.037 Y131.943 E15.64633
G1 F1552.9 X131.196 Y132.125 E15.66311
G1 F1251.8 X131.356 Y132.308 E15.68406
G0 F6000 X131.433 Y132.417
G0 X131.486 Y132.287
G0 X131.503 Y132.244
G0 X131.433 Y132.417
G1 F1044.9 X131.443 Y132.703 E15.71361
G1 F1064.5 X131.454 Y132.989 E15.74261
G1 F1046.7 X131.425 Y133.465 E15.79175
G1 F2100 E10.79175
G1 F300 Z0.56
G0 F6000 X122.058 Y153.433 Z0.56
;TYPE:WALL-INNER
G1 F300 Z0.24
G1 F2100 E15.79175
G1 F1800 X122.057 Y163.45 E16.39865
G1 X128.928 Y163.451 E16.81494
G1 X129.58 Y163.519 E16.85466
G1 X129.933 Y163.605 E16.87667
G1 X130.356 Y163.755 E16.90386
G1 X130.357 Y136.24 E18.57091
G1 X129.855 Y136.418 E18.60318
G1 X129.516 Y136.494 E18.62422
G1 X129.162 Y136.534 E18.64581
G1 X128.978 Y136.544 E18.65697
G1 X122.057 Y136.549 E19.07629
G1 X122.058 Y146.566 E19.68319
G1 X122.527 Y146.241 E19.71776
G1 X123.02 Y145.996 E19.75111
G1 X123.324 Y145.881 E19.77081
G1 X123.85 Y145.741 E19.80379
G1 X124.193 Y145.686 E19.82483
G1 X124.777 Y145.656 E19.86026
G1 X125.126 Y145.676 E19.88144
G1 X125.67 Y145.764 E19.91483
G1 X125.989 Y145.849 E19.93483
G1 X126.499 Y146.042 E19.96787
G1 X126.79 Y146.186 E19.98754
G1 X127.22 Y146.454 E20.01824
G1 X127.475 Y146.651 E20.03776
G1 X127.871 Y147.023 E20.07068
G1 X128.09 Y147.274 E20.09086
G1 X128.404 Y147.72 E20.12391
G1 X128.567 Y148.008 E20.14396
G1 X128.788 Y148.511 E20.17724
G1 X128.892 Y148.83 E20.19757
G1 X129.004 Y149.36 E20.23039
G1 X129.04 Y149.692 E20.25062
G1 X129.045 Y150.251 E20.28449
G1 X129.021 Y150.536 E20.30182
G1 X128.907 Y151.108 E20.33716
G1 X128.81 Y151.424 E20.35719
G1 X128.6 Y151.926 E20.39015
G1 X128.441 Y152.221 E20.41046
G1 X128.132 Y152.673 E20.44363
G1 X127.915 Y152.929 E20.46396
G1 X127.52 Y153.31 E20.49721
G1 X127.261 Y153.514 E20.51719
G1 X126.804 Y153.806 E20.55005
G1 X126.499 Y153.958 E20.57069
G1 X125.989 Y154.151 E20.60373
G1 X125.67 Y154.236 E20.62373
G1 X125.126 Y154.324 E20.65712
G1 X124.789 Y154.344 E20.67757
G1 X124.246 Y154.32 E20.7105
G1 X123.915 Y154.272 E20.73077
G1 X123.383 Y154.138 E20.76401
G1 X123.247 Y154.088 E20.77279
G0 F1620 X123.074 Y154.026
G0 X122.583 Y153.791
G0 X122.289 Y153.611
G0 X122.058 Y153.433
G0 F6000 X121.398 Y151.615
G1 F1800 X121.397 Y164.11 E21.52982
G1 X128.928 Y164.111 E21.98609
G1 X129.498 Y164.174 E22.02084
G1 X130.132 Y164.377 E22.06117
G1 X130.713 Y164.724 E22.10217
G1 X131.017 Y165.002 E22.12713
G1 X131.017 Y134.998 E23.94497
G1 X130.826 Y135.186 E23.96121
G1 X130.275 Y135.554 E24.00136
G1 X129.645 Y135.793 E24.04218
G1 X129.088 Y135.878 E24.07632
G1 X128.977 Y135.884 E24.08305
G1 X121.397 Y135.89 E24.5423
G1 X121.397 Y148.392 E25.29975
G1 X121.609 Y148.002 E25.32665
G1 X121.723 Y147.836 E25.33885
G1 X122.075 Y147.42 E25.37186
G1 X122.215 Y147.283 E25.38373
G1 X122.644 Y146.943 E25.4169
G1 X122.82 Y146.832 E25.4295
G1 X123.313 Y146.588 E25.46283
G1 X123.496 Y146.519 E25.47468
G1 X124.021 Y146.378 E25.50762
G1 X124.227 Y146.346 E25.52025
G1 X124.811 Y146.316 E25.55568
G1 X125.437 Y146.394 E25.5939
G1 X125.755 Y146.466 E25.61365
G1 X126.266 Y146.66 E25.64677
G1 X126.441 Y146.746 E25.65858
G1 X126.87 Y147.014 E25.68923
G1 X127.023 Y147.132 E25.70093
G1 X127.419 Y147.504 E25.73385
G1 X127.55 Y147.654 E25.74592
G1 X127.865 Y148.1 E25.779
G1 X127.963 Y148.273 E25.79104
G1 X128.184 Y148.776 E25.82433
G1 X128.246 Y148.968 E25.83656
G1 X128.359 Y149.498 E25.86939
G1 X128.38 Y149.697 E25.88151
G1 X128.385 Y150.251 E25.91508
G1 X128.365 Y150.444 E25.92683
G1 X128.26 Y150.98 E25.95993
G1 X128.201 Y151.169 E25.97192
G1 X127.992 Y151.671 E26.00487
G1 X127.896 Y151.848 E26.01707
G1 X127.587 Y152.3 E26.05024
G1 X127.457 Y152.454 E26.06245
G1 X127.062 Y152.835 E26.0957
G1 X126.907 Y152.957 E26.10765
G1 X126.449 Y153.249 E26.14056
G1 X126.266 Y153.34 E26.15294
G1 X125.755 Y153.534 E26.18606
G1 X125.439 Y153.605 E26.20568
G1 X125.021 Y153.673 E26.23134
G1 X124.818 Y153.685 E26.24366
G1 X124.275 Y153.661 E26.27659
G1 X124.077 Y153.632 E26.28871
G1 X123.544 Y153.498 E26.32201
G1 X123.359 Y153.431 E26.33393
