;FLAVOR:Marlin
;TIME:916
;Filament used: 1.42148m
;Layer height: 0.32
;MINX:142.799
;MINY:110.3
;MINZ:0.24
;MAXX:157.2
;MAXY:189.7
;MAXZ:6.32
;Generated with Cura_SteamEngine 5.0.0
M140 S70
M105
M190 S70
M104 S245
M105
M109 S245
M82 ;absolute extrusion mode
; Ender 3 Max Custom Start G-code
G92 E0 ; Reset Extruder
G28 ; Home all axes
G1 Z2.0 F3000 ; Move Z Axis up little to prevent scratching of Heat Bed
G1 X0.1 Y20 Z0.3 F5000.0 ; Move to start position
G1 X0.1 Y200.0 Z0.3 F1500.0 E15 ; Draw the first line
G1 X0.4 Y200.0 Z0.3 F5000.0 ; Move to side a little
G1 X0.4 Y20 Z0.3 F1500.0 E30 ; Draw the second line
G92 E0 ; Reset Extruder
G1 Z2.0 F3000 ; Move Z Axis up little to prevent scratching of Heat Bed
G1 X5 Y20 Z0.3 F5000.0 ; Move over to prevent blob squish
G92 E0
G92 E0
G1 F2100 E-5
;LAYER_COUNT:19
;LAYER:0
M107
G1 F300 Z0.56
;MESH:2080-brace-mean-well-hlg-240h.stl
G0 F6000 X153.65 Y116.814 Z0.56
;TYPE:WALL-INNER
G1 F300 Z0.24
G1 F2100 E0
G1 F1800 X153.65 Y115.932 E0.05344
G1 X153.692 Y115.623 E0.07233
G1 X153.824 Y115.258 E0.09585
G1 X153.958 Y115.003 E0.1133
G1 X154.344 Y114.554 E0.14917
G1 X154.546 Y114.415 E0.16403
G1 X154.774 Y114.303 E0.17942
G1 X155.067 Y114.207 E0.1981
G1 X155.5 Y114.15 E0.22456
G1 X155.65 Y114.15 E0.23365
G1 X155.622 Y113.71 E0.26036
G1 X155.553 Y113.393 E0.28002
G1 X155.438 Y113.097 E0.29926
G1 X155.277 Y112.812 E0.31909
G1 X155.079 Y112.558 E0.3386
G1 X154.844 Y112.338 E0.3581
G1 X154.569 Y112.15 E0.37829
G1 X154.276 Y112.01 E0.39796
G1 X153.943 Y111.91 E0.41903
G1 X153.702 Y111.872 E0.43381
G1 X153.446 Y111.852 E0.44937
G1 X146.568 Y111.851 E0.86608
G1 X146.175 Y111.881 E0.88996
G1 X145.838 Y111.961 E0.91095
G1 X145.538 Y112.086 E0.93064
G1 X145.241 Y112.265 E0.95165
G1 X144.991 Y112.478 E0.97154
G1 X144.772 Y112.731 E0.99182
G1 X144.596 Y113.018 E1.01222
G1 X144.469 Y113.321 E1.03212
G1 X144.38 Y113.676 E1.05429
G1 X144.351 Y114.049 E1.07696
G1 X144.352 Y118.274 E1.33294
G1 F1778.4 X144.36 Y118.57 E1.3511
G1 F1736.8 X144.368 Y118.866 E1.36969
G1 F1638.6 X144.401 Y119.259 E1.39594
G1 F1581.9 X144.395 Y119.556 E1.41642
G1 F1607.6 X144.388 Y119.853 E1.43657
G1 F1618.5 X144.388 Y120.236 E1.46238
G1 F1601.1 X144.395 Y120.53 E1.48241
G1 F1569.4 X144.403 Y120.824 E1.50285
G1 F1588.2 X144.386 Y121.203 E1.5289
G1 F1666.2 X144.369 Y121.498 E1.54824
G1 F1754.8 X144.351 Y121.794 E1.56667
G1 F1800 X144.352 Y123.265 E1.65579
G1 X144.351 Y140.005 E2.67001
G1 X144.351 Y150.859 E3.32762
G1 X144.351 Y178.277 E4.98878
G1 F1778.4 X144.359 Y178.573 E5.00694
G1 F1736.8 X144.367 Y178.869 E5.02553
G1 F1636.4 X144.4 Y179.262 E5.05182
G1 F1579.8 X144.394 Y179.559 E5.07232
G1 F1605.4 X144.388 Y179.856 E5.0925
G1 F1616.3 X144.388 Y180.243 E5.11861
G1 F1596.8 X144.396 Y180.537 E5.1387
G1 F1567.3 X144.404 Y180.831 E5.15917
G1 F1588.2 X144.386 Y181.207 E5.18501
G1 F1666.2 X144.369 Y181.502 E5.20435
G1 F1754.8 X144.351 Y181.797 E5.22272
G1 F1800 X144.351 Y185.936 E5.47349
G1 X144.381 Y186.323 E5.49701
G1 X144.461 Y186.662 E5.51811
G1 X144.586 Y186.962 E5.5378
G1 X144.766 Y187.259 E5.55884
G1 X144.976 Y187.506 E5.57849
G1 X145.232 Y187.728 E5.59901
G1 X145.518 Y187.904 E5.61936
G1 X145.822 Y188.031 E5.63932
G1 X146.176 Y188.119 E5.66142
G1 X146.554 Y188.148 E5.68439
G1 X153.432 Y188.149 E6.10111
G1 X153.823 Y188.119 E6.12487
G1 X154.162 Y188.039 E6.14597
G1 X154.462 Y187.913 E6.16568
G1 X154.759 Y187.734 E6.18669
G1 X155.009 Y187.522 E6.20655
G1 X155.228 Y187.268 E6.22687
G1 X155.404 Y186.982 E6.24722
G1 X155.531 Y186.678 E6.26718
G1 X155.62 Y186.323 E6.28935
G1 X155.643 Y186.007 E6.30855
G1 X155.649 Y185.85 E6.31807
G1 X155.259 Y185.833 E6.34172
G1 X154.922 Y185.748 E6.36278
G1 X154.59 Y185.59 E6.38505
G1 X154.318 Y185.416 E6.40461
G1 X154.019 Y185.11 E6.43054
G1 X153.874 Y184.881 E6.44696
G1 X153.767 Y184.624 E6.46382
G1 X153.678 Y184.306 E6.48383
G1 X153.65 Y184.003 E6.50227
G1 X153.65 Y183.184 E6.55189
G1 X153.503 Y183.348 E6.56523
G1 X153.07 Y183.749 E6.60099
G1 X152.827 Y183.935 E6.61953
G1 X152.326 Y184.249 E6.65535
G1 X152.057 Y184.387 E6.67367
G1 X151.485 Y184.613 E6.71093
G1 X151.179 Y184.702 E6.73024
G1 X150.609 Y184.808 E6.76536
G1 X150.337 Y184.832 E6.78191
G1 X149.731 Y184.837 E6.81862
G1 X149.442 Y184.812 E6.8362
G1 X148.861 Y184.709 E6.87195
G1 X148.564 Y184.628 E6.8906
G1 X148.013 Y184.419 E6.9263
G1 X147.745 Y184.288 E6.94438
G1 X147.237 Y183.981 E6.98034
G1 X146.985 Y183.794 E6.99935
G1 X146.548 Y183.4 E7.035
G1 X146.347 Y183.183 E7.05292
G1 X145.985 Y182.714 E7.08882
G1 X145.818 Y182.448 E7.10785
G1 X145.553 Y181.922 E7.14353
G1 X145.442 Y181.642 E7.16178
G1 F1754.8 X145.343 Y181.364 E7.18012
G1 F1666.2 X145.243 Y181.085 E7.19952
G1 F1588.2 X145.167 Y180.791 E7.22037
G1 F1567.3 X145.145 Y180.498 E7.24081
G1 F1596.8 X145.122 Y180.205 E7.26089
G1 F1616.3 X145.119 Y179.886 E7.28241
G1 F1605.4 X145.138 Y179.59 E7.30256
G1 F1579.8 X145.157 Y179.293 E7.3231
G1 F1636.4 X145.245 Y178.989 E7.3442
G1 F1736.8 X145.332 Y178.706 E7.36279
G1 F1778.4 X145.42 Y178.423 E7.38096
G1 F1800 X145.525 Y178.146 E7.39891
G1 X145.78 Y177.621 E7.43427
G1 X145.937 Y177.361 E7.45267
G1 X146.288 Y176.886 E7.48845
G1 X146.497 Y176.653 E7.50742
G1 X146.944 Y176.241 E7.54425
G1 X147.181 Y176.059 E7.56235
G1 X147.664 Y175.754 E7.59696
G1 X147.94 Y175.615 E7.61569
G1 X148.481 Y175.401 E7.65093
G1 X148.762 Y175.318 E7.66869
G1 X149.339 Y175.202 E7.70434
G1 X149.646 Y175.17 E7.72304
G1 X150.254 Y175.163 E7.75988
G1 X150.563 Y175.188 E7.77867
G1 X151.143 Y175.291 E7.81436
G1 X151.443 Y175.374 E7.83321
G1 X151.993 Y175.584 E7.86888
G1 X152.259 Y175.714 E7.88682
G1 X152.761 Y176.018 E7.92238
G1 X153.01 Y176.203 E7.94117
G1 X153.45 Y176.599 E7.97704
G1 X153.654 Y176.818 E7.99517
G1 X154.014 Y177.286 E8.03094
G1 X154.061 Y177.359 E8.0362
G1 X154.109 Y177.287 E8.04145
G1 X154.478 Y176.957 E8.07144
G1 X154.741 Y176.817 E8.08949
G1 X154.994 Y176.729 E8.10572
G1 X155.5 Y176.65 E8.13675
G1 X155.65 Y176.65 E8.14584
G1 X155.65 Y123.501 E11.36596
G1 X155.65 Y123.35 E11.37511
G1 X155.499 Y123.35 E11.38425
G1 X154.838 Y123.213 E11.42515
G1 X154.588 Y123.089 E11.44206
G1 X154.421 Y122.99 E11.45382
G1 X154.054 Y122.651 E11.48409
G1 X153.712 Y123.114 E11.51897
G1 X153.506 Y123.344 E11.53767
G1 X153.055 Y123.758 E11.57477
G1 X152.82 Y123.94 E11.59277
G1 X152.337 Y124.244 E11.62735
G1 X152.06 Y124.386 E11.64621
G1 X151.518 Y124.6 E11.68151
G1 X151.238 Y124.682 E11.69919
G1 X150.661 Y124.798 E11.73485
G1 X150.354 Y124.83 E11.75355
G1 X149.746 Y124.837 E11.79039
G1 X149.437 Y124.812 E11.80917
G1 X148.857 Y124.709 E11.84486
G1 X148.557 Y124.626 E11.86372
G1 X148.007 Y124.416 E11.89939
G1 X147.74 Y124.286 E11.91738
G1 X147.235 Y123.98 E11.95316
G1 X146.985 Y123.794 E11.97204
G1 X146.546 Y123.398 E12.00786
G1 X146.344 Y123.179 E12.02591
G1 X145.983 Y122.71 E12.06176
G1 X145.817 Y122.446 E12.08066
G1 X145.552 Y121.92 E12.11634
G1 X145.441 Y121.639 E12.13465
G1 F1754.8 X145.342 Y121.36 E12.15305
G1 F1666.2 X145.242 Y121.081 E12.17245
G1 F1588.2 X145.167 Y120.784 E12.19348
G1 F1569.4 X145.145 Y120.492 E12.21383
G1 F1601.1 X145.122 Y120.199 E12.23385
G1 F1618.5 X145.12 Y119.883 E12.25514
G1 F1607.6 X145.138 Y119.587 E12.27526
G1 F1581.9 X145.157 Y119.29 E12.29577
G1 F1638.6 X145.245 Y118.986 E12.31684
G1 F1736.8 X145.332 Y118.703 E12.33543
G1 F1778.4 X145.42 Y118.42 E12.3536
G1 F1800 X145.525 Y118.141 E12.37166
G1 X145.783 Y117.613 E12.40727
G1 X145.941 Y117.353 E12.4257
G1 X146.291 Y116.881 E12.4613
G1 X146.497 Y116.651 E12.48001
G1 X146.931 Y116.25 E12.51581
G1 X147.172 Y116.065 E12.53422
G1 X147.593 Y115.802 E12.56429
G1 X147.943 Y115.613 E12.58839
G1 X148.515 Y115.387 E12.62565
G1 X148.821 Y115.298 E12.64496
G1 X149.391 Y115.192 E12.68009
G1 X149.663 Y115.168 E12.69663
G1 X150.269 Y115.163 E12.73335
G1 X150.558 Y115.188 E12.75092
G1 X151.139 Y115.291 E12.78667
G1 X151.436 Y115.372 E12.80532
G1 X151.987 Y115.582 E12.84105
G1 X152.247 Y115.707 E12.85853
G1 X152.617 Y115.931 E12.88473
G0 F1620 X152.76 Y116.017
G0 X153.011 Y116.202
G0 X153.07 Y116.257
G0 X153.449 Y116.596
G0 X153.65 Y116.814
G1 F2100 E7.88473
G1 F300 Z0.56
G0 F6000 X154.247 Y119.078 Z0.56
G1 F300 Z0.24
G1 F2100 E12.88473
G1 F1575.6 X154.278 Y118.782 E12.90533
G1 F1719.2 X154.31 Y118.485 E12.92428
G1 F1800 X154.31 Y115.959 E13.07732
G1 X154.414 Y115.554 E13.10266
G1 X154.527 Y115.337 E13.11748
G1 X154.759 Y115.067 E13.13905
G1 X154.965 Y114.94 E13.15371
G1 X155.196 Y114.857 E13.16858
G1 X155.5 Y114.81 E13.18722
G1 X156.31 Y114.81 E13.23629
G1 X156.31 Y114.038 E13.28307
G1 X156.274 Y113.575 E13.3112
G1 X156.169 Y113.133 E13.33873
G1 X156.003 Y112.738 E13.36469
G1 X155.771 Y112.354 E13.39187
G1 X155.491 Y112.025 E13.41804
G1 X155.16 Y111.738 E13.44459
G1 X154.784 Y111.507 E13.47132
G1 X154.387 Y111.341 E13.49739
G1 X153.93 Y111.227 E13.52593
G1 X153.471 Y111.192 E13.55382
G1 X146.543 Y111.191 E13.97356
G1 X146.074 Y111.227 E14.00206
G1 X145.633 Y111.331 E14.02951
G1 X145.238 Y111.496 E14.05545
G1 X144.854 Y111.728 E14.08263
G1 X144.525 Y112.008 E14.10881
G1 X144.238 Y112.34 E14.13539
G1 X144.007 Y112.716 E14.16213
G1 X143.841 Y113.113 E14.1882
G1 X143.726 Y113.57 E14.21675
G1 X143.691 Y114.024 E14.24434
G1 X143.691 Y120.823 E14.65627
G1 X143.691 Y185.962 E18.60282
G1 X143.727 Y186.425 E18.63096
G1 X143.831 Y186.867 E18.65847
G1 X143.996 Y187.262 E18.68441
G1 X144.229 Y187.646 E18.71162
G1 X144.505 Y187.972 E18.7375
G1 X144.841 Y188.262 E18.76439
G1 X145.216 Y188.493 E18.79108
G1 X145.613 Y188.659 E18.81715
G1 X146.07 Y188.773 E18.84568
G1 X146.529 Y188.808 E18.87357
G1 X153.457 Y188.809 E19.29332
G1 X153.925 Y188.773 E19.32176
G1 X154.367 Y188.669 E19.34927
G1 X154.762 Y188.503 E19.37523
G1 X155.146 Y188.272 E19.40238
G1 X155.475 Y187.992 E19.42855
G1 X155.762 Y187.66 E19.45514
G1 X155.993 Y187.284 E19.48188
G1 X156.159 Y186.887 E19.50795
G1 X156.274 Y186.429 E19.53656
G1 X156.301 Y186.057 E19.55915
G1 X156.309 Y185.947 E19.56584
G1 X156.309 Y185.19 E19.6117
G1 X155.499 Y185.191 E19.66078
G1 X155.233 Y185.154 E19.67705
G1 X154.889 Y185.001 E19.69986
G1 X154.546 Y184.714 E19.72695
G1 X154.418 Y184.486 E19.74279
G1 X154.327 Y184.184 E19.7619
G1 X154.31 Y184.002 E19.77298
G1 X154.31 Y181.452 E19.92748
G1 F1702 X154.272 Y181.156 E19.9466
G1 F1534.9 X154.234 Y180.86 E19.9678
G1 F1433.1 X154.217 Y180.753 E19.97605
G1 X154.176 Y180.852 E19.9842
G1 F1534.9 X154.06 Y181.127 E20.00541
G1 F1702 X153.943 Y181.402 E20.02456
G1 F1800 X153.881 Y181.57 E20.03541
G1 X153.623 Y182.098 E20.07101
G1 X153.528 Y182.254 E20.08208
G1 X153.178 Y182.726 E20.11768
G1 X153.055 Y182.863 E20.12883
G1 X152.622 Y183.265 E20.16463
G1 X152.231 Y183.53 E20.19325
G1 X151.975 Y183.69 E20.21154
G1 X151.559 Y183.874 E20.2391
G1 X151.242 Y184 E20.25976
G1 X151.058 Y184.053 E20.27137
G1 X150.495 Y184.158 E20.30606
G1 X150.332 Y184.172 E20.31598
G1 X149.731 Y184.177 E20.35239
G1 X149.558 Y184.162 E20.36291
G1 X148.977 Y184.059 E20.39866
G1 X148.798 Y184.01 E20.4099
G1 X148.247 Y183.801 E20.44561
G1 X147.952 Y183.642 E20.46591
G1 X147.578 Y183.416 E20.49239
G1 X147.427 Y183.304 E20.50378
G1 X146.99 Y182.91 E20.53943
G1 X146.87 Y182.78 E20.55015
G1 X146.508 Y182.31 E20.58609
G1 X146.407 Y182.151 E20.5975
G1 X146.142 Y181.625 E20.63319
G1 X146.076 Y181.457 E20.64412
G1 X145.912 Y180.89 E20.67988
G1 X145.877 Y180.716 E20.69064
G1 X145.816 Y180.132 E20.72621
G1 X145.814 Y179.945 E20.73754
G1 X145.864 Y179.353 E20.77354
G1 F1802.7 X145.898 Y179.171 E20.78474
G1 X146.056 Y178.6 E20.82058
G1 F1800 X146.119 Y178.434 E20.83133
G1 X146.374 Y177.909 E20.8667
G1 X146.468 Y177.753 E20.87773
G1 X146.819 Y177.278 E20.91351
G1 X146.944 Y177.138 E20.92489
G1 X147.391 Y176.726 E20.96172
G1 X147.534 Y176.617 E20.97261
G1 X148.017 Y176.312 E21.00722
G1 X148.182 Y176.229 E21.01841
G1 X148.724 Y176.015 E21.05371
G1 X148.892 Y175.965 E21.06433
G1 X149.469 Y175.849 E21.09999
G1 X150.071 Y175.826 E21.13649
G1 X150.352 Y175.825 E21.15352
G1 X150.448 Y175.838 E21.15939
G1 X151.028 Y175.941 E21.19508
G1 X151.208 Y175.991 E21.2064
G1 X151.758 Y176.201 E21.24206
G1 X151.917 Y176.279 E21.25279
G1 X152.419 Y176.583 E21.28835
G1 X152.569 Y176.694 E21.29966
G1 X153.009 Y177.09 E21.33552
G1 X153.131 Y177.221 E21.34637
G1 X153.492 Y177.689 E21.38218
G1 X153.692 Y178.048 E21.40708
G1 X153.857 Y178.373 E21.42916
G1 X153.926 Y178.553 E21.44084
G1 F1719.2 X154.038 Y178.824 E21.45944
G1 F1577.7 X154.15 Y179.095 E21.47971
G1 F1457.7 X154.217 Y179.279 E21.49436
G1 X154.248 Y179.082 E21.50928
G1 F1577.7 X154.279 Y178.786 E21.52985
G1 F1719.2 X154.31 Y178.489 E21.54879
G1 F1800 X154.417 Y178.049 E21.57623
G1 X154.618 Y177.707 E21.60026
G1 X154.839 Y177.509 E21.61824
G1 X155.078 Y177.395 E21.63428
G1 X155.5 Y177.31 E21.66036
G1 X156.31 Y177.31 E21.70944
G1 X156.31 Y123.501 E24.96955
G1 X156.31 Y122.69 E25.01868
G1 X155.499 Y122.69 E25.06782
G1 X155.102 Y122.608 E25.09238
G1 X154.84 Y122.475 E25.11018
G1 X154.56 Y122.231 E25.13268
G1 X154.395 Y121.922 E25.1539
G1 X154.318 Y121.636 E25.17185
G1 X154.31 Y121.449 E25.18319
G1 F1702 X154.272 Y121.153 E25.20231
G1 F1534.9 X154.234 Y120.857 E25.22352
G1 F1433.1 X154.217 Y120.75 E25.23176
G1 X154.176 Y120.849 E25.23991
G1 F1534.9 X154.06 Y121.124 E25.26112
G1 F1702 X153.943 Y121.399 E25.28027
G1 F1800 X153.786 Y121.763 E25.30429
G1 X153.627 Y122.091 E25.32637
G1 X153.532 Y122.247 E25.33744
G1 X153.181 Y122.722 E25.37322
G1 X152.935 Y122.972 E25.39447
G1 X152.608 Y123.273 E25.4214
G1 X152.467 Y123.382 E25.4322
G1 X151.985 Y123.687 E25.46675
G1 X151.818 Y123.772 E25.47811
G1 X151.276 Y123.986 E25.51341
G1 X151.108 Y124.035 E25.52402
G1 X150.531 Y124.151 E25.55967
G1 X149.929 Y124.174 E25.59617
G1 X149.648 Y124.175 E25.6132
G1 X149.552 Y124.162 E25.61907
G1 X148.972 Y124.059 E25.65476
G1 X148.792 Y124.009 E25.66608
G1 X148.242 Y123.8 E25.70172
G1 X148.082 Y123.721 E25.71253
G1 X147.577 Y123.415 E25.74831
G1 X147.427 Y123.304 E25.75962
G1 X146.988 Y122.908 E25.79544
G1 X146.867 Y122.776 E25.80628
G1 X146.506 Y122.308 E25.84209
G1 X146.406 Y122.149 E25.85347
G1 X146.141 Y121.623 E25.88916
G1 X146.075 Y121.454 E25.90015
G1 X145.91 Y120.887 E25.93593
G1 X145.875 Y120.712 E25.94674
G1 X145.815 Y120.128 E25.98231
G1 X145.814 Y119.942 E25.99358
G1 X145.864 Y119.35 E26.02957
G1 F1802.7 X145.898 Y119.168 E26.04078
G1 X146.056 Y118.597 E26.07662
G1 F1800 X146.119 Y118.43 E26.08743
G1 X146.376 Y117.902 E26.12301
G1 X146.471 Y117.746 E26.13407
G1 X146.821 Y117.274 E26.16968
G1 X146.945 Y117.136 E26.18092
G1 X147.379 Y116.735 E26.21672
G1 X147.845 Y116.422 E26.25073
G1 X148.186 Y116.227 E26.27453
G1 X148.758 Y116 E26.31181
G1 X148.942 Y115.947 E26.32341
G1 X149.505 Y115.842 E26.35811
G1 X149.668 Y115.828 E26.36802
G1 X150.269 Y115.823 E26.40444
G1 X150.442 Y115.838 E26.41496
G1 X151.023 Y115.941 E26.45071
G1 X151.605 Y116.142 E26.48801
G1 X151.854 Y116.244 E26.50432
G1 X151.914 Y116.277 E26.50846
G1 X152.418 Y116.582 E26.54416
G1 X152.628 Y116.747 E26.56034
G1 X153.007 Y117.087 E26.59118
G1 X153.128 Y117.218 E26.60199
G1 X153.49 Y117.686 E26.63784
G1 X153.59 Y117.845 E26.64922
G1 X153.856 Y118.371 E26.68493
G1 X153.922 Y118.54 E26.69592
G1 F1719.2 X154.035 Y118.816 E26.71484
G1 F1575.6 X154.149 Y119.092 E26.73551
G1 F1454.1 X154.216 Y119.274 E26.75005
G1 X154.241 Y119.119 E26.76183
G0 F1620 X154.247 Y119.078
G1 F2100 E21.76183
G1 F300 Z0.56
G0 F6000 X154.97 Y115.985 Z0.56
;TYPE:WALL-OUTER
G1 F300 Z0.24
G1 F2100 E26.76183
G1 F1800 X155.087 Y115.688 E26.78096
G1 X155.28 Y115.523 E26.79617
G1 X155.566 Y115.47 E26.81361
G1 X156.97 Y115.47 E26.89774
G1 X156.97 Y114.012 E26.98512
G1 X156.928 Y113.473 E27.01752
G1 X156.799 Y112.929 E27.05102
G1 X156.593 Y112.438 E27.08293
G1 X156.309 Y111.967 E27.11589
G1 X155.961 Y111.559 E27.14803
G1 X155.551 Y111.204 E27.18053
G1 X155.086 Y110.918 E27.21325
G1 X154.596 Y110.713 E27.24508
G1 X154.036 Y110.573 E27.27967
G1 X153.496 Y110.532 E27.31212
G1 X146.517 Y110.531 E27.73036
G1 X145.973 Y110.573 E27.76306
G1 X145.429 Y110.701 E27.79655
G1 X144.938 Y110.906 E27.82844
G1 X144.467 Y111.191 E27.86143
G1 X144.059 Y111.538 E27.89353
G1 X143.704 Y111.949 E27.92607
G1 X143.418 Y112.414 E27.95879
