;FLAVOR:Marlin
;TIME:1172
;Filament used: 1.78953m
;Layer height: 0.32
;MINX:116.498
;MINY:110.3
;MINZ:0.24
;MAXX:147.918
;MAXY:189.7
;MAXZ:6.32
;Generated with Cura_SteamEngine 5.0.0
M140 S70
M105
M190 S70
M104 S245
M105
M109 S245
M82 ;absolute extrusion mode
; Ender 3 Max Custom Start G-code
G92 E0 ; Reset Extruder
G28 ; Home all axes
G1 Z2.0 F3000 ; Move Z Axis up little to prevent scratching of Heat Bed
G1 X0.1 Y20 Z0.3 F5000.0 ; Move to start position
G1 X0.1 Y200.0 Z0.3 F1500.0 E15 ; Draw the first line
G1 X0.4 Y200.0 Z0.3 F5000.0 ; Move to side a little
G1 X0.4 Y20 Z0.3 F1500.0 E30 ; Draw the second line
G92 E0 ; Reset Extruder
G1 Z2.0 F3000 ; Move Z Axis up little to prevent scratching of Heat Bed
G1 X5 Y20 Z0.3 F5000.0 ; Move over to prevent blob squish
G92 E0
G92 E0
G1 F2100 E-5
;LAYER_COUNT:19
;LAYER:0
M107
G1 F300 Z0.56
;MESH:2080-washer-mean-well-hlg-240h.stl
G0 F6000 X119.12 Y118.412 Z0.56
;TYPE:WALL-INNER
G1 F300 Z0.24
G1 F2100 E0
G1 F1800 X119.227 Y118.134 E0.01805
G1 X119.484 Y117.608 E0.05352
G1 X119.643 Y117.347 E0.07203
G1 X119.998 Y116.87 E0.10806
G1 X120.205 Y116.64 E0.12681
G1 X120.637 Y116.243 E0.16235
G1 X120.877 Y116.06 E0.18064
G1 X121.413 Y115.724 E0.21897
G1 X121.655 Y115.606 E0.23528
G1 X122.201 Y115.392 E0.27081
G1 X122.487 Y115.309 E0.28885
G1 X123.097 Y115.19 E0.32651
G1 X123.373 Y115.166 E0.34329
G1 X123.974 Y115.163 E0.3797
G1 X124.268 Y115.188 E0.39758
G1 X124.849 Y115.293 E0.43335
G1 X125.148 Y115.377 E0.45217
G1 X125.7 Y115.589 E0.48799
G1 X125.968 Y115.72 E0.50607
G1 X126.473 Y116.027 E0.54187
G1 X126.73 Y116.219 E0.56131
G1 X127.162 Y116.613 E0.59673
G1 X127.356 Y116.825 E0.61414
G1 X127.715 Y117.289 E0.64969
G1 X127.882 Y117.554 E0.66867
G1 X128.148 Y118.082 E0.70449
G1 X128.257 Y118.358 E0.72247
G1 F1778.4 X128.347 Y118.633 E0.74021
G1 F1731.8 X128.438 Y118.909 E0.75851
G1 F1627.4 X128.532 Y119.214 E0.7799
G1 F1569.4 X128.554 Y119.514 E0.8008
G1 F1601.1 X128.577 Y119.814 E0.82129
G1 F1618.5 X128.579 Y120.126 E0.84232
G1 F1605.4 X128.56 Y120.422 E0.86247
G1 F1577.7 X128.54 Y120.718 E0.88297
G1 F1592.5 X128.469 Y121.024 E0.90449
G1 F1663.9 X128.373 Y121.304 E0.92389
G1 F1752.2 X128.277 Y121.585 E0.94237
G1 F1800 X128.168 Y121.868 E0.96074
G1 X127.91 Y122.394 E0.99624
G1 X127.753 Y122.653 E1.01459
G1 X127.398 Y123.13 E1.05061
G1 X127.191 Y123.359 E1.06932
G1 X126.759 Y123.757 E1.1049
G1 X126.52 Y123.939 E1.1231
G1 X126.017 Y124.254 E1.15906
G1 X125.741 Y124.394 E1.17781
G1 X125.194 Y124.608 E1.2134
G1 X124.909 Y124.691 E1.23138
G1 X124.331 Y124.804 E1.26707
G1 X124.023 Y124.834 E1.28581
G1 X123.431 Y124.837 E1.32168
G1 X123.126 Y124.811 E1.34023
G1 X122.544 Y124.705 E1.37607
G1 X122.251 Y124.623 E1.3945
G1 X121.698 Y124.412 E1.43036
G1 X121.43 Y124.281 E1.44844
G1 X120.921 Y123.972 E1.48451
G1 X120.666 Y123.781 E1.50382
G1 X120.233 Y123.387 E1.53929
G1 X120.039 Y123.176 E1.55665
G1 X119.681 Y122.712 E1.59216
G1 X119.512 Y122.442 E1.61146
G1 X119.246 Y121.911 E1.64744
G1 X119.14 Y121.642 E1.66496
G1 F1754.8 X119.042 Y121.371 E1.68287
G1 F1670.9 X118.943 Y121.099 E1.70176
G1 F1590.4 X118.864 Y120.786 E1.7239
G1 F1569.4 X118.842 Y120.486 E1.7448
G1 F1601.1 X118.819 Y120.186 E1.76529
G1 F1618.5 X118.817 Y119.874 E1.78632
G1 F1605.4 X118.836 Y119.578 E1.80646
G1 F1579.8 X118.856 Y119.282 E1.82694
G1 F1636.4 X118.945 Y118.978 E1.84806
G1 F1736.8 X119.032 Y118.695 E1.86665
G1 F1778.4 X119.12 Y118.412 E1.88482
G0 F6000 X119.563 Y119.343
G1 F1802.7 X119.597 Y119.161 E1.89602
G1 X119.756 Y118.591 E1.93182
G1 F1800 X119.82 Y118.424 E1.94265
G1 X120.077 Y117.898 E1.97812
G1 X120.172 Y117.741 E1.98924
G1 X120.527 Y117.264 E2.02527
G1 X120.651 Y117.126 E2.03651
G1 X121.083 Y116.729 E2.07205
G1 X121.525 Y116.434 E2.10425
G1 X121.751 Y116.292 E2.12042
G1 X121.896 Y116.221 E2.1302
G1 X122.442 Y116.007 E2.16573
G1 X122.613 Y115.957 E2.17653
G1 X123.211 Y115.84 E2.21344
G1 X123.376 Y115.826 E2.22348
G1 X123.974 Y115.823 E2.25971
G1 X124.15 Y115.838 E2.27041
G1 X124.732 Y115.943 E2.30624
G1 X124.911 Y115.993 E2.3175
G1 X125.463 Y116.205 E2.35333
G1 X125.752 Y116.361 E2.37322
G1 X126.131 Y116.592 E2.40012
G1 X126.286 Y116.707 E2.41181
G1 X126.718 Y117.101 E2.44723
G1 X126.834 Y117.228 E2.45765
G1 X127.192 Y117.692 E2.49316
G1 X127.292 Y117.851 E2.50454
G1 X127.559 Y118.379 E2.54039
G1 X127.624 Y118.545 E2.55119
G1 F1802.7 X127.788 Y119.1 E2.5862
G1 X127.824 Y119.284 E2.59754
G1 F1800 X127.883 Y119.883 E2.63401
G1 X127.884 Y120.066 E2.6451
G1 X127.833 Y120.657 E2.68104
G1 F1802.7 X127.799 Y120.837 E2.69212
G1 X127.641 Y121.407 E2.7279
G1 F1800 X127.576 Y121.577 E2.73893
G1 X127.318 Y122.103 E2.77442
G1 X127.224 Y122.259 E2.78546
G1 X126.869 Y122.736 E2.82148
G1 X126.744 Y122.873 E2.83272
G1 X126.313 Y123.271 E2.86826
G1 X126.169 Y123.38 E2.8792
G1 X125.666 Y123.696 E2.91519
G1 X125.5 Y123.779 E2.92644
G1 X124.953 Y123.994 E2.96205
G1 X124.782 Y124.043 E2.97282
G1 X124.204 Y124.156 E3.00851
G1 X123.667 Y124.176 E3.04106
G1 X123.339 Y124.174 E3.06094
G1 X123.244 Y124.162 E3.06674
G1 X122.662 Y124.056 E3.10258
G1 X122.487 Y124.006 E3.11361
G1 X121.933 Y123.796 E3.1495
G1 X121.773 Y123.717 E3.16031
G1 X121.264 Y123.408 E3.19639
G1 X121.11 Y123.293 E3.20803
G1 X120.678 Y122.899 E3.24346
G1 X120.562 Y122.772 E3.25388
G1 X120.204 Y122.308 E3.28939
G1 X120.102 Y122.147 E3.30093
G1 X119.836 Y121.616 E3.33692
G1 X119.772 Y121.454 E3.34747
G1 X119.608 Y120.901 E3.38242
G1 X119.572 Y120.716 E3.39384
G1 X119.57 Y120.702 E3.39469
G0 F1620 X119.513 Y120.117
G0 X119.512 Y119.934
G0 X119.563 Y119.343
G0 F6000 X120.221 Y119.4
;TYPE:WALL-OUTER
G1 F1802.7 X120.233 Y119.34 E3.39835
G1 X120.392 Y118.769 E3.43382
G1 F1800 X120.413 Y118.714 E3.43735
G1 X120.67 Y118.188 E3.47243
G1 X120.702 Y118.135 E3.47614
G1 X121.057 Y117.658 E3.51178
G1 X121.098 Y117.612 E3.51547
G1 X121.53 Y117.215 E3.55063
G1 X121.875 Y116.993 E3.57522
G1 X122.089 Y116.859 E3.59035
G1 X122.137 Y116.835 E3.59356
G1 X122.683 Y116.621 E3.62871
G1 X122.74 Y116.605 E3.63226
G1 X123.325 Y116.49 E3.66798
G1 X123.38 Y116.486 E3.67129
G1 X123.974 Y116.483 E3.70689
G1 X124.033 Y116.488 E3.71043
G1 X124.615 Y116.593 E3.74588
G1 X124.675 Y116.609 E3.7496
G1 X125.227 Y116.821 E3.78503
G1 X125.563 Y117.018 E3.80838
G1 X125.789 Y117.156 E3.82424
G1 X125.841 Y117.195 E3.82814
G1 X126.273 Y117.589 E3.86318
G1 X126.312 Y117.631 E3.86661
G1 X126.67 Y118.095 E3.90173
G1 X126.703 Y118.148 E3.90548
G1 X126.969 Y118.676 E3.94091
G1 X126.991 Y118.731 E3.94446
G1 F1802.7 X127.154 Y119.287 E3.97913
G1 X127.167 Y119.348 E3.98286
G1 F1800 X127.228 Y119.98 E4.02091
G1 X127.172 Y120.628 E4.05989
G1 X127.005 Y121.23 E4.09733
G1 X126.984 Y121.287 E4.10097
G1 X126.726 Y121.813 E4.13608
G1 X126.694 Y121.865 E4.13974
G1 X126.339 Y122.342 E4.17537
G1 X126.298 Y122.387 E4.17902
G1 X125.866 Y122.785 E4.21422
G1 X125.818 Y122.821 E4.21781
G1 X125.315 Y123.137 E4.25341
G1 X125.26 Y123.165 E4.25711
G1 X124.713 Y123.379 E4.29231
G1 X124.656 Y123.395 E4.29586
G1 X124.078 Y123.508 E4.33115
G1 X123.663 Y123.516 E4.35603
G1 X123.394 Y123.516 E4.37215
G1 X123.362 Y123.512 E4.37408
G1 X122.78 Y123.406 E4.40953
G1 X122.722 Y123.39 E4.41314
G1 X122.169 Y123.179 E4.44861
G1 X122.115 Y123.153 E4.4522
G1 X121.606 Y122.844 E4.48789
G1 X121.555 Y122.805 E4.49173
G1 X121.123 Y122.411 E4.52677
G1 X121.084 Y122.369 E4.53021
G1 X120.726 Y121.905 E4.56533
G1 X120.692 Y121.851 E4.56915
G1 X120.426 Y121.32 E4.60474
G1 X120.405 Y121.266 E4.60822
G1 X120.253 Y120.756 E4.64011
G0 F1620 X120.241 Y120.713
G0 X120.229 Y120.652
G0 X120.17 Y120.053
G0 X120.17 Y119.991
G0 X120.221 Y119.4
G0 F6000 X120.233 Y119.34
G0 X120.302 Y119.091
G1 F2100 E-0.35989
G1 F300 Z0.56
G0 F6000 X125.49 Y146.042 Z0.56
;TYPE:WALL-INNER
G1 F300 Z0.24
G1 F2100 E4.64011
G1 F1800 X125.781 Y146.186 E4.65978
G1 X126.211 Y146.454 E4.69048
G1 X126.466 Y146.651 E4.71
G1 X126.862 Y147.023 E4.74292
G1 X127.081 Y147.274 E4.7631
G1 X127.395 Y147.72 E4.79615
G1 X127.558 Y148.008 E4.8162
G1 X127.779 Y148.511 E4.84948
G1 X127.883 Y148.83 E4.86981
G1 X127.995 Y149.36 E4.90263
G1 X128.031 Y149.692 E4.92287
G1 X128.036 Y150.251 E4.95673
G1 X128.012 Y150.536 E4.97406
G1 X127.898 Y151.108 E5.0094
G1 X127.801 Y151.424 E5.02943
G1 X127.591 Y151.926 E5.0624
G1 X127.432 Y152.221 E5.0827
G1 X127.123 Y152.673 E5.11587
G1 X126.906 Y152.929 E5.13621
G1 X126.511 Y153.31 E5.16946
G1 X126.252 Y153.514 E5.18943
G1 X125.795 Y153.806 E5.22229
G1 X125.49 Y153.958 E5.24293
G1 X124.98 Y154.151 E5.27597
G1 X124.661 Y154.236 E5.29597
G1 X124.117 Y154.324 E5.32936
G1 X123.817 Y154.345 E5.34758
G1 X123.237 Y154.32 E5.38275
G1 X122.908 Y154.272 E5.4029
G1 X122.375 Y154.138 E5.4362
G1 X122.065 Y154.026 E5.45617
G1 X121.574 Y153.791 E5.48915
G1 X121.281 Y153.611 E5.50998
G1 X120.849 Y153.279 E5.54299
G1 X120.614 Y153.058 E5.56253
G1 X120.252 Y152.645 E5.59581
G1 X120.054 Y152.367 E5.61649
G1 X119.772 Y151.866 E5.65132
G1 X119.634 Y151.545 E5.67249
G1 X119.481 Y151.051 E5.70382
G1 X119.417 Y150.742 E5.72294
G1 X119.358 Y150.202 E5.75585
G1 X119.355 Y149.868 E5.77609
G1 X119.407 Y149.322 E5.80932
G1 X119.472 Y148.991 E5.82976
G1 X119.63 Y148.472 E5.86262
G1 X119.758 Y148.167 E5.88266
G1 X120.02 Y147.687 E5.9158
G1 X120.21 Y147.41 E5.93615
G1 X120.562 Y146.993 E5.96921
G1 X120.796 Y146.766 E5.98896
G1 X121.226 Y146.426 E6.02217
G1 X121.519 Y146.24 E6.0432
G1 X122.012 Y145.997 E6.0765
G1 X122.316 Y145.881 E6.09622
G1 X122.842 Y145.741 E6.12919
G1 X123.185 Y145.687 E6.15023
G1 X123.817 Y145.655 E6.18857
G1 X124.117 Y145.676 E6.20679
G1 X124.18 Y145.687 E6.21067
G0 F1620 X124.661 Y145.764
G0 X124.98 Y145.849
G0 X125.49 Y146.042
G1 F2100 E1.21067
G1 F300 Z0.56
G0 F6000 X120.262 Y148.666 Z0.56
G1 F300 Z0.24
G1 F2100 E6.21067
G1 F1800 X120.338 Y148.483 E6.22267
G1 X120.6 Y148.003 E6.2558
G1 X120.714 Y147.836 E6.26805
G1 X121.066 Y147.42 E6.30107
G1 X121.206 Y147.283 E6.31294
G1 X121.636 Y146.944 E6.34611
G1 X121.811 Y146.832 E6.3587
G1 X122.304 Y146.588 E6.39203
G1 X122.487 Y146.519 E6.40388
G1 X123.013 Y146.378 E6.43687
G1 X123.219 Y146.346 E6.4495
G1 X123.831 Y146.315 E6.48663
G1 X124.012 Y146.327 E6.49762
G1 X124.555 Y146.415 E6.53095
G1 X124.746 Y146.466 E6.54292
G1 X125.257 Y146.66 E6.57604
G1 X125.432 Y146.746 E6.58785
G1 X125.861 Y147.014 E6.6185
G1 X126.014 Y147.132 E6.63021
G1 X126.41 Y147.504 E6.66312
G1 X126.541 Y147.654 E6.67519
G1 X126.856 Y148.1 E6.70827
G1 X126.954 Y148.273 E6.72032
G1 X127.175 Y148.776 E6.7536
G1 X127.237 Y148.968 E6.76583
G1 X127.35 Y149.498 E6.79866
G1 X127.371 Y149.697 E6.81079
G1 X127.376 Y150.251 E6.84435
G1 X127.356 Y150.444 E6.85611
G1 X127.251 Y150.98 E6.8892
G1 X127.192 Y151.169 E6.90119
G1 X126.983 Y151.671 E6.93414
G1 X126.887 Y151.848 E6.94634
G1 X126.578 Y152.3 E6.97951
G1 X126.448 Y152.454 E6.99172
G1 X126.053 Y152.835 E7.02497
G1 X125.898 Y152.957 E7.03692
G1 X125.44 Y153.249 E7.06983
G1 X125.257 Y153.34 E7.08221
G1 X124.746 Y153.534 E7.11533
G1 X124.555 Y153.585 E7.12731
G1 X124.012 Y153.673 E7.16064
G1 X123.809 Y153.685 E7.17296
G1 X123.267 Y153.661 E7.20583
G1 X123.069 Y153.632 E7.21795
G1 X122.536 Y153.498 E7.25125
G1 X122.35 Y153.431 E7.26323
G1 X121.859 Y153.195 E7.29623
G1 X121.683 Y153.087 E7.30874
G1 X121.251 Y152.756 E7.34172
G1 X121.11 Y152.623 E7.35346
G1 X120.748 Y152.21 E7.38673
G1 X120.629 Y152.043 E7.39916
G1 X120.348 Y151.542 E7.43396
G1 X120.265 Y151.349 E7.44669
G1 X120.112 Y150.855 E7.47802
G1 X120.073 Y150.67 E7.48948
G1 X120.014 Y150.13 E7.52239
G1 X120.012 Y150.001 E7.5302
G0 F1620 X120.012 Y149.93
G0 X120.064 Y149.383
G0 X120.103 Y149.184
G0 X120.262 Y148.666
G1 F2100 E2.5302
G1 F300 Z0.56
G0 F6000 X124.513 Y147.084 Z0.56
;TYPE:WALL-OUTER
G1 F300 Z0.24
G1 F2100 E7.5302
G1 F1800 X125.024 Y147.277 E7.56294
G1 X125.082 Y147.306 E7.56682
G1 X125.511 Y147.574 E7.59714
G1 X125.562 Y147.613 E7.60099
G1 X125.958 Y147.985 E7.63355
G1 X126.002 Y148.035 E7.63754
G1 X126.317 Y148.481 E7.67026
G1 X126.35 Y148.539 E7.67426
G1 X126.571 Y149.042 E7.70718
G1 X126.591 Y149.106 E7.7112
G1 X126.704 Y149.636 E7.74368
G1 X126.711 Y149.702 E7.74766
G1 X126.716 Y150.251 E7.78056
G1 X126.709 Y150.316 E7.78448
G1 X126.603 Y150.852 E7.81722
G1 X126.584 Y150.915 E7.82116
G1 X126.374 Y151.417 E7.85377
G1 X126.342 Y151.476 E7.85779
G1 X126.033 Y151.928 E7.89061
G1 X125.99 Y151.979 E7.8946
G1 X125.595 Y152.36 E7.92749
G1 X125.543 Y152.401 E7.93146
G1 X125.085 Y152.693 E7.96401
G1 X125.024 Y152.723 E7.96809
G1 X124.513 Y152.916 E8.00082
G1 X124.449 Y152.933 E8.00479
G1 X123.875 Y153.025 E8.03963
G1 X123.838 Y153.025 E8.04184
G1 X123.296 Y153.001 E8.07436
G1 X123.23 Y152.992 E8.07835
G1 X122.697 Y152.858 E8.11128
G1 X122.635 Y152.835 E8.11525
G1 X122.144 Y152.6 E8.14787
G1 X122.085 Y152.564 E8.15201
G1 X121.653 Y152.232 E8.18466
G1 X121.606 Y152.188 E8.18852
G1 X121.244 Y151.775 E8.22143
G1 X121.205 Y151.719 E8.22552
G1 X120.923 Y151.218 E8.25998
G1 X120.895 Y151.154 E8.26416
G1 X120.742 Y150.66 E8.29515
G1 X120.729 Y150.598 E8.29895
G1 X120.67 Y150.058 E8.3315
G1 X120.67 Y149.991 E8.33552
G1 X120.721 Y149.444 E8.36844
G1 X120.734 Y149.378 E8.37247
G1 X120.893 Y148.859 E8.405
G1 X120.918 Y148.798 E8.40895
G1 X121.18 Y148.318 E8.44173
G1 X121.218 Y148.262 E8.44578
G1 X121.57 Y147.846 E8.47844
G1 X121.616 Y147.801 E8.48229
G1 X122.046 Y147.461 E8.51515
G1 X122.104 Y147.424 E8.51927
G1 X122.597 Y147.18 E8.55223
G1 X122.658 Y147.157 E8.55614
G1 X123.16 Y147.022 E8.58729
G0 F1620 X123.184 Y147.016
G0 X123.253 Y147.005
G0 X123.845 Y146.975
G0 X123.906 Y146.979
G0 X124.449 Y147.067
G0 X124.513 Y147.084
G0 F6000 X124.812 Y147.197
G1 F2100 E3.58729
G1 F300 Z0.56
G0 F6000 X119.998 Y176.87 Z0.56
;TYPE:WALL-INNER
G1 F300 Z0.24
G1 F2100 E8.58729
G1 F1800 X120.205 Y176.64 E8.60604
G1 X120.637 Y176.243 E8.64159
G1 X120.877 Y176.06 E8.65987
G1 X121.381 Y175.744 E8.69591
G1 X121.655 Y175.606 E8.7145
G1 X122.201 Y175.392 E8.75003
G1 X122.487 Y175.309 E8.76808
G1 X123.065 Y175.196 E8.80376
G1 X123.373 Y175.166 E8.82251
G1 X123.965 Y175.163 E8.85837
G1 X124.267 Y175.189 E8.87674
G1 X124.849 Y175.294 E8.91257
G1 X125.148 Y175.377 E8.93137
G1 X125.7 Y175.589 E8.9672
G1 X125.963 Y175.718 E8.98494
G1 X126.473 Y176.027 E9.02107
G1 X126.73 Y176.219 E9.04051
G1 X127.162 Y176.613 E9.07593
G1 X127.356 Y176.825 E9.09334
G1 X127.715 Y177.289 E9.12889
G1 X127.882 Y177.554 E9.14786
G1 X128.148 Y178.082 E9.18368
G1 X128.257 Y178.358 E9.20166
G1 F1778.4 X128.347 Y178.633 E9.21941
G1 F1731.8 X128.438 Y178.909 E9.23771
G1 F1627.4 X128.532 Y179.214 E9.2591
G1 F1569.4 X128.554 Y179.514 E9.28
G1 F1601.1 X128.577 Y179.814 E9.30049
G1 F1618.5 X128.579 Y180.126 E9.32152
G1 F1605.4 X128.56 Y180.422 E9.34166
G1 F1577.7 X128.54 Y180.718 E9.36217
G1 F1592.5 X128.469 Y181.024 E9.38368
G1 F1663.9 X128.373 Y181.304 E9.40308
G1 F1752.2 X128.277 Y181.585 E9.42157
G1 F1800 X128.168 Y181.868 E9.43994
G1 X127.91 Y182.394 E9.47544
G1 X127.753 Y182.653 E9.49379
G1 X127.398 Y183.13 E9.52981
G1 X127.191 Y183.359 E9.54851
G1 X126.759 Y183.757 E9.5841
G1 X126.52 Y183.939 E9.6023
G1 X125.984 Y184.276 E9.64066
G1 X125.741 Y184.394 E9.65703
G1 X125.193 Y184.608 E9.69267
G1 X124.909 Y184.691 E9.7106
G1 X124.299 Y184.81 E9.74825
G1 X124.023 Y184.834 E9.76504
G1 X123.422 Y184.837 E9.80145
G1 X123.126 Y184.811 E9.81945
G1 X122.544 Y184.705 E9.8553
G1 X122.251 Y184.623 E9.87373
G1 X121.698 Y184.412 E9.90959
G1 X121.43 Y184.281 E9.92766
G1 X120.921 Y183.972 E9.96374
G1 X120.666 Y183.781 E9.98304
G1 X120.233 Y183.387 E10.01851
G1 X120.039 Y183.176 E10.03588
G1 X119.681 Y182.712 E10.07138
G1 X119.512 Y182.442 E10.09068
G1 X119.246 Y181.911 E10.12667
G1 X119.14 Y181.642 E10.14418
G1 F1754.8 X119.042 Y181.371 E10.16209
G1 F1670.9 X118.943 Y181.099 E10.18098
G1 F1590.4 X118.864 Y180.786 E10.20312
G1 F1569.4 X118.842 Y180.486 E10.22402
G1 F1601.1 X118.819 Y180.186 E10.24452
G1 F1618.5 X118.817 Y179.874 E10.26554
G1 F1605.4 X118.836 Y179.578 E10.28569
G1 F1579.8 X118.856 Y179.282 E10.30617
G1 F1636.4 X118.945 Y178.978 E10.32728
G1 F1736.8 X119.032 Y178.695 E10.34587
G1 F1778.4 X119.12 Y178.412 E10.36404
G1 F1800 X119.227 Y178.134 E10.38209
G1 X119.484 Y177.608 E10.41756
G1 X119.643 Y177.347 E10.43608
