;FLAVOR:Marlin
;TIME:264
;Filament used: 0.368366m
;Layer height: 0.32
;MINX:117.312
;MINY:110.301
;MINZ:0.24
;MAXX:131.713
;MAXY:189.7
;MAXZ:1.2
;Generated with Cura_SteamEngine 5.0.0
M140 S70
M105
M190 S70
M104 S245
M105
M109 S245
M82 ;absolute extrusion mode
; Ender 3 Max Custom Start G-code
G92 E0 ; Reset Extruder
G28 ; Home all axes
G1 Z2.0 F3000 ; Move Z Axis up little to prevent scratching of Heat Bed
G1 X0.1 Y20 Z0.3 F5000.0 ; Move to start position
G1 X0.1 Y200.0 Z0.3 F1500.0 E15 ; Draw the first line
G1 X0.4 Y200.0 Z0.3 F5000.0 ; Move to side a little
G1 X0.4 Y20 Z0.3 F1500.0 E30 ; Draw the second line
G92 E0 ; Reset Extruder
G1 Z2.0 F3000 ; Move Z Axis up little to prevent scratching of Heat Bed
G1 X5 Y20 Z0.3 F5000.0 ; Move over to prevent blob squish
G92 E0
G92 E0
G1 F2100 E-5
;LAYER_COUNT:3
;LAYER:0
M107
G1 F300 Z0.56
;MESH:2080-washer-mean-well-hlg-240h.stl
G0 F6000 X129.251 Y118.906 Z0.56
;TYPE:WALL-INNER
G1 F300 Z0.24
G1 F2100 E0
G1 F1629.6 X129.347 Y119.214 E0.02159
G1 F1569.4 X129.369 Y119.514 E0.04249
G1 F1601.1 X129.392 Y119.814 E0.06299
G1 F1623 X129.398 Y119.98 E0.07415
G1 X129.394 Y120.126 E0.08396
G1 F1605.4 X129.375 Y120.422 E0.10411
G1 F1577.7 X129.355 Y120.718 E0.12462
G1 F1594.6 X129.284 Y121.027 E0.1463
G1 F1666.2 X129.187 Y121.307 E0.1657
G1 F1754.8 X129.09 Y121.588 E0.18417
G1 F1800 X128.983 Y121.868 E0.20233
G1 X128.725 Y122.394 E0.23783
G1 X128.568 Y122.65 E0.25602
G1 X128.218 Y123.124 E0.29172
G1 X128.011 Y123.354 E0.31047
G1 X127.576 Y123.755 E0.34631
G1 X127.335 Y123.939 E0.36468
G1 X126.832 Y124.254 E0.40064
G1 X126.556 Y124.394 E0.41939
G1 X126.009 Y124.608 E0.45498
G1 X125.724 Y124.691 E0.47296
G1 X125.146 Y124.804 E0.50865
G1 X124.838 Y124.834 E0.5274
G1 X124.246 Y124.837 E0.56326
G1 X123.941 Y124.811 E0.58181
G1 X123.359 Y124.705 E0.61765
G1 X123.066 Y124.623 E0.63608
G1 X122.513 Y124.412 E0.67194
G1 X122.245 Y124.281 E0.69002
G1 X121.736 Y123.972 E0.72609
G1 X121.481 Y123.781 E0.7454
G1 X121.048 Y123.387 E0.78087
G1 X120.853 Y123.175 E0.79832
G1 X120.494 Y122.709 E0.83396
G1 X120.327 Y122.443 E0.85299
G1 X120.061 Y121.914 E0.88886
G1 X119.953 Y121.639 E0.90676
G1 F1754.8 X119.855 Y121.367 E0.92473
G1 F1670.9 X119.757 Y121.095 E0.9436
G1 F1590.4 X119.679 Y120.786 E0.96545
G1 F1569.4 X119.657 Y120.486 E0.98636
G1 F1601.1 X119.634 Y120.186 E1.00685
G1 F1618.5 X119.632 Y119.874 E1.02787
G1 F1605.4 X119.651 Y119.578 E1.04802
G1 F1579.8 X119.671 Y119.282 E1.0685
G1 F1636.4 X119.758 Y118.981 E1.08938
G1 F1734.3 X119.846 Y118.698 E1.10802
G1 F1778.4 X119.934 Y118.415 E1.12619
G1 F1800 X120.042 Y118.132 E1.14455
G1 X120.3 Y117.606 E1.18004
G1 X120.458 Y117.347 E1.19842
G1 X120.813 Y116.87 E1.23445
G1 X121.02 Y116.64 E1.25319
G1 X121.452 Y116.243 E1.28874
G1 X121.692 Y116.06 E1.30703
G1 X122.228 Y115.724 E1.34536
G1 X122.47 Y115.606 E1.36167
G1 X123.016 Y115.392 E1.3972
G1 X123.302 Y115.309 E1.41524
G1 X123.912 Y115.19 E1.45289
G1 X124.188 Y115.166 E1.46968
G1 X124.789 Y115.163 E1.50609
G1 X125.083 Y115.188 E1.52397
G1 X125.664 Y115.293 E1.55974
G1 X125.963 Y115.377 E1.57856
G1 X126.515 Y115.589 E1.61438
G1 X126.783 Y115.72 E1.63246
G1 X127.288 Y116.027 E1.66826
G1 X127.544 Y116.218 E1.68761
G1 X127.977 Y116.612 E1.72308
G1 X128.176 Y116.829 E1.74092
G1 X128.533 Y117.295 E1.77649
G1 X128.697 Y117.556 E1.79516
G1 X128.962 Y118.082 E1.83085
G1 X129.07 Y118.355 E1.84864
G1 F1778.4 X129.16 Y118.63 E1.86638
G1 F1734.3 X129.251 Y118.906 E1.88465
G1 F2100 E-3.11535
G1 F300 Z0.56
G0 F6000 X120.378 Y119.343 Z0.56
G1 F300 Z0.24
G1 F2100 E1.88465
G1 F1802.7 X120.411 Y119.163 E1.89572
G1 X120.57 Y118.592 E1.93158
G1 F1800 X120.635 Y118.423 E1.94255
G1 X120.892 Y117.896 E1.97807
G1 X120.987 Y117.741 E1.98909
G1 X121.342 Y117.264 E2.02511
G1 X121.466 Y117.126 E2.03635
G1 X121.898 Y116.729 E2.0719
G1 X122.34 Y116.434 E2.1041
G1 X122.566 Y116.292 E2.12027
G1 X122.711 Y116.221 E2.13005
G1 X123.257 Y116.007 E2.16558
G1 X123.428 Y115.957 E2.17637
G1 X124.026 Y115.84 E2.21329
G1 X124.191 Y115.826 E2.22333
G1 X124.789 Y115.823 E2.25956
G1 X124.965 Y115.838 E2.27026
G1 X125.547 Y115.943 E2.30609
G1 X125.726 Y115.993 E2.31735
G1 X126.278 Y116.205 E2.35317
G1 X126.567 Y116.361 E2.37307
G1 X126.946 Y116.592 E2.39996
G1 X127.1 Y116.706 E2.41157
G1 X127.533 Y117.1 E2.44704
G1 X127.652 Y117.231 E2.45776
G1 X128.009 Y117.697 E2.49333
G1 X128.107 Y117.853 E2.50449
G1 X128.372 Y118.379 E2.54018
G1 X128.438 Y118.543 E2.55089
G1 X128.602 Y119.099 E2.58601
G1 X128.639 Y119.284 E2.59744
G1 X128.698 Y119.883 E2.63391
G1 X128.703 Y119.98 E2.63979
G1 X128.699 Y120.066 E2.64501
G1 X128.648 Y120.657 E2.68095
G1 F1802.7 X128.614 Y120.839 E2.69215
G1 X128.455 Y121.409 E2.72795
G1 F1800 X128.39 Y121.578 E2.73892
G1 X128.132 Y122.103 E2.77436
G1 X128.038 Y122.257 E2.78529
G1 X127.688 Y122.73 E2.82094
G1 X127.564 Y122.869 E2.83222
G1 X127.129 Y123.269 E2.86803
G1 X126.984 Y123.38 E2.87909
G1 X126.481 Y123.696 E2.91508
G1 X126.315 Y123.779 E2.92633
G1 X125.768 Y123.994 E2.96193
G1 X125.597 Y124.043 E2.97271
G1 X125.019 Y124.156 E3.00839
G1 X124.482 Y124.176 E3.04095
G1 X124.154 Y124.174 E3.06082
G1 X124.059 Y124.162 E3.06663
G1 X123.477 Y124.056 E3.10247
G1 X123.302 Y124.006 E3.11349
G1 X122.748 Y123.796 E3.14939
G1 X122.588 Y123.717 E3.1602
G1 X122.079 Y123.408 E3.19628
G1 X121.925 Y123.293 E3.20792
G1 X121.493 Y122.899 E3.24335
G1 X121.376 Y122.772 E3.25381
G1 X121.017 Y122.306 E3.28945
G1 X120.917 Y122.146 E3.30088
G1 X120.651 Y121.617 E3.33675
G1 X120.586 Y121.453 E3.34744
G1 X120.423 Y120.899 E3.38243
G1 X120.387 Y120.716 E3.39373
G1 X120.385 Y120.702 E3.39459
G0 F1620 X120.328 Y120.117
G0 X120.327 Y119.934
G0 X120.378 Y119.343
G0 F6000 X121.036 Y119.4
;TYPE:WALL-OUTER
G1 F1802.7 X121.047 Y119.34 E3.39824
G1 X121.206 Y118.77 E3.43365
G1 F1800 X121.227 Y118.713 E3.43729
G1 X121.485 Y118.187 E3.4724
G1 X121.517 Y118.135 E3.47606
G1 X121.872 Y117.658 E3.51169
G1 X121.913 Y117.612 E3.51538
G1 X122.345 Y117.215 E3.55054
G1 X122.69 Y116.993 E3.57513
G1 X122.904 Y116.859 E3.59026
G1 X122.952 Y116.835 E3.59348
G1 X123.498 Y116.621 E3.62862
G1 X123.555 Y116.605 E3.63217
G1 X124.14 Y116.49 E3.6679
G1 X124.195 Y116.486 E3.6712
G1 X124.789 Y116.483 E3.7068
G1 X124.848 Y116.488 E3.71035
G1 X125.43 Y116.593 E3.74579
G1 X125.49 Y116.609 E3.74951
G1 X126.042 Y116.821 E3.78495
G1 X126.378 Y117.018 E3.80829
G1 X126.604 Y117.156 E3.82416
G1 X126.656 Y117.194 E3.82802
G1 X127.089 Y117.588 E3.8631
G1 X127.128 Y117.632 E3.86662
G1 X127.485 Y118.098 E3.9018
G1 X127.518 Y118.15 E3.90549
G1 X127.783 Y118.676 E3.94079
G1 X127.805 Y118.731 E3.94434
G1 X127.97 Y119.287 E3.9791
G1 X127.982 Y119.348 E3.98282
G1 X128.043 Y119.98 E4.02087
G1 X127.987 Y120.628 E4.05985
G1 X127.819 Y121.231 E4.09736
G1 X127.798 Y121.287 E4.10095
G1 X127.54 Y121.813 E4.13606
G1 X127.508 Y121.864 E4.13967
G1 X127.158 Y122.337 E4.17493
G1 X127.116 Y122.383 E4.17866
G1 X126.681 Y122.784 E4.21412
G1 X126.633 Y122.821 E4.21775
G1 X126.13 Y123.137 E4.25335
G1 X126.075 Y123.165 E4.25705
G1 X125.528 Y123.379 E4.29225
G1 X125.471 Y123.395 E4.29579
G1 X124.893 Y123.508 E4.33109
G1 X124.478 Y123.516 E4.35596
G1 X124.209 Y123.516 E4.37208
G1 X124.177 Y123.512 E4.37402
G1 X123.595 Y123.406 E4.40947
G1 X123.537 Y123.39 E4.41307
G1 X122.984 Y123.179 E4.44855
G1 X122.93 Y123.153 E4.45214
G1 X122.421 Y122.844 E4.48782
G1 X122.37 Y122.805 E4.49167
G1 X121.938 Y122.411 E4.52671
G1 X121.899 Y122.369 E4.53014
G1 X121.54 Y121.903 E4.5654
G1 X121.507 Y121.85 E4.56914
G1 X121.241 Y121.321 E4.60462
G1 X121.219 Y121.266 E4.60817
G1 X121.068 Y120.756 E4.64005
G0 F1620 X121.056 Y120.713
G0 X121.044 Y120.652
G0 X120.985 Y120.053
G0 X120.985 Y119.991
G0 X121.036 Y119.4
G0 F6000 X121.047 Y119.34
G0 X121.116 Y119.091
G1 F2100 E-0.35995
G1 F300 Z0.56
G0 F6000 X123.999 Y145.687 Z0.56
;TYPE:WALL-INNER
G1 F300 Z0.24
G1 F2100 E4.64005
G1 F1800 X124.632 Y145.655 E4.67845
G1 X124.776 Y145.658 E4.68717
G1 X124.932 Y145.676 E4.69669
G1 X125.475 Y145.764 E4.73001
G1 X125.791 Y145.848 E4.74982
G1 X126.302 Y146.04 E4.7829
G1 X126.609 Y146.194 E4.80371
G1 X127.069 Y146.487 E4.83675
G1 X127.326 Y146.69 E4.85659
G1 X127.721 Y147.071 E4.88984
G1 X127.936 Y147.324 E4.90996
G1 X128.243 Y147.772 E4.94286
G1 X128.404 Y148.068 E4.96328
G1 X128.616 Y148.572 E4.9964
G1 X128.712 Y148.886 E5.0163
G1 X128.819 Y149.421 E5.04935
G1 X128.851 Y149.745 E5.06908
G1 X128.846 Y150.308 E5.10319
G1 X128.823 Y150.58 E5.11973
G1 X128.698 Y151.17 E5.15627
G1 X128.594 Y151.487 E5.17648
G1 X128.376 Y151.987 E5.20953
G1 X128.213 Y152.275 E5.22958
G1 X127.9 Y152.722 E5.26264
G1 X127.68 Y152.974 E5.28291
G1 X127.281 Y153.349 E5.31608
G1 X127.016 Y153.552 E5.33631
G1 X126.548 Y153.839 E5.36957
G1 X126.244 Y153.986 E5.39003
G1 X125.731 Y154.17 E5.42305
G1 X125.409 Y154.251 E5.44317
G1 X124.868 Y154.33 E5.47629
G1 X124.602 Y154.347 E5.49244
G1 X124.532 Y154.345 E5.49668
G1 X123.987 Y154.313 E5.52976
G1 X123.655 Y154.259 E5.55014
G1 X123.131 Y154.118 E5.58301
G1 X122.828 Y154.004 E5.60263
G1 X122.334 Y153.76 E5.63601
G1 X122.039 Y153.574 E5.65714
G1 X121.61 Y153.234 E5.6903
G1 X121.382 Y153.014 E5.7095
G1 X121.054 Y152.631 E5.74005
G1 X120.871 Y152.369 E5.75941
G1 X120.587 Y151.868 E5.79431
G1 X120.447 Y151.542 E5.8158
G1 X120.295 Y151.048 E5.84712
G1 X120.232 Y150.742 E5.86604
G1 X120.173 Y150.202 E5.89896
G1 X120.17 Y149.868 E5.91919
G1 X120.222 Y149.322 E5.95242
G1 X120.285 Y148.994 E5.97266
G1 X120.444 Y148.475 E6.00554
G1 X120.574 Y148.165 E6.02591
G1 X120.836 Y147.685 E6.05904
G1 X121.023 Y147.411 E6.07914
G1 X121.374 Y146.995 E6.11212
G1 X121.61 Y146.766 E6.13204
G1 X122.039 Y146.426 E6.16521
G1 X122.334 Y146.24 E6.18634
G1 X122.694 Y146.062 E6.21067
G0 F1620 X122.828 Y145.996
G0 X123.131 Y145.882
G0 X123.655 Y145.741
G0 X123.999 Y145.687
G0 F6000 X123.827 Y146.378
G1 F1800 X124.033 Y146.346 E6.2233
G1 X124.646 Y146.315 E6.26049
G1 X124.733 Y146.317 E6.26576
G1 X124.826 Y146.327 E6.27142
G1 X125.369 Y146.415 E6.30475
G1 X125.559 Y146.466 E6.31667
G1 X126.07 Y146.658 E6.34974
G1 X126.254 Y146.75 E6.36221
G1 X126.713 Y147.043 E6.3952
G1 X126.868 Y147.165 E6.40715
G1 X127.263 Y147.546 E6.4404
G1 X127.392 Y147.698 E6.45248
G1 X127.699 Y148.145 E6.48533
G1 X127.796 Y148.323 E6.49762
G1 X128.007 Y148.827 E6.53072
G1 X128.064 Y149.015 E6.54262
G1 X128.171 Y149.55 E6.57568
G1 X128.19 Y149.753 E6.58803
G1 X128.186 Y150.303 E6.62135
G1 X128.165 Y150.502 E6.63348
G1 X128.052 Y151.032 E6.66631
G1 X127.99 Y151.222 E6.67842
G1 X127.771 Y151.723 E6.71155
G1 X127.674 Y151.895 E6.72351
G1 X127.36 Y152.342 E6.75661
G1 X127.228 Y152.493 E6.76876
G1 X126.829 Y152.868 E6.80193
G1 X126.67 Y152.99 E6.81408
G1 X126.203 Y153.277 E6.84729
G1 X126.02 Y153.365 E6.85959
G1 X125.507 Y153.55 E6.89263
G1 X125.314 Y153.598 E6.90468
G1 X124.772 Y153.677 E6.93786
G1 X124.57 Y153.686 E6.95011
G1 X124.026 Y153.654 E6.98313
G1 X123.827 Y153.622 E6.99534
G1 X123.302 Y153.481 E7.02828
G1 X123.12 Y153.412 E7.04007
G1 X122.626 Y153.168 E7.07345
G1 X122.449 Y153.057 E7.08611
G1 X122.02 Y152.717 E7.11927
G1 X121.884 Y152.585 E7.13076
G1 X121.556 Y152.202 E7.16131
G1 X121.445 Y152.045 E7.17296
G1 X121.162 Y151.543 E7.20787
G1 X121.078 Y151.348 E7.22074
G1 X120.926 Y150.854 E7.25205
G1 X120.888 Y150.67 E7.26343
G1 X120.829 Y150.13 E7.29634
G1 X120.827 Y149.93 E7.30846
G1 X120.879 Y149.383 E7.34175
G1 X120.917 Y149.186 E7.35391
G1 X121.075 Y148.667 E7.38678
G1 X121.153 Y148.481 E7.399
G1 X121.415 Y148.001 E7.43213
G1 X121.528 Y147.837 E7.4442
G1 X121.879 Y147.421 E7.47717
G1 X122.02 Y147.283 E7.48913
G1 X122.449 Y146.943 E7.52229
G1 X122.562 Y146.872 E7.53038
G0 F1620 X122.626 Y146.832
G0 X123.12 Y146.588
G0 X123.302 Y146.519
G0 X123.827 Y146.378
G1 F2100 E2.53038
G1 F300 Z0.56
G0 F6000 X123.473 Y152.843 Z0.56
;TYPE:WALL-OUTER
G1 F300 Z0.24
G1 F2100 E7.53038
G1 F1800 X123.412 Y152.82 E7.53428
G1 X122.918 Y152.576 E7.5673
G1 X122.859 Y152.539 E7.57148
G1 X122.43 Y152.199 E7.60428
G1 X122.385 Y152.155 E7.60805
G1 X122.057 Y151.772 E7.63827
G1 X122.02 Y151.72 E7.6421
G1 X121.737 Y151.219 E7.67658
G1 X121.709 Y151.154 E7.68082
G1 X121.557 Y150.66 E7.71179
G1 X121.544 Y150.598 E7.71559
G1 X121.485 Y150.058 E7.74814
G1 X121.485 Y149.991 E7.75216
G1 X121.536 Y149.444 E7.78508
G1 X121.549 Y149.378 E7.78911
G1 X121.707 Y148.859 E7.82163
G1 X121.733 Y148.797 E7.82565
G1 X121.995 Y148.317 E7.85843
G1 X122.032 Y148.263 E7.86235
G1 X122.383 Y147.847 E7.89497
G1 X122.43 Y147.801 E7.89891
G1 X122.859 Y147.461 E7.93171
G1 X122.918 Y147.424 E7.93589
G1 X123.412 Y147.18 E7.96891
G1 X123.473 Y147.157 E7.97281
G1 X124.033 Y147.008 E8.00754
G1 X124.65 Y146.975 E8.04457
G1 X124.689 Y146.975 E8.04691
G1 X125.263 Y147.067 E8.08174
G1 X125.327 Y147.084 E8.08571
G1 X125.838 Y147.276 E8.11843
G1 X125.899 Y147.306 E8.1225
G1 X126.358 Y147.599 E8.15513
G1 X126.41 Y147.64 E8.1591
G1 X126.805 Y148.021 E8.19199
G1 X126.848 Y148.072 E8.19599
G1 X127.155 Y148.519 E8.22848
G1 X127.187 Y148.578 E8.23251
G1 X127.398 Y149.082 E8.26525
G1 X127.417 Y149.145 E8.26919
G1 X127.524 Y149.68 E8.30189
G1 X127.53 Y149.748 E8.30598
G1 X127.526 Y150.298 E8.33894
G1 X127.519 Y150.364 E8.34292
G1 X127.406 Y150.894 E8.3754
G1 X127.386 Y150.958 E8.37941
G1 X127.167 Y151.458 E8.41213
G1 X127.134 Y151.515 E8.41607
G1 X126.82 Y151.962 E8.44881
G1 X126.776 Y152.012 E8.4528
G1 X126.377 Y152.387 E8.48562
G1 X126.324 Y152.428 E8.48963
G1 X125.857 Y152.715 E8.52248
G1 X125.796 Y152.744 E8.52653
G1 X125.283 Y152.929 E8.55921
G1 X125.219 Y152.945 E8.56316
G1 X124.814 Y153.004 E8.58769
G0 F1620 X124.677 Y153.024
G0 X124.609 Y153.027
G0 X124.032 Y152.992
G0 X123.473 Y152.843
G0 F6000 X123.412 Y152.82
G0 X123.183 Y152.707
G1 F2100 E3.58769
G1 F300 Z0.56
G0 F6000 X120.813 Y176.87 Z0.56
;TYPE:WALL-INNER
G1 F300 Z0.24
G1 F2100 E8.58769
G1 F1800 X121.02 Y176.64 E8.60644
G1 X121.452 Y176.243 E8.64199
G1 X121.692 Y176.06 E8.66027
G1 X122.196 Y175.744 E8.69631
G1 X122.47 Y175.606 E8.7149
G1 X123.016 Y175.392 E8.75043
G1 X123.302 Y175.309 E8.76847
G1 X123.88 Y175.196 E8.80415
G1 X124.188 Y175.166 E8.8229
G1 X124.78 Y175.163 E8.85877
G1 X125.082 Y175.189 E8.87714
G1 X125.664 Y175.294 E8.91297
G1 X125.963 Y175.377 E8.93177
G1 X126.515 Y175.589 E8.96759
G1 X126.778 Y175.718 E8.98534
G1 X127.288 Y176.027 E9.02147
G1 X127.544 Y176.218 E9.04082
G1 X127.977 Y176.612 E9.07629
G1 X128.176 Y176.829 E9.09413
G1 X128.533 Y177.295 E9.12969
G1 X128.697 Y177.556 E9.14837
G1 X128.962 Y178.082 E9.18405
G1 X129.07 Y178.355 E9.20184
G1 F1778.4 X129.16 Y178.63 E9.21959
G1 F1734.3 X129.251 Y178.906 E9.23786
G1 F1629.6 X129.347 Y179.214 E9.25945
G1 F1569.4 X129.369 Y179.514 E9.28035
G1 F1601.1 X129.392 Y179.814 E9.30085
G1 F1618.5 X129.394 Y180.126 E9.32187
G1 F1605.4 X129.375 Y180.422 E9.34202
G1 F1577.7 X129.355 Y180.718 E9.36253
G1 F1594.6 X129.284 Y181.027 E9.38421
G1 F1666.2 X129.187 Y181.307 E9.4036
G1 F1754.8 X129.09 Y181.588 E9.42208
G1 F1800 X128.983 Y181.868 E9.44024
G1 X128.725 Y182.394 E9.47573
G1 X128.568 Y182.65 E9.49393
G1 X128.218 Y183.124 E9.52963
G1 X128.011 Y183.354 E9.54838
G1 X127.576 Y183.755 E9.58422
G1 X127.335 Y183.939 E9.60259
G1 X126.799 Y184.276 E9.64095
G1 X126.556 Y184.394 E9.65732
G1 X126.008 Y184.608 E9.69296
G1 X125.724 Y184.691 E9.71089
G1 X125.114 Y184.81 E9.74854
G1 X124.838 Y184.834 E9.76533
G1 X124.237 Y184.837 E9.80174
G1 X123.941 Y184.811 E9.81974
G1 X123.359 Y184.705 E9.85558
G1 X123.066 Y184.623 E9.87402
G1 X122.513 Y184.412 E9.90988
G1 X122.245 Y184.281 E9.92795
G1 X121.736 Y183.972 E9.96403
G1 X121.481 Y183.781 E9.98333
G1 X121.048 Y183.387 E10.0188
G1 X120.853 Y183.175 E10.03625
G1 X120.494 Y182.709 E10.07189
G1 X120.327 Y182.443 E10.09092
G1 X120.061 Y181.914 E10.12679
G1 X119.953 Y181.639 E10.14469
G1 F1754.8 X119.855 Y181.367 E10.16266
G1 F1670.9 X119.757 Y181.095 E10.18153
G1 F1590.4 X119.679 Y180.786 E10.20339
G1 F1569.4 X119.657 Y180.486 E10.22429
G1 F1601.1 X119.634 Y180.186 E10.24478
G1 F1618.5 X119.632 Y179.874 E10.26581
G1 F1605.4 X119.651 Y179.578 E10.28596
G1 F1579.8 X119.671 Y179.282 E10.30644
G1 F1636.4 X119.758 Y178.981 E10.32732
G1 F1734.3 X119.846 Y178.698 E10.34595
