(Project case-rear)
(Created by Estlcam version 11 build 11.245)
(Machining time about 00:14:14 hours)

(Required tools:)
(1/8")
(1/8" Troch)
(1/8")
(1/8" Troch)
(1/8")
G21
G90
G94
M03 S10000
G00 X0.0000 Y0.0000 Z0.0000 F4000
G00 Z8.0000 F


(No. 1: Drill 1)
G00 F4000
G00 X-0.0030 Y-0.0086
G00 Z0.5000 F
G01 Z-3.2000 F120 S10000
G00 Z8.0000 F


(No. 2: Hole 48)
M05
M00 (Change tool: 1/8" Troch)
M03 S10000
G00 X17.9032 Y10.9425 Z8.0000 F4000
G00 X18.6861 Y10.8045 Z0.5107 F
G01 X18.6502 Y10.6706 Z0.5223 F180
G01 X18.5917 Y10.5450 Z0.5447
G01 X18.5122 Y10.4315 Z0.5670
G01 X18.4142 Y10.3335 Z0.5786
G01 X18.3007 Y10.2541 Z0.5717
G01 X18.1751 Y10.1955 Z0.5433
G01 X18.0412 Y10.1596 Z0.4963
G01 X17.9032 Y10.1475 Z0.4387
G01 X17.7651 Y10.1596 Z0.3810
G01 X17.6313 Y10.1955 Z0.3341
G01 X17.5057 Y10.2541 Z0.3057
G01 X17.3922 Y10.3335 Z0.2987
G01 X17.2942 Y10.4315 Z0.3103
G01 X17.2147 Y10.5450 Z0.3327
G01 X17.1561 Y10.6706 Z0.3550
G01 X17.1203 Y10.8045 Z0.3666
G01 X17.1082 Y10.9425 Z0.3597
G01 X17.1203 Y11.0806 Z0.3313
G01 X17.1561 Y11.2144 Z0.2843
G01 X17.2147 Y11.3400 Z0.2267
G01 X17.2942 Y11.4536 Z0.1690
G01 X17.3922 Y11.5515 Z0.1221
G01 X17.5057 Y11.6310 Z0.0937
G01 X17.6313 Y11.6896 Z0.0867
G01 X17.7651 Y11.7255 Z0.0983
G01 X17.9032 Y11.7375 Z0.1207
G01 X18.0412 Y11.7255 Z0.1430
G01 X18.1751 Y11.6896 Z0.1546
G01 X18.2141 Y11.6742 Z0.1547
G01 X18.3267 Y11.6184 Z0.1474
G01 X18.4262 Y11.5422 Z0.1190
G01 X18.4835 Y11.4817 Z0.0904
G01 X18.5545 Y11.3784 Z0.0390
G01 X18.6047 Y11.2629 Z-0.0127
G01 X18.6256 Y11.1813 Z-0.0420
G01 X18.6380 Y11.0546 Z-0.0717
G01 X18.6263 Y10.9263 Z-0.0804
G01 X18.6052 Y10.8422 Z-0.0747
G01 X18.5546 Y10.7212 Z-0.0529
G01 X18.4817 Y10.6095 Z-0.0233
G01 X18.4219 Y10.5424 Z-0.0047
G01 X18.3173 Y10.4549 Z0.0136
G01 X18.1971 Y10.3859
G01 X18.1102 Y10.3514 Z0.0016
G01 X17.9723 Y10.3184 Z-0.0329
G01 X17.8287 Y10.3089 Z-0.0816
G01 X17.7322 Y10.3160 Z-0.1170
G01 X17.5890 Y10.3470 Z-0.1665
G01 X17.4512 Y10.4015 Z-0.2026
G01 X17.3646 Y10.4502 Z-0.2157
G01 X17.2452 Y10.5411 Z-0.2175
G01 X17.1412 Y10.6506 Z-0.2005
G01 X17.0821 Y10.7323 Z-0.1824
G01 X17.0109 Y10.8663 Z-0.1526
G01 X16.9617 Y11.0100 Z-0.1297
G01 X16.9419 Y11.1090 Z-0.1229
G01 X16.9329 Y11.2603 Z-0.1298
G01 X16.9481 Y11.4104 Z-0.1579
G01 X16.9713 Y11.5074 Z-0.1864
G01 X17.0257 Y11.6466 Z-0.2376
G01 X17.1011 Y11.7738 Z-0.2895
G01 X17.1618 Y11.8501 Z-0.3189
G01 X17.2674 Y11.9502 Z-0.3490
G01 X17.3866 Y12.0303 Z-0.3581
G01 X17.4714 Y12.0714 Z-0.3526
G01 X17.6053 Y12.1140 Z-0.3309
G01 X17.7423 Y12.1326 Z-0.3014
G01 X17.8330 Y12.1316 Z-0.2828
G01 X17.9665 Y12.1105 Z-0.2642
G01 X18.0920 Y12.0665 Z-0.2638
G01 X18.1691 Y12.0255 Z-0.2755
G01 X18.2736 Y11.9478 Z-0.3098
G01 X18.3608 Y11.8533 Z-0.3583
G01 X18.4077 Y11.7829 Z-0.3937
G01 X18.4611 Y11.6680 Z-0.4433
G01 X18.4915 Y11.5459 Z-0.4797
G01 X18.4984 Y11.4628 Z-0.4931
G01 X18.4895 Y11.3379 Z-0.4953
G01 X18.4567 Y11.2169 Z-0.4785
G01 X18.4222 Y11.1407 Z-0.4605
G01 X18.3532 Y11.0350 Z-0.4307
G01 X18.2647 Y10.9436 Z-0.4076
G01 X18.1964 Y10.8923 Z-0.4006
G01 X18.0824 Y10.8311 Z-0.4071
G01 X17.9574 Y10.7914 Z-0.4348
G01 X17.8701 Y10.7777 Z-0.4631
G01 X17.7361 Y10.7767 Z-0.5143
G01 X17.6018 Y10.7999 Z-0.5662
G01 X17.5145 Y10.8286 Z-0.5957
G01 X17.3897 Y10.8906 Z-0.6262
G01 X17.2755 Y10.9744 Z-0.6357
G01 X17.2072 Y11.0411 Z-0.6305
G01 X17.1191 Y11.1557 Z-0.6090
G01 X17.0502 Y11.2849 Z-0.5795
G01 X17.0162 Y11.3772 Z-0.5608
G01 X16.9846 Y11.5224 Z-0.5420
G01 X16.9768 Y11.6722 Z-0.5413
G01 X16.9850 Y11.7722 Z-0.5527
G01 X17.0179 Y11.9198 Z-0.5866
G01 X17.0741 Y12.0608 Z-0.6349
G01 X17.1235 Y12.1489 Z-0.6703
G01 X17.2154 Y12.2699 Z-0.7201
G01 X17.3250 Y12.3746 Z-0.7568
G01 X17.4062 Y12.4337 Z-0.7704
G01 X17.5390 Y12.5047 Z-0.7730
G01 X17.6804 Y12.5531 Z-0.7566
G01 X17.7771 Y12.5722 Z-0.7387
G01 X17.9243 Y12.5804 Z-0.7089
G01 X18.0691 Y12.5645 Z-0.6855
G01 X18.1619 Y12.5411 Z-0.6783
G01 X18.2940 Y12.4868 Z-0.6844
G01 X18.4132 Y12.4121 Z-0.7118
G01 X18.4836 Y12.3525 Z-0.7399
G01 X18.5746 Y12.2493 Z-0.7909
G01 X18.6448 Y12.1337 Z-0.8429
G01 X18.6791 Y12.0519 Z-0.8726
G01 X18.7116 Y11.9236 Z-0.9034
G01 X18.7200 Y11.7936 Z-0.9133
G01 X18.7123 Y11.7082 Z-0.9083
G01 X18.6816 Y11.5839 Z-0.8871
G01 X18.6285 Y11.4688 Z-0.8577
G01 X18.5818 Y11.3993 Z-0.8389
G01 X18.4966 Y11.3070 Z-0.8198
G01 X18.3956 Y11.2329 Z-0.8187
G01 X18.3214 Y11.1950 Z-0.8298
G01 X18.2022 Y11.1559 Z-0.8634
G01 X18.0770 Y11.1401 Z-0.9116
G01 X17.9926 Y11.1429 Z-0.9469
G01 X17.8671 Y11.1666 Z-0.9969
G01 X17.7468 Y11.2139 Z-1.0339
G01 X17.6717 Y11.2578 Z-1.0478
G01 X17.5691 Y11.3405 Z-1.0507
G01 X17.4817 Y11.4420 Z-1.0346
G01 X17.4336 Y11.5184 Z-1.0168
G01 X17.3782 Y11.6437 Z-0.9870
G01 X17.3449 Y11.7789 Z-0.9634
G01 X17.3356 Y11.8724 Z-0.9560
G01 X17.3419 Y12.0146 Z-0.9617
G01 X17.3724 Y12.1558 Z-0.9887
G01 X17.4049 Y12.2451 Z-1.0159
G01 X17.4738 Y12.3749 Z-1.0668
G01 X17.5639 Y12.4931 Z-1.1189
G01 X17.6327 Y12.5620 Z-1.1483
G01 X17.7525 Y12.6527 Z-1.1800
G01 X17.8861 Y12.7237 Z-1.1909
G01 X17.9786 Y12.7581 Z-1.1867
G01 X18.1267 Y12.7912 Z-1.1664
G01 X18.2784 Y12.8004 Z-1.1371
G01 X18.3768 Y12.7934 Z-1.1185
G01 X18.5250 Y12.7623 Z-1.0983
G01 X18.6656 Y12.7082 Z-1.0956
G01 X18.7511 Y12.6614 Z-1.1053
G01 X18.8709 Y12.5727 Z-1.1372
G01 X18.9737 Y12.4667 Z-1.1845
G01 X19.0301 Y12.3902 Z-1.2190
G01 X19.0991 Y12.2625 Z-1.2697
G01 X19.1452 Y12.1270 Z-1.3085
G01 X19.1624 Y12.0367 Z-1.3236
G01 X19.1689 Y11.8967 Z-1.3291
G01 X19.1514 Y11.7600 Z-1.3149
G01 X19.1276 Y11.6748 Z-1.2982
G01 X19.0729 Y11.5516 Z-1.2684
G01 X18.9983 Y11.4420 Z-1.2434
G01 X18.9403 Y11.3797 Z-1.2345
G01 X18.8386 Y11.2987 Z-1.2371
G01 X18.7252 Y11.2388 Z-1.2610
G01 X18.6470 Y11.2120 Z-1.2868
G01 X18.5224 Y11.1896 Z-1.3364
G01 X18.3967 Y11.1914 Z-1.3891
G01 X18.3164 Y11.2054 Z-1.4197
G01 X18.1978 Y11.2455 Z-1.4541
G01 X18.0889 Y11.3077 Z-1.4683
G01 X18.0251 Y11.3591 Z-1.4660
G01 X17.9399 Y11.4523 Z-1.4478
G01 X17.8733 Y11.5609 Z-1.4192
G01 X17.8411 Y11.6382 Z-1.4001
G01 X17.8098 Y11.7639 Z-1.3779
G01 X17.8021 Y11.8950 Z-1.3723
G01 X17.8099 Y11.9813 Z-1.3799
G01 X17.8415 Y12.1117 Z-1.4089
G01 X17.8967 Y12.2366 Z-1.4544
G01 X17.9445 Y12.3128 Z-1.4886
G01 X18.0348 Y12.4193 Z-1.5403
G01 X18.1436 Y12.5102 Z-1.5814
G01 X18.2230 Y12.5596 Z-1.5985
G01 X18.3334 Y12.6334 Z-1.6072
G01 X18.4535 Y12.6851 Z-1.5956
G01 X18.5350 Y12.7062 Z-1.5800
G01 X18.6619 Y12.7182 Z-1.5504
G01 X18.7876 Y12.7060 Z-1.5240
G01 X18.8667 Y12.6854 Z-1.5135
G01 X18.9811 Y12.6343 Z-1.5129
G01 X19.0836 Y12.5621 Z-1.5338
G01 X19.1422 Y12.5050 Z-1.5579
G01 X19.2175 Y12.4029 Z-1.6062
G01 X19.2728 Y12.2872 Z-1.6591
G01 X19.2970 Y12.2065 Z-1.6908
G01 X19.3149 Y12.0758 Z-1.7278
G01 X19.3088 Y11.9420 Z-1.7451
G01 X19.2918 Y11.8553 Z-1.7449
G01 X19.2459 Y11.7246 Z-1.7290
G01 X19.1771 Y11.6017 Z-1.7013
G01 X19.1209 Y11.5278 Z-1.6819
G01 X19.0183 Y11.4253 Z-1.6579
G01 X18.8986 Y11.3399 Z-1.6494
G01 X18.8132 Y11.2950 Z-1.6549
G01 X18.6726 Y11.2428 Z-1.6810
G01 X18.5246 Y11.2136 Z-1.7246
G01 X18.4262 Y11.2075 Z-1.7583
G01 X18.2746 Y11.2171 Z-1.8106
G01 X18.1265 Y11.2507 Z-1.8539
G01 X18.0340 Y11.2849 Z-1.8730
G01 X17.9005 Y11.3547 Z-1.8849
G01 X17.7808 Y11.4443 Z-1.8760
G01 X17.7119 Y11.5119 Z-1.8616
G01 X17.6217 Y11.6274 Z-1.8325
G01 X17.5528 Y11.7543 Z-1.8049
G01 X17.5201 Y11.8413 Z-1.7928
G01 X17.4895 Y11.9781 Z-1.7893
G01 X17.4831 Y12.1158 Z-1.8070
G01 X17.4918 Y12.2038 Z-1.8294
G01 X17.5244 Y12.3330 Z-1.8761
G01 X17.5791 Y12.4524 Z-1.9290
G01 X17.6254 Y12.5228 Z-1.9615
G01 X17.7117 Y12.6171 Z-2.0010
G01 X17.8132 Y12.6926 Z-2.0215
G01 X17.8858 Y12.7306 Z-2.0233
G01 X18.0048 Y12.7696 Z-2.0099
G01 X18.1292 Y12.7850 Z-1.9833
G01 X18.2109 Y12.7821 Z-1.9638
G01 X18.3350 Y12.7570 Z-1.9383
G01 X18.4533 Y12.7085 Z-1.9270
G01 X18.5252 Y12.6650 Z-1.9305
G01 X18.6257 Y12.5803 Z-1.9535
G01 X18.7105 Y12.4772 Z-1.9949
G01 X18.7567 Y12.3999 Z-2.0288
G01 X18.8095 Y12.2724 Z-2.0815
G01 X18.8400 Y12.1353 Z-2.1266
G01 X18.8473 Y12.0410 Z-2.1477
G01 X18.8386 Y11.8966 Z-2.1622
G01 X18.8058 Y11.7536 Z-2.1557
G01 X18.7710 Y11.6615 Z-2.1418
G01 X18.7002 Y11.5296 Z-2.1132
G01 X18.6085 Y11.4099 Z-2.0850
G01 X18.5372 Y11.3388 Z-2.0717
G01 X18.4169 Y11.2461 Z-2.0663
G01 X18.2834 Y11.1736 Z-2.0821
G01 X18.1892 Y11.1377 Z-2.1040
G01 X18.0426 Y11.1023 Z-2.1498
G01 X17.8933 Y11.0910 Z-2.2026
G01 X17.7946 Y11.0968 Z-2.2362
G01 X17.6507 Y11.1247 Z-2.2767
G01 X17.5150 Y11.1753 Z-2.2985
G01 X17.4314 Y11.2206 Z-2.3011
G01 X17.3184 Y11.3040 Z-2.2885
G01 X17.2231 Y11.4039 Z-2.2623
G01 X17.1708 Y11.4778 Z-2.2423
G01 X17.1109 Y11.5971 Z-2.2165
G01 X17.0741 Y11.7233 Z-2.2047
G01 X17.0629 Y11.8089 Z-2.2078
G01 X17.0668 Y11.9367 Z-2.2305
G01 X17.0944 Y12.0603 Z-2.2716
G01 X17.1254 Y12.1381 Z-2.3054
G01 X17.1904 Y12.2451 Z-2.3582
G01 X17.2748 Y12.3377 Z-2.4035
G01 X17.3402 Y12.3897 Z-2.4248
G01 X17.4509 Y12.4511 Z-2.4397
G01 X17.5724 Y12.4908 Z-2.4335
G01 X17.6573 Y12.5045 Z-2.4199
G01 X17.7886 Y12.5048 Z-2.3914
G01 X17.9199 Y12.4809 Z-2.3630
G01 X18.0050 Y12.4518 Z-2.3496
G01 X18.1277 Y12.3885 Z-2.3438
G01 X18.2394 Y12.3037 Z-2.3592
G01 X18.3059 Y12.2364 Z-2.3809
G01 X18.3926 Y12.1206 Z-2.4264
G01 X18.4598 Y11.9903 Z-2.4793
G01 X18.4926 Y11.8975 Z-2.5130
G01 X18.5237 Y11.7511 Z-2.5537
G01 X18.5310 Y11.6005 Z-2.5759
G01 X18.5225 Y11.5002 Z-2.5787
G01 X18.4905 Y11.3517 Z-2.5665
G01 X18.4354 Y11.2102 Z-2.5405
G01 X18.3867 Y11.1219 Z-2.5205
G01 X18.2975 Y11.0002 Z-2.4945
G01 X18.1908 Y10.8951 Z-2.4823
G01 X18.1117 Y10.8359 Z-2.4852
G01 X17.9837 Y10.7642 Z-2.5075
G01 X17.8475 Y10.7151 Z-2.5483
G01 X17.7543 Y10.6957 Z-2.5820
G01 X17.6142 Y10.6864 Z-2.6349
G01 X17.4768 Y10.7011 Z-2.6804
G01 X17.3891 Y10.7238 Z-2.7020
G01 X17.2662 Y10.7761 Z-2.7173
G01 X17.1566 Y10.8487 Z-2.7114
G01 X17.0927 Y10.9068 Z-2.6979
G01 X17.0130 Y11.0069 Z-2.6695
G01 X16.9543 Y11.1190 Z-2.6411
G01 X16.9277 Y11.1984 Z-2.6275
G01 X16.9081 Y11.3222 Z-2.6214
G01 X16.9126 Y11.4474 Z-2.6363
G01 X16.9289 Y11.5293 Z-2.6578
G01 X16.9737 Y11.6476 Z-2.7031
G01 X17.0407 Y11.7565 Z-2.7559
G01 X17.0966 Y11.8217 Z-2.7897
G01 X17.1966 Y11.9067 Z-2.8307
G01 X17.3122 Y11.9733 Z-2.8533
G01 X17.3960 Y12.0061 Z-2.8564
G01 X17.5304 Y12.0370 Z-2.8444
G01 X17.6705 Y12.0444 Z-2.8186
G01 X17.7647 Y12.0360 Z-2.7986
G01 X17.9056 Y12.0035 Z-2.7725
G01 X18.0410 Y11.9475 Z-2.7600
G01 X18.1260 Y11.8979 Z-2.7626
G01 X18.2443 Y11.8062 Z-2.7845
G01 X18.3471 Y11.6959 Z-2.8251
G01 X18.4053 Y11.6138 Z-2.8587
G01 X18.4768 Y11.4798 Z-2.9116
G01 X18.5260 Y11.3361 Z-2.9573
G01 X18.5459 Y11.2372 Z-2.9791
G01 X18.5564 Y11.0868 Z-2.9948
G01 X18.5427 Y10.9376 Z-2.9893
G01 X18.5206 Y10.8413 Z-2.9760
G01 X18.4692 Y10.7038 Z-2.9477
G01 X18.3968 Y10.5783 Z-2.9191
G01 X18.3382 Y10.5033 Z-2.9053
G01 X18.2372 Y10.4057 Z-2.8989
G01 X18.1228 Y10.3281 Z-2.9135
G01 X18.0412 Y10.2887 Z-2.9347
G01 X17.9135 Y10.2493 Z-2.9798
G01 X17.7829 Y10.2338 Z-3.0326
G01 X17.6966 Y10.2369 Z-3.0664
G01 X17.5711 Y10.2618 Z-3.1077
G01 X17.4537 Y10.3094 Z-3.1307
G01 X17.3821 Y10.3528 Z-3.1340
G01 X17.2871 Y10.4345 Z-3.1224
G01 X17.2097 Y10.5330 Z-3.0967
G01 X17.1692 Y10.6060 Z-3.0767
G01 X17.1269 Y10.7253 Z-3.0504
G01 X17.1077 Y10.8516 Z-3.0376
G01 X17.1082 Y10.9375 Z-3.0400
G01 X17.1066 Y11.0878 Z-3.0500 F1200
G01 X17.1289 Y11.2341 Z-3.0787
G01 X17.1293 Y11.2361 Z-3.0792
G01 X17.1754 Y11.3748 Z-3.1191
G01 X17.2424 Y11.5016 Z-3.1592
G01 X17.2434 Y11.5033 Z-3.1597
G01 X17.3300 Y11.6150 Z-3.1891
G01 X17.4321 Y11.7083 Z-3.2000
G01 X17.4337 Y11.7094
G01 X17.5489 Y11.7821 Z-3.1892
G01 X17.6723 Y11.8321 Z-3.1598
G01 X17.6741 Y11.8326 Z-3.1593
G01 X17.8026 Y11.8590 Z-3.1192
G01 X17.9309 Y11.8613 Z-3.0793
G01 X17.9327 Y11.8611 Z-3.0788
G01 X18.0576 Y11.8398 Z-3.0500
G01 X18.1741 Y11.7958 Z-3.0400
G01 X18.1757 Y11.7951
G01 X18.2807 Y11.7304 Z-3.0518
G01 X18.3700 Y11.6475 Z-3.0818
G01 X18.3712 Y11.6462 Z-3.0823
G01 X18.4425 Y11.5480 Z-3.1226
G01 X18.4928 Y11.4381 Z-3.1623
G01 X18.4933 Y11.4365 Z-3.1628
G01 X18.5215 Y11.3188 Z-3.1908
G01 X18.5257 Y11.1972 Z-3.1999
G01 X18.5256 Y11.1955
G01 X18.5064 Y11.0746 Z-3.1873
G01 X18.4634 Y10.9583 Z-3.1567
G01 X18.4627 Y10.9567 Z-3.1561
G01 X18.3978 Y10.8494 Z-3.1156
G01 X18.3123 Y10.7546 Z-3.0762
G01 X18.3109 Y10.7533 Z-3.0757
G01 X18.2080 Y10.6748 Z-3.0484
G01 X18.0898 Y10.6151 Z-3.0402
G01 X18.0881 Y10.6144
G01 X17.9592 Y10.5764 Z-3.0537
G01 X17.8226 Y10.5612 Z-3.0849
G01 X17.8206 Z-3.0855
G01 X17.6814 Y10.5703 Z-3.1262
G01 X17.5428 Y10.6036 Z-3.1652
G01 X17.5408 Y10.6042 Z-3.1657
G01 X17.4081 Y10.6615 Z-3.1924
G01 X17.2844 Y10.7413 Z-3.1997
G01 X17.2827 Y10.7425
G01 X17.1728 Y10.8431 Z-3.1853
G01 X17.0790 Y10.9617 Z-3.1534
G01 X17.0778 Y10.9635 Z-3.1529
G01 X17.0043 Y11.0971 Z-3.1120
G01 X16.9521 Y11.2421 Z-3.0733
G01 X16.9515 Y11.2443 Z-3.0728
G01 X16.9236 Y11.3967 Z-3.0468
G01 X16.9196 Y11.5525 Z-3.0405
G01 X16.9197 Y11.5547
G01 X16.9412 Y11.7093 Z-3.0557
G01 X16.9864 Y11.8589 Z-3.0882
G01 X16.9872 Y11.8609 Z-3.0887
G01 X17.0560 Y12.0009 Z-3.1297
G01 X17.1452 Y12.1280 Z-3.1681
G01 X17.1465 Y12.1297 Z-3.1686
G01 X17.2548 Y12.2400 Z-3.1939
G01 X17.3778 Y12.3311 Z-3.1993
G01 X17.3796 Y12.3322
G01 X17.5148 Y12.4012 Z-3.1832
G01 X17.6573 Y12.4471 Z-3.1502
G01 X17.6593 Y12.4475 Z-3.1496
G01 X17.8058 Y12.4687 Z-3.1085
G01 X17.9512 Y12.4658 Z-3.0705
G01 X17.9532 Y12.4655 Z-3.0700
G01 X18.0940 Y12.4382 Z-3.0455
G01 X18.2254 Y12.3886 Z-3.0409
G01 X18.2272 Y12.3878 Z-3.0410
G01 X18.3461 Y12.3171 Z-3.0579
G01 X18.4486 Y12.2287 Z-3.0915
G01 X18.4499 Y12.2274 Z-3.0920
G01 X18.5336 Y12.1237 Z-3.1333
G01 X18.5957 Y12.0092 Z-3.1709
G01 X18.5964 Y12.0075 Z-3.1714
G01 X18.6359 Y11.8853 Z-3.1952
G01 X18.6514 Y11.7602 Z-3.1988
G01 X18.6515 Y11.7585 Z-3.1987
G01 X18.6433 Y11.6342 Z-3.1809
G01 X18.6116 Y11.5155 Z-3.1469
G01 X18.6110 Y11.5139 Z-3.1463
G01 X18.5575 Y11.4043 Z-3.1050
G01 X18.4840 Y11.3080 Z-3.0677
G01 X18.4828 Y11.3068 Z-3.0673
G01 X18.3922 Y11.2267 Z-3.0443
G01 X18.2874 Y11.1660 Z-3.0415
G01 X18.2858 Y11.1653 Z-3.0417
G01 X18.1707 Y11.1259 Z-3.0602
G01 X18.0490 Y11.1096 Z-3.0948
G01 X18.0472 Z-3.0954
G01 X17.9235 Y11.1169 Z-3.1368
G01 X17.8015 Y11.1482 Z-3.1736
G01 X17.7998 Y11.1489 Z-3.1741
G01 X17.6842 Y11.2031 Z-3.1963
G01 X17.5786 Y11.2794 Z-3.1981
G01 X17.5772 Y11.2806 Z-3.1980
G01 X17.4858 Y11.3763 Z-3.1786
G01 X17.4113 Y11.4892 Z-3.1435
G01 X17.4104 Y11.4909 Z-3.1429
G01 X17.3562 Y11.6171 Z-3.1015
G01 X17.3238 Y11.7538 Z-3.0651
G01 X17.3235 Y11.7558 Z-3.0646
G01 X17.3151 Y11.8980 Z-3.0432
G01 X17.3308 Y12.0426 Z-3.0423
G01 X17.3312 Y12.0446 Z-3.0425
G01 X17.3716 Y12.1862 Z-3.0627
G01 X17.4353 Y12.3216 Z-3.0982
G01 X17.4364 Y12.3234 Z-3.0988
G01 X17.5227 Y12.4475 Z-3.1402
G01 X17.6287 Y12.5579 Z-3.1762
G01 X17.6304 Y12.5593 Z-3.1766
G01 X17.7540 Y12.6513 Z-3.1973
G01 X17.8914 Y12.7235 Z-3.1972
G01 X17.8935 Y12.7244 Z-3.1971
G01 X18.0414 Y12.7734 Z-3.1761
G01 X18.1955 Y12.7990 Z-3.1400
G01 X18.1977 Y12.7992 Z-3.1395
G01 X18.3539 Y12.7994 Z-3.0981
G01 X18.5079 Y12.7755 Z-3.0625
G01 X18.5100 Y12.7750 Z-3.0621
G01 X18.6575 Y12.7265 Z-3.0423
G01 X18.7947 Y12.6561 Z-3.0432
G01 X18.7965 Y12.6550 Z-3.0434
G01 X18.9194 Y12.5637 Z-3.0652
G01 X19.0250 Y12.4555 Z-3.1017
G01 X19.0264 Y12.4539 Z-3.1023
G01 X19.1117 Y12.3308 Z-3.1436
G01 X19.1749 Y12.1979 Z-3.1787
G01 X19.1756 Y12.1959 Z-3.1791
G01 X19.2150 Y12.0559 Z-3.1981
G01 X19.2303 Y11.9142 Z-3.1962
G01 Y11.9122 Z-3.1961
G01 X19.2210 Y11.7720 Z-3.1735
G01 X19.1885 Y11.6385 Z-3.1366
G01 X19.1879 Y11.6366 Z-3.1360
G01 X19.1331 Y11.5129 Z-3.0947
G01 X19.0587 Y11.4034 Z-3.0601
G01 X19.0576 Y11.4019 Z-3.0597
G01 X18.9660 Y11.3092 Z-3.0415
G01 X18.8610 Y11.2365 Z-3.0443
G01 X18.8594 Y11.2356 Z-3.0445
G01 X18.7442 Y11.1844 Z-3.0679
G01 X18.6234 Y11.1567 Z-3.1052
G01 X18.6217 Y11.1565 Z-3.1058
G01 X18.4989 Y11.1523 Z-3.1470
G01 X18.3789 Y11.1721 Z-3.1811
G01 X18.3772 Y11.1725 Z-3.1814
G01 X18.2637 Y11.2149 Z-3.1988
G01 X18.1611 Y11.2788 Z-3.1951
G01 X18.1597 Y11.2799 Z-3.1949
G01 X18.0712 Y11.3626 Z-3.1708
G01 X18.0004 Y11.4618 Z-3.1331
G01 X17.9995 Y11.4633 Z-3.1325
G01 X17.9486 Y11.5750 Z-3.0913
G01 X17.9199 Y11.6962 Z-3.0578
G01 X17.9196 Y11.6980 Z-3.0574
G01 X17.9142 Y11.8238 Z-3.0409
G01 X17.9328 Y11.9508 Z-3.0455
G01 X17.9333 Y11.9526 Z-3.0458
G01 X17.9755 Y12.0758 Z-3.0706
G01 X18.0409 Y12.1919 Z-3.1087
G01 X18.0420 Y12.1934 Z-3.1093
G01 X18.1283 Y12.2975 Z-3.1504
G01 X18.2339 Y12.3868 Z-3.1833
G01 X18.2355 Y12.3880 Z-3.1837
G01 X18.3568 Y12.4586 Z-3.1994
G01 X18.4911 Y12.5088 Z-3.1938
G01 X18.4931 Y12.5094 Z-3.1936
G01 X18.6359 Y12.5363 Z-3.1680
G01 X18.7838 Y12.5397 Z-3.1295
G01 X18.7859 Y12.5395 Z-3.1290
G01 X18.9340 Y12.5178 Z-3.0880
G01 X19.0787 Y12.4722 Z-3.0556
G01 X19.0807 Y12.4713 Z-3.0553
G01 X19.2170 Y12.4018 Z-3.0404
G01 X19.3420 Y12.3110 Z-3.0469
G01 X19.3436 Y12.3096 Z-3.0472
G01 X19.4526 Y12.1990 Z-3.0735
G01 X19.5435 Y12.0723 Z-3.1122
G01 X19.5447 Y12.0704 Z-3.1128
G01 X19.6139 Y11.9303 Z-3.1536
G01 X19.6607 Y11.7814 Z-3.1854
G01 X19.6612 Y11.7792 Z-3.1858
G01 X19.6830 Y11.6249 Z-3.1997
G01 X19.6806 Y11.4699 Z-3.1923
G01 X19.6804 Y11.4678 Z-3.1921
G01 X19.6529 Y11.3161 Z-3.1651
G01 X19.6024 Y11.1721 Z-3.1260
G01 X19.6016 Y11.1701 Z-3.1254
G01 X19.5286 Y11.0377 Z-3.0848
G01 X19.4369 Y10.9203 Z-3.0536
G01 X19.4354 Y10.9187 Z-3.0532
G01 X19.3265 Y10.8196 Z-3.0401
G01 X19.2051 Y10.7411 Z-3.0484
G01 X19.2033 Y10.7401 Z-3.0487
G01 X19.0720 Y10.6843 Z-3.0764
G01 X18.9362 Y10.6523 Z-3.1158
G01 X18.9342 Y10.6520 Z-3.1164
G01 X18.7969 Y10.6444 Z-3.1568
G01 X18.6635 Y10.6606 Z-3.1874
G01 X18.6616 Y10.6609 Z-3.1877
G01 X18.5352 Y10.7003 Z-3.1999
G01 X18.4206 Y10.7606 Z-3.1907
G01 X18.4191 Y10.7616 Z-3.1905
G01 X18.3190 Y10.8410 Z-3.1621
G01 X18.2372 Y10.9361 Z-3.1224
G01 X18.2362 Y10.9375 Z-3.1218
G01 X18.1745 Y11.0451 Z-3.0816
G01 X18.1354 Y11.1611 Z-3.0517
G01 X18.1351 Y11.1628 Z-3.0514
G01 X18.1191 Y11.2834 Z-3.0400
G01 X18.1273 Y11.4042 Z-3.0501
G01 X18.1276 Y11.4059 Z-3.0504
G01 X18.1589 Y11.5227 Z-3.0794
G01 X18.2129 Y11.6312 Z-3.1193
G01 X18.2139 Y11.6327 Z-3.1199
G01 X18.2882 Y11.7293 Z-3.1599
G01 X18.3810 Y11.8105 Z-3.1893
G01 X18.3824 Y11.8115 Z-3.1895
G01 X18.4899 Y11.8742 Z-3.2000
G01 X18.6095 Y11.9159 Z-3.1890
G01 X18.6113 Y11.9163 Z-3.1887
G01 X18.7382 Y11.9354 Z-3.1590
G01 X18.8692 Y11.9306 Z-3.1189
G01 X18.8711 Y11.9304 Z-3.1183
G01 X19.0010 Y11.9016 Z-3.0785
G01 X19.1266 Y11.8490 Z-3.0499
G01 X19.1283 Y11.8481 Z-3.0496
G01 X19.2444 Y11.7731 Z-3.0400
G01 X19.3483 Y11.6773 Z-3.0519
G01 X19.3496 Y11.6758 Z-3.0522
G01 X19.4366 Y11.5619 Z-3.0825
G01 X19.5049 Y11.4327 Z-3.1229
G01 X19.5058 Y11.4308 Z-3.1235
G01 X19.5519 Y11.2902 Z-3.1630
G01 X19.5751 Y11.1418 Z-3.1910
G01 X19.5753 Y11.1396 Z-3.1912
G01 X19.5736 Y10.9879 Z-3.1999
G01 X19.5477 Y10.8366 Z-3.1871
G01 X19.5472 Y10.8345 Z-3.1868
G01 X19.4965 Y10.6886 Z-3.1559
G01 X19.4233 Y10.5514 Z-3.1153
G01 X19.4221 Y10.5495 Z-3.1147
G01 X19.3272 Y10.4257 Z-3.0755
G01 X19.2142 Y10.3179 Z-3.0482
G01 X19.2125 Y10.3165 Z-3.0480
G01 X19.0834 Y10.2285 Z-3.0402
G01 X18.9429 Y10.1618 Z-3.0538
G01 X18.9408 Y10.1610 Z-3.0542
G01 X18.7918 Y10.1183 Z-3.0857
G01 X18.6392 Y10.0995 Z-3.1265
G01 X18.6371 Y10.0994 Z-3.1271
G01 X18.4846 Y10.1059 Z-3.1660
G01 X18.3371 Y10.1360 Z-3.1925
G01 X18.3350 Y10.1366 Z-3.1928
G01 X18.1960 Y10.1904 Z-3.1996
G01 X18.0697 Y10.2648 Z-3.1851
G01 X18.0681 Y10.2659 Z-3.1848
G01 X17.9577 Y10.3594 Z-3.1527
G01 X17.8663 Y10.4677 Z-3.1118
G01 X17.8651 Y10.4694 Z-3.1112
G01 X17.7950 Y10.5901 Z-3.0726
G01 X17.7478 Y10.7183 Z-3.0467
G01 X17.7473 Y10.7202 Z-3.0465
G01 X17.7240 Y10.8526 Z-3.0406
G01 X17.7249 Y10.9842 Z-3.0559
G01 X17.7251 Y10.9860 Z-3.0563
G01 X17.7496 Y11.1133 Z-3.0890
G01 X17.7964 Y11.2313 Z-3.1300
G01 X17.7972 Y11.2329 Z-3.1306
G01 X17.8644 Y11.3388 Z-3.1688
G01 X17.9494 Y11.4284 Z-3.1940
G01 X17.9507 Y11.4296 Z-3.1942
G01 X18.0504 Y11.5007 Z-3.1992
G01 X18.1612 Y11.5504 Z-3.1830
G01 X18.1628 Y11.5509 Z-3.1826
G01 X18.2807 Y11.5782 Z-3.1494
G01 X18.4016 Y11.5815 Z-3.1082
G01 X18.4034 Y11.5814 Z-3.1076
G01 X18.5230 Y11.5613 Z-3.0698
G01 X18.6371 Y11.5176 Z-3.0454
G01 X18.6387 Y11.5168 Z-3.0452
G01 X18.7433 Y11.4516 Z-3.0411
G01 X18.8347 Y11.3662 Z-3.0581
G01 X18.8358 Y11.3649 Z-3.0585
G01 X18.9105 Y11.2626 Z-3.0923
G01 X18.9658 Y11.1459 Z-3.1335
G01 X18.9664 Y11.1442 Z-3.1341
G01 X18.9999 Y11.0175 Z-3.1716
G01 X19.0103 Y10.8839 Z-3.1953
G01 Y10.8820 Z-3.1955
G01 X18.9964 Y10.7466 Z-3.1986
G01 X18.9585 Y10.6128 Z-3.1808
G01 X18.9578 Y10.6109 Z-3.1804
G01 X18.8963 Y10.4838 Z-3.1460
G01 X18.8126 Y10.3664 Z-3.1047
G01 X18.8113 Y10.3648 Z-3.1041
G01 X18.7075 Y10.2620 Z-3.0671
G01 X18.5863 Y10.1759 Z-3.0442
G01 X18.5845 Y10.1748 Z-3.0440
G01 X18.4492 Y10.1095 Z-3.0417
G01 X18.3033 Y10.0658 Z-3.0604
G01 X18.3012 Y10.0654 Z-3.0608
G01 X18.1489 Y10.0463 Z-3.0957
G01 X17.9942 Y10.0512 Z-3.1370
G01 X17.9920 Y10.0514 Z-3.1376
G01 X17.8395 Y10.0817 Z-3.1743
G01 X17.6929 Y10.1354 Z-3.1964
G01 X17.6909 Y10.1363 Z-3.1966
G01 X17.5549 Y10.2132 Z-3.1979
G01 X17.4325 Y10.3100 Z-3.1784
G01 X17.4309 Y10.3115 Z-3.1780
G01 X17.3262 Y10.4268 Z-3.1426
G01 X17.2413 Y10.5560 Z-3.1012
G01 X17.2402 Y10.5579 Z-3.1007
G01 X17.1779 Y10.6985 Z-3.0644
G01 X17.1390 Y10.8454 Z-3.0431
G01 X17.1386 Y10.8475 Z-3.0429
G01 X17.1246 Y10.9975 Z-3.0425
G01 X17.1348 Y11.1455 Z-3.0629
G01 X17.1351 Y11.1476 Z-3.0633
G00 Z8.0000 F


(No. 3: Hole 49)
G00 X37.7307 Y11.2081 Z8.0000 F4000
G00 X38.5136 Y11.0701 Z0.5107 F
G01 X38.4778 Y10.9362 Z0.5223 F180
G01 X38.4192 Y10.8106 Z0.5447
G01 X38.3397 Y10.6971 Z0.5670
G01 X38.2417 Y10.5991 Z0.5786
G01 X38.1282 Y10.5196 Z0.5717
G01 X38.0026 Y10.4611 Z0.5433
G01 X37.8688 Y10.4252 Z0.4963
G01 X37.7307 Y10.4131 Z0.4387
G01 X37.5927 Y10.4252 Z0.3810
G01 X37.4588 Y10.4611 Z0.3341
G01 X37.3332 Y10.5196 Z0.3057
G01 X37.2197 Y10.5991 Z0.2987
G01 X37.1217 Y10.6971 Z0.3103
G01 X37.0422 Y10.8106 Z0.3327
G01 X36.9837 Y10.9362 Z0.3550
G01 X36.9478 Y11.0701 Z0.3666
G01 X36.9357 Y11.2081 Z0.3597
G01 X36.9478 Y11.3462 Z0.3313
G01 X36.9837 Y11.4800 Z0.2843
G01 X37.0422 Y11.6056 Z0.2267
G01 X37.1217 Y11.7191 Z0.1690
G01 X37.2197 Y11.8171 Z0.1221
G01 X37.3332 Y11.8966 Z0.0937
G01 X37.4588 Y11.9552 Z0.0867
G01 X37.5927 Y11.9910 Z0.0983
G01 X37.7307 Y12.0031 Z0.1207
G01 X37.8688 Y11.9910 Z0.1430
G01 X38.0026 Y11.9552 Z0.1546
G01 X38.0416 Y11.9398 Z0.1547
G01 X38.1602 Y11.8875 Z0.1474
G01 X38.2656 Y11.8150 Z0.1190
G01 X38.3267 Y11.7568 Z0.0904
G01 X38.4039 Y11.6568 Z0.0390
G01 X38.4602 Y11.5445 Z-0.0127
G01 X38.4851 Y11.4651 Z-0.0420
G01 X38.5038 Y11.3412 Z-0.0717
G01 X38.4984 Y11.2159 Z-0.0804
G01 X38.4815 Y11.1337 Z-0.0747
G01 X38.4373 Y11.0152 Z-0.0529
G01 X38.3708 Y10.9060 Z-0.0233
G01 X38.3153 Y10.8406 Z-0.0047
G01 X38.2173 Y10.7552 Z0.0136
G01 X38.1036 Y10.6883
G01 X38.0211 Y10.6552 Z0.0016
G01 X37.8900 Y10.6240 Z-0.0329
G01 X37.7531 Y10.6163 Z-0.0816
G01 X37.6609 Y10.6245 Z-0.1170
G01 X37.5245 Y10.6569 Z-0.1665
G01 X37.3935 Y10.7128 Z-0.2026
G01 X37.3114 Y10.7624 Z-0.2157
G01 X37.1989 Y10.8542 Z-0.2175
G01 X37.1018 Y10.9647 Z-0.2005
G01 X37.0472 Y11.0470 Z-0.1824
G01 X36.9828 Y11.1815 Z-0.1526
G01 X36.9405 Y11.3259 Z-0.1297
G01 X36.9254 Y11.4252 Z-0.1229
G01 X36.9233 Y11.5767 Z-0.1298
G01 X36.9453 Y11.7269 Z-0.1579
G01 X36.9731 Y11.8241 Z-0.1864
G01 X37.0344 Y11.9630 Z-0.2376
G01 X37.1168 Y12.0900 Z-0.2895
G01 X37.1820 Y12.1661 Z-0.3189
G01 X37.2946 Y12.2656 Z-0.3490
G01 X37.4206 Y12.3450 Z-0.3581
G01 X37.5100 Y12.3857 Z-0.3526
G01 X37.6508 Y12.4272 Z-0.3309
G01 X37.7946 Y12.4448 Z-0.3014
G01 X37.8898 Y12.4432 Z-0.2828
G01 X38.0301 Y12.4205 Z-0.2642
G01 X38.1623 Y12.3751 Z-0.2638
G01 X38.2439 Y12.3332 Z-0.2755
G01 X38.3551 Y12.2537 Z-0.3098
G01 X38.4489 Y12.1574 Z-0.3583
G01 X38.5003 Y12.0857 Z-0.3937
G01 X38.5603 Y11.9686 Z-0.4433
G01 X38.5971 Y11.8443 Z-0.4797
G01 X38.6084 Y11.7597 Z-0.4931
G01 X38.6059 Y11.6322 Z-0.4953
G01 X38.5796 Y11.5086 Z-0.4785
G01 X38.5493 Y11.4307 Z-0.4605
G01 X38.4866 Y11.3221 Z-0.4307
G01 X38.4043 Y11.2277 Z-0.4076
G01 X38.3401 Y11.1744 Z-0.4006
G01 X38.2323 Y11.1099 Z-0.4071
G01 X38.1133 Y11.0669 Z-0.4348
G01 X38.0300 Y11.0510 Z-0.4631
G01 X37.9019 Y11.0464 Z-0.5143
G01 X37.7735 Y11.0659 Z-0.5662
G01 X37.6900 Y11.0921 Z-0.5957
G01 X37.5709 Y11.1502 Z-0.6262
G01 X37.4623 Y11.2300 Z-0.6357
G01 X37.3978 Y11.2940 Z-0.6305
G01 X37.3151 Y11.4042 Z-0.6090
G01 X37.2516 Y11.5291 Z-0.5795
G01 X37.2211 Y11.6186 Z-0.5608
G01 X37.1947 Y11.7592 Z-0.5420
G01 X37.1920 Y11.9044 Z-0.5413
G01 X37.2036 Y12.0013 Z-0.5527
G01 X37.2414 Y12.1440 Z-0.5866
G01 X37.3024 Y12.2800 Z-0.6349
G01 X37.3551 Y12.3649 Z-0.6703
G01 X37.4515 Y12.4807 Z-0.7201
G01 X37.5657 Y12.5802 Z-0.7568
G01 X37.6500 Y12.6358 Z-0.7704
G01 X37.7870 Y12.7014 Z-0.7730
G01 X37.9326 Y12.7444 Z-0.7566
G01 X38.0322 Y12.7599 Z-0.7387
G01 X38.1833 Y12.7623 Z-0.7089
G01 X38.3320 Y12.7408 Z-0.6855
G01 X38.4274 Y12.7135 Z-0.6783
G01 X38.5632 Y12.6533 Z-0.6844
G01 X38.6860 Y12.5728 Z-0.7118
G01 X38.7588 Y12.5092 Z-0.7399
G01 X38.8530 Y12.3999 Z-0.7909
G01 X38.9265 Y12.2782 Z-0.8429
G01 X38.9629 Y12.1923 Z-0.8726
G01 X38.9983 Y12.0578 Z-0.9034
G01 X39.0096 Y11.9215 Z-0.9133
G01 X39.0038 Y11.8319 Z-0.9083
G01 X38.9756 Y11.7012 Z-0.8871
G01 X38.9250 Y11.5797 Z-0.8577
G01 X38.8800 Y11.5058 Z-0.8389
G01 X38.7970 Y11.4069 Z-0.8198
G01 X38.6981 Y11.3263 Z-0.8187
G01 X38.6253 Y11.2841 Z-0.8298
G01 X38.5078 Y11.2382 Z-0.8634
G01 X38.3844 Y11.2158 Z-0.9116
G01 X38.3011 Y11.2142 Z-0.9469
G01 X38.1770 Y11.2311 Z-0.9969
G01 X38.0581 Y11.2716 Z-1.0339
G01 X37.9839 Y11.3109 Z-1.0478
G01 X37.8822 Y11.3868 Z-1.0507
G01 X37.7958 Y11.4815 Z-1.0346
G01 X37.7483 Y11.5533 Z-1.0168
G01 X37.6935 Y11.6717 Z-0.9870
G01 X37.6608 Y11.8001 Z-0.9634
G01 X37.6519 Y11.8890 Z-0.9560
G01 X37.6583 Y12.0242 Z-0.9617
G01 X37.6889 Y12.1585 Z-0.9887
G01 X37.7215 Y12.2434 Z-1.0159
G01 X37.7902 Y12.3663 Z-1.0668
G01 X37.8801 Y12.4775 Z-1.1189
G01 X37.9488 Y12.5419 Z-1.1483
G01 X38.0679 Y12.6258 Z-1.1800
G01 X38.2008 Y12.6898 Z-1.1909
G01 X38.2929 Y12.7198 Z-1.1867
G01 X38.4400 Y12.7461 Z-1.1664
G01 X38.5906 Y12.7485 Z-1.1371
G01 X38.6884 Y12.7370 Z-1.1185
G01 X38.8352 Y12.6991 Z-1.0983
G01 X38.9743 Y12.6382 Z-1.0956
G01 X39.0589 Y12.5871 Z-1.1053
G01 X39.1769 Y12.4917 Z-1.1372
G01 X39.2779 Y12.3791 Z-1.1845
G01 X39.3331 Y12.2982 Z-1.2190
G01 X39.3999 Y12.1639 Z-1.2697
G01 X39.4438 Y12.0219 Z-1.3085
G01 X39.4596 Y11.9273 Z-1.3236
G01 X39.4635 Y11.7809 Z-1.3291
G01 X39.4434 Y11.6378 Z-1.3149
G01 X39.4180 Y11.5484 Z-1.2982
G01 X39.3603 Y11.4190 Z-1.2684
G01 X39.2828 Y11.3031 Z-1.2434
G01 X39.2228 Y11.2367 Z-1.2345
G01 X39.1179 Y11.1496 Z-1.2371
G01 X39.0012 Y11.0837 Z-1.2610
G01 X38.9208 Y11.0530 Z-1.2868
G01 X38.7926 Y11.0247 Z-1.3364
G01 X38.6632 Y11.0206 Z-1.3891
G01 X38.5806 Y11.0308 Z-1.4197
G01 X38.4579 Y11.0652 Z-1.4541
G01 X38.3451 Y11.1218 Z-1.4683
G01 X38.2787 Y11.1694 Z-1.4660
G01 X38.1892 Y11.2573 Z-1.4478
G01 X38.1183 Y11.3605 Z-1.4192
G01 X38.0834 Y11.4343 Z-1.4001
G01 X38.0475 Y11.5547 Z-1.3779
G01 X38.0351 Y11.6807 Z-1.3723
G01 X38.0399 Y11.7637 Z-1.3799
G01 X38.0667 Y11.8892 Z-1.4089
G01 X38.1169 Y12.0092 Z-1.4544
G01 X38.1616 Y12.0823 Z-1.4886
G01 X38.2467 Y12.1841 Z-1.5403
G01 X38.3504 Y12.2705 Z-1.5814
G01 X38.4263 Y12.3169 Z-1.5985
G01 X38.5419 Y12.3953 Z-1.6072
G01 X38.6672 Y12.4516 Z-1.5956
G01 X38.7520 Y12.4757 Z-1.5800
G01 X38.8838 Y12.4925 Z-1.5504
G01 X39.0145 Y12.4852 Z-1.5240
G01 X39.0968 Y12.4677 Z-1.5135
G01 X39.2157 Y12.4218 Z-1.5129
G01 X39.3228 Y12.3548 Z-1.5338
G01 X39.3845 Y12.3011 Z-1.5579
G01 X39.4640 Y12.2044 Z-1.6062
G01 X39.5236 Y12.0941 Z-1.6591
G01 X39.5506 Y12.0169 Z-1.6908
G01 X39.5725 Y11.8919 Z-1.7278
G01 X39.5703 Y11.7637 Z-1.7451
G01 X39.5560 Y11.6806 Z-1.7449
G01 X39.5137 Y11.5558 Z-1.7290
G01 X39.4486 Y11.4388 Z-1.7013
G01 X39.3947 Y11.3687 Z-1.6819
G01 X39.2954 Y11.2723 Z-1.6579
G01 X39.1790 Y11.1930 Z-1.6494
G01 X39.0957 Y11.1520 Z-1.6549
G01 X38.9581 Y11.1061 Z-1.6810
G01 X38.8130 Y11.0832 Z-1.7246
G01 X38.7165 Y11.0811 Z-1.7583
G01 X38.5675 Y11.0972 Z-1.8106
G01 X38.4220 Y11.1372 Z-1.8539
G01 X38.3312 Y11.1755 Z-1.8730
G01 X38.1999 Y11.2519 Z-1.8849
G01 X38.0823 Y11.3480 Z-1.8760
G01 X38.0149 Y11.4199 Z-1.8616
G01 X37.9265 Y11.5420 Z-1.8325
G01 X37.8594 Y11.6757 Z-1.8049
G01 X37.8279 Y11.7670 Z-1.7928
G01 X37.7988 Y11.9105 Z-1.7893
G01 X37.7937 Y12.0550 Z-1.8070
G01 X37.8034 Y12.1474 Z-1.8294
G01 X37.8370 Y12.2835 Z-1.8761
G01 X37.8927 Y12.4096 Z-1.9290
G01 X37.9398 Y12.4845 Z-1.9615
G01 X38.0267 Y12.5857 Z-2.0010
G01 X38.1288 Y12.6681 Z-2.0215
G01 X38.2018 Y12.7105 Z-2.0233
G01 X38.3211 Y12.7564 Z-2.0099
G01 X38.4456 Y12.7788 Z-1.9833
G01 X38.5275 Y12.7804 Z-1.9638
G01 X38.6515 Y12.7622 Z-1.9383
G01 X38.7696 Y12.7206 Z-1.9270
G01 X38.8414 Y12.6815 Z-1.9305
G01 X38.9413 Y12.6037 Z-1.9535
G01 X39.0256 Y12.5075 Z-1.9949
G01 X39.0714 Y12.4349 Z-2.0288
G01 X39.1232 Y12.3141 Z-2.0815
G01 X39.1528 Y12.1840 Z-2.1266
G01 X39.1595 Y12.0942 Z-2.1477
G01 X39.1494 Y11.9565 Z-2.1622
G01 X39.1153 Y11.8204 Z-2.1557
G01 X39.0795 Y11.7328 Z-2.1418
G01 X39.0069 Y11.6075 Z-2.1132
G01 X38.9135 Y11.4945 Z-2.0850
G01 X38.8411 Y11.4278 Z-2.0717
G01 X38.7186 Y11.3417 Z-2.0663
G01 X38.5830 Y11.2758 Z-2.0821
G01 X38.4874 Y11.2442 Z-2.1040
G01 X38.3383 Y11.2153 Z-2.1498
G01 X38.1864 Y11.2105 Z-2.2026
G01 X38.0861 Y11.2206 Z-2.2362
G01 X37.9393 Y11.2547 Z-2.2767
G01 X37.8007 Y11.3116 Z-2.2985
G01 X37.7152 Y11.3610 Z-2.3011
G01 X37.5990 Y11.4505 Z-2.2885
G01 X37.5004 Y11.5566 Z-2.2623
G01 X37.4460 Y11.6346 Z-2.2423
G01 X37.3824 Y11.7598 Z-2.2165
G01 X37.3421 Y11.8918 Z-2.2047
G01 X37.3285 Y11.9814 Z-2.2078
G01 X37.3284 Y12.1149 Z-2.2305
G01 X37.3521 Y12.2441 Z-2.2716
G01 X37.3805 Y12.3257 Z-2.3054
G01 X37.4413 Y12.4382 Z-2.3582
G01 X37.5214 Y12.5363 Z-2.4035
G01 X37.5840 Y12.5919 Z-2.4248
G01 X37.6901 Y12.6584 Z-2.4397
G01 X37.8071 Y12.7033 Z-2.4335
G01 X37.8888 Y12.7205 Z-2.4199
G01 X38.0153 Y12.7257 Z-2.3914
G01 X38.1417 Y12.7067 Z-2.3630
G01 X38.2237 Y12.6809 Z-2.3496
G01 X38.3412 Y12.6222 Z-2.3438
G01 X38.4478 Y12.5420 Z-2.3592
G01 X38.5109 Y12.4778 Z-2.3809
G01 X38.5921 Y12.3663 Z-2.4264
G01 X38.6539 Y12.2403 Z-2.4793
G01 X38.6832 Y12.1504 Z-2.5130
G01 X38.7087 Y12.0080 Z-2.5537
G01 X38.7103 Y11.8614 Z-2.5759
G01 X38.6981 Y11.7637 Z-2.5787
G01 X38.6602 Y11.6189 Z-2.5665
G01 X38.5992 Y11.4810 Z-2.5405
G01 X38.5466 Y11.3952 Z-2.5205
G01 X38.4514 Y11.2768 Z-2.4945
G01 X38.3386 Y11.1751 Z-2.4823
G01 X38.2555 Y11.1180 Z-2.4852
G01 X38.1212 Y11.0493 Z-2.5075
G01 X37.9787 Y11.0032 Z-2.5483
G01 X37.8815 Y10.9857 Z-2.5820
G01 X37.7349 Y10.9790 Z-2.6349
G01 X37.5911 Y10.9963 Z-2.6804
G01 X37.4992 Y11.0207 Z-2.7020
G01 X37.3697 Y11.0753 Z-2.7173
G01 X37.2536 Y11.1500 Z-2.7114
G01 X37.1853 Y11.2096 Z-2.6979
G01 X37.0990 Y11.3115 Z-2.6695
G01 X37.0335 Y11.4255 Z-2.6411
G01 X37.0025 Y11.5061 Z-2.6275
G01 X36.9761 Y11.6313 Z-2.6214
G01 X36.9739 Y11.7579 Z-2.6363
G01 X36.9857 Y11.8408 Z-2.6578
G01 X37.0237 Y11.9602 Z-2.7031
G01 X37.0839 Y12.0701 Z-2.7559
G01 X37.1352 Y12.1360 Z-2.7897
G01 X37.2283 Y12.2217 Z-2.8307
G01 X37.3370 Y12.2889 Z-2.8533
G01 X37.4162 Y12.3221 Z-2.8564
G01 X37.5438 Y12.3533 Z-2.8444
G01 X37.6769 Y12.3609 Z-2.8186
G01 X37.7665 Y12.3527 Z-2.7986
G01 X37.9005 Y12.3200 Z-2.7725
G01 X38.0290 Y12.2638 Z-2.7600
G01 X38.1094 Y12.2141 Z-2.7626
G01 X38.2208 Y12.1218 Z-2.7845
G01 X38.3167 Y12.0110 Z-2.8251
G01 X38.3704 Y11.9286 Z-2.8587
G01 X38.4350 Y11.7936 Z-2.9116
G01 X38.4774 Y11.6489 Z-2.9573
G01 X38.4927 Y11.5494 Z-2.9791
G01 X38.4964 Y11.3976 Z-2.9948
G01 X38.4760 Y11.2471 Z-2.9893
G01 X38.4494 Y11.1498 Z-2.9760
G01 X38.3913 Y11.0106 Z-2.9477
G01 X38.3122 Y10.8834 Z-2.9191
G01 X38.2492 Y10.8072 Z-2.9053
G01 X38.1416 Y10.7074 Z-2.8989
G01 X38.0206 Y10.6277 Z-2.9135
G01 X37.9346 Y10.5869 Z-2.9347
G01 X37.8005 Y10.5449 Z-2.9798
G01 X37.6635 Y10.5270 Z-3.0326
G01 X37.5729 Y10.5284 Z-3.0664
G01 X37.4411 Y10.5504 Z-3.1077
G01 X37.3174 Y10.5951 Z-3.1307
G01 X37.2416 Y10.6366 Z-3.1340
G01 X37.1406 Y10.7151 Z-3.1224
G01 X37.0570 Y10.8103 Z-3.0967
G01 X37.0124 Y10.8812 Z-3.0767
G01 X36.9643 Y10.9969 Z-3.0504
G01 X36.9392 Y11.1196 Z-3.0376
G01 X36.9357 Y11.2030 Z-3.0400
G01 X36.9420 Y11.3581 Z-3.0500 F1200
G01 X36.9720 Y11.5092 Z-3.0787
G01 X36.9726 Y11.5113 Z-3.0792
G01 X37.0267 Y11.6543 Z-3.1191
G01 X37.1018 Y11.7853 Z-3.1592
G01 X37.1030 Y11.7871 Z-3.1597
G01 X37.1979 Y11.9026 Z-3.1891
G01 X37.3083 Y11.9997 Z-3.2000
G01 X37.3100 Y12.0009
G01 X37.4337 Y12.0769 Z-3.1892
G01 X37.5656 Y12.1302 Z-3.1598
G01 X37.5675 Y12.1308 Z-3.1593
G01 X37.7047 Y12.1600 Z-3.1192
G01 X37.8418 Y12.1651 Z-3.0793
G01 X37.8437 Y12.1650 Z-3.0788
G01 X37.9774 Y12.1460 Z-3.0500
G01 X38.1028 Y12.1043 Z-3.0400
G01 X38.1045 Y12.1036
G01 X38.2184 Y12.0408 Z-3.0518
G01 X38.3167 Y11.9596 Z-3.0818
G01 X38.3180 Y11.9583 Z-3.0823
G01 X38.3984 Y11.8615 Z-3.1226
G01 X38.4577 Y11.7528 Z-3.1623
G01 X38.4584 Y11.7512 Z-3.1628
G01 X38.4956 Y11.6342 Z-3.1908
G01 X38.5090 Y11.5134 Z-3.1999
G01 X38.5091 Y11.5117
G01 X38.4990 Y11.3910 Z-3.1873
G01 X38.4651 Y11.2749 Z-3.1567
G01 X38.4645 Y11.2733 Z-3.1561
G01 X38.4088 Y11.1657 Z-3.1156
G01 X38.3324 Y11.0706 Z-3.0762
G01 X38.3312 Y11.0693 Z-3.0757
G01 X38.2373 Y10.9900 Z-3.0484
G01 X38.1283 Y10.9294 Z-3.0402
G01 X38.1267 Y10.9287
G01 X38.0068 Y10.8893 Z-3.0537
G01 X37.8793 Y10.8727 Z-3.0849
G01 X37.8774 Z-3.0855
G01 X37.7471 Y10.8799 Z-3.1262
G01 X37.6175 Y10.9113 Z-3.1652
G01 X37.6156 Y10.9119 Z-3.1657
G01 X37.4918 Y10.9668 Z-3.1924
G01 X37.3768 Y11.0441 Z-3.1997
G01 X37.3753 Y11.0454
G01 X37.2740 Y11.1430 Z-3.1853
G01 X37.1889 Y11.2587 Z-3.1534
G01 X37.1878 Y11.2604 Z-3.1529
G01 X37.1228 Y11.3906 Z-3.1120
G01 X37.0791 Y11.5322 Z-3.0733
G01 X37.0786 Y11.5343 Z-3.0728
G01 X37.0590 Y11.6828 Z-3.0468
G01 X37.0633 Y11.8347 Z-3.0405
G01 X37.0635 Y11.8368
G01 X37.0930 Y11.9871 Z-3.0557
G01 X37.1462 Y12.1322 Z-3.0882
G01 X37.1471 Y12.1342 Z-3.0887
G01 X37.2236 Y12.2694 Z-3.1297
G01 X37.3206 Y12.3916 Z-3.1681
G01 X37.3221 Y12.3933 Z-3.1686
G01 X37.4378 Y12.4982 Z-3.1939
G01 X37.5682 Y12.5840 Z-3.1993
G01 X37.5702 Y12.5851
G01 X37.7125 Y12.6483 Z-3.1832
G01 X37.8621 Y12.6885 Z-3.1502
G01 X37.8643 Y12.6889 Z-3.1496
G01 X38.0176 Y12.7040 Z-3.1085
G01 X38.1697 Y12.6949 Z-3.0705
G01 X38.1718 Y12.6946 Z-3.0700
G01 X38.3191 Y12.6608 Z-3.0455
G01 X38.4569 Y12.6047 Z-3.0409
G01 X38.4587 Y12.6037 Z-3.0410
G01 X38.5837 Y12.5262 Z-3.0579
G01 X38.6922 Y12.4310 Z-3.0915
G01 X38.6936 Y12.4295 Z-3.0920
G01 X38.7830 Y12.3187 Z-3.1333
G01 X38.8507 Y12.1969 Z-3.1709
G01 X38.8515 Y12.1951 Z-3.1714
G01 X38.8962 Y12.0654 Z-3.1952
G01 X38.9169 Y11.9328 Z-3.1988
G01 X38.9170 Y11.9309 Z-3.1987
G01 X38.9136 Y11.7988 Z-3.1809
G01 X38.8867 Y11.6723 Z-3.1469
G01 X38.8861 Y11.6706 Z-3.1463
G01 X38.8370 Y11.5529 Z-3.1050
G01 X38.7677 Y11.4486 Z-3.0677
G01 X38.7666 Y11.4472 Z-3.0673
G01 X38.6798 Y11.3588 Z-3.0443
G01 X38.5788 Y11.2899 Z-3.0415
G01 X38.5773 Y11.2891 Z-3.0417
G01 X38.4656 Y11.2411 Z-3.0602
G01 X38.3471 Y11.2163 Z-3.0948
G01 X38.3454 Y11.2162 Z-3.0954
G01 X38.2245 Y11.2147 Z-3.1368
G01 X38.1053 Y11.2374 Z-3.1736
G01 X38.1036 Y11.2379 Z-3.1741
G01 X37.9904 Y11.2833 Z-3.1963
G01 X37.8871 Y11.3508 Z-3.1981
G01 X37.8857 Y11.3519 Z-3.1980
G01 X37.7961 Y11.4385 Z-3.1786
G01 X37.7234 Y11.5425 Z-3.1435
G01 X37.7225 Y11.5441 Z-3.1429
G01 X37.6696 Y11.6613 Z-3.1015
G01 X37.6385 Y11.7889 Z-3.0651
G01 X37.6382 Y11.7907 Z-3.0646
G01 X37.6306 Y11.9239 Z-3.0432
G01 X37.6470 Y12.0593 Z-3.0423
G01 X37.6474 Y12.0612 Z-3.0425
G01 X37.6880 Y12.1936 Z-3.0627
G01 X37.7520 Y12.3199 Z-3.0982
G01 X37.7531 Y12.3216 Z-3.0988
G01 X37.8390 Y12.4366 Z-3.1402
G01 X37.9447 Y12.5377 Z-3.1762
G01 X37.9464 Y12.5391 Z-3.1766
G01 X38.0691 Y12.6220 Z-3.1973
G01 X38.2057 Y12.6851 Z-3.1972
G01 X38.2078 Y12.6858 Z-3.1971
G01 X38.3543 Y12.7257 Z-3.1761
G01 X38.5070 Y12.7423 Z-3.1400
G01 X38.5092 Y12.7424 Z-3.1395
G01 X38.6635 Y12.7336 Z-3.0981
G01 X38.8156 Y12.7008 Z-3.0625
G01 X38.8177 Y12.7002 Z-3.0621
G01 X38.9628 Y12.6428 Z-3.0423
G01 X39.0975 Y12.5637 Z-3.0432
G01 X39.0993 Y12.5624 Z-3.0434
G01 X39.2193 Y12.4625 Z-3.0652
G01 X39.3220 Y12.3456 Z-3.1017
G01 X39.3233 Y12.3438 Z-3.1023
G01 X39.4051 Y12.2123 Z-3.1436
G01 X39.4650 Y12.0709 Z-3.1787
G01 X39.4657 Y12.0688 Z-3.1791
G01 X39.5011 Y11.9206 Z-3.1981
G01 X39.5125 Y11.7706 Z-3.1962
G01 Y11.7684 Z-3.1961
G01 X39.4988 Y11.6202 Z-3.1735
G01 X39.4618 Y11.4787 Z-3.1366
G01 X39.4612 Y11.4767 Z-3.1360
G01 X39.4015 Y11.3452 Z-3.0947
G01 X39.3224 Y11.2280 Z-3.0601
G01 X39.3211 Y11.2264 Z-3.0597
G01 X39.2242 Y11.1262 Z-3.0415
G01 X39.1140 Y11.0460 Z-3.0443
G01 X39.1123 Y11.0450 Z-3.0445
G01 X38.9914 Y10.9867 Z-3.0679
G01 X38.8649 Y10.9518 Z-3.1052
G01 X38.8630 Y10.9515 Z-3.1058
G01 X38.7341 Y10.9405 Z-3.1470
G01 X38.6080 Y10.9535 Z-3.1811
G01 X38.6063 Y10.9539 Z-3.1814
G01 X38.4863 Y10.9898 Z-3.1988
G01 X38.3771 Y11.0473 Z-3.1951
G01 X38.3757 Y11.0483 Z-3.1949
G01 X38.2803 Y11.1249 Z-3.1708
G01 X38.2026 Y11.2181 Z-3.1331
G01 X38.2016 Y11.2195 Z-3.1325
G01 X38.1435 Y11.3256 Z-3.0913
G01 X38.1076 Y11.4412 Z-3.0578
G01 X38.1072 Y11.4429 Z-3.0574
G01 X38.0943 Y11.5635 Z-3.0409
G01 X38.1054 Y11.6854 Z-3.0455
G01 X38.1057 Y11.6871 Z-3.0458
G01 X38.1402 Y11.8055 Z-3.0706
G01 X38.1977 Y11.9168 Z-3.1087
G01 X38.1987 Y11.9183 Z-3.1093
G01 X38.2770 Y12.0180 Z-3.1504
G01 X38.3745 Y12.1031 Z-3.1833
G01 X38.3760 Y12.1042 Z-3.1837
G01 X38.4890 Y12.1710 Z-3.1994
G01 X38.6150 Y12.2174 Z-3.1938
G01 X38.6168 Y12.2179 Z-3.1936
G01 X38.7511 Y12.2415 Z-3.1680
G01 X38.8905 Z-3.1295
G01 X38.8925 Y12.2414 Z-3.1290
G01 X39.0318 Y12.2168 Z-3.0880
G01 X39.1679 Y12.1683 Z-3.0556
G01 X39.1697 Y12.1675 Z-3.0553
G01 X39.2972 Y12.0957 Z-3.0404
G01 X39.4133 Y12.0025 Z-3.0469
G01 X39.4149 Y12.0011 Z-3.0472
G01 X39.5148 Y11.8887 Z-3.0735
G01 X39.5968 Y11.7602 Z-3.1122
G01 X39.5979 Y11.7582 Z-3.1128
G01 X39.6580 Y11.6169 Z-3.1536
G01 X39.6957 Y11.4667 Z-3.1854
G01 X39.6961 Y11.4645 Z-3.1858
G01 X39.7088 Y11.3094 Z-3.1997
G01 X39.6973 Y11.1537 Z-3.1923
G01 X39.6970 Y11.1515 Z-3.1921
G01 X39.6603 Y10.9997 Z-3.1651
G01 X39.6007 Y10.8555 Z-3.1260
G01 X39.5997 Y10.8535 Z-3.1254
G01 X39.5177 Y10.7213 Z-3.0848
G01 X39.4167 Y10.6043 Z-3.0536
G01 X39.4152 Y10.6027 Z-3.0532
G01 X39.2972 Y10.5044 Z-3.0401
G01 X39.1666 Y10.4268 Z-3.0484
G01 X39.1647 Y10.4258 Z-3.0487
G01 X39.0244 Y10.3714 Z-3.0764
G01 X38.8795 Y10.3407 Z-3.1158
G01 X38.8774 Y10.3405 Z-3.1164
G01 X38.7312 Y10.3347 Z-3.1568
G01 X38.5888 Y10.3528 Z-3.1874
G01 X38.5868 Y10.3533 Z-3.1877
G01 X38.4516 Y10.3950 Z-3.1999
G01 X38.3281 Y10.4578 Z-3.1907
G01 X38.3265 Y10.4588 Z-3.1905
G01 X38.2177 Y10.5411 Z-3.1621
G01 X38.1273 Y10.6391 Z-3.1224
G01 X38.1261 Y10.6406 Z-3.1218
G01 X38.0560 Y10.7516 Z-3.0816
G01 X38.0085 Y10.8711 Z-3.0517
G01 X38.0080 Y10.8728 Z-3.0514
G01 X37.9837 Y10.9973 Z-3.0400
G01 X37.9836 Y11.1220 Z-3.0501
G01 X37.9838 Y11.1237 Z-3.0504
G01 X38.0071 Y11.2449 Z-3.0794
G01 X38.0531 Y11.3579 Z-3.1193
G01 X38.0539 Y11.3594 Z-3.1199
G01 X38.1205 Y11.4609 Z-3.1599
G01 X38.2055 Y11.5469 Z-3.1893
G01 X38.2068 Y11.5479 Z-3.1895
G01 X38.3069 Y11.6159 Z-3.2000
G01 X38.4191 Y11.6629 Z-3.1890
G01 X38.4207 Y11.6634 Z-3.1887
G01 X38.5405 Y11.6882 Z-3.1590
G01 X38.6644 Y11.6892 Z-3.1189
G01 X38.6662 Y11.6890 Z-3.1183
G01 X38.7893 Y11.6663 Z-3.0785
G01 X38.9081 Y11.6199 Z-3.0499
G01 X38.9097 Y11.6190 Z-3.0496
G01 X39.0194 Y11.5505 Z-3.0400
G01 X39.1168 Y11.4612 Z-3.0519
G01 X39.1181 Y11.4598 Z-3.0522
G01 X39.1990 Y11.3528 Z-3.0825
G01 X39.2613 Y11.2305 Z-3.1229
G01 X39.2620 Y11.2287 Z-3.1235
G01 X39.3025 Y11.0953 Z-3.1630
G01 X39.3201 Y10.9541 Z-3.1910
G01 X39.3202 Y10.9520 Z-3.1912
G01 X39.3133 Y10.8078 Z-3.1999
G01 X39.2822 Y10.6641 Z-3.1871
G01 X39.2816 Y10.6620 Z-3.1868
G01 X39.2262 Y10.5239 Z-3.1559
G01 X39.1482 Y10.3946 Z-3.1153
G01 X39.1470 Y10.3928 Z-3.1147
G01 X39.0478 Y10.2771 Z-3.0755
G01 X38.9305 Y10.1773 Z-3.0482
G01 X38.9287 Y10.1760 Z-3.0480
G01 X38.7958 Y10.0964 Z-3.0402
G01 X38.6514 Y10.0379 Z-3.0538
G01 X38.6493 Y10.0373 Z-3.0542
G01 X38.4970 Y10.0031 Z-3.0857
G01 X38.3411 Y9.9928 Z-3.1265
G01 X38.3389 Z-3.1271
G01 X38.1836 Y10.0080 Z-3.1660
G01 X38.0332 Y10.0469 Z-3.1925
G01 X38.0311 Y10.0476 Z-3.1928
G01 X37.8898 Y10.1102 Z-3.1996
G01 X37.7612 Y10.1934 Z-3.1851
G01 X37.7595 Y10.1947 Z-3.1848
G01 X37.6473 Y10.2971 Z-3.1527
G01 X37.5542 Y10.4145 Z-3.1118
G01 X37.5530 Y10.4162 Z-3.1112
G01 X37.4815 Y10.5460 Z-3.0726
G01 X37.4331 Y10.6833 Z-3.0467
G01 X37.4326 Y10.6852 Z-3.0465
G01 X37.4086 Y10.8268 Z-3.0406
G01 X37.4087 Y10.9675 Z-3.0559
G01 X37.4089 Y10.9694 Z-3.0563
G01 X37.4331 Y11.1058 Z-3.0890
G01 X37.4797 Y11.2331 Z-3.1300
G01 X37.4805 Y11.2348 Z-3.1306
G01 X37.5481 Y11.3498 Z-3.1688
G01 X37.6334 Y11.4486 Z-3.1940
G01 X37.6347 Y11.4498 Z-3.1942
G01 X37.7353 Y11.5301 Z-3.1992
G01 X37.8469 Y11.5888 Z-3.1830
G01 X37.8485 Y11.5895 Z-3.1826
G01 X37.9678 Y11.6258 Z-3.1494
G01 X38.0901 Y11.6382 Z-3.1082
G01 X38.0918 Z-3.1076
G01 X38.2133 Y11.6270 Z-3.0698
G01 X38.3294 Y11.5923 Z-3.0454
G01 X38.3310 Y11.5916 Z-3.0452
G01 X38.4380 Y11.5353 Z-3.0411
G01 X38.5318 Y11.4587 Z-3.0581
G01 X38.5330 Y11.4575 Z-3.0585
G01 X38.6106 Y11.3639 Z-3.0923
G01 X38.6688 Y11.2558 Z-3.1335
G01 X38.6695 Y11.2542 Z-3.1341
G01 X38.7064 Y11.1360 Z-3.1716
G01 X38.7202 Y11.0109 Z-3.1953
G01 Y11.0091 Z-3.1955
G01 X38.7103 Y10.8820 Z-3.1986
G01 X38.6763 Y10.7564 Z-3.1808
G01 X38.6757 Y10.7546 Z-3.1804
G01 X38.6185 Y10.6356 Z-3.1460
G01 X38.5393 Y10.5262 Z-3.1047
G01 X38.5380 Y10.5247 Z-3.1041
G01 X38.4391 Y10.4297 Z-3.0671
G01 X38.3227 Y10.3513 Z-3.0442
G01 X38.3210 Y10.3503 Z-3.0440
G01 X38.1910 Y10.2925 Z-3.0417
G01 X38.0504 Y10.2563 Z-3.0604
G01 X38.0483 Y10.2560 Z-3.0608
G01 X37.9018 Y10.2440 Z-3.0957
G01 X37.7527 Y10.2560 Z-3.1370
G01 X37.7506 Y10.2564 Z-3.1376
G01 X37.6042 Y10.2934 Z-3.1743
G01 X37.4638 Y10.3539 Z-3.1964
G01 X37.4618 Y10.3549 Z-3.1966
G01 X37.3323 Y10.4383 Z-3.1979
G01 X37.2165 Y10.5415 Z-3.1784
G01 X37.2149 Y10.5431 Z-3.1780
G01 X37.1172 Y10.6644 Z-3.1426
G01 X37.0390 Y10.7996 Z-3.1012
G01 X37.0381 Y10.8016 Z-3.1007
G01 X36.9830 Y10.9478 Z-3.0644
G01 X36.9512 Y11.1004 Z-3.0431
G01 X36.9510 Y11.1026 Z-3.0429
G01 X36.9445 Y11.2578 Z-3.0425
G01 X36.9622 Y11.4110 Z-3.0629
G01 X36.9626 Y11.4132 Z-3.0633
G00 Z8.0000 F


(No. 4: Hole 53)
G00 X39.9180 Y30.9415 Z8.0000 F4000
G00 X40.7009 Y30.8034 Z0.5107 F
G01 X40.6651 Y30.6696 Z0.5223 F180
G01 X40.6065 Y30.5440 Z0.5447
G01 X40.5270 Y30.4304 Z0.5670
G01 X40.4290 Y30.3325 Z0.5786
G01 X40.3155 Y30.2530 Z0.5717
G01 X40.1899 Y30.1944 Z0.5433
G01 X40.0561 Y30.1585 Z0.4963
G01 X39.9180 Y30.1465 Z0.4387
G01 X39.7800 Y30.1585 Z0.3810
G01 X39.6461 Y30.1944 Z0.3341
G01 X39.5205 Y30.2530 Z0.3057
G01 X39.4070 Y30.3325 Z0.2987
G01 X39.3090 Y30.4304 Z0.3103
G01 X39.2295 Y30.5440 Z0.3327
G01 X39.1710 Y30.6696 Z0.3550
G01 X39.1351 Y30.8034 Z0.3666
G01 X39.1230 Y30.9415 Z0.3597
G01 X39.1351 Y31.0795 Z0.3313
G01 X39.1710 Y31.2134 Z0.2843
G01 X39.2295 Y31.3390 Z0.2267
G01 X39.3090 Y31.4525 Z0.1690
G01 X39.4070 Y31.5505 Z0.1221
G01 X39.5205 Y31.6299 Z0.0937
G01 X39.6461 Y31.6885 Z0.0867
G01 X39.7800 Y31.7244 Z0.0983
G01 X39.9180 Y31.7365 Z0.1207
G01 X40.0561 Y31.7244 Z0.1430
G01 X40.1899 Y31.6885 Z0.1546
G01 X40.2289 Y31.6732 Z0.1547
G01 X40.3379 Y31.6081 Z0.1474
G01 X40.4337 Y31.5227 Z0.1190
G01 X40.5130 Y31.4197 Z0.0739
G01 X40.5731 Y31.3021 Z0.0211
G01 X40.6116 Y31.1736 Z-0.0282
G01 X40.6270 Y31.0381 Z-0.0641
G01 X40.6184 Y30.8996 Z-0.0800
G01 X40.5857 Y30.7624 Z-0.0746
G01 X40.5295 Y30.6306 Z-0.0527
G01 X40.4511 Y30.5082 Z-0.0231
G01 X40.3524 Y30.3991 Z0.0032
G01 X40.2360 Y30.3064 Z0.0159
G01 X40.1051 Y30.2330 Z0.0087
G01 X39.9632 Y30.1811 Z-0.0198
G01 X39.8143 Y30.1524 Z-0.0649
G01 X39.6625 Y30.1476 Z-0.1176
G01 X39.5119 Y30.1669 Z-0.1670
G01 X39.3668 Y30.2098 Z-0.2029
G01 X39.2311 Y30.2749 Z-0.2187
G01 X39.1085 Y30.3602 Z-0.2134
G01 X39.0025 Y30.4632 Z-0.1915
G01 X38.9157 Y30.5808 Z-0.1618
G01 X38.8505 Y30.7093 Z-0.1356
G01 X38.8084 Y30.8448 Z-0.1229
G01 X38.7902 Y30.9833 Z-0.1301
G01 X38.7962 Y31.1205 Z-0.1586
G01 X38.8257 Y31.2523 Z-0.2037
G01 X38.8775 Y31.3747 Z-0.2564
G01 X38.9495 Y31.4838 Z-0.3058
G01 X39.0391 Y31.5765 Z-0.3417
G01 X39.1433 Y31.6499 Z-0.3575
G01 X39.2585 Y31.7018 Z-0.3522
G01 X39.3807 Y31.7306 Z-0.3303
G01 X39.5058 Y31.7354 Z-0.3006
G01 X39.6297 Y31.7160 Z-0.2744
G01 X39.7481 Y31.6732 Z-0.2616
G01 X39.8571 Y31.6081 Z-0.2689
G01 X39.9529 Y31.5227 Z-0.2974
G01 X40.0322 Y31.4197 Z-0.3425
G01 X40.0923 Y31.3021 Z-0.3952
G01 X40.1308 Y31.1736 Z-0.4446
G01 X40.1462 Y31.0381 Z-0.4805
G01 X40.1377 Y30.8996 Z-0.4963
G01 X40.1050 Y30.7624 Z-0.4910
G01 X40.0487 Y30.6306 Z-0.4690
G01 X39.9703 Y30.5082 Z-0.4394
G01 X39.8716 Y30.3991 Z-0.4132
G01 X39.7552 Y30.3064 Z-0.4004
G01 X39.6243 Y30.2330 Z-0.4077
G01 X39.4825 Y30.1811 Z-0.4362
G01 X39.3335 Y30.1524 Z-0.4812
G01 X39.1817 Y30.1476 Z-0.5340
G01 X39.0311 Y30.1669 Z-0.5834
G01 X38.8860 Y30.2098 Z-0.6193
G01 X38.7503 Y30.2749 Z-0.6351
G01 X38.6278 Y30.3602 Z-0.6298
G01 X38.5217 Y30.4632 Z-0.6078
G01 X38.4350 Y30.5808 Z-0.5782
G01 X38.3697 Y30.7093 Z-0.5520
G01 X38.3276 Y30.8448 Z-0.5392
G01 X38.3095 Y30.9833 Z-0.5465
G01 X38.3154 Y31.1205 Z-0.5749
G01 X38.3450 Y31.2523 Z-0.6200
G01 X38.3967 Y31.3747 Z-0.6728
G01 X38.4687 Y31.4838 Z-0.7222
G01 X38.5584 Y31.5765 Z-0.7580
G01 X38.6626 Y31.6499 Z-0.7739
G01 X38.7777 Y31.7018 Z-0.7686
G01 X38.8999 Y31.7306 Z-0.7466
G01 X39.0250 Y31.7354 Z-0.7170
G01 X39.1489 Y31.7160 Z-0.6907
G01 X39.2673 Y31.6732 Z-0.6780
G01 X39.3763 Y31.6081 Z-0.6853
G01 X39.4721 Y31.5227 Z-0.7137
G01 X39.5515 Y31.4197 Z-0.7588
G01 X39.6115 Y31.3021 Z-0.8116
G01 X39.6500 Y31.1736 Z-0.8610
G01 X39.6654 Y31.0381 Z-0.8968
G01 X39.6569 Y30.8996 Z-0.9127
G01 X39.6242 Y30.7624 Z-0.9074
G01 X39.5680 Y30.6306 Z-0.8854
G01 X39.4895 Y30.5082 Z-0.8558
G01 X39.3908 Y30.3991 Z-0.8295
G01 X39.2744 Y30.3064 Z-0.8168
G01 X39.1435 Y30.2330 Z-0.8241
G01 X39.0017 Y30.1811 Z-0.8525
G01 X38.8528 Y30.1524 Z-0.8976
G01 X38.7009 Y30.1476 Z-0.9504
G01 X38.5503 Y30.1669 Z-0.9997
G01 X38.4052 Y30.2098 Z-1.0356
G01 X38.2695 Y30.2749 Z-1.0515
G01 X38.1470 Y30.3602 Z-1.0462
G01 X38.0409 Y30.4632 Z-1.0242
G01 X37.9542 Y30.5808 Z-0.9946
G01 X37.8890 Y30.7093 Z-0.9683
G01 X37.8468 Y30.8448 Z-0.9556
G01 X37.8287 Y30.9833 Z-0.9629
G01 X37.8347 Y31.1205 Z-0.9913
G01 X37.8642 Y31.2523 Z-1.0364
G01 X37.9159 Y31.3747 Z-1.0891
G01 X37.9879 Y31.4838 Z-1.1385
G01 X38.0776 Y31.5765 Z-1.1744
G01 X38.1818 Y31.6499 Z-1.1903
G01 X38.2969 Y31.7018 Z-1.1849
G01 X38.4191 Y31.7306 Z-1.1630
G01 X38.5443 Y31.7354 Z-1.1334
G01 X38.6681 Y31.7160 Z-1.1071
G01 X38.7866 Y31.6732 Z-1.0944
G01 X38.8955 Y31.6081 Z-1.1016
G01 X38.9914 Y31.5227 Z-1.1301
G01 X39.0707 Y31.4197 Z-1.1752
G01 X39.1307 Y31.3021 Z-1.2279
G01 X39.1693 Y31.1736 Z-1.2773
G01 X39.1847 Y31.0381 Z-1.3132
G01 X39.1761 Y30.8996 Z-1.3290
G01 X39.1434 Y30.7624 Z-1.3237
G01 X39.0872 Y30.6306 Z-1.3018
G01 X39.0087 Y30.5082 Z-1.2721
G01 X38.9100 Y30.3991 Z-1.2459
G01 X38.7937 Y30.3064 Z-1.2332
G01 X38.6628 Y30.2330 Z-1.2404
G01 X38.5209 Y30.1811 Z-1.2689
G01 X38.3720 Y30.1524 Z-1.3140
G01 X38.2202 Y30.1476 Z-1.3667
G01 X38.0696 Y30.1669 Z-1.4161
G01 X37.9244 Y30.2098 Z-1.4520
G01 X37.7887 Y30.2749 Z-1.4678
G01 X37.6662 Y30.3602 Z-1.4625
G01 X37.5602 Y30.4632 Z-1.4406
G01 X37.4734 Y30.5808 Z-1.4109
G01 X37.4082 Y30.7093 Z-1.3847
G01 X37.3661 Y30.8448 Z-1.3719
G01 X37.3479 Y30.9833 Z-1.3792
G01 X37.3539 Y31.1205 Z-1.4077
G01 X37.3834 Y31.2523 Z-1.4528
G01 X37.4352 Y31.3747 Z-1.5055
G01 X37.5072 Y31.4838 Z-1.5549
G01 X37.5968 Y31.5765 Z-1.5908
G01 X37.6310 Y31.6039 Z-1.5986
G01 X37.7660 Y31.6702 Z-1.6071
G01 X37.9108 Y31.7143 Z-1.5953
G01 X38.0612 Y31.7349 Z-1.5695
G01 X38.2130 Y31.7314 Z-1.5398
G01 X38.3622 Y31.7040 Z-1.5172
G01 X38.5046 Y31.6533 Z-1.5108
G01 X38.6362 Y31.5810 Z-1.5255
G01 X38.7534 Y31.4893 Z-1.5604
G01 X38.8531 Y31.3810 Z-1.6093
G01 X38.9328 Y31.2593 Z-1.6621
G01 X38.9902 Y31.1279 Z-1.7079
G01 X39.0242 Y30.9908 Z-1.7374
G01 X39.0341 Y30.8523 Z-1.7458
G01 X39.0200 Y30.7165 Z-1.7341
G01 X38.9827 Y30.5875 Z-1.7083
G01 X38.9237 Y30.4693 Z-1.6786
G01 X38.8454 Y30.3654 Z-1.6560
G01 X38.7504 Y30.2790 Z-1.6496
G01 X38.6420 Y30.2127 Z-1.6642
G01 X38.5240 Y30.1686 Z-1.6992
G01 X38.4003 Y30.1480 Z-1.7480
G01 X38.2752 Y30.1515 Z-1.8009
G01 X38.1527 Y30.1790 Z-1.8467
G01 X38.0370 Y30.2296 Z-1.8762
G01 X37.9322 Y30.3019 Z-1.8846
G01 X37.8416 Y30.3936 Z-1.8729
G01 X37.7686 Y30.5019 Z-1.8471
G01 X37.7157 Y30.6237 Z-1.8174
G01 X37.6849 Y30.7550 Z-1.7947
G01 X37.6777 Y30.8921 Z-1.7884
G01 X37.6945 Y31.0306 Z-1.8030
G01 X37.7353 Y31.1664 Z-1.8379
G01 X37.7993 Y31.2954 Z-1.8868
G01 X37.8850 Y31.4136 Z-1.9397
G01 X37.9900 Y31.5175 Z-1.9855
G01 X38.1118 Y31.6039 Z-2.0150
G01 X38.2468 Y31.6702 Z-2.0234
G01 X38.3915 Y31.7143 Z-2.0116
G01 X38.5419 Y31.7349 Z-1.9859
G01 X38.6938 Y31.7314 Z-1.9562
G01 X38.8430 Y31.7040 Z-1.9335
G01 X38.9853 Y31.6533 Z-1.9271
G01 X39.1169 Y31.5810 Z-1.9418
G01 X39.2342 Y31.4893 Z-1.9767
G01 X39.3339 Y31.3810 Z-2.0256
G01 X39.4135 Y31.2593 Z-2.0785
G01 X39.4710 Y31.1279 Z-2.1242
G01 X39.5050 Y30.9908 Z-2.1538
G01 X39.5149 Y30.8523 Z-2.1622
G01 X39.5007 Y30.7165 Z-2.1504
G01 X39.4634 Y30.5875 Z-2.1247
G01 X39.4045 Y30.4693 Z-2.0949
G01 X39.3262 Y30.3654 Z-2.0723
G01 X39.2312 Y30.2790 Z-2.0659
G01 X39.1228 Y30.2127 Z-2.0806
G01 X39.0048 Y30.1686 Z-2.1155
G01 X38.8811 Y30.1480 Z-2.1644
G01 X38.7559 Y30.1515 Z-2.2173
G01 X38.6335 Y30.1790 Z-2.2630
G01 X38.5178 Y30.2296 Z-2.2925
G01 X38.4129 Y30.3019 Z-2.3010
G01 X38.3224 Y30.3936 Z-2.2892
G01 X38.2494 Y30.5019 Z-2.2635
G01 X38.1965 Y30.6237 Z-2.2337
G01 X38.1657 Y30.7550 Z-2.2111
G01 X38.1584 Y30.8921 Z-2.2047
G01 X38.1753 Y31.0306 Z-2.2194
G01 X38.2161 Y31.1664 Z-2.2543
G01 X38.2801 Y31.2954 Z-2.3032
G01 X38.3657 Y31.4136 Z-2.3560
G01 X38.4708 Y31.5175 Z-2.4018
G01 X38.5925 Y31.6039 Z-2.4313
G01 X38.7276 Y31.6702 Z-2.4398
G01 X38.8723 Y31.7143 Z-2.4280
G01 X39.0227 Y31.7349 Z-2.4023
G01 X39.1746 Y31.7314 Z-2.3725
G01 X39.3238 Y31.7040 Z-2.3499
G01 X39.4661 Y31.6533 Z-2.3435
G01 X39.5977 Y31.5810 Z-2.3582
G01 X39.7149 Y31.4893 Z-2.3931
G01 X39.8147 Y31.3810 Z-2.4420
G01 X39.8943 Y31.2593 Z-2.4948
G01 X39.9518 Y31.1279 Z-2.5406
G01 X39.9858 Y30.9908 Z-2.5701
G01 X39.9956 Y30.8523 Z-2.5786
G01 X39.9815 Y30.7165 Z-2.5668
G01 X39.9442 Y30.5875 Z-2.5410
G01 X39.8853 Y30.4693 Z-2.5113
G01 X39.8069 Y30.3654 Z-2.4887
G01 X39.7119 Y30.2790 Z-2.4823
G01 X39.6036 Y30.2127 Z-2.4970
G01 X39.4856 Y30.1686 Z-2.5319
G01 X39.3619 Y30.1480 Z-2.5808
G01 X39.2367 Y30.1515 Z-2.6336
G01 X39.1142 Y30.1790 Z-2.6794
G01 X38.9986 Y30.2296 Z-2.7089
G01 X38.8937 Y30.3019 Z-2.7174
G01 X38.8032 Y30.3936 Z-2.7056
G01 X38.7301 Y30.5019 Z-2.6798
G01 X38.6772 Y30.6237 Z-2.6501
G01 X38.6465 Y30.7550 Z-2.6275
G01 X38.6392 Y30.8921 Z-2.6211
G01 X38.6560 Y31.0306 Z-2.6358
G01 X38.6969 Y31.1664 Z-2.6707
G01 X38.7609 Y31.2954 Z-2.7195
G01 X38.8465 Y31.4136 Z-2.7724
G01 X38.9516 Y31.5175 Z-2.8182
G01 X39.0733 Y31.6039 Z-2.8477
G01 X39.2084 Y31.6702 Z-2.8561
G01 X39.3531 Y31.7143 Z-2.8444
G01 X39.5035 Y31.7349 Z-2.8186
G01 X39.6554 Y31.7314 Z-2.7889
G01 X39.8045 Y31.7040 Z-2.7662
G01 X39.9469 Y31.6533 Z-2.7599
G01 X40.0785 Y31.5810 Z-2.7745
G01 X40.1957 Y31.4893 Z-2.8095
G01 X40.2955 Y31.3810 Z-2.8583
G01 X40.3751 Y31.2593 Z-2.9112
G01 X40.4325 Y31.1279 Z-2.9570
G01 X40.4665 Y30.9908 Z-2.9865
G01 X40.4764 Y30.8523 Z-2.9949
G01 X40.4623 Y30.7165 Z-2.9832
G01 X40.4250 Y30.5875 Z-2.9574
G01 X40.3661 Y30.4693 Z-2.9277
G01 X40.2877 Y30.3654 Z-2.9050
G01 X40.1927 Y30.2790 Z-2.8986
G01 X40.0843 Y30.2127 Z-2.9133
G01 X39.9663 Y30.1686 Z-2.9482
G01 X39.8426 Y30.1480 Z-2.9971
G01 X39.7175 Y30.1515 Z-3.0500
G01 X39.5950 Y30.1790 Z-3.0958
G01 X39.4794 Y30.2296 Z-3.1253
G01 X39.3745 Y30.3019 Z-3.1337
G01 X39.2839 Y30.3936 Z-3.1219
G01 X39.2109 Y30.5019 Z-3.0962
G01 X39.1580 Y30.6237 Z-3.0665
G01 X39.1273 Y30.7550 Z-3.0438
G01 X39.1200 Y30.8921 Z-3.0374
G01 X39.1230 Y30.9395 Z-3.0400
G01 X39.1171 Y31.0776 Z-3.0504 F1200
G01 X39.1349 Y31.2115 Z-3.0795
G01 X39.1755 Y31.3372 Z-3.1194
G01 X39.2371 Y31.4510 Z-3.1595
G01 X39.3171 Y31.5492 Z-3.1890
G01 X39.4128 Y31.6290 Z-3.2000
G01 X39.5206 Y31.6878 Z-3.1896
G01 X39.6367 Y31.7240 Z-3.1605
G01 X39.7570 Y31.7365 Z-3.1206
G01 X39.8774 Y31.7247 Z-3.0805
G01 X39.9937 Y31.6892 Z-3.0510
G01 X40.1018 Y31.6309 Z-3.0400
G01 X40.1978 Y31.5517 Z-3.0504
G01 X40.2784 Y31.4540 Z-3.0795
G01 X40.3405 Y31.3407 Z-3.1194
G01 X40.3817 Y31.2152 Z-3.1595
G01 X40.4003 Y31.0815 Z-3.1890
G01 X40.3950 Y30.9434 Z-3.2000
G01 X40.3656 Y30.8054 Z-3.1896
G01 X40.3124 Y30.6714 Z-3.1605
G01 X40.2365 Y30.5457 Z-3.1206
G01 X40.1396 Y30.4320 Z-3.0805
G01 X40.0242 Y30.3337 Z-3.0510
G01 X39.8932 Y30.2540 Z-3.0400
G01 X39.7501 Y30.1951 Z-3.0504
G01 X39.5987 Y30.1589 Z-3.0795
G01 X39.4430 Y30.1465 Z-3.1194
G01 X39.2872 Y30.1582 Z-3.1595
G01 X39.1356 Y30.1937 Z-3.1890
G01 X38.9922 Y30.2520 Z-3.2000
G01 X38.8608 Y30.3312 Z-3.1896
G01 X38.7449 Y30.4289 Z-3.1605
G01 X38.6475 Y30.5422 Z-3.1206
G01 X38.5710 Y30.6677 Z-3.0805
G01 X38.5171 Y30.8015 Z-3.0510
G01 X38.4870 Y30.9395 Z-3.0400
G01 X38.4811 Y31.0776 Z-3.0504
G01 X38.4989 Y31.2115 Z-3.0795
G01 X38.5395 Y31.3372 Z-3.1194
G01 X38.6011 Y31.4510 Z-3.1595
G01 X38.6811 Y31.5492 Z-3.1890
G01 X38.7768 Y31.6290 Z-3.2000
G01 X38.8846 Y31.6878 Z-3.1896
G01 X39.0007 Y31.7240 Z-3.1605
G01 X39.1210 Y31.7365 Z-3.1206
G01 X39.2414 Y31.7247 Z-3.0805
G01 X39.3577 Y31.6892 Z-3.0510
G01 X39.4658 Y31.6309 Z-3.0400
G01 X39.5618 Y31.5517 Z-3.0504
G01 X39.6424 Y31.4540 Z-3.0795
G01 X39.7045 Y31.3407 Z-3.1194
G01 X39.7457 Y31.2152 Z-3.1595
G01 X39.7643 Y31.0815 Z-3.1890
G01 X39.7590 Y30.9434 Z-3.2000
G01 X39.7296 Y30.8054 Z-3.1896
G01 X39.6764 Y30.6714 Z-3.1605
G01 X39.6005 Y30.5457 Z-3.1206
G01 X39.5036 Y30.4320 Z-3.0805
G01 X39.3882 Y30.3337 Z-3.0510
G01 X39.2572 Y30.2540 Z-3.0400
G01 X39.1141 Y30.1951 Z-3.0504
G01 X38.9627 Y30.1589 Z-3.0795
G01 X38.8070 Y30.1465 Z-3.1194
G01 X38.6512 Y30.1582 Z-3.1595
G01 X38.4996 Y30.1937 Z-3.1890
G01 X38.3562 Y30.2520 Z-3.2000
G01 X38.2248 Y30.3312 Z-3.1896
G01 X38.1089 Y30.4289 Z-3.1605
G01 X38.0115 Y30.5422 Z-3.1206
G01 X37.9350 Y30.6677 Z-3.0805
G01 X37.8811 Y30.8015 Z-3.0510
G01 X37.8510 Y30.9395 Z-3.0400
G01 X37.8451 Y31.0776 Z-3.0504
G01 X37.8629 Y31.2115 Z-3.0795
G01 X37.9035 Y31.3372 Z-3.1194
G01 X37.9651 Y31.4510 Z-3.1595
G01 X38.0451 Y31.5492 Z-3.1890
G01 X38.1408 Y31.6290 Z-3.2000
G01 X38.2486 Y31.6878 Z-3.1896
G01 X38.3647 Y31.7240 Z-3.1605
G01 X38.4850 Y31.7365 Z-3.1206
G01 X38.6054 Y31.7247 Z-3.0805
G01 X38.7217 Y31.6892 Z-3.0510
G01 X38.8298 Y31.6309 Z-3.0400
G01 X38.9258 Y31.5517 Z-3.0504
G01 X39.0064 Y31.4540 Z-3.0795
G01 X39.0685 Y31.3407 Z-3.1194
G01 X39.1097 Y31.2152 Z-3.1595
G01 X39.1283 Y31.0815 Z-3.1890
G01 X39.1230 Y30.9434 Z-3.2000
G01 X39.0936 Y30.8054 Z-3.1896
G01 X39.0404 Y30.6714 Z-3.1605
G01 X38.9645 Y30.5457 Z-3.1206
G01 X38.8676 Y30.4320 Z-3.0805
G01 X38.7522 Y30.3337 Z-3.0510
G01 X38.6212 Y30.2540 Z-3.0400
G01 X38.4781 Y30.1951 Z-3.0504
G01 X38.3267 Y30.1589 Z-3.0795
G01 X38.1710 Y30.1465 Z-3.1194
G01 X38.0152 Y30.1582 Z-3.1595
G01 X37.8636 Y30.1937 Z-3.1890
G01 X37.7202 Y30.2520 Z-3.2000
G01 X37.5888 Y30.3312 Z-3.1896
G01 X37.4729 Y30.4289 Z-3.1605
G01 X37.3755 Y30.5422 Z-3.1206
G01 X37.2990 Y30.6677 Z-3.0805
G01 X37.2451 Y30.8015 Z-3.0510
G01 X37.2150 Y30.9395 Z-3.0400
G01 X37.2091 Y31.0776 Z-3.0504
G01 X37.2269 Y31.2115 Z-3.0795
G01 X37.2675 Y31.3372 Z-3.1194
G01 X37.3291 Y31.4510 Z-3.1595
G01 X37.4091 Y31.5492 Z-3.1890
G01 X37.5048 Y31.6290 Z-3.2000
G01 X37.6126 Y31.6878 Z-3.1896
G01 X37.7287 Y31.7240 Z-3.1605
G01 X37.8490 Y31.7365 Z-3.1206
G01 X37.9694 Y31.7247 Z-3.0805
G01 X38.0857 Y31.6892 Z-3.0510
G01 X38.1938 Y31.6309 Z-3.0400
G01 X38.2898 Y31.5517 Z-3.0504
G01 X38.3704 Y31.4540 Z-3.0795
G01 X38.4325 Y31.3407 Z-3.1194
G01 X38.4737 Y31.2152 Z-3.1595
G01 X38.4923 Y31.0815 Z-3.1890
G01 X38.4870 Y30.9434 Z-3.2000
G01 X38.4576 Y30.8054 Z-3.1896
G01 X38.4044 Y30.6714 Z-3.1605
G01 X38.3285 Y30.5457 Z-3.1206
G01 X38.2316 Y30.4320 Z-3.0805
G01 X38.1162 Y30.3337 Z-3.0510
G01 X37.9852 Y30.2540 Z-3.0400
G01 X37.8421 Y30.1951 Z-3.0504
G01 X37.6907 Y30.1589 Z-3.0795
G01 X37.5350 Y30.1465 Z-3.1194
G01 X37.3792 Y30.1582 Z-3.1595
G01 X37.2276 Y30.1937 Z-3.1890
G01 X37.0842 Y30.2520 Z-3.2000
G01 X36.9528 Y30.3312 Z-3.1896
G01 X36.8369 Y30.4289 Z-3.1605
G01 X36.7395 Y30.5422 Z-3.1206
G01 X36.6630 Y30.6677 Z-3.0805
G01 X36.6091 Y30.8015 Z-3.0510
G01 X36.5790 Y30.9395 Z-3.0400
G01 X36.5731 Y31.0776 Z-3.0504
G01 X36.5909 Y31.2115 Z-3.0795
G01 X36.6315 Y31.3372 Z-3.1194
G01 X36.6931 Y31.4510 Z-3.1595
G01 X36.7731 Y31.5492 Z-3.1890
G01 X36.8688 Y31.6290 Z-3.2000
G01 X36.9766 Y31.6878 Z-3.1896
G01 X37.0927 Y31.7240 Z-3.1605
G01 X37.2130 Y31.7365 Z-3.1206
G01 X37.3334 Y31.7247 Z-3.0805
G01 X37.4497 Y31.6892 Z-3.0510
G01 X37.5578 Y31.6309 Z-3.0400
G01 X37.6538 Y31.5517 Z-3.0504
G01 X37.7344 Y31.4540 Z-3.0795
G01 X37.7965 Y31.3407 Z-3.1194
G01 X37.8377 Y31.2152 Z-3.1595
G01 X37.8563 Y31.0815 Z-3.1890
G01 X37.8510 Y30.9434 Z-3.2000
G01 X37.8216 Y30.8054 Z-3.1896
G01 X37.7684 Y30.6714 Z-3.1605
G01 X37.6925 Y30.5457 Z-3.1206
G01 X37.5956 Y30.4320 Z-3.0805
G01 X37.4802 Y30.3337 Z-3.0510
G01 X37.3492 Y30.2540 Z-3.0400
G01 X37.2061 Y30.1951 Z-3.0504
G01 X37.0547 Y30.1589 Z-3.0795
G01 X36.8990 Y30.1465 Z-3.1194
G01 X36.7432 Y30.1582 Z-3.1595
G01 X36.5916 Y30.1937 Z-3.1890
G01 X36.4482 Y30.2520 Z-3.2000
G01 X36.3168 Y30.3312 Z-3.1896
G01 X36.2009 Y30.4289 Z-3.1605
G01 X36.1035 Y30.5422 Z-3.1206
G01 X36.0270 Y30.6677 Z-3.0805
G01 X35.9731 Y30.8015 Z-3.0510
G01 X35.9430 Y30.9395 Z-3.0400
G01 X35.9371 Y31.0776 Z-3.0504
G01 X35.9549 Y31.2115 Z-3.0795
G01 X35.9955 Y31.3372 Z-3.1194
G01 X36.0571 Y31.4510 Z-3.1595
G01 X36.1371 Y31.5492 Z-3.1890
G01 X36.2328 Y31.6290 Z-3.2000
G01 X36.3406 Y31.6878 Z-3.1896
G01 X36.4567 Y31.7240 Z-3.1605
G01 X36.5770 Y31.7365 Z-3.1206
G01 X36.6974 Y31.7247 Z-3.0805
G01 X36.8137 Y31.6892 Z-3.0510
G01 X36.9218 Y31.6309 Z-3.0400
G01 X37.0178 Y31.5517 Z-3.0504
G01 X37.0984 Y31.4540 Z-3.0795
G01 X37.1605 Y31.3407 Z-3.1194
G01 X37.2017 Y31.2152 Z-3.1595
G01 X37.2203 Y31.0815 Z-3.1890
G01 X37.2150 Y30.9434 Z-3.2000
G01 X37.1856 Y30.8054 Z-3.1896
G01 X37.1324 Y30.6714 Z-3.1605
G01 X37.0565 Y30.5457 Z-3.1206
G01 X36.9596 Y30.4320 Z-3.0805
G01 X36.8442 Y30.3337 Z-3.0510
G01 X36.7132 Y30.2540 Z-3.0400
G01 X36.5701 Y30.1951 Z-3.0504
G01 X36.4187 Y30.1589 Z-3.0795
G01 X36.2630 Y30.1465 Z-3.1194
G01 X36.1072 Y30.1582 Z-3.1595
G01 X35.9556 Y30.1937 Z-3.1890
G01 X35.8122 Y30.2520 Z-3.2000
G01 X35.6808 Y30.3312 Z-3.1896
G01 X35.5649 Y30.4289 Z-3.1605
G01 X35.4675 Y30.5422 Z-3.1206
G01 X35.3910 Y30.6677 Z-3.0805
G01 X35.3371 Y30.8015 Z-3.0510
G01 X35.3070 Y30.9395 Z-3.0400
G01 X35.3011 Y31.0776 Z-3.0504
G01 X35.3032 Y31.1105 Z-3.0560
G01 X35.3303 Y31.2534 Z-3.0885
G01 X35.3796 Y31.3872 Z-3.1295
G01 X35.4495 Y31.5081 Z-3.1679
G01 X35.5371 Y31.6127 Z-3.1935
G01 X35.6396 Y31.6982 Z-3.1994
G01 X35.7533 Y31.7624 Z-3.1840
G01 X35.8743 Y31.8035 Z-3.1515
G01 X35.9986 Y31.8207 Z-3.1105
G01 X36.1220 Y31.8138 Z-3.0721
G01 X36.2402 Y31.7832 Z-3.0465
G01 X36.3492 Y31.7304 Z-3.0406
G01 X36.4454 Y31.6570 Z-3.0560
G01 X36.5253 Y31.5659 Z-3.0885
G01 X36.5860 Y31.4599 Z-3.1295
G01 X36.6255 Y31.3427 Z-3.1679
G01 X36.6419 Y31.2181 Z-3.1935
G01 X36.6343 Y31.0903 Z-3.1994
G01 X36.6027 Y30.9635 Z-3.1840
G01 X36.5474 Y30.8417 Z-3.1515
G01 X36.4698 Y30.7292 Z-3.1105
G01 X36.3717 Y30.6295 Z-3.0721
G01 X36.2558 Y30.5461 Z-3.0465
G01 X36.1251 Y30.4818 Z-3.0406
G01 X35.9831 Y30.4389 Z-3.0560
G01 X35.8338 Y30.4190 Z-3.0885
G01 X35.6813 Y30.4230 Z-3.1295
G01 X35.5297 Y30.4511 Z-3.1679
G01 X35.3832 Y30.5029 Z-3.1935
G01 X35.2459 Y30.5770 Z-3.1994
G01 X35.1216 Y30.6716 Z-3.1840
G01 X35.0134 Y30.7840 Z-3.1515
G01 X34.9244 Y30.9112 Z-3.1105
G01 X34.8567 Y31.0496 Z-3.0721
G01 X34.8121 Y31.1954 Z-3.0465
G01 X34.7913 Y31.3444 Z-3.0406
G01 X34.7948 Y31.4925 Z-3.0560
G01 X34.8218 Y31.6354 Z-3.0885
G01 X34.8712 Y31.7692 Z-3.1295
G01 X34.9410 Y31.8901 Z-3.1679
G01 X35.0286 Y31.9947 Z-3.1935
G01 X35.1311 Y32.0803 Z-3.1994
G01 X35.2448 Y32.1444 Z-3.1840
G01 X35.3658 Y32.1855 Z-3.1515
G01 X35.4901 Y32.2027 Z-3.1105
G01 X35.6135 Y32.1958 Z-3.0721
G01 X35.7317 Y32.1653 Z-3.0465
G01 X35.8407 Y32.1124 Z-3.0406
G01 X35.9369 Y32.0391 Z-3.0560
G01 X36.0168 Y31.9479 Z-3.0885
G01 X36.0776 Y31.8419 Z-3.1295
G01 X36.1170 Y31.7247 Z-3.1679
G01 X36.1334 Y31.6001 Z-3.1935
G01 X36.1258 Y31.4723 Z-3.1994
G01 X36.0942 Y31.3455 Z-3.1840
G01 X36.0389 Y31.2238 Z-3.1515
G01 X35.9613 Y31.1112 Z-3.1105
G01 X35.8632 Y31.0115 Z-3.0721
G01 X35.7473 Y30.9281 Z-3.0465
G01 X35.6166 Y30.8638 Z-3.0406
G01 X35.4746 Y30.8209 Z-3.0560
G01 X35.3253 Y30.8010 Z-3.0885
G01 X35.1728 Y30.8050 Z-3.1295
G01 X35.0212 Y30.8332 Z-3.1679
G01 X34.8748 Y30.8849 Z-3.1935
G01 X34.7375 Y30.9590 Z-3.1994
G01 X34.6131 Y31.0536 Z-3.1840
G01 X34.5049 Y31.1660 Z-3.1515
G01 X34.4159 Y31.2932 Z-3.1105
G01 X34.3482 Y31.4316 Z-3.0721
G01 X34.3036 Y31.5774 Z-3.0465
G01 X34.2829 Y31.7264 Z-3.0406
G01 X34.2863 Y31.8745 Z-3.0560
G01 X34.3133 Y32.0174 Z-3.0885
G01 X34.3627 Y32.1512 Z-3.1295
G01 X34.4325 Y32.2721 Z-3.1679
G01 X34.5202 Y32.3767 Z-3.1935
G01 X34.6226 Y32.4623 Z-3.1994
G01 X34.7363 Y32.5264 Z-3.1840
G01 X34.8574 Y32.5676 Z-3.1515
G01 X34.9817 Y32.5848 Z-3.1105
G01 X35.1050 Y32.5778 Z-3.0721
G01 X35.2232 Y32.5473 Z-3.0465
G01 X35.3322 Y32.4944 Z-3.0406
G01 X35.4284 Y32.4211 Z-3.0560
G01 X35.5083 Y32.3299 Z-3.0885
G01 X35.5691 Y32.2239 Z-3.1295
G01 X35.6085 Y32.1067 Z-3.1679
G01 X35.6249 Y31.9822 Z-3.1935
G01 X35.6174 Y31.8543 Z-3.1994
G01 X35.5857 Y31.7275 Z-3.1840
G01 X35.5304 Y31.6058 Z-3.1515
G01 X35.4528 Y31.4932 Z-3.1105
G01 X35.3547 Y31.3936 Z-3.0721
G01 X35.2388 Y31.3101 Z-3.0465
G01 X35.1081 Y31.2458 Z-3.0406
G01 X34.9662 Y31.2029 Z-3.0560
G01 X34.8169 Y31.1830 Z-3.0885
G01 X34.6643 Y31.1870 Z-3.1295
G01 X34.5127 Y31.2152 Z-3.1679
G01 X34.3663 Y31.2669 Z-3.1935
G01 X34.2290 Y31.3411 Z-3.1994
G01 X34.1046 Y31.4356 Z-3.1840
G01 X33.9964 Y31.5480 Z-3.1515
G01 X33.9074 Y31.6752 Z-3.1105
G01 X33.8397 Y31.8136 Z-3.0721
G01 X33.7951 Y31.9594 Z-3.0465
G01 X33.7744 Y32.1085 Z-3.0406
G01 X33.7778 Y32.2565 Z-3.0560
G01 X33.8048 Y32.3995 Z-3.0885
G01 X33.8542 Y32.5332 Z-3.1295
G01 X33.9240 Y32.6541 Z-3.1679
G01 X34.0117 Y32.7588 Z-3.1935
G01 X34.1141 Y32.8443 Z-3.1994
G01 X34.2278 Y32.9084 Z-3.1840
G01 X34.3489 Y32.9496 Z-3.1515
G01 X34.4732 Y32.9668 Z-3.1105
G01 X34.5965 Y32.9598 Z-3.0721
G01 X34.7147 Y32.9293 Z-3.0465
G01 X34.8238 Y32.8764 Z-3.0406
G01 X34.9199 Y32.8031 Z-3.0560
G01 X34.9998 Y32.7119 Z-3.0885
G01 X35.0606 Y32.6059 Z-3.1295
G01 X35.1000 Y32.4887 Z-3.1679
G01 X35.1164 Y32.3642 Z-3.1935
G01 X35.1089 Y32.2364 Z-3.1994
G01 X35.0772 Y32.1095 Z-3.1840
G01 X35.0219 Y31.9878 Z-3.1515
G01 X34.9443 Y31.8752 Z-3.1105
G01 X34.8462 Y31.7756 Z-3.0721
G01 X34.7303 Y31.6922 Z-3.0465
G01 X34.5996 Y31.6279 Z-3.0406
G01 X34.4577 Y31.5849 Z-3.0560
G01 X34.3084 Y31.5650 Z-3.0885
G01 X34.1558 Y31.5690 Z-3.1295
G01 X34.0042 Y31.5972 Z-3.1679
G01 X33.8578 Y31.6490 Z-3.1935
G01 X33.7205 Y31.7231 Z-3.1994
G01 X33.5961 Y31.8176 Z-3.1840
G01 X33.4879 Y31.9300 Z-3.1515
G01 X33.3989 Y32.0572 Z-3.1105
G01 X33.3312 Y32.1957 Z-3.0721
G01 X33.2866 Y32.3414 Z-3.0465
G01 X33.2659 Y32.4905 Z-3.0406
G01 X33.2693 Y32.6385 Z-3.0560
G01 X33.2963 Y32.7815 Z-3.0885
G01 X33.3457 Y32.9153 Z-3.1295
G01 X33.4155 Y33.0362 Z-3.1679
G01 X33.5032 Y33.1408 Z-3.1935
G01 X33.6056 Y33.2263 Z-3.1994
G01 X33.7193 Y33.2905 Z-3.1840
G01 X33.8404 Y33.3316 Z-3.1515
G01 X33.9647 Y33.3488 Z-3.1105
G01 X34.0880 Y33.3419 Z-3.0721
G01 X34.2062 Y33.3113 Z-3.0465
G01 X34.3153 Y33.2584 Z-3.0406
G01 X34.4114 Y33.1851 Z-3.0560
G01 X34.4913 Y33.0939 Z-3.0885
G01 X34.5521 Y32.9880 Z-3.1295
G01 X34.5915 Y32.8708 Z-3.1679
G01 X34.6079 Y32.7462 Z-3.1935
G01 X34.6004 Y32.6184 Z-3.1994
G01 X34.5687 Y32.4915 Z-3.1840
G01 X34.5134 Y32.3698 Z-3.1515
G01 X34.4358 Y32.2573 Z-3.1105
G01 X34.3378 Y32.1576 Z-3.0721
G01 X34.2218 Y32.0742 Z-3.0465
G01 X34.0911 Y32.0099 Z-3.0406
G01 X33.9492 Y31.9670 Z-3.0560
G01 X33.7999 Y31.9470 Z-3.0885
G01 X33.6473 Y31.9511 Z-3.1295
G01 X33.4958 Y31.9792 Z-3.1679
G01 X33.3493 Y32.0310 Z-3.1935
G01 X33.2120 Y32.1051 Z-3.1994
G01 X33.0876 Y32.1996 Z-3.1840
G01 X32.9795 Y32.3120 Z-3.1515
G01 X32.8904 Y32.4392 Z-3.1105
G01 X32.8228 Y32.5777 Z-3.0721
G01 X32.7781 Y32.7235 Z-3.0465
G01 X32.7574 Y32.8725 Z-3.0406
G01 X32.7608 Y33.0206 Z-3.0560
G01 X32.7878 Y33.1635 Z-3.0885
G01 X32.8372 Y33.2973 Z-3.1295
G01 X32.9070 Y33.4182 Z-3.1679
G01 X32.9947 Y33.5228 Z-3.1935
G01 X33.0972 Y33.6083 Z-3.1994
G01 X33.2109 Y33.6725 Z-3.1840
G01 X33.3319 Y33.7136 Z-3.1515
G01 X33.4562 Y33.7308 Z-3.1105
G01 X33.5795 Y33.7239 Z-3.0721
G01 X33.6977 Y33.6933 Z-3.0465
G01 X33.8068 Y33.6405 Z-3.0406
G01 X33.9029 Y33.5671 Z-3.0560
G01 X33.9828 Y33.4759 Z-3.0885
G01 X34.0436 Y33.3700 Z-3.1295
G01 X34.0830 Y33.2528 Z-3.1679
G01 X34.0994 Y33.1282 Z-3.1935
G01 X34.0919 Y33.0004 Z-3.1994
G01 X34.0602 Y32.8735 Z-3.1840
G01 X34.0050 Y32.7518 Z-3.1515
G01 X33.9273 Y32.6393 Z-3.1105
G01 X33.8293 Y32.5396 Z-3.0721
G01 X33.7133 Y32.4562 Z-3.0465
G01 X33.5826 Y32.3919 Z-3.0406
G01 X33.4407 Y32.3490 Z-3.0560
G01 X33.2914 Y32.3291 Z-3.0885
G01 X33.1389 Y32.3331 Z-3.1295
G01 X32.9873 Y32.3612 Z-3.1679
G01 X32.8408 Y32.4130 Z-3.1935
G01 X32.7035 Y32.4871 Z-3.1994
G01 X32.5791 Y32.5817 Z-3.1840
G01 X32.4710 Y32.6941 Z-3.1515
G01 X32.3819 Y32.8213 Z-3.1105
G01 X32.3143 Y32.9597 Z-3.0721
G01 X32.2696 Y33.1055 Z-3.0465
G01 X32.2489 Y33.2545 Z-3.0406
G01 X32.2523 Y33.4026 Z-3.0560
G01 X32.2794 Y33.5455 Z-3.0885
G01 X32.3287 Y33.6793 Z-3.1295
G01 X32.3985 Y33.8002 Z-3.1679
G01 X32.4862 Y33.9048 Z-3.1935
G01 X32.5887 Y33.9904 Z-3.1994
G01 X32.7024 Y34.0545 Z-3.1840
G01 X32.8234 Y34.0956 Z-3.1515
G01 X32.9477 Y34.1128 Z-3.1105
G01 X33.0710 Y34.1059 Z-3.0721
G01 X33.1893 Y34.0754 Z-3.0465
G01 X33.2983 Y34.0225 Z-3.0406
G01 X33.3944 Y33.9492 Z-3.0560
G01 X33.4743 Y33.8580 Z-3.0885
G01 X33.5351 Y33.7520 Z-3.1295
G01 X33.5745 Y33.6348 Z-3.1679
G01 X33.5909 Y33.5102 Z-3.1935
G01 X33.5834 Y33.3824 Z-3.1994
G01 X33.5517 Y33.2556 Z-3.1840
G01 X33.4965 Y33.1339 Z-3.1515
G01 X33.4188 Y33.0213 Z-3.1105
G01 X33.3208 Y32.9216 Z-3.0721
G01 X33.2049 Y32.8382 Z-3.0465
G01 X33.0742 Y32.7739 Z-3.0406
G01 X32.9322 Y32.7310 Z-3.0560
G01 X32.7829 Y32.7111 Z-3.0885
G01 X32.6304 Y32.7151 Z-3.1295
G01 X32.4788 Y32.7433 Z-3.1679
G01 X32.3323 Y32.7950 Z-3.1935
G01 X32.1950 Y32.8691 Z-3.1994
G01 X32.0706 Y32.9637 Z-3.1840
G01 X31.9625 Y33.0761 Z-3.1515
G01 X31.8734 Y33.2033 Z-3.1105
G01 X31.8058 Y33.3417 Z-3.0721
G01 X31.7611 Y33.4875 Z-3.0465
G01 X31.7404 Y33.6365 Z-3.0406
G01 X31.7438 Y33.7846 Z-3.0560
G01 X31.7709 Y33.9275 Z-3.0885
G01 X31.8203 Y34.0613 Z-3.1295
G01 X31.8901 Y34.1822 Z-3.1679
G01 X31.9777 Y34.2868 Z-3.1935
G01 X32.0802 Y34.3724 Z-3.1994
G01 X32.1939 Y34.4365 Z-3.1840
G01 X32.3149 Y34.4777 Z-3.1515
G01 X32.4392 Y34.4949 Z-3.1105
G01 X32.5626 Y34.4879 Z-3.0721
G01 X32.6808 Y34.4574 Z-3.0465
G01 X32.7898 Y34.4045 Z-3.0406
G01 X32.8860 Y34.3312 Z-3.0560
G01 X32.9659 Y34.2400 Z-3.0885
G01 X33.0267 Y34.1340 Z-3.1295
G01 X33.0661 Y34.0168 Z-3.1679
G01 X33.0825 Y33.8922 Z-3.1935
G01 X33.0749 Y33.7644 Z-3.1994
G01 X33.0433 Y33.6376 Z-3.1840
G01 X32.9880 Y33.5159 Z-3.1515
G01 X32.9104 Y33.4033 Z-3.1105
G01 X32.8939 Y33.3840 Z-3.1030
G01 X32.8065 Y33.2942 Z-3.0662
G01 X32.7017 Y33.2211 Z-3.0438
G01 X32.5828 Y33.1676 Z-3.0418
G01 X32.4534 Y33.1358 Z-3.0608
G01 X32.3173 Y33.1273 Z-3.0957
G01 X32.1787 Y33.1428 Z-3.1370
G01 X32.0419 Y33.1824 Z-3.1738
G01 X31.9110 Y33.2454 Z-3.1962
G01 X31.7899 Y33.3305 Z-3.1982
G01 X31.6823 Y33.4355 Z-3.1792
G01 X31.5916 Y33.5580 Z-3.1443
G01 X31.5204 Y33.6945 Z-3.1030
G01 X31.4710 Y33.8417 Z-3.0662
G01 X31.4448 Y33.9954 Z-3.0438
G01 X31.4426 Y34.1516 Z-3.0418
G01 X31.4646 Y34.3061 Z-3.0608
G01 X31.5099 Y34.4547 Z-3.0957
G01 X31.5773 Y34.5935 Z-3.1370
G01 X31.6647 Y34.7187 Z-3.1738
G01 X31.7695 Y34.8271 Z-3.1962
G01 X31.8884 Y34.9159 Z-3.1982
G01 X32.0178 Y34.9830 Z-3.1792
G01 X32.1539 Y35.0269 Z-3.1443
G01 X32.2925 Y35.0467 Z-3.1030
G01 X32.4293 Y35.0425 Z-3.0662
G01 X32.5602 Y35.0148 Z-3.0438
G01 X32.6813 Y34.9651 Z-3.0418
G01 X32.7889 Y34.8953 Z-3.0608
G01 X32.8796 Y34.8082 Z-3.0957
G01 X32.9508 Y34.7070 Z-3.1370
G01 X33.0002 Y34.5952 Z-3.1738
G01 X33.0264 Y34.4768 Z-3.1962
G01 X33.0286 Y34.3559 Z-3.1982
G01 X33.0066 Y34.2367 Z-3.1792
G01 X32.9613 Y34.1234 Z-3.1443
G01 X32.8939 Y34.0200 Z-3.1030
G01 X32.8065 Y33.9302 Z-3.0662
G01 X32.7017 Y33.8571 Z-3.0438
G01 X32.5828 Y33.8036 Z-3.0418
G01 X32.4534 Y33.7718 Z-3.0608
G01 X32.3173 Y33.7633 Z-3.0957
G01 X32.1787 Y33.7788 Z-3.1370
G01 X32.0419 Y33.8184 Z-3.1738
G01 X31.9110 Y33.8814 Z-3.1962
G01 X31.7899 Y33.9665 Z-3.1982
G01 X31.6823 Y34.0715 Z-3.1792
G01 X31.5916 Y34.1940 Z-3.1443
G01 X31.5204 Y34.3305 Z-3.1030
G01 X31.4710 Y34.4777 Z-3.0662
G01 X31.4448 Y34.6314 Z-3.0438
G01 X31.4426 Y34.7876 Z-3.0418
G01 X31.4646 Y34.9421 Z-3.0608
G01 X31.5099 Y35.0907 Z-3.0957
G01 X31.5773 Y35.2295 Z-3.1370
G01 X31.6647 Y35.3547 Z-3.1738
G01 X31.7695 Y35.4631 Z-3.1962
G01 X31.8884 Y35.5519 Z-3.1982
G01 X32.0178 Y35.6190 Z-3.1792
G01 X32.1539 Y35.6629 Z-3.1443
G01 X32.2925 Y35.6827 Z-3.1030
G01 X32.4293 Y35.6785 Z-3.0662
G01 X32.5602 Y35.6508 Z-3.0438
G01 X32.6813 Y35.6011 Z-3.0418
G01 X32.7889 Y35.5313 Z-3.0608
G01 X32.8796 Y35.4442 Z-3.0957
G01 X32.9508 Y35.3430 Z-3.1370
G01 X33.0002 Y35.2312 Z-3.1738
G01 X33.0264 Y35.1128 Z-3.1962
G01 X33.0286 Y34.9919 Z-3.1982
G01 X33.0066 Y34.8727 Z-3.1792
G01 X32.9613 Y34.7594 Z-3.1443
G01 X32.8939 Y34.6560 Z-3.1030
G01 X32.8065 Y34.5662 Z-3.0662
G01 X32.7017 Y34.4931 Z-3.0438
G01 X32.5828 Y34.4396 Z-3.0418
G01 X32.4534 Y34.4078 Z-3.0608
G01 X32.3173 Y34.3993 Z-3.0957
G01 X32.1787 Y34.4148 Z-3.1370
G01 X32.0419 Y34.4544 Z-3.1738
G01 X31.9110 Y34.5174 Z-3.1962
G01 X31.7899 Y34.6025 Z-3.1982
G01 X31.6823 Y34.7075 Z-3.1792
G01 X31.5916 Y34.8300 Z-3.1443
G01 X31.5204 Y34.9665 Z-3.1030
G01 X31.4710 Y35.1137 Z-3.0662
G01 X31.4448 Y35.2674 Z-3.0438
G01 X31.4426 Y35.4236 Z-3.0418
G01 X31.4646 Y35.5781 Z-3.0608
G01 X31.5099 Y35.7267 Z-3.0957
G01 X31.5773 Y35.8655 Z-3.1370
G01 X31.6647 Y35.9907 Z-3.1738
G01 X31.7695 Y36.0991 Z-3.1962
G01 X31.8884 Y36.1879 Z-3.1982
G01 X32.0178 Y36.2550 Z-3.1792
G01 X32.1539 Y36.2989 Z-3.1443
G01 X32.2925 Y36.3187 Z-3.1030
G01 X32.4293 Y36.3145 Z-3.0662
G01 X32.5602 Y36.2868 Z-3.0438
G01 X32.6813 Y36.2371 Z-3.0418
G01 X32.7889 Y36.1673 Z-3.0608
G01 X32.8796 Y36.0802 Z-3.0957
G01 X32.9508 Y35.9790 Z-3.1370
G01 X33.0002 Y35.8672 Z-3.1738
G01 X33.0264 Y35.7488 Z-3.1962
G01 X33.0286 Y35.6279 Z-3.1982
G01 X33.0066 Y35.5087 Z-3.1792
G01 X32.9613 Y35.3954 Z-3.1443
G01 X32.8939 Y35.2920 Z-3.1030
G01 X32.8065 Y35.2022 Z-3.0662
G01 X32.7017 Y35.1291 Z-3.0438
G01 X32.5828 Y35.0756 Z-3.0418
G01 X32.4534 Y35.0438 Z-3.0608
G01 X32.3173 Y35.0353 Z-3.0957
G01 X32.1787 Y35.0508 Z-3.1370
G01 X32.0419 Y35.0904 Z-3.1738
G01 X31.9110 Y35.1534 Z-3.1962
G01 X31.7899 Y35.2385 Z-3.1982
G01 X31.6823 Y35.3435 Z-3.1792
G01 X31.5916 Y35.4660 Z-3.1443
G01 X31.5204 Y35.6025 Z-3.1030
G01 X31.4710 Y35.7497 Z-3.0662
G01 X31.4448 Y35.9034 Z-3.0438
G01 X31.4426 Y36.0596 Z-3.0418
G01 X31.4646 Y36.2141 Z-3.0608
G01 X31.5099 Y36.3627 Z-3.0957
G01 X31.5773 Y36.5015 Z-3.1370
G01 X31.6647 Y36.6267 Z-3.1738
G01 X31.7695 Y36.7351 Z-3.1962
G01 X31.8884 Y36.8239 Z-3.1982
G01 X32.0178 Y36.8910 Z-3.1792
G01 X32.1539 Y36.9349 Z-3.1443
G01 X32.2925 Y36.9547 Z-3.1030
G01 X32.4293 Y36.9505 Z-3.0662
G01 X32.5602 Y36.9228 Z-3.0438
G01 X32.6813 Y36.8731 Z-3.0418
G01 X32.7889 Y36.8033 Z-3.0608
G01 X32.8796 Y36.7162 Z-3.0957
G01 X32.9508 Y36.6150 Z-3.1370
G01 X33.0002 Y36.5032 Z-3.1738
G01 X33.0264 Y36.3848 Z-3.1962
G01 X33.0286 Y36.2639 Z-3.1982
G01 X33.0066 Y36.1447 Z-3.1792
G01 X32.9613 Y36.0314 Z-3.1443
G01 X32.8939 Y35.9280 Z-3.1030
G01 X32.8065 Y35.8382 Z-3.0662
G01 X32.7017 Y35.7651 Z-3.0438
G01 X32.5828 Y35.7116 Z-3.0418
G01 X32.4534 Y35.6798 Z-3.0608
G01 X32.3173 Y35.6713 Z-3.0957
G01 X32.1787 Y35.6868 Z-3.1370
G01 X32.0419 Y35.7264 Z-3.1738
G01 X31.9110 Y35.7894 Z-3.1962
G01 X31.7899 Y35.8745 Z-3.1982
G01 X31.6823 Y35.9795 Z-3.1792
G01 X31.5916 Y36.1020 Z-3.1443
G01 X31.5204 Y36.2385 Z-3.1030
G01 X31.4710 Y36.3857 Z-3.0662
G01 X31.4448 Y36.5394 Z-3.0438
G01 X31.4426 Y36.6956 Z-3.0418
G01 X31.4646 Y36.8501 Z-3.0608
G01 X31.5099 Y36.9987 Z-3.0957
G01 X31.5773 Y37.1375 Z-3.1370
G01 X31.6647 Y37.2627 Z-3.1738
G01 X31.7695 Y37.3711 Z-3.1962
G01 X31.8884 Y37.4599 Z-3.1982
G01 X32.0178 Y37.5270 Z-3.1792
G01 X32.1539 Y37.5709 Z-3.1443
G01 X32.2925 Y37.5907 Z-3.1030
G01 X32.4293 Y37.5865 Z-3.0662
G01 X32.5602 Y37.5588 Z-3.0438
G01 X32.6813 Y37.5091 Z-3.0418
G01 X32.7889 Y37.4393 Z-3.0608
G01 X32.8796 Y37.3522 Z-3.0957
G01 X32.9508 Y37.2510 Z-3.1370
G01 X33.0002 Y37.1392 Z-3.1738
G01 X33.0264 Y37.0208 Z-3.1962
G01 X33.0286 Y36.8999 Z-3.1982
G01 X33.0066 Y36.7807 Z-3.1792
G01 X32.9613 Y36.6674 Z-3.1443
G01 X32.8939 Y36.5640 Z-3.1030
G01 X32.8065 Y36.4742 Z-3.0662
G01 X32.7017 Y36.4011 Z-3.0438
G01 X32.5828 Y36.3476 Z-3.0418
G01 X32.4534 Y36.3158 Z-3.0608
G01 X32.3173 Y36.3073 Z-3.0957
G01 X32.1787 Y36.3228 Z-3.1370
G01 X32.0419 Y36.3624 Z-3.1738
G01 X31.9110 Y36.4254 Z-3.1962
G01 X31.7899 Y36.5105 Z-3.1982
G01 X31.6823 Y36.6155 Z-3.1792
G01 X31.5916 Y36.7380 Z-3.1443
G01 X31.5204 Y36.8745 Z-3.1030
G01 X31.4710 Y37.0217 Z-3.0662
G01 X31.4448 Y37.1754 Z-3.0438
G01 X31.4426 Y37.3316 Z-3.0418
G01 X31.4646 Y37.4861 Z-3.0608
G01 X31.5099 Y37.6347 Z-3.0957
G01 X31.5773 Y37.7735 Z-3.1370
G01 X31.6647 Y37.8987 Z-3.1738
G01 X31.7695 Y38.0071 Z-3.1962
G01 X31.8884 Y38.0959 Z-3.1982
G01 X32.0178 Y38.1630 Z-3.1792
G01 X32.1539 Y38.2069 Z-3.1443
G01 X32.2925 Y38.2267 Z-3.1030
G01 X32.4293 Y38.2225 Z-3.0662
G01 X32.5602 Y38.1948 Z-3.0438
G01 X32.6813 Y38.1451 Z-3.0418
G01 X32.7889 Y38.0753 Z-3.0608
G01 X32.8796 Y37.9882 Z-3.0957
G01 X32.9508 Y37.8870 Z-3.1370
G01 X33.0002 Y37.7752 Z-3.1738
G01 X33.0264 Y37.6568 Z-3.1962
G01 X33.0286 Y37.5359 Z-3.1982
G01 X33.0066 Y37.4167 Z-3.1792
G01 X32.9613 Y37.3034 Z-3.1443
G01 X32.8939 Y37.2000 Z-3.1030
G01 X32.8065 Y37.1102 Z-3.0662
G01 X32.7017 Y37.0371 Z-3.0438
G01 X32.5828 Y36.9836 Z-3.0418
G01 X32.4534 Y36.9518 Z-3.0608
G01 X32.3173 Y36.9433 Z-3.0957
G01 X32.1787 Y36.9588 Z-3.1370
G01 X32.0419 Y36.9984 Z-3.1738
G01 X31.9110 Y37.0614 Z-3.1962
G01 X31.7899 Y37.1465 Z-3.1982
G01 X31.6823 Y37.2515 Z-3.1792
G01 X31.5916 Y37.3740 Z-3.1443
G01 X31.5204 Y37.5105 Z-3.1030
G01 X31.4710 Y37.6577 Z-3.0662
G01 X31.4448 Y37.8114 Z-3.0438
G01 X31.4426 Y37.9676 Z-3.0418
G01 X31.4646 Y38.1221 Z-3.0608
G01 X31.5099 Y38.2707 Z-3.0957
G01 X31.5773 Y38.4095 Z-3.1370
G01 X31.6647 Y38.5347 Z-3.1738
G01 X31.7695 Y38.6431 Z-3.1962
G01 X31.8884 Y38.7319 Z-3.1982
G01 X32.0178 Y38.7990 Z-3.1792
G01 X32.1539 Y38.8429 Z-3.1443
G01 X32.2925 Y38.8627 Z-3.1030
G01 X32.4293 Y38.8585 Z-3.0662
G01 X32.5602 Y38.8308 Z-3.0438
G01 X32.6813 Y38.7811 Z-3.0418
G01 X32.7889 Y38.7113 Z-3.0608
G01 X32.8796 Y38.6242 Z-3.0957
G01 X32.9508 Y38.5230 Z-3.1370
G01 X33.0002 Y38.4112 Z-3.1738
G01 X33.0264 Y38.2928 Z-3.1962
G01 X33.0286 Y38.1719 Z-3.1982
G01 X33.0066 Y38.0527 Z-3.1792
G01 X32.9613 Y37.9394 Z-3.1443
G01 X32.8939 Y37.8360 Z-3.1030
G01 X32.8065 Y37.7462 Z-3.0662
G01 X32.7017 Y37.6731 Z-3.0438
G01 X32.5828 Y37.6196 Z-3.0418
G01 X32.4534 Y37.5878 Z-3.0608
G01 X32.3173 Y37.5793 Z-3.0957
G01 X32.1787 Y37.5948 Z-3.1370
G01 X32.0419 Y37.6344 Z-3.1738
G01 X31.9110 Y37.6974 Z-3.1962
G01 X31.7899 Y37.7825 Z-3.1982
G01 X31.6823 Y37.8875 Z-3.1792
G01 X31.5916 Y38.0100 Z-3.1443
G01 X31.5204 Y38.1465 Z-3.1030
G01 X31.4710 Y38.2937 Z-3.0662
G01 X31.4448 Y38.4474 Z-3.0438
G01 X31.4426 Y38.6036 Z-3.0418
G01 X31.4646 Y38.7581 Z-3.0608
G01 X31.5099 Y38.9067 Z-3.0957
G01 X31.5773 Y39.0455 Z-3.1370
G01 X31.6647 Y39.1707 Z-3.1738
G01 X31.7695 Y39.2791 Z-3.1962
G01 X31.8884 Y39.3679 Z-3.1982
G01 X32.0178 Y39.4350 Z-3.1792
G01 X32.1539 Y39.4789 Z-3.1443
G01 X32.2925 Y39.4987 Z-3.1030
G01 X32.4293 Y39.4945 Z-3.0662
G01 X32.5602 Y39.4668 Z-3.0438
G01 X32.6813 Y39.4171 Z-3.0418
G01 X32.7889 Y39.3473 Z-3.0608
G01 X32.8796 Y39.2602 Z-3.0957
G01 X32.9508 Y39.1590 Z-3.1370
G01 X33.0002 Y39.0472 Z-3.1738
G01 X33.0264 Y38.9288 Z-3.1962
G01 X33.0286 Y38.8079 Z-3.1982
G01 X33.0066 Y38.6887 Z-3.1792
G01 X32.9613 Y38.5754 Z-3.1443
G01 X32.8939 Y38.4720 Z-3.1030
G01 X32.8065 Y38.3822 Z-3.0662
G01 X32.7017 Y38.3091 Z-3.0438
G01 X32.5828 Y38.2556 Z-3.0418
G01 X32.4534 Y38.2238 Z-3.0608
G01 X32.3173 Y38.2153 Z-3.0957
G01 X32.1787 Y38.2308 Z-3.1370
G01 X32.0419 Y38.2704 Z-3.1738
G01 X31.9110 Y38.3334 Z-3.1962
G01 X31.7899 Y38.4185 Z-3.1982
G01 X31.6823 Y38.5235 Z-3.1792
G01 X31.5916 Y38.6460 Z-3.1443
G01 X31.5204 Y38.7825 Z-3.1030
G01 X31.4710 Y38.9297 Z-3.0662
G01 X31.4448 Y39.0834 Z-3.0438
G01 X31.4426 Y39.2396 Z-3.0418
G01 X31.4646 Y39.3941 Z-3.0608
G01 X31.5099 Y39.5427 Z-3.0957
G01 X31.5773 Y39.6815 Z-3.1370
G01 X31.6647 Y39.8067 Z-3.1738
G01 X31.7695 Y39.9151 Z-3.1962
G01 X31.8884 Y40.0039 Z-3.1982
G01 X32.0178 Y40.0710 Z-3.1792
G01 X32.1539 Y40.1149 Z-3.1443
G01 X32.2925 Y40.1347 Z-3.1030
G01 X32.4293 Y40.1305 Z-3.0662
G01 X32.5602 Y40.1028 Z-3.0438
G01 X32.6813 Y40.0531 Z-3.0418
G01 X32.7889 Y39.9833 Z-3.0608
G01 X32.8796 Y39.8962 Z-3.0957
G01 X32.9508 Y39.7950 Z-3.1370
G01 X33.0002 Y39.6832 Z-3.1738
G01 X33.0264 Y39.5648 Z-3.1962
G01 X33.0286 Y39.4439 Z-3.1982
G01 X33.0066 Y39.3247 Z-3.1792
G01 X32.9613 Y39.2114 Z-3.1443
G01 X32.8939 Y39.1080 Z-3.1030
G01 X32.8065 Y39.0182 Z-3.0662
G01 X32.7017 Y38.9451 Z-3.0438
G01 X32.5828 Y38.8916 Z-3.0418
G01 X32.4534 Y38.8598 Z-3.0608
G01 X32.3173 Y38.8513 Z-3.0957
G01 X32.1787 Y38.8668 Z-3.1370
G01 X32.0419 Y38.9064 Z-3.1738
G01 X31.9110 Y38.9694 Z-3.1962
G01 X31.7899 Y39.0545 Z-3.1982
G01 X31.6823 Y39.1595 Z-3.1792
G01 X31.5916 Y39.2820 Z-3.1443
G01 X31.5204 Y39.4185 Z-3.1030
G01 X31.4710 Y39.5657 Z-3.0662
G01 X31.4448 Y39.7194 Z-3.0438
G01 X31.4426 Y39.8756 Z-3.0418
G01 X31.4646 Y40.0301 Z-3.0608
G01 X31.5099 Y40.1787 Z-3.0957
G01 X31.5773 Y40.3175 Z-3.1370
G01 X31.6647 Y40.4427 Z-3.1738
G01 X31.7695 Y40.5511 Z-3.1962
G01 X31.8884 Y40.6399 Z-3.1982
G01 X32.0178 Y40.7070 Z-3.1792
G01 X32.1539 Y40.7509 Z-3.1443
G01 X32.2925 Y40.7707 Z-3.1030
G01 X32.4293 Y40.7665 Z-3.0662
G01 X32.5602 Y40.7388 Z-3.0438
G01 X32.6813 Y40.6891 Z-3.0418
G01 X32.7889 Y40.6193 Z-3.0608
G01 X32.8796 Y40.5322 Z-3.0957
G01 X32.9508 Y40.4310 Z-3.1370
G01 X33.0002 Y40.3192 Z-3.1738
G01 X33.0264 Y40.2008 Z-3.1962
G01 X33.0286 Y40.0799 Z-3.1982
G01 X33.0066 Y39.9607 Z-3.1792
G01 X32.9613 Y39.8474 Z-3.1443
G01 X32.8939 Y39.7440 Z-3.1030
G01 X32.8065 Y39.6542 Z-3.0662
G01 X32.7017 Y39.5811 Z-3.0438
G01 X32.5828 Y39.5276 Z-3.0418
G01 X32.4534 Y39.4958 Z-3.0608
G01 X32.3173 Y39.4873 Z-3.0957
G01 X32.1787 Y39.5028 Z-3.1370
G01 X32.0419 Y39.5424 Z-3.1738
G01 X31.9110 Y39.6054 Z-3.1962
G01 X31.7899 Y39.6905 Z-3.1982
G01 X31.6823 Y39.7955 Z-3.1792
G01 X31.5916 Y39.9180 Z-3.1443
G01 X31.5204 Y40.0545 Z-3.1030
G01 X31.4710 Y40.2017 Z-3.0662
G01 X31.4448 Y40.3554 Z-3.0438
G01 X31.4426 Y40.5116 Z-3.0418
G01 X31.4646 Y40.6661 Z-3.0608
G01 X31.5099 Y40.8147 Z-3.0957
G01 X31.5773 Y40.9535 Z-3.1370
G01 X31.6647 Y41.0787 Z-3.1738
G01 X31.7695 Y41.1871 Z-3.1962
G01 X31.8884 Y41.2759 Z-3.1982
G01 X32.0178 Y41.3430 Z-3.1792
G01 X32.1539 Y41.3869 Z-3.1443
G01 X32.2925 Y41.4067 Z-3.1030
G01 X32.4293 Y41.4025 Z-3.0662
G01 X32.5602 Y41.3748 Z-3.0438
G01 X32.6813 Y41.3251 Z-3.0418
G01 X32.7889 Y41.2553 Z-3.0608
G01 X32.8796 Y41.1682 Z-3.0957
G01 X32.9508 Y41.0670 Z-3.1370
G01 X33.0002 Y40.9552 Z-3.1738
G01 X33.0264 Y40.8368 Z-3.1962
G01 X33.0286 Y40.7159 Z-3.1982
G01 X33.0066 Y40.5967 Z-3.1792
G01 X32.9613 Y40.4834 Z-3.1443
G01 X32.8939 Y40.3800 Z-3.1030
G01 X32.8065 Y40.2902 Z-3.0662
G01 X32.7017 Y40.2171 Z-3.0438
G01 X32.5828 Y40.1636 Z-3.0418
G01 X32.4534 Y40.1318 Z-3.0608
G01 X32.3173 Y40.1233 Z-3.0957
G01 X32.1787 Y40.1388 Z-3.1370
G01 X32.0419 Y40.1784 Z-3.1738
G01 X31.9110 Y40.2414 Z-3.1962
G01 X31.7899 Y40.3265 Z-3.1982
G01 X31.6823 Y40.4315 Z-3.1792
G01 X31.5916 Y40.5540 Z-3.1443
G01 X31.5204 Y40.6905 Z-3.1030
G01 X31.4710 Y40.8377 Z-3.0662
G01 X31.4448 Y40.9914 Z-3.0438
G01 X31.4426 Y41.1476 Z-3.0418
G01 X31.4646 Y41.3021 Z-3.0608
G01 X31.5099 Y41.4507 Z-3.0957
G01 X31.5773 Y41.5895 Z-3.1370
G01 X31.6647 Y41.7147 Z-3.1738
G01 X31.7695 Y41.8231 Z-3.1962
G01 X31.8884 Y41.9119 Z-3.1982
G01 X32.0178 Y41.9790 Z-3.1792
G01 X32.1539 Y42.0229 Z-3.1443
G01 X32.2925 Y42.0427 Z-3.1030
G01 X32.4293 Y42.0385 Z-3.0662
G01 X32.5602 Y42.0108 Z-3.0438
G01 X32.6813 Y41.9611 Z-3.0418
G01 X32.7889 Y41.8913 Z-3.0608
G01 X32.8796 Y41.8042 Z-3.0957
G01 X32.9508 Y41.7030 Z-3.1370
G01 X33.0002 Y41.5912 Z-3.1738
G01 X33.0264 Y41.4728 Z-3.1962
G01 X33.0286 Y41.3519 Z-3.1982
G01 X33.0066 Y41.2327 Z-3.1792
G01 X32.9613 Y41.1194 Z-3.1443
G01 X32.8939 Y41.0160 Z-3.1030
G01 X32.8065 Y40.9262 Z-3.0662
G01 X32.7017 Y40.8531 Z-3.0438
G01 X32.5828 Y40.7996 Z-3.0418
G01 X32.4534 Y40.7678 Z-3.0608
G01 X32.3173 Y40.7593 Z-3.0957
G01 X32.1787 Y40.7748 Z-3.1370
G01 X32.0419 Y40.8144 Z-3.1738
G01 X31.9110 Y40.8774 Z-3.1962
G01 X31.7899 Y40.9625 Z-3.1982
G01 X31.6823 Y41.0675 Z-3.1792
G01 X31.5916 Y41.1900 Z-3.1443
G01 X31.5204 Y41.3265 Z-3.1030
G01 X31.4710 Y41.4737 Z-3.0662
G01 X31.4448 Y41.6274 Z-3.0438
G01 X31.4426 Y41.7836 Z-3.0418
G01 X31.4646 Y41.9381 Z-3.0608
G01 X31.5099 Y42.0867 Z-3.0957
G01 X31.5773 Y42.2255 Z-3.1370
G01 X31.6647 Y42.3507 Z-3.1738
G01 X31.7695 Y42.4591 Z-3.1962
G01 X31.8884 Y42.5479 Z-3.1982
G01 X32.0178 Y42.6150 Z-3.1792
G01 X32.1539 Y42.6589 Z-3.1443
G01 X32.2925 Y42.6787 Z-3.1030
G01 X32.4293 Y42.6745 Z-3.0662
G01 X32.5602 Y42.6468 Z-3.0438
G01 X32.6813 Y42.5971 Z-3.0418
G01 X32.7889 Y42.5273 Z-3.0608
G01 X32.8796 Y42.4402 Z-3.0957
G01 X32.9508 Y42.3390 Z-3.1370
G01 X33.0002 Y42.2272 Z-3.1738
G01 X33.0264 Y42.1088 Z-3.1962
G01 X33.0286 Y41.9879 Z-3.1982
G01 X33.0066 Y41.8687 Z-3.1792
G01 X32.9613 Y41.7554 Z-3.1443
G01 X32.8939 Y41.6520 Z-3.1030
G01 X32.8065 Y41.5622 Z-3.0662
G01 X32.7017 Y41.4891 Z-3.0438
G01 X32.5828 Y41.4356 Z-3.0418
G01 X32.4534 Y41.4038 Z-3.0608
G01 X32.3173 Y41.3953 Z-3.0957
G01 X32.1787 Y41.4108 Z-3.1370
G01 X32.0419 Y41.4504 Z-3.1738
G01 X31.9110 Y41.5134 Z-3.1962
G01 X31.7899 Y41.5985 Z-3.1982
G01 X31.6823 Y41.7035 Z-3.1792
G01 X31.5916 Y41.8260 Z-3.1443
G01 X31.5204 Y41.9625 Z-3.1030
G01 X31.4710 Y42.1097 Z-3.0662
G01 X31.4448 Y42.2634 Z-3.0438
G01 X31.4426 Y42.4196 Z-3.0418
G01 X31.4646 Y42.5741 Z-3.0608
G01 X31.5099 Y42.7227 Z-3.0957
G01 X31.5773 Y42.8615 Z-3.1370
G01 X31.6647 Y42.9867 Z-3.1738
G01 X31.7695 Y43.0951 Z-3.1962
G01 X31.8884 Y43.1839 Z-3.1982
G01 X32.0178 Y43.2510 Z-3.1792
G01 X32.1539 Y43.2949 Z-3.1443
G01 X32.2925 Y43.3147 Z-3.1030
G01 X32.4293 Y43.3105 Z-3.0662
G01 X32.5602 Y43.2828 Z-3.0438
G01 X32.6813 Y43.2331 Z-3.0418
G01 X32.7889 Y43.1633 Z-3.0608
G01 X32.8796 Y43.0762 Z-3.0957
G01 X32.9508 Y42.9750 Z-3.1370
G01 X33.0002 Y42.8632 Z-3.1738
G01 X33.0264 Y42.7448 Z-3.1962
G01 X33.0286 Y42.6239 Z-3.1982
G01 X33.0066 Y42.5047 Z-3.1792
G01 X32.9613 Y42.3914 Z-3.1443
G01 X32.8939 Y42.2880 Z-3.1030
G01 X32.8065 Y42.1982 Z-3.0662
G01 X32.7017 Y42.1251 Z-3.0438
G01 X32.5828 Y42.0716 Z-3.0418
G01 X32.4534 Y42.0398 Z-3.0608
G01 X32.3173 Y42.0313 Z-3.0957
G01 X32.1787 Y42.0468 Z-3.1370
G01 X32.0419 Y42.0864 Z-3.1738
G01 X31.9110 Y42.1494 Z-3.1962
G01 X31.7899 Y42.2345 Z-3.1982
G01 X31.6823 Y42.3395 Z-3.1792
G01 X31.5916 Y42.4620 Z-3.1443
G01 X31.5204 Y42.5985 Z-3.1030
G01 X31.4710 Y42.7457 Z-3.0662
G01 X31.4448 Y42.8994 Z-3.0438
G01 X31.4426 Y43.0556 Z-3.0418
G01 X31.4646 Y43.2101 Z-3.0608
G01 X31.5099 Y43.3587 Z-3.0957
G01 X31.5773 Y43.4975 Z-3.1370
G01 X31.6647 Y43.6227 Z-3.1738
G01 X31.7695 Y43.7311 Z-3.1962
G01 X31.8884 Y43.8199 Z-3.1982
G01 X32.0178 Y43.8870 Z-3.1792
G01 X32.1539 Y43.9309 Z-3.1443
G01 X32.2925 Y43.9507 Z-3.1030
G01 X32.4293 Y43.9465 Z-3.0662
G01 X32.5602 Y43.9188 Z-3.0438
G01 X32.6813 Y43.8691 Z-3.0418
G01 X32.7889 Y43.7993 Z-3.0608
G01 X32.8796 Y43.7122 Z-3.0957
G01 X32.9508 Y43.6110 Z-3.1370
G01 X33.0002 Y43.4992 Z-3.1738
G01 X33.0264 Y43.3808 Z-3.1962
G01 X33.0286 Y43.2599 Z-3.1982
G01 X33.0066 Y43.1407 Z-3.1792
G01 X32.9613 Y43.0274 Z-3.1443
G01 X32.8939 Y42.9240 Z-3.1030
G01 X32.8065 Y42.8342 Z-3.0662
G01 X32.7017 Y42.7611 Z-3.0438
G01 X32.5828 Y42.7076 Z-3.0418
G01 X32.4534 Y42.6758 Z-3.0608
G01 X32.3173 Y42.6673 Z-3.0957
G01 X32.1787 Y42.6828 Z-3.1370
G01 X32.0419 Y42.7224 Z-3.1738
G01 X31.9110 Y42.7854 Z-3.1962
G01 X31.7899 Y42.8705 Z-3.1982
G01 X31.6823 Y42.9755 Z-3.1792
G01 X31.5916 Y43.0980 Z-3.1443
G01 X31.5204 Y43.2345 Z-3.1030
G01 X31.4710 Y43.3817 Z-3.0662
G01 X31.4448 Y43.5354 Z-3.0438
G01 X31.4426 Y43.6916 Z-3.0418
G01 X31.4646 Y43.8461 Z-3.0608
G01 X31.5099 Y43.9947 Z-3.0957
G01 X31.5773 Y44.1335 Z-3.1370
G01 X31.6647 Y44.2587 Z-3.1738
G01 X31.7695 Y44.3671 Z-3.1962
G01 X31.8884 Y44.4559 Z-3.1982
G01 X32.0178 Y44.5230 Z-3.1792
G01 X32.1539 Y44.5669 Z-3.1443
G01 X32.2925 Y44.5867 Z-3.1030
G01 X32.4293 Y44.5825 Z-3.0662
G01 X32.5602 Y44.5548 Z-3.0438
G01 X32.6813 Y44.5051 Z-3.0418
G01 X32.7889 Y44.4353 Z-3.0608
G01 X32.8796 Y44.3482 Z-3.0957
G01 X32.9508 Y44.2470 Z-3.1370
G01 X33.0002 Y44.1352 Z-3.1738
G01 X33.0264 Y44.0168 Z-3.1962
G01 X33.0286 Y43.8959 Z-3.1982
G01 X33.0066 Y43.7767 Z-3.1792
G01 X32.9613 Y43.6634 Z-3.1443
G01 X32.8939 Y43.5600 Z-3.1030
G01 X32.8065 Y43.4702 Z-3.0662
G01 X32.7017 Y43.3971 Z-3.0438
G01 X32.5828 Y43.3436 Z-3.0418
G01 X32.4534 Y43.3118 Z-3.0608
G01 X32.3173 Y43.3033 Z-3.0957
G01 X32.1787 Y43.3188 Z-3.1370
G01 X32.0419 Y43.3584 Z-3.1738
G01 X31.9110 Y43.4214 Z-3.1962
G01 X31.7899 Y43.5065 Z-3.1982
G01 X31.6823 Y43.6115 Z-3.1792
G01 X31.5916 Y43.7340 Z-3.1443
G01 X31.5204 Y43.8705 Z-3.1030
G01 X31.4710 Y44.0177 Z-3.0662
G01 X31.4448 Y44.1714 Z-3.0438
G01 X31.4426 Y44.3276 Z-3.0418
G01 X31.4646 Y44.4821 Z-3.0608
G01 X31.5099 Y44.6307 Z-3.0957
G01 X31.5773 Y44.7695 Z-3.1370
G01 X31.6647 Y44.8947 Z-3.1738
G01 X31.7695 Y45.0031 Z-3.1962
G01 X31.8884 Y45.0919 Z-3.1982
G01 X32.0178 Y45.1590 Z-3.1792
G01 X32.1539 Y45.2029 Z-3.1443
G01 X32.2925 Y45.2227 Z-3.1030
G01 X32.4293 Y45.2185 Z-3.0662
G01 X32.5602 Y45.1908 Z-3.0438
G01 X32.6813 Y45.1411 Z-3.0418
G01 X32.7889 Y45.0713 Z-3.0608
G01 X32.8796 Y44.9842 Z-3.0957
G01 X32.9508 Y44.8830 Z-3.1370
G01 X33.0002 Y44.7712 Z-3.1738
G01 X33.0264 Y44.6528 Z-3.1962
G01 X33.0286 Y44.5319 Z-3.1982
G01 X33.0066 Y44.4127 Z-3.1792
G01 X32.9613 Y44.2994 Z-3.1443
G01 X32.8939 Y44.1960 Z-3.1030
G01 X32.8065 Y44.1062 Z-3.0662
G01 X32.7017 Y44.0331 Z-3.0438
G01 X32.5828 Y43.9796 Z-3.0418
G01 X32.4534 Y43.9478 Z-3.0608
G01 X32.3173 Y43.9393 Z-3.0957
G01 X32.1787 Y43.9548 Z-3.1370
G01 X32.0419 Y43.9944 Z-3.1738
G01 X31.9110 Y44.0574 Z-3.1962
G01 X31.7899 Y44.1425 Z-3.1982
G01 X31.6823 Y44.2475 Z-3.1792
G01 X31.5916 Y44.3700 Z-3.1443
G01 X31.5204 Y44.5065 Z-3.1030
G01 X31.4710 Y44.6537 Z-3.0662
G01 X31.4448 Y44.8074 Z-3.0438
G01 X31.4426 Y44.9636 Z-3.0418
G01 X31.4646 Y45.1181 Z-3.0608
G01 X31.5099 Y45.2667 Z-3.0957
G01 X31.5773 Y45.4055 Z-3.1370
G01 X31.6647 Y45.5307 Z-3.1738
G01 X31.7695 Y45.6391 Z-3.1962
G01 X31.8884 Y45.7279 Z-3.1982
G01 X32.0178 Y45.7950 Z-3.1792
G01 X32.1539 Y45.8389 Z-3.1443
G01 X32.2925 Y45.8587 Z-3.1030
G01 X32.4293 Y45.8545 Z-3.0662
G01 X32.5602 Y45.8268 Z-3.0438
G01 X32.6813 Y45.7771 Z-3.0418
G01 X32.7889 Y45.7073 Z-3.0608
G01 X32.8796 Y45.6202 Z-3.0957
G01 X32.9508 Y45.5190 Z-3.1370
G01 X33.0002 Y45.4072 Z-3.1738
G01 X33.0264 Y45.2888 Z-3.1962
G01 X33.0286 Y45.1679 Z-3.1982
G01 X33.0066 Y45.0487 Z-3.1792
G01 X32.9613 Y44.9354 Z-3.1443
G01 X32.8939 Y44.8320 Z-3.1030
G01 X32.8065 Y44.7422 Z-3.0662
G01 X32.7017 Y44.6691 Z-3.0438
G01 X32.5828 Y44.6156 Z-3.0418
G01 X32.4534 Y44.5838 Z-3.0608
G01 X32.3173 Y44.5753 Z-3.0957
G01 X32.1787 Y44.5908 Z-3.1370
G01 X32.0419 Y44.6304 Z-3.1738
G01 X31.9110 Y44.6934 Z-3.1962
G01 X31.7899 Y44.7785 Z-3.1982
G01 X31.6823 Y44.8835 Z-3.1792
G01 X31.5916 Y45.0060 Z-3.1443
G01 X31.5204 Y45.1425 Z-3.1030
G01 X31.4710 Y45.2897 Z-3.0662
G01 X31.4448 Y45.4434 Z-3.0438
G01 X31.4426 Y45.5996 Z-3.0418
G01 X31.4646 Y45.7541 Z-3.0608
G01 X31.5099 Y45.9027 Z-3.0957
G01 X31.5773 Y46.0415 Z-3.1370
G01 X31.6647 Y46.1667 Z-3.1738
G01 X31.7695 Y46.2751 Z-3.1962
G01 X31.8884 Y46.3639 Z-3.1982
G01 X32.0178 Y46.4310 Z-3.1792
G01 X32.1539 Y46.4749 Z-3.1443
G01 X32.2925 Y46.4947 Z-3.1030
G01 X32.4293 Y46.4905 Z-3.0662
G01 X32.5602 Y46.4628 Z-3.0438
G01 X32.6813 Y46.4131 Z-3.0418
G01 X32.7889 Y46.3433 Z-3.0608
G01 X32.8796 Y46.2562 Z-3.0957
G01 X32.9508 Y46.1550 Z-3.1370
G01 X33.0002 Y46.0432 Z-3.1738
G01 X33.0264 Y45.9248 Z-3.1962
G01 X33.0286 Y45.8039 Z-3.1982
G01 X33.0066 Y45.6847 Z-3.1792
G01 X32.9613 Y45.5714 Z-3.1443
G01 X32.8939 Y45.4680 Z-3.1030
G01 X32.8065 Y45.3782 Z-3.0662
G01 X32.7017 Y45.3051 Z-3.0438
G01 X32.5828 Y45.2516 Z-3.0418
G01 X32.4534 Y45.2198 Z-3.0608
G01 X32.3173 Y45.2113 Z-3.0957
G01 X32.1787 Y45.2268 Z-3.1370
G01 X32.0419 Y45.2664 Z-3.1738
G01 X31.9110 Y45.3294 Z-3.1962
G01 X31.7899 Y45.4145 Z-3.1982
G01 X31.6823 Y45.5195 Z-3.1792
G01 X31.5916 Y45.6420 Z-3.1443
G01 X31.5204 Y45.7785 Z-3.1030
G01 X31.4710 Y45.9257 Z-3.0662
G01 X31.4448 Y46.0794 Z-3.0438
G01 X31.4426 Y46.2356 Z-3.0418
G01 X31.4646 Y46.3901 Z-3.0608
G01 X31.5099 Y46.5387 Z-3.0957
G01 X31.5773 Y46.6775 Z-3.1370
G01 X31.6647 Y46.8027 Z-3.1738
G01 X31.7695 Y46.9111 Z-3.1962
G01 X31.8884 Y46.9999 Z-3.1982
G01 X32.0178 Y47.0670 Z-3.1792
G01 X32.1539 Y47.1109 Z-3.1443
G01 X32.2925 Y47.1307 Z-3.1030
G01 X32.4293 Y47.1265 Z-3.0662
G01 X32.5602 Y47.0988 Z-3.0438
G01 X32.6813 Y47.0491 Z-3.0418
G01 X32.7889 Y46.9793 Z-3.0608
G01 X32.8796 Y46.8922 Z-3.0957
G01 X32.9508 Y46.7910 Z-3.1370
G01 X33.0002 Y46.6792 Z-3.1738
G01 X33.0264 Y46.5608 Z-3.1962
G01 X33.0286 Y46.4399 Z-3.1982
G01 X33.0066 Y46.3207 Z-3.1792
G01 X32.9613 Y46.2074 Z-3.1443
G01 X32.8939 Y46.1040 Z-3.1030
G01 X32.8065 Y46.0142 Z-3.0662
G01 X32.7017 Y45.9411 Z-3.0438
G01 X32.5828 Y45.8876 Z-3.0418
G01 X32.4534 Y45.8558 Z-3.0608
G01 X32.3173 Y45.8473 Z-3.0957
G01 X32.1787 Y45.8628 Z-3.1370
G01 X32.0419 Y45.9024 Z-3.1738
G01 X31.9110 Y45.9654 Z-3.1962
G01 X31.7899 Y46.0505 Z-3.1982
G01 X31.6823 Y46.1555 Z-3.1792
G01 X31.5916 Y46.2780 Z-3.1443
G01 X31.5204 Y46.4145 Z-3.1030
G01 X31.4710 Y46.5617 Z-3.0662
G01 X31.4448 Y46.7154 Z-3.0438
G01 X31.4426 Y46.8716 Z-3.0418
G01 X31.4646 Y47.0261 Z-3.0608
G01 X31.5099 Y47.1747 Z-3.0957
G01 X31.5773 Y47.3135 Z-3.1370
G01 X31.6647 Y47.4387 Z-3.1738
G01 X31.7695 Y47.5471 Z-3.1962
G01 X31.8884 Y47.6359 Z-3.1982
G01 X32.0178 Y47.7030 Z-3.1792
G01 X32.1539 Y47.7469 Z-3.1443
G01 X32.2925 Y47.7667 Z-3.1030
G01 X32.4293 Y47.7625 Z-3.0662
G01 X32.5602 Y47.7348 Z-3.0438
G01 X32.6813 Y47.6851 Z-3.0418
G01 X32.7889 Y47.6153 Z-3.0608
G01 X32.8796 Y47.5282 Z-3.0957
G01 X32.9508 Y47.4270 Z-3.1370
G01 X33.0002 Y47.3152 Z-3.1738
G01 X33.0264 Y47.1968 Z-3.1962
G01 X33.0286 Y47.0759 Z-3.1982
G01 X33.0066 Y46.9567 Z-3.1792
G01 X32.9613 Y46.8434 Z-3.1443
G01 X32.8939 Y46.7400 Z-3.1030
G01 X32.8065 Y46.6502 Z-3.0662
G01 X32.7017 Y46.5771 Z-3.0438
G01 X32.5828 Y46.5236 Z-3.0418
G01 X32.4534 Y46.4918 Z-3.0608
G01 X32.3173 Y46.4833 Z-3.0957
G01 X32.1787 Y46.4988 Z-3.1370
G01 X32.0419 Y46.5384 Z-3.1738
G01 X31.9110 Y46.6014 Z-3.1962
G01 X31.7899 Y46.6865 Z-3.1982
G01 X31.6823 Y46.7915 Z-3.1792
G01 X31.5916 Y46.9140 Z-3.1443
G01 X31.5204 Y47.0505 Z-3.1030
G01 X31.4710 Y47.1977 Z-3.0662
G01 X31.4448 Y47.3514 Z-3.0438
G01 X31.4426 Y47.5076 Z-3.0418
G01 X31.4646 Y47.6621 Z-3.0608
G01 X31.5099 Y47.8107 Z-3.0957
G01 X31.5773 Y47.9495 Z-3.1370
G01 X31.6647 Y48.0747 Z-3.1738
G01 X31.7695 Y48.1831 Z-3.1962
G01 X31.8884 Y48.2719 Z-3.1982
G01 X32.0178 Y48.3390 Z-3.1792
G01 X32.1539 Y48.3829 Z-3.1443
G01 X32.2925 Y48.4027 Z-3.1030
G01 X32.4293 Y48.3985 Z-3.0662
G01 X32.5602 Y48.3708 Z-3.0438
G01 X32.6813 Y48.3211 Z-3.0418
G01 X32.7889 Y48.2513 Z-3.0608
G01 X32.8796 Y48.1642 Z-3.0957
G01 X32.9508 Y48.0630 Z-3.1370
G01 X33.0002 Y47.9512 Z-3.1738
G01 X33.0264 Y47.8328 Z-3.1962
G01 X33.0286 Y47.7119 Z-3.1982
G01 X33.0066 Y47.5927 Z-3.1792
G01 X32.9613 Y47.4794 Z-3.1443
G01 X32.8939 Y47.3760 Z-3.1030
G01 X32.8065 Y47.2862 Z-3.0662
G01 X32.7017 Y47.2131 Z-3.0438
G01 X32.5828 Y47.1596 Z-3.0418
G01 X32.4534 Y47.1278 Z-3.0608
G01 X32.3173 Y47.1193 Z-3.0957
G01 X32.1787 Y47.1348 Z-3.1370
G01 X32.0419 Y47.1744 Z-3.1738
G01 X31.9110 Y47.2374 Z-3.1962
G01 X31.7899 Y47.3225 Z-3.1982
G01 X31.6823 Y47.4275 Z-3.1792
G01 X31.5916 Y47.5500 Z-3.1443
G01 X31.5204 Y47.6865 Z-3.1030
G01 X31.4710 Y47.8337 Z-3.0662
G01 X31.4448 Y47.9874 Z-3.0438
G01 X31.4426 Y48.1436 Z-3.0418
G01 X31.4646 Y48.2981 Z-3.0608
G01 X31.5099 Y48.4467 Z-3.0957
G01 X31.5773 Y48.5855 Z-3.1370
G01 X31.6647 Y48.7107 Z-3.1738
G01 X31.7695 Y48.8191 Z-3.1962
G01 X31.8884 Y48.9079 Z-3.1982
G01 X32.0178 Y48.9750 Z-3.1792
G01 X32.1539 Y49.0189 Z-3.1443
G01 X32.2925 Y49.0387 Z-3.1030
G01 X32.4293 Y49.0345 Z-3.0662
G01 X32.5602 Y49.0068 Z-3.0438
G01 X32.6813 Y48.9571 Z-3.0418
G01 X32.7889 Y48.8873 Z-3.0608
G01 X32.8796 Y48.8002 Z-3.0957
G01 X32.9508 Y48.6990 Z-3.1370
G01 X33.0002 Y48.5872 Z-3.1738
G01 X33.0264 Y48.4688 Z-3.1962
G01 X33.0286 Y48.3479 Z-3.1982
G01 X33.0066 Y48.2287 Z-3.1792
G01 X32.9613 Y48.1154 Z-3.1443
G01 X32.8939 Y48.0120 Z-3.1030
G01 X32.8065 Y47.9222 Z-3.0662
G01 X32.7017 Y47.8491 Z-3.0438
G01 X32.5828 Y47.7956 Z-3.0418
G01 X32.4534 Y47.7638 Z-3.0608
G01 X32.3173 Y47.7553 Z-3.0957
G01 X32.1787 Y47.7708 Z-3.1370
G01 X32.0419 Y47.8104 Z-3.1738
G01 X31.9110 Y47.8734 Z-3.1962
G01 X31.7899 Y47.9585 Z-3.1982
G01 X31.6823 Y48.0635 Z-3.1792
G01 X31.5916 Y48.1860 Z-3.1443
G01 X31.5204 Y48.3225 Z-3.1030
G01 X31.4710 Y48.4697 Z-3.0662
G01 X31.4448 Y48.6234 Z-3.0438
G01 X31.4426 Y48.7796 Z-3.0418
G01 X31.4646 Y48.9341 Z-3.0608
G01 X31.5099 Y49.0827 Z-3.0957
G01 X31.5773 Y49.2215 Z-3.1370
G01 X31.6647 Y49.3467 Z-3.1738
G01 X31.7695 Y49.4551 Z-3.1962
G01 X31.8884 Y49.5439 Z-3.1982
G01 X32.0178 Y49.6110 Z-3.1792
G01 X32.1539 Y49.6549 Z-3.1443
G01 X32.2925 Y49.6747 Z-3.1030
G01 X32.4293 Y49.6705 Z-3.0662
G01 X32.5602 Y49.6428 Z-3.0438
G01 X32.6813 Y49.5931 Z-3.0418
G01 X32.7889 Y49.5233 Z-3.0608
G01 X32.8796 Y49.4362 Z-3.0957
G01 X32.9508 Y49.3350 Z-3.1370
G01 X33.0002 Y49.2232 Z-3.1738
G01 X33.0264 Y49.1048 Z-3.1962
G01 X33.0286 Y48.9839 Z-3.1982
G01 X33.0066 Y48.8647 Z-3.1792
G01 X32.9613 Y48.7514 Z-3.1443
G01 X32.8939 Y48.6480 Z-3.1030
G01 X32.8065 Y48.5582 Z-3.0662
G01 X32.7017 Y48.4851 Z-3.0438
G01 X32.5828 Y48.4316 Z-3.0418
G01 X32.4534 Y48.3998 Z-3.0608
G01 X32.3173 Y48.3913 Z-3.0957
G01 X32.1787 Y48.4068 Z-3.1370
G01 X32.0419 Y48.4464 Z-3.1738
G01 X31.9110 Y48.5094 Z-3.1962
G01 X31.7899 Y48.5945 Z-3.1982
G01 X31.6823 Y48.6995 Z-3.1792
G01 X31.5916 Y48.8220 Z-3.1443
G01 X31.5204 Y48.9585 Z-3.1030
G01 X31.4710 Y49.1057 Z-3.0662
G01 X31.4448 Y49.2594 Z-3.0438
G01 X31.4426 Y49.4156 Z-3.0418
G01 X31.4646 Y49.5701 Z-3.0608
G01 X31.5099 Y49.7187 Z-3.0957
G01 X31.5773 Y49.8575 Z-3.1370
G01 X31.6647 Y49.9827 Z-3.1738
G01 X31.7695 Y50.0911 Z-3.1962
G01 X31.8884 Y50.1799 Z-3.1982
G01 X32.0178 Y50.2470 Z-3.1792
G01 X32.1539 Y50.2909 Z-3.1443
G01 X32.2925 Y50.3107 Z-3.1030
G01 X32.4293 Y50.3065 Z-3.0662
G01 X32.5602 Y50.2788 Z-3.0438
G01 X32.6813 Y50.2291 Z-3.0418
G01 X32.7889 Y50.1593 Z-3.0608
G01 X32.8796 Y50.0722 Z-3.0957
G01 X32.9508 Y49.9710 Z-3.1370
G01 X33.0002 Y49.8592 Z-3.1738
G01 X33.0264 Y49.7408 Z-3.1962
G01 X33.0286 Y49.6199 Z-3.1982
G01 X33.0066 Y49.5007 Z-3.1792
G01 X32.9613 Y49.3874 Z-3.1443
G01 X32.8939 Y49.2840 Z-3.1030
G01 X32.8065 Y49.1942 Z-3.0662
G01 X32.7017 Y49.1211 Z-3.0438
G01 X32.5828 Y49.0676 Z-3.0418
G01 X32.4534 Y49.0358 Z-3.0608
G01 X32.3173 Y49.0273 Z-3.0957
G01 X32.1787 Y49.0428 Z-3.1370
G01 X32.0419 Y49.0824 Z-3.1738
G01 X31.9110 Y49.1454 Z-3.1962
G01 X31.7899 Y49.2305 Z-3.1982
G01 X31.6823 Y49.3355 Z-3.1792
G01 X31.5916 Y49.4580 Z-3.1443
G01 X31.5204 Y49.5945 Z-3.1030
G01 X31.4710 Y49.7417 Z-3.0662
G01 X31.4448 Y49.8954 Z-3.0438
G01 X31.4426 Y50.0516 Z-3.0418
G01 X31.4646 Y50.2061 Z-3.0608
G01 X31.5099 Y50.3547 Z-3.0957
G01 X31.5773 Y50.4935 Z-3.1370
G01 X31.6647 Y50.6187 Z-3.1738
G01 X31.7695 Y50.7271 Z-3.1962
G01 X31.8884 Y50.8159 Z-3.1982
G01 X32.0178 Y50.8830 Z-3.1792
G01 X32.1539 Y50.9269 Z-3.1443
G01 X32.2925 Y50.9467 Z-3.1030
G01 X32.4293 Y50.9425 Z-3.0662
G01 X32.5602 Y50.9148 Z-3.0438
G01 X32.6813 Y50.8651 Z-3.0418
G01 X32.7889 Y50.7953 Z-3.0608
G01 X32.8796 Y50.7082 Z-3.0957
G01 X32.9508 Y50.6070 Z-3.1370
G01 X33.0002 Y50.4952 Z-3.1738
G01 X33.0264 Y50.3768 Z-3.1962
G01 X33.0286 Y50.2559 Z-3.1982
G01 X33.0066 Y50.1367 Z-3.1792
G01 X32.9613 Y50.0234 Z-3.1443
G01 X32.8939 Y49.9200 Z-3.1030
G01 X32.8065 Y49.8302 Z-3.0662
G01 X32.7017 Y49.7571 Z-3.0438
G01 X32.5828 Y49.7036 Z-3.0418
G01 X32.4534 Y49.6718 Z-3.0608
G01 X32.3173 Y49.6633 Z-3.0957
G01 X32.1787 Y49.6788 Z-3.1370
G01 X32.0419 Y49.7184 Z-3.1738
G01 X31.9110 Y49.7814 Z-3.1962
G01 X31.7899 Y49.8665 Z-3.1982
G01 X31.6823 Y49.9715 Z-3.1792
G01 X31.5916 Y50.0940 Z-3.1443
G01 X31.5204 Y50.2305 Z-3.1030
G01 X31.4710 Y50.3777 Z-3.0662
G01 X31.4448 Y50.5314 Z-3.0438
G01 X31.4426 Y50.6876 Z-3.0418
G01 X31.4646 Y50.8421 Z-3.0608
G01 X31.5099 Y50.9907 Z-3.0957
G01 X31.5773 Y51.1295 Z-3.1370
G01 X31.6647 Y51.2547 Z-3.1738
G01 X31.7695 Y51.3631 Z-3.1962
G01 X31.8884 Y51.4519 Z-3.1982
G01 X32.0178 Y51.5190 Z-3.1792
G01 X32.1539 Y51.5629 Z-3.1443
G01 X32.2925 Y51.5827 Z-3.1030
G01 X32.4293 Y51.5785 Z-3.0662
G01 X32.5602 Y51.5508 Z-3.0438
G01 X32.6813 Y51.5011 Z-3.0418
G01 X32.7889 Y51.4313 Z-3.0608
G01 X32.8796 Y51.3442 Z-3.0957
G01 X32.9508 Y51.2430 Z-3.1370
G01 X33.0002 Y51.1312 Z-3.1738
G01 X33.0264 Y51.0128 Z-3.1962
G01 X33.0286 Y50.8919 Z-3.1982
G01 X33.0066 Y50.7727 Z-3.1792
G01 X32.9613 Y50.6594 Z-3.1443
G01 X32.8939 Y50.5560 Z-3.1030
G01 X32.8065 Y50.4662 Z-3.0662
G01 X32.7017 Y50.3931 Z-3.0438
G01 X32.5828 Y50.3396 Z-3.0418
G01 X32.4534 Y50.3078 Z-3.0608
G01 X32.3173 Y50.2993 Z-3.0957
G01 X32.1787 Y50.3148 Z-3.1370
G01 X32.0419 Y50.3544 Z-3.1738
G01 X31.9110 Y50.4174 Z-3.1962
G01 X31.7899 Y50.5025 Z-3.1982
G01 X31.6823 Y50.6075 Z-3.1792
G01 X31.5916 Y50.7300 Z-3.1443
G01 X31.5204 Y50.8665 Z-3.1030
G01 X31.4710 Y51.0137 Z-3.0662
G01 X31.4448 Y51.1674 Z-3.0438
G01 X31.4426 Y51.3236 Z-3.0418
G01 X31.4646 Y51.4781 Z-3.0608
G01 X31.5099 Y51.6267 Z-3.0957
G01 X31.5773 Y51.7655 Z-3.1370
G01 X31.6647 Y51.8907 Z-3.1738
G01 X31.7695 Y51.9991 Z-3.1962
G01 X31.8884 Y52.0879 Z-3.1982
G01 X32.0178 Y52.1550 Z-3.1792
G01 X32.1539 Y52.1989 Z-3.1443
G01 X32.2925 Y52.2187 Z-3.1030
G01 X32.4293 Y52.2145 Z-3.0662
G01 X32.5602 Y52.1868 Z-3.0438
G01 X32.6813 Y52.1371 Z-3.0418
G01 X32.7889 Y52.0673 Z-3.0608
G01 X32.8796 Y51.9802 Z-3.0957
G01 X32.9508 Y51.8790 Z-3.1370
G01 X33.0002 Y51.7672 Z-3.1738
G01 X33.0264 Y51.6488 Z-3.1962
G01 X33.0286 Y51.5279 Z-3.1982
G01 X33.0066 Y51.4087 Z-3.1792
G01 X32.9613 Y51.2954 Z-3.1443
G01 X32.8939 Y51.1920 Z-3.1030
G01 X32.8065 Y51.1022 Z-3.0662
G01 X32.7017 Y51.0291 Z-3.0438
G01 X32.5828 Y50.9756 Z-3.0418
G01 X32.4534 Y50.9438 Z-3.0608
G01 X32.3173 Y50.9353 Z-3.0957
G01 X32.1787 Y50.9508 Z-3.1370
G01 X32.0419 Y50.9904 Z-3.1738
G01 X31.9110 Y51.0534 Z-3.1962
G01 X31.7899 Y51.1385 Z-3.1982
G01 X31.6823 Y51.2435 Z-3.1792
G01 X31.5916 Y51.3660 Z-3.1443
G01 X31.5204 Y51.5025 Z-3.1030
G01 X31.4710 Y51.6497 Z-3.0662
G01 X31.4448 Y51.8034 Z-3.0438
G01 X31.4426 Y51.9596 Z-3.0418
G01 X31.4646 Y52.1141 Z-3.0608
G01 X31.5099 Y52.2627 Z-3.0957
G01 X31.5773 Y52.4015 Z-3.1370
G01 X31.6647 Y52.5267 Z-3.1738
G01 X31.7695 Y52.6351 Z-3.1962
G01 X31.8884 Y52.7239 Z-3.1982
G01 X32.0178 Y52.7910 Z-3.1792
G01 X32.1539 Y52.8349 Z-3.1443
G01 X32.2925 Y52.8547 Z-3.1030
G01 X32.4293 Y52.8505 Z-3.0662
G01 X32.5602 Y52.8228 Z-3.0438
G01 X32.6813 Y52.7731 Z-3.0418
G01 X32.7889 Y52.7033 Z-3.0608
G01 X32.8796 Y52.6162 Z-3.0957
G01 X32.9508 Y52.5150 Z-3.1370
G01 X33.0002 Y52.4032 Z-3.1738
G01 X33.0264 Y52.2848 Z-3.1962
G01 X33.0286 Y52.1639 Z-3.1982
G01 X33.0066 Y52.0447 Z-3.1792
G01 X32.9613 Y51.9314 Z-3.1443
G01 X32.8939 Y51.8280 Z-3.1030
G01 X32.8065 Y51.7382 Z-3.0662
G01 X32.7017 Y51.6651 Z-3.0438
G01 X32.5828 Y51.6116 Z-3.0418
G01 X32.4534 Y51.5798 Z-3.0608
G01 X32.3173 Y51.5713 Z-3.0957
G01 X32.1787 Y51.5868 Z-3.1370
G01 X32.0419 Y51.6264 Z-3.1738
G01 X31.9110 Y51.6894 Z-3.1962
G01 X31.7899 Y51.7745 Z-3.1982
G01 X31.6823 Y51.8795 Z-3.1792
G01 X31.5916 Y52.0020 Z-3.1443
G01 X31.5204 Y52.1385 Z-3.1030
G01 X31.4710 Y52.2857 Z-3.0662
G01 X31.4448 Y52.4394 Z-3.0438
G01 X31.4426 Y52.5956 Z-3.0418
G01 X31.4646 Y52.7501 Z-3.0608
G01 X31.5099 Y52.8987 Z-3.0957
G01 X31.5773 Y53.0375 Z-3.1370
G01 X31.6647 Y53.1627 Z-3.1738
G01 X31.7695 Y53.2711 Z-3.1962
G01 X31.8884 Y53.3599 Z-3.1982
G01 X32.0178 Y53.4270 Z-3.1792
G01 X32.1539 Y53.4709 Z-3.1443
G01 X32.2925 Y53.4907 Z-3.1030
G01 X32.4293 Y53.4865 Z-3.0662
G01 X32.5602 Y53.4588 Z-3.0438
G01 X32.6813 Y53.4091 Z-3.0418
G01 X32.7889 Y53.3393 Z-3.0608
G01 X32.8796 Y53.2522 Z-3.0957
G01 X32.9508 Y53.1510 Z-3.1370
G01 X33.0002 Y53.0392 Z-3.1738
G01 X33.0264 Y52.9208 Z-3.1962
G01 X33.0286 Y52.7999 Z-3.1982
G01 X33.0066 Y52.6807 Z-3.1792
G01 X32.9613 Y52.5674 Z-3.1443
G01 X32.8939 Y52.4640 Z-3.1030
G01 X32.8065 Y52.3742 Z-3.0662
G01 X32.7017 Y52.3011 Z-3.0438
G01 X32.5828 Y52.2476 Z-3.0418
G01 X32.4534 Y52.2158 Z-3.0608
G01 X32.3173 Y52.2073 Z-3.0957
