;Project aza-case-panel-rear
;Created by Estlcam version 11 build 11.245
;Machining time about 00:09:36 hours

G90
M03 S10000
G00 X0.0000 Y0.0000 Z0.0000 F1500
G00 Z6.0000 F480


;No. 1: Hole 5
G00 X9.6577 Y9.6198 F1500
G00 X10.4406 Y9.4818 Z0.5107 F480
G01 X10.4047 Y9.3479 Z0.5223 F180 S10000
G01 X10.3462 Y9.2223 Z0.5447 F180
G01 X10.2667 Y9.1088 Z0.5670 F180
G01 X10.1687 Y9.0108 Z0.5786 F180
G01 X10.0552 Y8.9313 Z0.5717 F180
G01 X9.9296 Y8.8728 Z0.5433 F180
G01 X9.7957 Y8.8369 Z0.4963 F180
G01 X9.6577 Y8.8248 Z0.4387 F180
G01 X9.5196 Y8.8369 Z0.3810 F180
G01 X9.3858 Y8.8728 Z0.3341 F180
G01 X9.2602 Y8.9313 Z0.3057 F180
G01 X9.1467 Y9.0108 Z0.2987 F180
G01 X9.0487 Y9.1088 Z0.3103 F180
G01 X8.9692 Y9.2223 Z0.3327 F180
G01 X8.9106 Y9.3479 Z0.3550 F180
G01 X8.8748 Y9.4818 Z0.3666 F180
G01 X8.8627 Y9.6198 Z0.3597 F180
G01 X8.8748 Y9.7579 Z0.3313 F180
G01 X8.9106 Y9.8917 Z0.2843 F180
G01 X8.9692 Y10.0173 Z0.2267 F180
G01 X9.0487 Y10.1308 Z0.1690 F180
G01 X9.1467 Y10.2288 Z0.1221 F180
G01 X9.2602 Y10.3083 Z0.0937 F180
G01 X9.3858 Y10.3669 Z0.0867 F180
G01 X9.5196 Y10.4027 Z0.0983 F180
G01 X9.6577 Y10.4148 Z0.1207 F180
G01 X9.7957 Y10.4027 Z0.1430 F180
G01 X9.9296 Y10.3669 Z0.1546 F180
G01 X9.9686 Y10.3515 Z0.1547 F180
G01 X10.0813 Y10.2957 Z0.1474 F180
G01 X10.1808 Y10.2196 Z0.1190 F180
G01 X10.2252 Y10.1741 Z0.0977 F180
G01 X10.2994 Y10.0731 Z0.0474 F180
G01 X10.3531 Y9.9594 Z-0.0050 F180
G01 X10.3719 Y9.8981 Z-0.0289 F180
G01 X10.3920 Y9.7729 Z-0.0645 F180
G01 X10.3881 Y9.6448 Z-0.0800 F180
G01 X10.3769 Y9.5801 Z-0.0797 F180
G01 X10.3376 Y9.4562 Z-0.0648 F180
G01 X10.2753 Y9.3398 Z-0.0375 F180
G01 X10.2354 Y9.2849 Z-0.0222 F180
G01 X10.1426 Y9.1876 Z0.0038 F180
G01 X10.0323 Y9.1068 Z0.0160 F180
G01 X9.9706 Y9.0731 Z0.0147 F180
G01 X9.8406 Y9.0229 Z-0.0041 F180
G01 X9.7017 Y8.9951 Z-0.0424 F180
G01 X9.6291 Y8.9900 Z-0.0670 F180
G01 X9.4852 Y8.9984 Z-0.1199 F180
G01 X9.3428 Y9.0310 Z-0.1689 F180
G01 X9.2725 Y9.0565 Z-0.1889 F180
G01 X9.1409 Y9.1244 Z-0.2143 F180
G01 X9.0208 Y9.2134 Z-0.2183 F180
G01 X8.9654 Y9.2660 Z-0.2126 F180
G01 X8.8700 Y9.3827 Z-0.1899 F180
G01 X8.7941 Y9.5138 Z-0.1602 F180
G01 X8.7637 Y9.5846 Z-0.1460 F180
G01 X8.7218 Y9.7306 Z-0.1263 F180
G01 X8.7036 Y9.8814 Z-0.1243 F180
G01 Y9.9583 Z-0.1315 F180
G01 X8.7226 Y10.1085 Z-0.1613 F180
G01 X8.7651 Y10.2529 Z-0.2073 F180
G01 X8.7952 Y10.3227 Z-0.2339 F180
G01 X8.8711 Y10.4512 Z-0.2861 F180
G01 X8.9659 Y10.5645 Z-0.3287 F180
G01 X9.0202 Y10.6152 Z-0.3439 F180
G01 X9.1386 Y10.7002 Z-0.3579 F180
G01 X9.2675 Y10.7636 Z-0.3510 F180
G01 X9.3358 Y10.7869 Z-0.3408 F180
G01 X9.4742 Y10.8149 Z-0.3130 F180
G01 X9.6130 Y10.8187 Z-0.2841 F180
G01 X9.6823 Y10.8115 Z-0.2724 F180
G01 X9.8148 Y10.7797 Z-0.2615 F180
G01 X9.9375 Y10.7258 Z-0.2708 F180
G01 X9.9947 Y10.6907 Z-0.2838 F180
G01 X10.0966 Y10.6074 Z-0.3232 F180
G01 X10.1803 Y10.5084 Z-0.3742 F180
G01 X10.2150 Y10.4532 Z-0.4011 F180
G01 X10.2675 Y10.3367 Z-0.4495 F180
G01 X10.2968 Y10.2135 Z-0.4834 F180
G01 X10.3025 Y10.1499 Z-0.4929 F180
G01 X10.2964 Y10.0244 Z-0.4954 F180
G01 X10.2665 Y9.9028 Z-0.4789 F180
G01 X10.2425 Y9.8439 Z-0.4656 F180
G01 X10.1796 Y9.7355 Z-0.4358 F180
G01 X10.0967 Y9.6407 Z-0.4107 F180
G01 X10.0479 Y9.5988 Z-0.4031 F180
G01 X9.9410 Y9.5301 Z-0.4026 F180
G01 X9.8217 Y9.4822 Z-0.4235 F180
G01 X9.7578 Y9.4665 Z-0.4417 F180
G01 X9.6280 Y9.4527 Z-0.4885 F180
G01 X9.4959 Y9.4630 Z-0.5414 F180
G01 X9.4293 Y9.4774 Z-0.5671 F180
G01 X9.3024 Y9.5233 Z-0.6087 F180
G01 X9.1834 Y9.5920 Z-0.6321 F180
G01 X9.1275 Y9.6350 Z-0.6357 F180
G01 X9.0285 Y9.7340 Z-0.6274 F180
G01 X8.9466 Y9.8502 Z-0.6036 F180
G01 X8.9124 Y9.9147 Z-0.5885 F180
G01 X8.8616 Y10.0501 Z-0.5599 F180
G01 X8.8335 Y10.1940 Z-0.5416 F180
G01 X8.8282 Y10.2688 Z-0.5390 F180
G01 X8.8367 Y10.4170 Z-0.5499 F180
G01 X8.8693 Y10.5632 Z-0.5816 F180
G01 X8.8948 Y10.6353 Z-0.6041 F180
G01 X8.9628 Y10.7701 Z-0.6555 F180
G01 X9.0516 Y10.8930 Z-0.7072 F180
G01 X9.1040 Y10.9495 Z-0.7300 F180
G01 X9.2203 Y11.0472 Z-0.7626 F180
G01 X9.3505 Y11.1252 Z-0.7745 F180
G01 X9.4207 Y11.1565 Z-0.7724 F180
G01 X9.5655 Y11.2002 Z-0.7549 F180
G01 X9.7145 Y11.2202 Z-0.7265 F180
G01 X9.7903 Y11.2211 Z-0.7113 F180
G01 X9.9382 Y11.2040 Z-0.6870 F180
G01 X10.0799 Y11.1635 Z-0.6778 F180
G01 X10.1480 Y11.1346 Z-0.6809 F180
G01 X10.2734 Y11.0611 Z-0.7033 F180
G01 X10.3831 Y10.9692 Z-0.7442 F180
G01 X10.4319 Y10.9165 Z-0.7697 F180
G01 X10.5132 Y10.8017 Z-0.8227 F180
G01 X10.5725 Y10.6767 Z-0.8700 F180
G01 X10.5938 Y10.6107 Z-0.8886 F180
G01 X10.6180 Y10.4772 Z-0.9105 F180
G01 Y10.3437 Z-0.9110 F180
G01 X10.6089 Y10.2774 Z-0.9037 F180
G01 X10.5738 Y10.1511 Z-0.8792 F180
G01 X10.5168 Y10.0351 Z-0.8493 F180
G01 X10.4799 Y9.9810 Z-0.8357 F180
G01 X10.3943 Y9.8865 Z-0.8185 F180
G01 X10.2933 Y9.8106 Z-0.8201 F180
G01 X10.2369 Y9.7798 Z-0.8293 F180
G01 X10.1195 Y9.7355 Z-0.8624 F180
G01 X9.9960 Y9.7145 Z-0.9104 F180
G01 X9.9319 Y9.7131 Z-0.9375 F180
G01 X9.8073 Y9.7277 Z-0.9887 F180
G01 X9.6871 Y9.7661 Z-1.0287 F180
G01 X9.6287 Y9.7945 Z-1.0421 F180
G01 X9.5229 Y9.8655 Z-1.0521 F180
G01 X9.4312 Y9.9561 Z-1.0417 F180
G01 X9.3908 Y10.0091 Z-1.0302 F180
G01 X9.3263 Y10.1231 Z-1.0013 F180
G01 X9.2828 Y10.2489 Z-0.9734 F180
G01 X9.2694 Y10.3165 Z-0.9630 F180
G01 X9.2608 Y10.4519 Z-0.9556 F180
G01 X9.2762 Y10.5890 Z-0.9691 F180
G01 X9.2935 Y10.6583 Z-0.9842 F180
G01 X9.3449 Y10.7891 Z-1.0266 F180
G01 X9.4188 Y10.9113 Z-1.0787 F180
G01 X9.4648 Y10.9692 Z-1.1056 F180
G01 X9.5689 Y11.0703 Z-1.1517 F180
G01 X9.6897 Y11.1540 Z-1.1818 F180
G01 X9.7569 Y11.1892 Z-1.1892 F180
G01 X9.8965 Y11.2410 Z-1.1874 F180
G01 X10.0438 Y11.2699 Z-1.1678 F180
G01 X10.1208 Y11.2755 Z-1.1535 F180
G01 X10.2718 Y11.2673 Z-1.1238 F180
G01 X10.4201 Y11.2351 Z-1.1011 F180
G01 X10.4935 Y11.2096 Z-1.0953 F180
G01 X10.6296 Y11.1422 Z-1.0992 F180
G01 X10.7531 Y11.0541 Z-1.1245 F180
G01 X10.8103 Y11.0020 Z-1.1448 F180
G01 X10.9081 Y10.8869 Z-1.1938 F180
G01 X10.9857 Y10.7586 Z-1.2466 F180
G01 X11.0169 Y10.6890 Z-1.2715 F180
G01 X11.0601 Y10.5470 Z-1.3096 F180
G01 X11.0793 Y10.4014 Z-1.3283 F180
G01 X11.0798 Y10.3270 Z-1.3295 F180
G01 X11.0622 Y10.1834 Z-1.3171 F180
G01 X11.0215 Y10.0468 Z-1.2910 F180
G01 X10.9922 Y9.9810 Z-1.2756 F180
G01 X10.9192 Y9.8616 Z-1.2484 F180
G01 X10.8282 Y9.7583 Z-1.2338 F180
G01 X10.7757 Y9.7127 Z-1.2336 F180
G01 X10.6629 Y9.6384 Z-1.2496 F180
G01 X10.5407 Y9.5864 Z-1.2855 F180
G01 X10.4759 Y9.5688 Z-1.3097 F180
G01 X10.3465 Y9.5520 Z-1.3622 F180
G01 X10.2179 Y9.5593 Z-1.4123 F180
G01 X10.1540 Y9.5722 Z-1.4335 F180
G01 X10.0340 Y9.6143 Z-1.4615 F180
G01 X9.9251 Y9.6777 Z-1.4682 F180
G01 X9.8749 Y9.7178 Z-1.4636 F180
G01 X9.7886 Y9.8087 Z-1.4425 F180
G01 X9.7215 Y9.9145 Z-1.4131 F180
G01 X9.6953 Y9.9731 Z-1.3983 F180
G01 X9.6605 Y10.0938 Z-1.3770 F180
G01 X9.6492 Y10.2197 Z-1.3727 F180
G01 X9.6527 Y10.2847 Z-1.3786 F180
G01 X9.6771 Y10.4102 Z-1.4062 F180
G01 X9.7251 Y10.5305 Z-1.4507 F180
G01 X9.7583 Y10.5886 Z-1.4773 F180
G01 X9.8385 Y10.6930 Z-1.5298 F180
G01 X9.9378 Y10.7826 Z-1.5740 F180
G01 X9.9950 Y10.8216 Z-1.5903 F180
G01 X10.1167 Y10.8829 Z-1.6067 F180
G01 X10.2496 Y10.9227 Z-1.6018 F180
G01 X10.3204 Y10.9342 Z-1.5923 F180
G01 X10.4535 Y10.9639 Z-1.5653 F180
G01 X10.5873 Y10.9694 Z-1.5359 F180
G01 X10.6548 Y10.9630 Z-1.5236 F180
G01 X10.7812 Y10.9323 Z-1.5109 F180
G01 X10.8982 Y10.8795 Z-1.5182 F180
G01 X10.9532 Y10.8445 Z-1.5302 F180
G01 X11.0482 Y10.7616 Z-1.5681 F180
G01 X11.1252 Y10.6626 Z-1.6184 F180
G01 X11.1568 Y10.6069 Z-1.6457 F180
G01 X11.2013 Y10.4896 Z-1.6948 F180
G01 X11.2226 Y10.3654 Z-1.7303 F180
G01 X11.2243 Y10.3006 Z-1.7409 F180
G01 X11.2086 Y10.1732 Z-1.7452 F180
G01 X11.1690 Y10.0493 Z-1.7301 F180
G01 X11.1398 Y9.9887 Z-1.7171 F180
G01 X11.0654 Y9.8773 Z-1.6874 F180
G01 X10.9709 Y9.7793 Z-1.6615 F180
G01 X10.9157 Y9.7354 Z-1.6532 F180
G01 X10.7952 Y9.6630 Z-1.6511 F180
G01 X10.6621 Y9.6112 Z-1.6703 F180
G01 X10.5904 Y9.5933 Z-1.6880 F180
G01 X10.4449 Y9.5754 Z-1.7339 F180
G01 X10.2968 Y9.5815 Z-1.7868 F180
G01 X10.2214 Y9.5939 Z-1.8129 F180
G01 X10.0766 Y9.6356 Z-1.8556 F180
G01 X9.9396 Y9.7002 Z-1.8803 F180
G01 X9.8739 Y9.7414 Z-1.8847 F180
G01 X9.7553 Y9.8364 Z-1.8777 F180
G01 X9.6535 Y9.9488 Z-1.8546 F180
G01 X9.6088 Y10.0119 Z-1.8396 F180
G01 X9.5369 Y10.1437 Z-1.8106 F180
G01 X9.4875 Y10.2842 Z-1.7914 F180
G01 X9.4714 Y10.3580 Z-1.7882 F180
G01 X9.4576 Y10.5030 Z-1.7979 F180
G01 X9.4679 Y10.6463 Z-1.8285 F180
G01 X9.4822 Y10.7175 Z-1.8508 F180
G01 X9.5271 Y10.8495 Z-1.9019 F180
G01 X9.5929 Y10.9698 Z-1.9539 F180
G01 X9.6340 Y11.0255 Z-1.9772 F180
G01 X9.7267 Y11.1207 Z-2.0107 F180
G01 X9.8335 Y11.1962 Z-2.0237 F180
G01 X9.8924 Y11.2265 Z-2.0220 F180
G01 X10.0132 Y11.2677 Z-2.0051 F180
G01 X10.1384 Y11.2851 Z-1.9770 F180
G01 X10.2027 Y11.2847 Z-1.9617 F180
G01 X10.3264 Y11.2649 Z-1.9370 F180
G01 X10.4440 Y11.2217 Z-1.9270 F180
G01 X10.5005 Y11.1910 Z-1.9297 F180
G01 X10.6013 Y11.1145 Z-1.9513 F180
G01 X10.6867 Y11.0194 Z-1.9917 F180
G01 X10.7234 Y10.9646 Z-2.0172 F180
G01 X10.7798 Y10.8463 Z-2.0702 F180
G01 X10.8144 Y10.7178 Z-2.1179 F180
G01 X10.8232 Y10.6493 Z-2.1369 F180
G01 X10.8221 Y10.5119 Z-2.1594 F180
G01 X10.7969 Y10.3745 Z-2.1604 F180
G01 X10.7748 Y10.3056 Z-2.1534 F180
G01 X10.7140 Y10.1751 Z-2.1291 F180
G01 X10.6314 Y10.0549 Z-2.0992 F180
G01 X10.5813 Y9.9985 Z-2.0854 F180
G01 X10.4698 Y9.8996 Z-2.0679 F180
G01 X10.3428 Y9.8193 Z-2.0690 F180
G01 X10.2730 Y9.7862 Z-2.0779 F180
G01 X10.1294 Y9.7373 Z-2.1106 F180
G01 X9.9796 Y9.7118 Z-2.1583 F180
G01 X9.9021 Y9.7081 Z-2.1854 F180
G01 X9.7510 Y9.7181 Z-2.2368 F180
G01 X9.6044 Y9.7519 Z-2.2771 F180
G01 X9.5324 Y9.7781 Z-2.2908 F180
G01 X9.4001 Y9.8446 Z-2.3014 F180
G01 X9.2818 Y9.9308 Z-2.2914 F180
G01 X9.2279 Y9.9816 Z-2.2800 F180
G01 X9.1369 Y10.0914 Z-2.2513 F180
G01 X9.0671 Y10.2130 Z-2.2232 F180
G01 X9.0403 Y10.2780 Z-2.2126 F180
G01 X9.0055 Y10.4094 Z-2.2047 F180
G01 X8.9948 Y10.5426 Z-2.2177 F180
G01 X8.9986 Y10.6095 Z-2.2323 F180
G01 X9.0243 Y10.7367 Z-2.2742 F180
G01 X9.0725 Y10.8555 Z-2.3262 F180
G01 X9.1051 Y10.9112 Z-2.3529 F180
G01 X9.1841 Y11.0092 Z-2.3995 F180
G01 X9.2801 Y11.0899 Z-2.4303 F180
G01 X9.3341 Y11.1234 Z-2.4380 F180
G01 X9.4496 Y11.1724 Z-2.4371 F180
G01 X9.5730 Y11.1987 Z-2.4181 F180
G01 X9.6373 Y11.2029 Z-2.4040 F180
G01 X9.7654 Y11.1923 Z-2.3742 F180
G01 X9.8911 Y11.1578 Z-2.3510 F180
G01 X9.9525 Y11.1313 Z-2.3448 F180
G01 X10.0672 Y11.0616 Z-2.3477 F180
G01 X10.1695 Y10.9711 Z-2.3721 F180
G01 X10.2154 Y10.9181 Z-2.3917 F180
G01 X10.2933 Y10.8007 Z-2.4402 F180
G01 X10.3511 Y10.6698 Z-2.4931 F180
G01 X10.3721 Y10.5995 Z-2.5181 F180
G01 X10.3967 Y10.4547 Z-2.5571 F180
G01 X10.3974 Y10.3063 Z-2.5771 F180
G01 X10.3886 Y10.2309 Z-2.5789 F180
G01 X10.3538 Y10.0842 Z-2.5675 F180
G01 X10.2957 Y9.9443 Z-2.5420 F180
G01 X10.2579 Y9.8771 Z-2.5268 F180
G01 X10.1687 Y9.7542 Z-2.4991 F180
G01 X10.0614 Y9.6471 Z-2.4834 F180
G01 X10.0010 Y9.5999 Z-2.4825 F180
G01 X9.8730 Y9.5217 Z-2.4970 F180
G01 X9.7352 Y9.4657 Z-2.5317 F180
G01 X9.6630 Y9.4462 Z-2.5553 F180
G01 X9.5190 Y9.4254 Z-2.6075 F180
G01 X9.3756 Y9.4288 Z-2.6582 F180
G01 X9.3045 Y9.4396 Z-2.6798 F180
G01 X9.1707 Y9.4779 Z-2.7093 F180
G01 X9.0476 Y9.5378 Z-2.7176 F180
G01 X8.9905 Y9.5758 Z-2.7139 F180
G01 X8.8911 Y9.6636 Z-2.6939 F180
G01 X8.8107 Y9.7665 Z-2.6647 F180
G01 X8.7779 Y9.8233 Z-2.6499 F180
G01 X8.7310 Y9.9419 Z-2.6275 F180
G01 X8.7076 Y10.0660 Z-2.6214 F180
G01 X8.7049 Y10.1297 Z-2.6264 F180
G01 X8.7187 Y10.2542 Z-2.6521 F180
G01 X8.7562 Y10.3738 Z-2.6954 F180
G01 X8.7838 Y10.4313 Z-2.7215 F180
G01 X8.8553 Y10.5359 Z-2.7743 F180
G01 X8.9461 Y10.6260 Z-2.8197 F180
G01 X8.9986 Y10.6651 Z-2.8368 F180
G01 X9.1140 Y10.7276 Z-2.8552 F180
G01 X9.2408 Y10.7688 Z-2.8523 F180
G01 X9.3082 Y10.7810 Z-2.8437 F180
G01 X9.4457 Y10.7872 Z-2.8175 F180
G01 X9.5844 Y10.7692 Z-2.7879 F180
G01 X9.6539 Y10.7510 Z-2.7751 F180
G01 X9.7876 Y10.6972 Z-2.7606 F180
G01 X9.9122 Y10.6211 Z-2.7656 F180
G01 X9.9708 Y10.5745 Z-2.7764 F180
G01 X10.0757 Y10.4685 Z-2.8124 F180
G01 X10.1630 Y10.3461 Z-2.8618 F180
G01 X10.1996 Y10.2787 Z-2.8888 F180
G01 X10.2564 Y10.1380 Z-2.9390 F180
G01 X10.2902 Y9.9899 Z-2.9764 F180
G01 X10.2982 Y9.9133 Z-2.9881 F180
G01 X10.2966 Y9.7620 Z-2.9950 F180
G01 X10.2711 Y9.6137 Z-2.9819 F180
G01 X10.2493 Y9.5410 Z-2.9696 F180
G01 X10.1904 Y9.4052 Z-2.9402 F180
G01 X10.1111 Y9.2823 Z-2.9133 F180
G01 X10.0638 Y9.2260 Z-2.9040 F180
G01 X9.9595 Y9.1291 Z-2.8994 F180
G01 X9.8422 Y9.0525 Z-2.9159 F180
G01 X9.7789 Y9.0220 Z-2.9322 F180
G01 X9.6498 Y8.9799 Z-2.9765 F180
G01 X9.5175 Y8.9617 Z-3.0291 F180
G01 X9.4505 Z-3.0554 F180
G01 X9.3221 Y8.9802 Z-3.0999 F180
G01 X9.2009 Y9.0217 Z-3.1274 F180
G01 X9.1435 Y9.0510 Z-3.1333 F180
G01 X9.0413 Y9.1245 Z-3.1290 F180
G01 X8.9553 Y9.2157 Z-3.1077 F180
G01 X8.9189 Y9.2678 Z-3.0931 F180
G01 X8.8634 Y9.3804 Z-3.0636 F180
G01 X8.8303 Y9.5022 Z-3.0424 F180
G01 X8.8225 Y9.5662 Z-3.0378 F180
G01 X8.8258 Y9.6948 Z-3.0443 F180
G01 X8.8533 Y9.8223 Z-3.0721 F180
G01 X8.8763 Y9.8851 Z-3.0931 F180
G01 X8.9395 Y10.0037 Z-3.1431 F180
G01 X9.0240 Y10.1110 Z-3.1956 F180
G01 X9.0744 Y10.1600 Z-3.2197 F180
G01 X9.1643 Y10.2653 Z-3.2444 F1200
G01 X9.2573 Y10.3433 Z-3.2497 F1200
G01 X9.3727 Y10.4111 Z-3.2353 F1200
G01 X9.4825 Y10.4523 Z-3.2074 F1200
G01 X9.6097 Y10.4765 Z-3.1671 F1200
G01 X9.7234 Y10.4777 Z-3.1313 F1200
G01 X9.8473 Y10.4571 Z-3.1015 F1200
G01 X9.9515 Y10.4194 Z-3.0902 F1200
G01 X10.0578 Y10.3578 Z-3.0980 F1200
G01 X10.1402 Y10.2866 Z-3.1215 F1200
G01 X10.2164 Y10.1923 Z-3.1598 F1200
G01 X10.2673 Y10.0968 Z-3.1967 F1200
G01 X10.3042 Y9.9815 Z-3.2308 F1200
G01 X10.3173 Y9.8735 Z-3.2477 F1200
G01 X10.3102 Y9.7516 Z-3.2468 F1200
G01 X10.2835 Y9.6442 Z-3.2283 F1200
G01 X10.2325 Y9.5305 Z-3.1931 F1200
G01 X10.1683 Y9.4370 Z-3.1560 F1200
G01 X10.0785 Y9.3456 Z-3.1185 F1200
G01 X9.9832 Y9.2778 Z-3.0964 F1200
G01 X9.8639 Y9.2204 Z-3.0906 F1200
G01 X9.7475 Y9.1871 Z-3.1035 F1200
G01 X9.6114 Y9.1717 Z-3.1346 F1200
G01 X9.4864 Y9.1782 Z-3.1708 F1200
G01 X9.3480 Y9.2084 Z-3.2107 F1200
G01 X9.2277 Y9.2557 Z-3.2374 F1200
G01 X9.1021 Y9.3300 Z-3.2499 F1200
G01 X8.9995 Y9.4145 Z-3.2429 F1200
G01 X8.9003 Y9.5267 Z-3.2167 F1200
G01 X8.8266 Y9.6409 Z-3.1823 F1200
G01 X8.7648 Y9.7807 Z-3.1412 F1200
G01 X8.7282 Y9.9140 Z-3.1106 F1200
G01 X8.7108 Y10.0680 Z-3.0918 F1200
G01 X8.7156 Y10.2074 Z-3.0927 F1200
G01 X8.7449 Y10.3607 Z-3.1133 F1200
G01 X8.7909 Y10.4928 Z-3.1449 F1200
G01 X8.8643 Y10.6306 Z-3.1862 F1200
G01 X8.9470 Y10.7425 Z-3.2198 F1200
G01 X9.0573 Y10.8515 Z-3.2444 F1200
G01 X9.1684 Y10.9328 Z-3.2496 F1200
G01 X9.3043 Y11.0029 Z-3.2352 F1200
G01 X9.4324 Y11.0462 Z-3.2073 F1200
G01 X9.5802 Y11.0714 Z-3.1669 F1200
G01 X9.7122 Y11.0734 Z-3.1311 F1200
G01 X9.8567 Y11.0525 Z-3.1014 F1200
G01 X9.9793 Y11.0144 Z-3.0902 F1200
G01 X10.1061 Y10.9512 Z-3.0980 F1200
G01 X10.2068 Y10.8785 Z-3.1216 F1200
G01 X10.3032 Y10.7811 Z-3.1599 F1200
G01 X10.3723 Y10.6829 Z-3.1969 F1200
G01 X10.4292 Y10.5634 Z-3.2309 F1200
G01 X10.4603 Y10.4515 Z-3.2478 F1200
G01 X10.4729 Y10.3240 Z-3.2467 F1200
G01 X10.4638 Y10.2117 Z-3.2282 F1200
G01 X10.4322 Y10.0911 Z-3.1930 F1200
G01 X10.3852 Y9.9916 Z-3.1559 F1200
G01 X10.3142 Y9.8921 Z-3.1184 F1200
G01 X10.2358 Y9.8170 Z-3.0964 F1200
G01 X10.1348 Y9.7503 Z-3.0906 F1200
G01 X10.0348 Y9.7088 Z-3.1036 F1200
G01 X9.9164 Y9.6830 Z-3.1348 F1200
G01 X9.8071 Y9.6802 Z-3.1710 F1200
G01 X9.6858 Y9.6988 Z-3.2109 F1200
G01 X9.5806 Y9.7357 Z-3.2375 F1200
G01 X9.4712 Y9.7974 Z-3.2499 F1200
G01 X9.3831 Y9.8705 Z-3.2428 F1200
G01 X9.2993 Y9.9691 Z-3.2166 F1200
G01 X9.2394 Y10.0710 Z-3.1822 F1200
G01 X9.1920 Y10.1961 Z-3.1410 F1200
G01 X9.1684 Y10.3162 Z-3.1104 F1200
G01 X9.1644 Y10.4546 Z-3.0917 F1200
G01 X9.1812 Y10.5800 Z-3.0927 F1200
G01 X9.2229 Y10.7168 Z-3.1134 F1200
G01 X9.2801 Y10.8341 Z-3.1450 F1200
G01 X9.3648 Y10.9545 Z-3.1864 F1200
G01 X9.4576 Y11.0510 Z-3.2200 F1200
G01 X9.5780 Y11.1420 Z-3.2445 F1200
G01 X9.6981 Y11.2072 Z-3.2496 F1200
G01 X9.8429 Y11.2586 Z-3.2351 F1200
G01 X9.9790 Y11.2851 Z-3.2071 F1200
G01 X10.1344 Y11.2911 Z-3.1667 F1200
G01 X10.2733 Y11.2759 Z-3.1310 F1200
G01 X10.4241 Y11.2354 Z-3.1013 F1200
G01 X10.5523 Y11.1797 Z-3.0902 F1200
G01 X10.6841 Y11.0964 Z-3.0981 F1200
G01 X10.7893 Y11.0058 Z-3.1217 F1200
G01 X10.8894 Y10.8882 Z-3.1601 F1200
G01 X10.9618 Y10.7718 Z-3.1970 F1200
G01 X11.0210 Y10.6318 Z-3.2311 F1200
G01 X11.0542 Y10.5016 Z-3.2478 F1200
G01 X11.0678 Y10.3535 Z-3.2467 F1200
G01 X11.0595 Y10.2228 Z-3.2281 F1200
G01 X11.0275 Y10.0817 Z-3.1928 F1200
G01 X10.9802 Y9.9638 Z-3.1557 F1200
G01 X10.9076 Y9.8438 Z-3.1183 F1200
G01 X10.8276 Y9.7505 Z-3.0963 F1200
G01 X10.7236 Y9.6635 Z-3.0906 F1200
G01 X10.6210 Y9.6038 Z-3.1037 F1200
G01 X10.4982 Y9.5580 Z-3.1349 F1200
G01 X10.3852 Y9.5373 Z-3.1712 F1200
G01 X10.2582 Y9.5362 Z-3.2110 F1200
G01 X10.1481 Y9.5554 Z-3.2376 F1200
G01 X10.0318 Y9.5978 Z-3.2499 F1200
G01 X9.9377 Y9.6537 Z-3.2428 F1200
G01 X9.8457 Y9.7334 Z-3.2164 F1200
G01 X9.7787 Y9.8185 Z-3.1820 F1200
G01 X9.7220 Y9.9253 Z-3.1408 F1200
G01 X9.6901 Y10.0289 Z-3.1103 F1200
G01 X9.6757 Y10.1497 Z-3.0917 F1200
G01 X9.6832 Y10.2592 Z-3.0928 F1200
G01 X9.7134 Y10.3791 Z-3.1135 F1200
G01 X9.7601 Y10.4811 Z-3.1452 F1200
G01 X9.8322 Y10.5854 Z-3.1865 F1200
G01 X9.9137 Y10.6674 Z-3.2201 F1200
G01 X10.0204 Y10.7430 Z-3.2446 F1200
G01 X10.1283 Y10.7944 Z-3.2496 F1200
G01 X10.2583 Y10.8313 Z-3.2350 F1200
G01 X10.3813 Y10.8450 Z-3.2070 F1200
G01 X10.5210 Y10.8374 Z-3.1666 F1200
G01 X10.6458 Y10.8102 Z-3.1308 F1200
G01 X10.7802 Y10.7572 Z-3.1012 F1200
G01 X10.8936 Y10.6905 Z-3.0902 F1200
G01 X11.0081 Y10.5959 Z-3.0982 F1200
G01 X11.0978 Y10.4952 Z-3.1219 F1200
G01 X11.1798 Y10.3674 Z-3.1603 F1200
G01 X11.2360 Y10.2420 Z-3.1972 F1200
G01 X11.2766 Y10.0931 Z-3.2312 F1200
G01 X11.2930 Y9.9550 Z-3.2479 F1200
G01 X11.2874 Y9.7993 Z-3.2466 F1200
G01 X11.2620 Y9.6618 Z-3.2280 F1200
G01 X11.2103 Y9.5144 Z-3.1926 F1200
G01 X11.1454 Y9.3908 Z-3.1555 F1200
G01 X11.0528 Y9.2658 Z-3.1181 F1200
G01 X10.9549 Y9.1680 Z-3.0962 F1200
G01 X10.8306 Y9.0774 Z-3.0906 F1200
G01 X10.7098 Y9.0144 Z-3.1038 F1200
G01 X10.5666 Y8.9663 Z-3.1351 F1200
G01 X10.4352 Y8.9434 Z-3.1713 F1200
G01 X10.2877 Y8.9414 Z-3.2112 F1200
G01 X10.1593 Y8.9598 Z-3.2377 F1200
G01 X10.0225 Y9.0025 Z-3.2499 F1200
G01 X9.9099 Y9.0587 Z-3.2427 F1200
G01 X9.7976 Y9.1401 Z-3.2163 F1200
G01 X9.7122 Y9.2266 Z-3.1818 F1200
G01 X9.6352 Y9.3365 Z-3.1407 F1200
G01 X9.5852 Y9.4428 Z-3.1102 F1200
G01 X9.5508 Y9.5678 Z-3.0916 F1200
G01 X9.5404 Y9.6812 Z-3.0928 F1200
G01 X9.5508 Y9.8066 Z-3.1136 F1200
G01 X9.5799 Y9.9136 Z-3.1453 F1200
G01 X9.6326 Y10.0247 Z-3.1867 F1200
G01 X9.6969 Y10.1128 Z-3.2202 F1200
G01 X9.7847 Y10.1964 Z-3.2446 F1200
G01 X9.8757 Y10.2550 Z-3.2496 F1200
G01 X9.9875 Y10.3012 Z-3.2349 F1200
G01 X10.0940 Y10.3232 Z-3.2068 F1200
G01 X10.2161 Y10.3261 Z-3.1664 F1200
G01 X10.3251 Y10.3082 Z-3.1307 F1200
G01 X10.4424 Y10.2668 Z-3.1011 F1200
G01 X10.5406 Y10.2104 Z-3.0902 F1200
G01 X10.6389 Y10.1284 Z-3.0983 F1200
G01 X10.7141 Y10.0391 Z-3.1220 F1200
G01 X10.7808 Y9.9250 Z-3.1604 F1200
G01 X10.8232 Y9.8119 Z-3.1973 F1200
G01 X10.8493 Y9.6777 Z-3.2313 F1200
G01 X10.8528 Y9.5528 Z-3.2479 F1200
G01 X10.8337 Y9.4127 Z-3.2466 F1200
G01 X10.7962 Y9.2892 Z-3.2279 F1200
G01 X10.7322 Y9.1583 Z-3.1925 F1200
G01 X10.6562 Y9.0495 Z-3.1554 F1200
G01 X10.5522 Y8.9419 Z-3.1180 F1200
G01 X10.4443 Y8.8596 Z-3.0962 F1200
G01 X10.3099 Y8.7870 Z-3.0907 F1200
G01 X10.1800 Y8.7402 Z-3.1039 F1200
G01 X10.0279 Y8.7107 Z-3.1352 F1200
G01 X9.8886 Y8.7046 Z-3.1715 F1200
G01 X9.7335 Y8.7218 Z-3.2113 F1200
G01 X9.5982 Y8.7573 Z-3.2378 F1200
G01 X9.4551 Y8.8197 Z-3.2499 F1200
G01 X9.3369 Y8.8935 Z-3.2426 F1200
G01 X9.2196 Y8.9949 Z-3.2161 F1200
G01 X9.1297 Y9.0994 Z-3.1817 F1200
G01 X9.0491 Y9.2295 Z-3.1405 F1200
G01 X8.9958 Y9.3540 Z-3.1101 F1200
G01 X8.9591 Y9.4994 Z-3.0916 F1200
G01 X8.9466 Y9.6311 Z-3.0928 F1200
G01 X8.9560 Y9.7771 Z-3.1138 F1200
G01 X8.9843 Y9.9025 Z-3.1455 F1200
G01 X9.0374 Y10.0341 Z-3.1869 F1200
G01 X9.1019 Y10.1405 Z-3.2204 F1200
G01 X9.1914 Y10.2446 Z-3.2447 F1200
G01 X9.2839 Y10.3215 Z-3.2496 F1200
G00 Z6.0000 F480


;No. 2: Hole 6
G00 X29.5134 Y9.8419 Z6.0000 F1500
G00 X30.2964 Y9.7039 Z0.5107 F480
G01 X30.2605 Y9.5700 Z0.5223 F180
G01 X30.2019 Y9.4444 Z0.5447 F180
G01 X30.1225 Y9.3309 Z0.5670 F180
G01 X30.0245 Y9.2329 Z0.5786 F180
G01 X29.9109 Y9.1534 Z0.5717 F180
G01 X29.7854 Y9.0949 Z0.5433 F180
G01 X29.6515 Y9.0590 Z0.4963 F180
G01 X29.5134 Y9.0469 Z0.4387 F180
G01 X29.3754 Y9.0590 Z0.3810 F180
G01 X29.2415 Y9.0949 Z0.3341 F180
G01 X29.1159 Y9.1534 Z0.3057 F180
G01 X29.0024 Y9.2329 Z0.2987 F180
G01 X28.9044 Y9.3309 Z0.3103 F180
G01 X28.8250 Y9.4444 Z0.3327 F180
G01 X28.7664 Y9.5700 Z0.3550 F180
G01 X28.7305 Y9.7039 Z0.3666 F180
G01 X28.7184 Y9.8419 Z0.3597 F180
G01 X28.7305 Y9.9800 Z0.3313 F180
G01 X28.7664 Y10.1138 Z0.2843 F180
G01 X28.8250 Y10.2394 Z0.2267 F180
G01 X28.9044 Y10.3529 Z0.1690 F180
G01 X29.0024 Y10.4509 Z0.1221 F180
G01 X29.1159 Y10.5304 Z0.0937 F180
G01 X29.2415 Y10.5890 Z0.0867 F180
G01 X29.3754 Y10.6248 Z0.0983 F180
G01 X29.5134 Y10.6369 Z0.1207 F180
G01 X29.6515 Y10.6248 Z0.1430 F180
G01 X29.7854 Y10.5890 Z0.1546 F180
G01 X29.8243 Y10.5736 Z0.1547 F180
G01 X29.9429 Y10.5213 Z0.1474 F180
G01 X30.0484 Y10.4488 Z0.1190 F180
G01 X30.0958 Y10.4051 Z0.0977 F180
G01 X30.1761 Y10.3074 Z0.0474 F180
G01 X30.2360 Y10.1968 Z-0.0050 F180
G01 X30.2579 Y10.1371 Z-0.0289 F180
G01 X30.2843 Y10.0147 Z-0.0645 F180
G01 X30.2868 Y9.8894 Z-0.0800 F180
G01 X30.2788 Y9.8261 Z-0.0797 F180
G01 X30.2459 Y9.7045 Z-0.0648 F180
G01 X30.1901 Y9.5905 Z-0.0375 F180
G01 X30.1536 Y9.5368 Z-0.0222 F180
G01 X30.0674 Y9.4414 Z0.0038 F180
G01 X29.9637 Y9.3625 Z0.0160 F180
G01 X29.9054 Y9.3298 Z0.0147 F180
G01 X29.7821 Y9.2810 Z-0.0041 F180
G01 X29.6500 Y9.2547 Z-0.0424 F180
G01 X29.5808 Y9.2503 Z-0.0670 F180
G01 X29.4438 Y9.2598 Z-0.1199 F180
G01 X29.3082 Y9.2934 Z-0.1689 F180
G01 X29.2414 Y9.3195 Z-0.1889 F180
G01 X29.1166 Y9.3879 Z-0.2143 F180
G01 X29.0034 Y9.4776 Z-0.2183 F180
G01 X28.9516 Y9.5304 Z-0.2126 F180
G01 X28.8631 Y9.6473 Z-0.1899 F180
G01 X28.7940 Y9.7785 Z-0.1602 F180
G01 X28.7672 Y9.8494 Z-0.1460 F180
G01 X28.7322 Y9.9951 Z-0.1263 F180
G01 X28.7209 Y10.1455 Z-0.1243 F180
G01 X28.7244 Y10.2223 Z-0.1315 F180
G01 X28.7503 Y10.3717 Z-0.1613 F180
G01 X28.7996 Y10.5154 Z-0.2073 F180
G01 X28.8332 Y10.5848 Z-0.2339 F180
G01 X28.9159 Y10.7120 Z-0.2861 F180
G01 X29.0175 Y10.8242 Z-0.3287 F180
G01 X29.0753 Y10.8743 Z-0.3439 F180
G01 X29.2003 Y10.9576 Z-0.3579 F180
G01 X29.3360 Y11.0193 Z-0.3510 F180
G01 X29.4076 Y11.0418 Z-0.3408 F180
G01 X29.5526 Y11.0677 Z-0.3130 F180
G01 X29.6981 Y11.0694 Z-0.2841 F180
G01 X29.7707 Y11.0612 Z-0.2724 F180
G01 X29.9096 Y11.0268 Z-0.2615 F180
G01 X30.0387 Y10.9704 Z-0.2708 F180
G01 X30.0993 Y10.9340 Z-0.2838 F180
G01 X30.2074 Y10.8478 Z-0.3232 F180
G01 X30.2974 Y10.7458 Z-0.3742 F180
G01 X30.3352 Y10.6891 Z-0.4011 F180
G01 X30.3938 Y10.5693 Z-0.4495 F180
G01 X30.4292 Y10.4428 Z-0.4834 F180
G01 X30.4379 Y10.3775 Z-0.4929 F180
G01 X30.4376 Y10.2483 Z-0.4954 F180
G01 X30.4135 Y10.1229 Z-0.4789 F180
G01 X30.3925 Y10.0622 Z-0.4656 F180
G01 X30.3351 Y9.9496 Z-0.4358 F180
G01 X30.2578 Y9.8507 Z-0.4107 F180
G01 X30.2119 Y9.8068 Z-0.4031 F180
G01 X30.1102 Y9.7336 Z-0.4026 F180
G01 X29.9962 Y9.6813 Z-0.4235 F180
G01 X29.9350 Y9.6633 Z-0.4417 F180
G01 X29.8102 Y9.6447 Z-0.4885 F180
G01 X29.6830 Y9.6502 Z-0.5414 F180
G01 X29.6190 Y9.6622 Z-0.5671 F180
G01 X29.4967 Y9.7030 Z-0.6087 F180
G01 X29.3825 Y9.7666 Z-0.6321 F180
G01 X29.3288 Y9.8070 Z-0.6357 F180
G01 X29.2342 Y9.9006 Z-0.6274 F180
G01 X29.1566 Y10.0114 Z-0.6036 F180
G01 X29.1246 Y10.0732 Z-0.5885 F180
G01 X29.0777 Y10.2029 Z-0.5599 F180
G01 X29.0535 Y10.3411 Z-0.5416 F180
G01 X29.0503 Y10.4130 Z-0.5390 F180
G01 X29.0624 Y10.5553 Z-0.5499 F180
G01 X29.0986 Y10.6956 Z-0.5816 F180
G01 X29.1259 Y10.7647 Z-0.6041 F180
G01 X29.1970 Y10.8934 Z-0.6555 F180
G01 X29.2890 Y11.0101 Z-0.7072 F180
G01 X29.3430 Y11.0635 Z-0.7300 F180
G01 X29.4621 Y11.1549 Z-0.7626 F180
G01 X29.5951 Y11.2266 Z-0.7745 F180
G01 X29.6667 Y11.2546 Z-0.7724 F180
G01 X29.8138 Y11.2919 Z-0.7549 F180
G01 X29.9651 Y11.3053 Z-0.7265 F180
G01 X30.0421 Y11.3029 Z-0.7113 F180
G01 X30.1920 Y11.2792 Z-0.6870 F180
G01 X30.3356 Y11.2321 Z-0.6778 F180
G01 X30.4047 Y11.1997 Z-0.6809 F180
G01 X30.5315 Y11.1196 Z-0.7033 F180
G01 X30.6428 Y11.0209 Z-0.7442 F180
G01 X30.6923 Y10.9647 Z-0.7697 F180
G01 X30.7746 Y10.8431 Z-0.8227 F180
G01 X30.8350 Y10.7113 Z-0.8700 F180
G01 X30.8568 Y10.6419 Z-0.8886 F180
G01 X30.8816 Y10.5014 Z-0.9105 F180
G01 X30.8822 Y10.3611 Z-0.9110 F180
G01 X30.8734 Y10.2913 Z-0.9037 F180
G01 X30.8384 Y10.1581 Z-0.8792 F180
G01 X30.7815 Y10.0352 Z-0.8493 F180
G01 X30.7447 Y9.9775 Z-0.8357 F180
G01 X30.6588 Y9.8761 Z-0.8185 F180
G01 X30.5575 Y9.7933 Z-0.8201 F180
G01 X30.5009 Y9.7589 Z-0.8293 F180
G01 X30.3827 Y9.7078 Z-0.8624 F180
G01 X30.2585 Y9.6799 Z-0.9104 F180
G01 X30.1940 Y9.6750 Z-0.9375 F180
G01 X30.0682 Y9.6828 Z-0.9887 F180
G01 X29.9468 Y9.7144 Z-1.0287 F180
G01 X29.8878 Y9.7393 Z-1.0421 F180
G01 X29.7803 Y9.8036 Z-1.0521 F180
G01 X29.6869 Y9.8875 Z-1.0417 F180
G01 X29.6457 Y9.9371 Z-1.0302 F180
G01 X29.5790 Y10.0445 Z-1.0013 F180
G01 X29.5335 Y10.1637 Z-0.9734 F180
G01 X29.5189 Y10.2280 Z-0.9630 F180
G01 X29.5078 Y10.3569 Z-0.9556 F180
G01 X29.5208 Y10.4875 Z-0.9691 F180
G01 X29.5367 Y10.5536 Z-0.9842 F180
G01 X29.5852 Y10.6782 Z-1.0266 F180
G01 X29.6562 Y10.7941 Z-1.0787 F180
G01 X29.7006 Y10.8487 Z-1.1056 F180
G01 X29.8014 Y10.9438 Z-1.1517 F180
G01 X29.9189 Y11.0215 Z-1.1818 F180
G01 X29.9844 Y11.0536 Z-1.1892 F180
G01 X30.1202 Y11.0996 Z-1.1874 F180
G01 X30.2638 Y11.1226 Z-1.1678 F180
G01 X30.3389 Y11.1252 Z-1.1535 F180
G01 X30.4858 Y11.1115 Z-1.1238 F180
G01 X30.6299 Y11.0738 Z-1.1011 F180
G01 X30.7013 Y11.0454 Z-1.0953 F180
G01 X30.8329 Y10.9727 Z-1.0992 F180
G01 X30.9520 Y10.8794 Z-1.1245 F180
G01 X31.0069 Y10.8245 Z-1.1448 F180
G01 X31.0999 Y10.7045 Z-1.1938 F180
G01 X31.1727 Y10.5712 Z-1.2466 F180
G01 X31.2015 Y10.4991 Z-1.2715 F180
G01 X31.2395 Y10.3524 Z-1.3096 F180
G01 X31.2536 Y10.2021 Z-1.3283 F180
G01 X31.2515 Y10.1254 Z-1.3295 F180
G01 X31.2285 Y9.9775 Z-1.3171 F180
G01 X31.1823 Y9.8366 Z-1.2910 F180
G01 X31.1503 Y9.7685 Z-1.2756 F180
G01 X31.0716 Y9.6452 Z-1.2484 F180
G01 X30.9749 Y9.5380 Z-1.2338 F180
G01 X30.9195 Y9.4903 Z-1.2336 F180
G01 X30.8008 Y9.4125 Z-1.2496 F180
G01 X30.6727 Y9.3569 Z-1.2855 F180
G01 X30.6049 Y9.3375 Z-1.3097 F180
G01 X30.4693 Y9.3175 Z-1.3622 F180
G01 X30.3346 Y9.3217 Z-1.4123 F180
G01 X30.2675 Y9.3330 Z-1.4335 F180
G01 X30.1412 Y9.3723 Z-1.4615 F180
G01 X30.0260 Y9.4330 Z-1.4682 F180
G01 X29.9725 Y9.4716 Z-1.4636 F180
G01 X29.8798 Y9.5602 Z-1.4425 F180
G01 X29.8061 Y9.6636 Z-1.4131 F180
G01 X29.7766 Y9.7210 Z-1.3983 F180
G01 X29.7351 Y9.8398 Z-1.3770 F180
G01 X29.7172 Y9.9638 Z-1.3727 F180
G01 X29.7173 Y10.0279 Z-1.3786 F180
G01 X29.7350 Y10.1519 Z-1.4062 F180
G01 X29.7762 Y10.2707 Z-1.4507 F180
G01 X29.8060 Y10.3281 Z-1.4773 F180
G01 X29.8793 Y10.4314 Z-1.5298 F180
G01 X29.9717 Y10.5200 Z-1.5740 F180
G01 X30.0255 Y10.5586 Z-1.5903 F180
G01 X30.1403 Y10.6193 Z-1.6067 F180
G01 X30.2663 Y10.6585 Z-1.6018 F180
G01 X30.3336 Y10.6697 Z-1.5923 F180
G01 X30.4735 Y10.7000 Z-1.5653 F180
G01 X30.6143 Y10.7061 Z-1.5359 F180
G01 X30.6852 Y10.6999 Z-1.5236 F180
G01 X30.8185 Y10.6703 Z-1.5109 F180
G01 X30.9424 Y10.6185 Z-1.5182 F180
G01 X31.0008 Y10.5840 Z-1.5302 F180
G01 X31.1026 Y10.5026 Z-1.5681 F180
G01 X31.1864 Y10.4051 Z-1.6184 F180
G01 X31.2214 Y10.3501 Z-1.6457 F180
G01 X31.2725 Y10.2347 Z-1.6948 F180
G01 X31.3005 Y10.1124 Z-1.7303 F180
G01 X31.3056 Y10.0485 Z-1.7409 F180
G01 X31.2964 Y9.9235 Z-1.7452 F180
G01 X31.2633 Y9.8020 Z-1.7301 F180
G01 X31.2374 Y9.7425 Z-1.7171 F180
G01 X31.1694 Y9.6339 Z-1.6874 F180
G01 X31.0812 Y9.5386 Z-1.6615 F180
G01 X31.0292 Y9.4962 Z-1.6532 F180
G01 X30.9149 Y9.4269 Z-1.6511 F180
G01 X30.7879 Y9.3783 Z-1.6703 F180
G01 X30.7194 Y9.3620 Z-1.6880 F180
G01 X30.5798 Y9.3477 Z-1.7339 F180
G01 X30.4376 Y9.3573 Z-1.7868 F180
G01 X30.3652 Y9.3716 Z-1.8129 F180
G01 X30.2261 Y9.4172 Z-1.8556 F180
G01 X30.0948 Y9.4857 Z-1.8803 F180
G01 X30.0320 Y9.5290 Z-1.8847 F180
G01 X29.9188 Y9.6283 Z-1.8777 F180
G01 X29.8224 Y9.7450 Z-1.8546 F180
G01 X29.7805 Y9.8103 Z-1.8396 F180
G01 X29.7137 Y9.9468 Z-1.8106 F180
G01 X29.6694 Y10.0918 Z-1.7914 F180
G01 X29.6559 Y10.1680 Z-1.7882 F180
G01 X29.6469 Y10.3180 Z-1.7979 F180
G01 X29.6620 Y10.4663 Z-1.8285 F180
G01 X29.6788 Y10.5400 Z-1.8508 F180
G01 X29.7281 Y10.6774 Z-1.9019 F180
G01 X29.7984 Y10.8029 Z-1.9539 F180
G01 X29.8418 Y10.8614 Z-1.9772 F180
G01 X29.9386 Y10.9621 Z-2.0107 F180
G01 X30.0495 Y11.0432 Z-2.0237 F180
G01 X30.1105 Y11.0763 Z-2.0220 F180
G01 X30.2350 Y11.1233 Z-2.0051 F180
G01 X30.3639 Y11.1465 Z-1.9770 F180
G01 X30.4302 Y11.1491 Z-1.9617 F180
G01 X30.5572 Y11.1353 Z-1.9370 F180
G01 X30.6782 Y11.0982 Z-1.9270 F180
G01 X30.7363 Y11.0706 Z-1.9297 F180
G01 X30.8401 Y11.0003 Z-1.9513 F180
G01 X30.9284 Y10.9115 Z-1.9917 F180
G01 X30.9666 Y10.8599 Z-2.0172 F180
G01 X31.0256 Y10.7480 Z-2.0702 F180
G01 X31.0627 Y10.6259 Z-2.1179 F180
G01 X31.0727 Y10.5608 Z-2.1369 F180
G01 X31.0738 Y10.4300 Z-2.1594 F180
G01 X31.0507 Y10.2991 Z-2.1604 F180
G01 X31.0297 Y10.2336 Z-2.1534 F180
G01 X30.9705 Y10.1098 Z-2.1291 F180
G01 X30.8895 Y9.9963 Z-2.0992 F180
G01 X30.8403 Y9.9434 Z-2.0854 F180
G01 X30.7300 Y9.8513 Z-2.0679 F180
G01 X30.6043 Y9.7777 Z-2.0690 F180
G01 X30.5351 Y9.7481 Z-2.0779 F180
G01 X30.3923 Y9.7061 Z-2.1106 F180
G01 X30.2432 Y9.6875 Z-2.1583 F180
G01 X30.1661 Y9.6872 Z-2.1854 F180
G01 X30.0154 Y9.7042 Z-2.2368 F180
G01 X29.8690 Y9.7449 Z-2.2771 F180
G01 X29.7972 Y9.7746 Z-2.2908 F180
G01 X29.6648 Y9.8480 Z-2.3014 F180
G01 X29.5464 Y9.9411 Z-2.2914 F180
G01 X29.4923 Y9.9955 Z-2.2800 F180
G01 X29.4008 Y10.1121 Z-2.2513 F180
G01 X29.3304 Y10.2406 Z-2.2232 F180
G01 X29.3033 Y10.3091 Z-2.2126 F180
G01 X29.2674 Y10.4473 Z-2.2047 F180
G01 X29.2557 Y10.5874 Z-2.2177 F180
G01 X29.2590 Y10.6577 Z-2.2323 F180
G01 X29.2832 Y10.7917 Z-2.2742 F180
G01 X29.3299 Y10.9172 Z-2.3262 F180
G01 X29.3617 Y10.9763 Z-2.3529 F180
G01 X29.4389 Y11.0810 Z-2.3995 F180
G01 X29.5329 Y11.1684 Z-2.4303 F180
G01 X29.5860 Y11.2052 Z-2.4380 F180
G01 X29.6991 Y11.2608 Z-2.4371 F180
G01 X29.8202 Y11.2935 Z-2.4181 F180
G01 X29.8833 Y11.3010 Z-2.4040 F180
G01 X30.0086 Y11.2968 Z-2.3742 F180
G01 X30.1315 Y11.2686 Z-2.3510 F180
G01 X30.1915 Y11.2453 Z-2.3448 F180
G01 X30.3030 Y11.1817 Z-2.3477 F180
G01 X30.4021 Y11.0974 Z-2.3721 F180
G01 X30.4465 Y11.0475 Z-2.3917 F180
G01 X30.5208 Y10.9360 Z-2.4402 F180
G01 X30.5750 Y10.8111 Z-2.4931 F180
G01 X30.5942 Y10.7437 Z-2.5181 F180
G01 X30.6148 Y10.6046 Z-2.5571 F180
G01 X30.6116 Y10.4618 Z-2.5771 F180
G01 X30.6008 Y10.3894 Z-2.5789 F180
G01 X30.5616 Y10.2481 Z-2.5675 F180
G01 X30.4993 Y10.1135 Z-2.5420 F180
G01 X30.4593 Y10.0491 Z-2.5268 F180
G01 X30.3655 Y9.9313 Z-2.4991 F180
G01 X30.2535 Y9.8293 Z-2.4834 F180
G01 X30.1907 Y9.7847 Z-2.4825 F180
G01 X30.0577 Y9.7113 Z-2.4970 F180
G01 X29.9150 Y9.6601 Z-2.5317 F180
G01 X29.8402 Y9.6430 Z-2.5553 F180
G01 X29.6909 Y9.6267 Z-2.6075 F180
G01 X29.5422 Y9.6345 Z-2.6582 F180
G01 X29.4684 Y9.6476 Z-2.6798 F180
G01 X29.3290 Y9.6900 Z-2.7093 F180
G01 X29.2004 Y9.7540 Z-2.7176 F180
G01 X29.1405 Y9.7940 Z-2.7139 F180
G01 X29.0353 Y9.8856 Z-2.6939 F180
G01 X28.9491 Y9.9922 Z-2.6647 F180
G01 X28.9133 Y10.0509 Z-2.6499 F180
G01 X28.8604 Y10.1728 Z-2.6275 F180
G01 X28.8309 Y10.3003 Z-2.6214 F180
G01 X28.8252 Y10.3657 Z-2.6264 F180
G01 X28.8327 Y10.4931 Z-2.6521 F180
G01 X28.8639 Y10.6157 Z-2.6954 F180
G01 X28.8884 Y10.6746 Z-2.7215 F180
G01 X28.9534 Y10.7817 Z-2.7743 F180
G01 X29.0377 Y10.8743 Z-2.8197 F180
G01 X29.0870 Y10.9147 Z-2.8368 F180
G01 X29.1958 Y10.9793 Z-2.8552 F180
G01 X29.3160 Y11.0226 Z-2.8523 F180
G01 X29.3801 Y11.0359 Z-2.8437 F180
G01 X29.5108 Y11.0437 Z-2.8175 F180
G01 X29.6429 Y11.0274 Z-2.7879 F180
G01 X29.7090 Y11.0100 Z-2.7751 F180
G01 X29.8359 Y10.9575 Z-2.7606 F180
G01 X29.9537 Y10.8825 Z-2.7656 F180
G01 X30.0088 Y10.8366 Z-2.7764 F180
G01 X30.1068 Y10.7314 Z-2.8124 F180
G01 X30.1872 Y10.6097 Z-2.8618 F180
G01 X30.2204 Y10.5427 Z-2.8888 F180
G01 X30.2702 Y10.4023 Z-2.9390 F180
G01 X30.2971 Y10.2545 Z-2.9764 F180
G01 X30.3017 Y10.1781 Z-2.9881 F180
G01 X30.2932 Y10.0266 Z-2.9950 F180
G01 X30.2608 Y9.8782 Z-2.9819 F180
G01 X30.2354 Y9.8054 Z-2.9696 F180
G01 X30.1696 Y9.6691 Z-2.9402 F180
G01 X30.0834 Y9.5456 Z-2.9133 F180
G01 X30.0327 Y9.4890 Z-2.9040 F180
G01 X29.9216 Y9.3910 Z-2.8994 F180
G01 X29.7974 Y9.3134 Z-2.9159 F180
G01 X29.7306 Y9.2824 Z-2.9322 F180
G01 X29.5948 Y9.2388 Z-2.9765 F180
G01 X29.4557 Y9.2191 Z-3.0291 F180
G01 X29.3853 Y9.2184 Z-3.0554 F180
G01 X29.2503 Y9.2349 Z-3.0999 F180
G01 X29.1225 Y9.2745 Z-3.1274 F180
G01 X29.0617 Y9.3029 Z-3.1333 F180
G01 X28.9529 Y9.3740 Z-3.1290 F180
G01 X28.8605 Y9.4629 Z-3.1077 F180
G01 X28.8208 Y9.5138 Z-3.0931 F180
G01 X28.7590 Y9.6236 Z-3.0636 F180
G01 X28.7195 Y9.7426 Z-3.0424 F180
G01 X28.7085 Y9.8052 Z-3.0378 F180
G01 X28.7057 Y9.9307 Z-3.0443 F180
G01 X28.7270 Y10.0550 Z-3.0721 F180
G01 X28.7469 Y10.1162 Z-3.0931 F180
G01 X28.8042 Y10.2312 Z-3.1431 F180
G01 X28.8828 Y10.3349 Z-3.1956 F180
G01 X28.9302 Y10.3821 Z-3.2197 F180
G01 X29.0279 Y10.4921 Z-3.2444 F1200
G01 X29.1279 Y10.5744 Z-3.2497 F1200
G01 X29.2514 Y10.6463 Z-3.2353 F1200
G01 X29.3685 Y10.6913 Z-3.2074 F1200
G01 X29.5041 Y10.7192 Z-3.1671 F1200
G01 X29.6252 Y10.7236 Z-3.1313 F1200
G01 X29.7578 Y10.7062 Z-3.1015 F1200
G01 X29.8697 Y10.6712 Z-3.0902 F1200
G01 X29.9847 Y10.6122 Z-3.0980 F1200
G01 X30.0751 Y10.5433 Z-3.1215 F1200
G01 X30.1601 Y10.4509 Z-3.1598 F1200
G01 X30.2190 Y10.3572 Z-3.1967 F1200
G01 X30.2650 Y10.2433 Z-3.2308 F1200
G01 X30.2862 Y10.1365 Z-3.2477 F1200
G01 X30.2882 Y10.0153 Z-3.2468 F1200
G01 X30.2696 Y9.9087 Z-3.2283 F1200
G01 X30.2278 Y9.7951 Z-3.1931 F1200
G01 X30.1717 Y9.7018 Z-3.1560 F1200
G01 X30.0911 Y9.6100 Z-3.1185 F1200
G01 X30.0039 Y9.5418 Z-3.0964 F1200
G01 X29.8938 Y9.4834 Z-3.0906 F1200
G01 X29.7855 Y9.4492 Z-3.1035 F1200
G01 X29.6584 Y9.4322 Z-3.1346 F1200
G01 X29.5414 Y9.4373 Z-3.1708 F1200
G01 X29.4120 Y9.4653 Z-3.2107 F1200
G01 X29.2996 Y9.5105 Z-3.2374 F1200
G01 X29.1827 Y9.5821 Z-3.2499 F1200
G01 X29.0879 Y9.6641 Z-3.2429 F1200
G01 X28.9972 Y9.7730 Z-3.2167 F1200
G01 X28.9312 Y9.8843 Z-3.1823 F1200
G01 X28.8776 Y10.0202 Z-3.1412 F1200
G01 X28.8484 Y10.1499 Z-3.1106 F1200
G01 X28.8390 Y10.2995 Z-3.0918 F1200
G01 X28.8510 Y10.4350 Z-3.0927 F1200
G01 X28.8880 Y10.5834 Z-3.1133 F1200
G01 X28.9409 Y10.7110 Z-3.1449 F1200
G01 X29.0216 Y10.8434 Z-3.1862 F1200
G01 X29.1110 Y10.9505 Z-3.2198 F1200
G01 X29.2282 Y11.0536 Z-3.2444 F1200
G01 X29.3456 Y11.1296 Z-3.2496 F1200
G01 X29.4881 Y11.1934 Z-3.2352 F1200
G01 X29.6221 Y11.2310 Z-3.2073 F1200
G01 X29.7760 Y11.2494 Z-3.1669 F1200
G01 X29.9136 Y11.2454 Z-3.1311 F1200
G01 X30.0638 Y11.2173 Z-3.1014 F1200
G01 X30.1915 Y11.1729 Z-3.0902 F1200
G01 X30.3235 Y11.1021 Z-3.0980 F1200
G01 X30.4289 Y11.0227 Z-3.1216 F1200
G01 X30.5301 Y10.9176 Z-3.1599 F1200
G01 X30.6034 Y10.8123 Z-3.1969 F1200
G01 X30.6645 Y10.6847 Z-3.2309 F1200
G01 X30.6993 Y10.5655 Z-3.2478 F1200
G01 X30.7156 Y10.4296 Z-3.2467 F1200
G01 X30.7098 Y10.3098 Z-3.2282 F1200
G01 X30.6812 Y10.1806 Z-3.1930 F1200
G01 X30.6370 Y10.0734 Z-3.1559 F1200
G01 X30.5686 Y9.9651 Z-3.1184 F1200
G01 X30.4924 Y9.8822 Z-3.0964 F1200
G01 X30.3934 Y9.8066 Z-3.0906 F1200
G01 X30.2952 Y9.7570 Z-3.1036 F1200
G01 X30.1781 Y9.7222 Z-3.1348 F1200
G01 X30.0701 Y9.7113 Z-3.1710 F1200
G01 X29.9495 Y9.7208 Z-3.2109 F1200
G01 X29.8451 Y9.7496 Z-3.2375 F1200
G01 X29.7358 Y9.8021 Z-3.2499 F1200
G01 X29.6479 Y9.8671 Z-3.2428 F1200
G01 X29.5636 Y9.9565 Z-3.2166 F1200
G01 X29.5034 Y10.0503 Z-3.1822 F1200
G01 X29.4550 Y10.1663 Z-3.1410 F1200
G01 X29.4304 Y10.2782 Z-3.1104 F1200
G01 X29.4248 Y10.4076 Z-3.0917 F1200
G01 X29.4403 Y10.5249 Z-3.0927 F1200
G01 X29.4798 Y10.6529 Z-3.1134 F1200
G01 X29.5349 Y10.7622 Z-3.1450 F1200
G01 X29.6169 Y10.8739 Z-3.1864 F1200
G01 X29.7072 Y10.9626 Z-3.2200 F1200
G01 X29.8243 Y11.0451 Z-3.2445 F1200
G01 X29.9415 Y11.1026 Z-3.2496 F1200
G01 X30.0824 Y11.1457 Z-3.2351 F1200
G01 X30.2150 Y11.1649 Z-3.2071 F1200
G01 X30.3659 Y11.1629 Z-3.1667 F1200
G01 X30.5008 Y11.1405 Z-3.1310 F1200
G01 X30.6468 Y11.0922 Z-3.1013 F1200
G01 X30.7706 Y11.0297 Z-3.0902 F1200
G01 X30.8969 Y10.9390 Z-3.0981 F1200
G01 X30.9973 Y10.8418 Z-3.1217 F1200
G01 X31.0915 Y10.7172 Z-3.1601 F1200
G01 X31.1586 Y10.5946 Z-3.1970 F1200
G01 X31.2115 Y10.4480 Z-3.2311 F1200
G01 X31.2389 Y10.3119 Z-3.2478 F1200
G01 X31.2458 Y10.1577 Z-3.2467 F1200
G01 X31.2315 Y10.0215 Z-3.2281 F1200
G01 X31.1924 Y9.8746 Z-3.1928 F1200
G01 X31.1386 Y9.7516 Z-3.1557 F1200
G01 X31.0585 Y9.6264 Z-3.1183 F1200
G01 X30.9718 Y9.5284 Z-3.0963 F1200
G01 X30.8600 Y9.4367 Z-3.0906 F1200
G01 X30.7504 Y9.3728 Z-3.1037 F1200
G01 X30.6195 Y9.3228 Z-3.1349 F1200
G01 X30.4992 Y9.2982 Z-3.1712 F1200
G01 X30.3638 Y9.2935 Z-3.2110 F1200
G01 X30.2462 Y9.3095 Z-3.2376 F1200
G01 X30.1214 Y9.3487 Z-3.2499 F1200
G01 X30.0195 Y9.4018 Z-3.2428 F1200
G01 X29.9188 Y9.4790 Z-3.2164 F1200
G01 X29.8438 Y9.5618 Z-3.1820 F1200
G01 X29.7783 Y9.6666 Z-3.1408 F1200
G01 X29.7384 Y9.7686 Z-3.1103 F1200
G01 X29.7149 Y9.8879 Z-3.0917 F1200
G01 X29.7144 Y9.9962 Z-3.0928 F1200
G01 X29.7354 Y10.1153 Z-3.1135 F1200
G01 X29.7740 Y10.2167 Z-3.1452 F1200
G01 X29.8369 Y10.3208 Z-3.1865 F1200
G01 X29.9102 Y10.4026 Z-3.2201 F1200
G01 X30.0078 Y10.4786 Z-3.2446 F1200
G01 X30.1075 Y10.5304 Z-3.2496 F1200
G01 X30.2285 Y10.5683 Z-3.2350 F1200
G01 X30.3433 Y10.5829 Z-3.2070 F1200
G01 X30.4740 Y10.5770 Z-3.1666 F1200
G01 X30.5908 Y10.5512 Z-3.1308 F1200
G01 X30.7162 Y10.5004 Z-3.1012 F1200
G01 X30.8217 Y10.4356 Z-3.0902 F1200
G01 X30.9275 Y10.3438 Z-3.0982 F1200
G01 X31.0094 Y10.2456 Z-3.1219 F1200
G01 X31.0829 Y10.1211 Z-3.1603 F1200
G01 X31.1315 Y9.9987 Z-3.1972 F1200
G01 X31.1638 Y9.8537 Z-3.2312 F1200
G01 X31.1728 Y9.7191 Z-3.2479 F1200
G01 X31.1592 Y9.5678 Z-3.2466 F1200
G01 X31.1266 Y9.4342 Z-3.2280 F1200
G01 X31.0672 Y9.2917 Z-3.1926 F1200
G01 X30.9954 Y9.1725 Z-3.1555 F1200
G01 X30.8954 Y9.0530 Z-3.1181 F1200
G01 X30.7909 Y8.9600 Z-3.0962 F1200
G01 X30.6597 Y8.8753 Z-3.0906 F1200
G01 X30.5326 Y8.8176 Z-3.1038 F1200
G01 X30.3828 Y8.7758 Z-3.1351 F1200
G01 X30.2455 Y8.7587 Z-3.1713 F1200
G01 X30.0919 Y8.7634 Z-3.2112 F1200
G01 X29.9579 Y8.7878 Z-3.2377 F1200
G01 X29.8154 Y8.8377 Z-3.2499 F1200
G01 X29.6977 Y8.9002 Z-3.2427 F1200
G01 X29.5801 Y8.9891 Z-3.2163 F1200
G01 X29.4901 Y9.0824 Z-3.1818 F1200
G01 X29.4084 Y9.2001 Z-3.1407 F1200
G01 X29.3542 Y9.3134 Z-3.1102 F1200
G01 X29.3155 Y9.4465 Z-3.0916 F1200
G01 X29.3013 Y9.5672 Z-3.0928 F1200
G01 X29.3081 Y9.7010 Z-3.1136 F1200
G01 X29.3340 Y9.8155 Z-3.1453 F1200
G01 X29.3836 Y9.9352 Z-3.1867 F1200
G01 X29.4450 Y10.0310 Z-3.2202 F1200
G01 X29.5303 Y10.1234 Z-3.2446 F1200
G01 X29.6190 Y10.1898 Z-3.2496 F1200
G01 X29.7289 Y10.2450 Z-3.2349 F1200
G01 X29.8336 Y10.2749 Z-3.2068 F1200
G01 X29.9543 Y10.2869 Z-3.1664 F1200
G01 X30.0621 Y10.2771 Z-3.1307 F1200
G01 X30.1787 Y10.2447 Z-3.1011 F1200
G01 X30.2762 Y10.1965 Z-3.0902 F1200
G01 X30.3742 Y10.1237 Z-3.0983 F1200
G01 X30.4493 Y10.0425 Z-3.1220 F1200
G01 X30.5164 Y9.9376 Z-3.1604 F1200
G01 X30.5592 Y9.8327 Z-3.1973 F1200
G01 X30.5863 Y9.7076 Z-3.2313 F1200
G01 X30.5907 Y9.5908 Z-3.2479 F1200
G01 X30.5732 Y9.4597 Z-3.2466 F1200
G01 X30.5372 Y9.3443 Z-3.2279 F1200
G01 X30.4753 Y9.2222 Z-3.1925 F1200
G01 X30.4013 Y9.1214 Z-3.1554 F1200
G01 X30.3001 Y9.0225 Z-3.1180 F1200
G01 X30.1946 Y8.9480 Z-3.0962 F1200
G01 X30.0636 Y8.8839 Z-3.0907 F1200
G01 X29.9367 Y8.8447 Z-3.1039 F1200
G01 X29.7885 Y8.8235 Z-3.1352 F1200
G01 X29.6527 Y8.8248 Z-3.1715 F1200
G01 X29.5020 Y8.8500 Z-3.2113 F1200
G01 X29.3707 Y8.8927 Z-3.2378 F1200
G01 X29.2325 Y8.9628 Z-3.2499 F1200
G01 X29.1187 Y9.0435 Z-3.2426 F1200
G01 X29.0068 Y9.1523 Z-3.2161 F1200
G01 X28.9218 Y9.2633 Z-3.1817 F1200
G01 X28.8471 Y9.4004 Z-3.1405 F1200
G01 X28.7990 Y9.5312 Z-3.1101 F1200
G01 X28.7686 Y9.6832 Z-3.0916 F1200
G01 X28.7618 Y9.8208 Z-3.0928 F1200
G01 X28.7780 Y9.9729 Z-3.1138 F1200
G01 X28.8123 Y10.1038 Z-3.1455 F1200
G01 X28.8725 Y10.2412 Z-3.1869 F1200
G01 X28.9435 Y10.3527 Z-3.2204 F1200
G01 X29.0405 Y10.4620 Z-3.2447 F1200
G01 X29.1397 Y10.5436 Z-3.2496 F1200
G00 Z6.0000 F480


;No. 3: Hole 4
G00 X9.8419 Y29.5134 Z6.0000 F1500
G00 X10.6248 Y29.3754 Z0.5107 F480
G01 X10.5890 Y29.2415 Z0.5223 F180
G01 X10.5304 Y29.1159 Z0.5447 F180
G01 X10.4509 Y29.0024 Z0.5670 F180
G01 X10.3529 Y28.9044 Z0.5786 F180
G01 X10.2394 Y28.8250 Z0.5717 F180
G01 X10.1138 Y28.7664 Z0.5433 F180
G01 X9.9800 Y28.7305 Z0.4963 F180
G01 X9.8419 Y28.7184 Z0.4387 F180
G01 X9.7039 Y28.7305 Z0.3810 F180
G01 X9.5700 Y28.7664 Z0.3341 F180
G01 X9.4444 Y28.8250 Z0.3057 F180
G01 X9.3309 Y28.9044 Z0.2987 F180
G01 X9.2329 Y29.0024 Z0.3103 F180
G01 X9.1534 Y29.1159 Z0.3327 F180
G01 X9.0949 Y29.2415 Z0.3550 F180
G01 X9.0590 Y29.3754 Z0.3666 F180
G01 X9.0469 Y29.5134 Z0.3597 F180
G01 X9.0590 Y29.6515 Z0.3313 F180
G01 X9.0949 Y29.7854 Z0.2843 F180
G01 X9.1534 Y29.9109 Z0.2267 F180
G01 X9.2329 Y30.0245 Z0.1690 F180
G01 X9.3309 Y30.1225 Z0.1221 F180
G01 X9.4444 Y30.2019 Z0.0937 F180
G01 X9.5700 Y30.2605 Z0.0867 F180
G01 X9.7039 Y30.2964 Z0.0983 F180
G01 X9.8419 Y30.3084 Z0.1207 F180
G01 X9.9800 Y30.2964 Z0.1430 F180
G01 X10.1138 Y30.2605 Z0.1546 F180
G01 X10.1528 Y30.2451 Z0.1547 F180
G01 X10.2626 Y30.1846 Z0.1474 F180
G01 X10.3592 Y30.1038 Z0.1190 F180
G01 X10.4020 Y30.0559 Z0.0977 F180
G01 X10.4730 Y29.9504 Z0.0474 F180
G01 X10.5235 Y29.8322 Z-0.0050 F180
G01 X10.5407 Y29.7686 Z-0.0289 F180
G01 X10.5572 Y29.6391 Z-0.0645 F180
G01 X10.5498 Y29.5067 Z-0.0800 F180
G01 X10.5368 Y29.4399 Z-0.0797 F180
G01 X10.4937 Y29.3119 Z-0.0648 F180
G01 X10.4276 Y29.1914 Z-0.0375 F180
G01 X10.3859 Y29.1345 Z-0.0222 F180
G01 X10.2890 Y29.0334 Z0.0038 F180
G01 X10.1746 Y28.9488 Z0.0160 F180
G01 X10.1109 Y28.9132 Z0.0147 F180
G01 X9.9765 Y28.8594 Z-0.0041 F180
G01 X9.8333 Y28.8281 Z-0.0424 F180
G01 X9.7586 Y28.8212 Z-0.0670 F180
G01 X9.6102 Y28.8264 Z-0.1199 F180
G01 X9.4633 Y28.8557 Z-0.1689 F180
G01 X9.3907 Y28.8797 Z-0.1889 F180
G01 X9.2543 Y28.9446 Z-0.2143 F180
G01 X9.1295 Y29.0307 Z-0.2183 F180
G01 X9.0718 Y29.0817 Z-0.2126 F180
G01 X8.9715 Y29.1959 Z-0.1899 F180
G01 X8.8907 Y29.3243 Z-0.1602 F180
G01 X8.8578 Y29.3938 Z-0.1460 F180
G01 X8.8109 Y29.5375 Z-0.1263 F180
G01 X8.7876 Y29.6860 Z-0.1243 F180
G01 X8.7851 Y29.7618 Z-0.1315 F180
G01 X8.7989 Y29.9100 Z-0.1613 F180
G01 X8.8361 Y30.0525 Z-0.2073 F180
G01 X8.8636 Y30.1213 Z-0.2339 F180
G01 X8.9342 Y30.2481 Z-0.2861 F180
G01 X9.0236 Y30.3599 Z-0.3287 F180
G01 X9.0753 Y30.4097 Z-0.3439 F180
G01 X9.1882 Y30.4935 Z-0.3579 F180
G01 X9.3118 Y30.5556 Z-0.3510 F180
G01 X9.3773 Y30.5783 Z-0.3408 F180
G01 X9.5102 Y30.6053 Z-0.3130 F180
G01 X9.6436 Y30.6083 Z-0.2841 F180
G01 X9.7100 Y30.6006 Z-0.2724 F180
G01 X9.8370 Y30.5682 Z-0.2615 F180
G01 X9.9542 Y30.5138 Z-0.2708 F180
G01 X10.0086 Y30.4784 Z-0.2838 F180
G01 X10.1050 Y30.3950 Z-0.3232 F180
G01 X10.1831 Y30.2957 Z-0.3742 F180
G01 X10.2150 Y30.2405 Z-0.4011 F180
G01 X10.2620 Y30.1241 Z-0.4495 F180
G01 X10.2857 Y30.0012 Z-0.4834 F180
G01 X10.2886 Y29.9376 Z-0.4929 F180
G01 X10.2770 Y29.8127 Z-0.4954 F180
G01 X10.2415 Y29.6916 Z-0.4789 F180
G01 X10.2147 Y29.6330 Z-0.4656 F180
G01 X10.1463 Y29.5255 Z-0.4358 F180
G01 X10.0580 Y29.4315 Z-0.4107 F180
G01 X10.0064 Y29.3902 Z-0.4031 F180
G01 X9.8941 Y29.3228 Z-0.4026 F180
G01 X9.7694 Y29.2761 Z-0.4235 F180
G01 X9.7027 Y29.2610 Z-0.4417 F180
G01 X9.5676 Y29.2489 Z-0.4885 F180
G01 X9.4302 Y29.2607 Z-0.5414 F180
G01 X9.3610 Y29.2760 Z-0.5671 F180
G01 X9.2288 Y29.3239 Z-0.6087 F180
G01 X9.1047 Y29.3945 Z-0.6321 F180
G01 X9.0461 Y29.4385 Z-0.6357 F180
G01 X8.9421 Y29.5398 Z-0.6274 F180
G01 X8.8550 Y29.6583 Z-0.6036 F180
G01 X8.8183 Y29.7239 Z-0.5885 F180
G01 X8.7626 Y29.8620 Z-0.5599 F180
G01 X8.7296 Y30.0084 Z-0.5416 F180
G01 X8.7219 Y30.0846 Z-0.5390 F180
G01 X8.7257 Y30.2357 Z-0.5499 F180
G01 X8.7535 Y30.3849 Z-0.5816 F180
G01 X8.7767 Y30.4584 Z-0.6041 F180
G01 X8.8401 Y30.5965 Z-0.6555 F180
G01 X8.9244 Y30.7225 Z-0.7072 F180
G01 X8.9745 Y30.7808 Z-0.7300 F180
G01 X9.0865 Y30.8820 Z-0.7626 F180
G01 X9.2124 Y30.9635 Z-0.7745 F180
G01 X9.2805 Y30.9966 Z-0.7724 F180
G01 X9.4212 Y31.0441 Z-0.7549 F180
G01 X9.5661 Y31.0678 Z-0.7265 F180
G01 X9.6399 Y31.0706 Z-0.7113 F180
G01 X9.7840 Y31.0576 Z-0.6870 F180
G01 X9.9219 Y31.0212 Z-0.6778 F180
G01 X9.9881 Y30.9943 Z-0.6809 F180
G01 X10.1099 Y30.9252 Z-0.7033 F180
G01 X10.2161 Y30.8375 Z-0.7442 F180
G01 X10.2631 Y30.7870 Z-0.7697 F180
G01 X10.3412 Y30.6767 Z-0.8227 F180
G01 X10.3973 Y30.5562 Z-0.8700 F180
G01 X10.4169 Y30.4925 Z-0.8886 F180
G01 X10.4382 Y30.3637 Z-0.9105 F180
G01 X10.4353 Y30.2350 Z-0.9110 F180
G01 X10.4247 Y30.1711 Z-0.9037 F180
G01 X10.3869 Y30.0496 Z-0.8792 F180
G01 X10.3273 Y29.9385 Z-0.8493 F180
G01 X10.2891 Y29.8869 Z-0.8357 F180
G01 X10.2012 Y29.7975 Z-0.8185 F180
G01 X10.0980 Y29.7266 Z-0.8201 F180
G01 X10.0403 Y29.6984 Z-0.8293 F180
G01 X9.9210 Y29.6593 Z-0.8624 F180
G01 X9.7956 Y29.6435 Z-0.9104 F180
G01 X9.7305 Y29.6448 Z-0.9375 F180
G01 X9.6042 Y29.6647 Z-0.9887 F180
G01 X9.4825 Y29.7084 Z-1.0287 F180
G01 X9.4232 Y29.7395 Z-1.0421 F180
G01 X9.3162 Y29.8159 Z-1.0521 F180
G01 X9.2232 Y29.9120 Z-1.0417 F180
G01 X9.1822 Y29.9678 Z-1.0302 F180
G01 X9.1167 Y30.0872 Z-1.0013 F180
G01 X9.0724 Y30.2185 Z-0.9734 F180
G01 X9.0584 Y30.2889 Z-0.9630 F180
G01 X9.0493 Y30.4298 Z-0.9556 F180
G01 X9.0642 Y30.5724 Z-0.9691 F180
G01 X9.0812 Y30.6446 Z-0.9842 F180
G01 X9.1324 Y30.7809 Z-1.0266 F180
G01 X9.2062 Y30.9086 Z-1.0787 F180
G01 X9.2520 Y30.9693 Z-1.1056 F180
G01 X9.3563 Y31.0760 Z-1.1517 F180
G01 X9.4774 Y31.1653 Z-1.1818 F180
G01 X9.5447 Y31.2034 Z-1.1892 F180
G01 X9.6848 Y31.2606 Z-1.1874 F180
G01 X9.8327 Y31.2950 Z-1.1678 F180
G01 X9.9099 Y31.3035 Z-1.1535 F180
G01 X10.0618 Y31.3008 Z-1.1238 F180
G01 X10.2110 Y31.2741 Z-1.1011 F180
G01 X10.2849 Y31.2514 Z-1.0953 F180
G01 X10.4223 Y31.1893 Z-1.0992 F180
G01 X10.5471 Y31.1067 Z-1.1245 F180
G01 X10.6049 Y31.0573 Z-1.1448 F180
G01 X10.7043 Y30.9476 Z-1.1938 F180
G01 X10.7835 Y30.8245 Z-1.2466 F180
G01 X10.8156 Y30.7577 Z-1.2715 F180
G01 X10.8607 Y30.6208 Z-1.3096 F180
G01 X10.8819 Y30.4804 Z-1.3283 F180
G01 X10.8834 Y30.4087 Z-1.3295 F180
G01 X10.8681 Y30.2702 Z-1.3171 F180
G01 X10.8297 Y30.1386 Z-1.2910 F180
G01 X10.8016 Y30.0754 Z-1.2756 F180
G01 X10.7312 Y29.9608 Z-1.2484 F180
G01 X10.6428 Y29.8625 Z-1.2338 F180
G01 X10.5916 Y29.8194 Z-1.2336 F180
G01 X10.4818 Y29.7498 Z-1.2496 F180
G01 X10.3625 Y29.7025 Z-1.2855 F180
G01 X10.2992 Y29.6873 Z-1.3097 F180
G01 X10.1730 Y29.6750 Z-1.3622 F180
G01 X10.0478 Y29.6868 Z-1.4123 F180
G01 X9.9854 Y29.7021 Z-1.4335 F180
G01 X9.8690 Y29.7484 Z-1.4615 F180
G01 X9.7637 Y29.8161 Z-1.4682 F180
G01 X9.7153 Y29.8584 Z-1.4636 F180
G01 X9.6328 Y29.9534 Z-1.4425 F180
G01 X9.5695 Y30.0631 Z-1.4131 F180
G01 X9.5452 Y30.1238 Z-1.3983 F180
G01 X9.5144 Y30.2483 Z-1.3770 F180
G01 X9.5072 Y30.3780 Z-1.3727 F180
G01 X9.5128 Y30.4450 Z-1.3786 F180
G01 X9.5415 Y30.5740 Z-1.4062 F180
G01 X9.5938 Y30.6977 Z-1.4507 F180
G01 X9.6292 Y30.7576 Z-1.4773 F180
G01 X9.7139 Y30.8653 Z-1.5298 F180
G01 X9.8177 Y30.9581 Z-1.5740 F180
G01 X9.8772 Y30.9988 Z-1.5903 F180
G01 X10.0037 Y31.0630 Z-1.6067 F180
G01 X10.1413 Y31.1057 Z-1.6018 F180
G01 X10.2146 Y31.1187 Z-1.5923 F180
G01 X10.3428 Y31.1455 Z-1.5653 F180
G01 X10.4720 Y31.1481 Z-1.5359 F180
G01 X10.5370 Y31.1401 Z-1.5236 F180
G01 X10.6589 Y31.1063 Z-1.5109 F180
G01 X10.7714 Y31.0502 Z-1.5182 F180
G01 X10.8241 Y31.0136 Z-1.5302 F180
G01 X10.9148 Y30.9272 Z-1.5681 F180
G01 X10.9875 Y30.8247 Z-1.6184 F180
G01 X11.0169 Y30.7671 Z-1.6457 F180
G01 X11.0573 Y30.6461 Z-1.6948 F180
G01 X11.0746 Y30.5181 Z-1.7303 F180
G01 X11.0742 Y30.4513 Z-1.7409 F180
G01 X11.0547 Y30.3199 Z-1.7452 F180
G01 X11.0113 Y30.1920 Z-1.7301 F180
G01 X10.9801 Y30.1293 Z-1.7171 F180
G01 X10.9022 Y30.0136 Z-1.6874 F180
G01 X10.8042 Y29.9113 Z-1.6615 F180
G01 X10.7471 Y29.8652 Z-1.6532 F180
G01 X10.6234 Y29.7883 Z-1.6511 F180
G01 X10.4871 Y29.7320 Z-1.6703 F180
G01 X10.4138 Y29.7118 Z-1.6880 F180
G01 X10.2653 Y29.6892 Z-1.7339 F180
G01 X10.1142 Y29.6906 Z-1.7868 F180
G01 X10.0373 Y29.7006 Z-1.8129 F180
G01 X9.8899 Y29.7374 Z-1.8556 F180
G01 X9.7503 Y29.7971 Z-1.8803 F180
G01 X9.6832 Y29.8358 Z-1.8847 F180
G01 X9.5624 Y29.9258 Z-1.8777 F180
G01 X9.4582 Y30.0331 Z-1.8546 F180
G01 X9.4124 Y30.0936 Z-1.8396 F180
G01 X9.3385 Y30.2202 Z-1.8106 F180
G01 X9.2871 Y30.3555 Z-1.7914 F180
G01 X9.2700 Y30.4266 Z-1.7882 F180
G01 X9.2546 Y30.5664 Z-1.7979 F180
G01 X9.2633 Y30.7043 Z-1.8285 F180
G01 X9.2768 Y30.7728 Z-1.8508 F180
G01 X9.3204 Y30.8995 Z-1.9019 F180
G01 X9.3850 Y31.0143 Z-1.9539 F180
G01 X9.4254 Y31.0673 Z-1.9772 F180
G01 X9.5172 Y31.1570 Z-2.0107 F180
G01 X9.6231 Y31.2270 Z-2.0237 F180
G01 X9.6815 Y31.2545 Z-2.0220 F180
G01 X9.8017 Y31.2902 Z-2.0051 F180
G01 X9.9264 Y31.3021 Z-1.9770 F180
G01 X9.9904 Y31.2988 Z-1.9617 F180
G01 X10.1139 Y31.2735 Z-1.9370 F180
G01 X10.2314 Y31.2247 Z-1.9270 F180
G01 X10.2877 Y31.1912 Z-1.9297 F180
G01 X10.3887 Y31.1091 Z-1.9513 F180
G01 X10.4743 Y31.0085 Z-1.9917 F180
G01 X10.5111 Y30.9508 Z-2.0172 F180
G01 X10.5681 Y30.8270 Z-2.0702 F180
G01 X10.6032 Y30.6929 Z-2.1179 F180
G01 X10.6122 Y30.6217 Z-2.1369 F180
G01 X10.6121 Y30.4788 Z-2.1594 F180
G01 X10.5878 Y30.3359 Z-2.1604 F180
G01 X10.5662 Y30.2642 Z-2.1534 F180
G01 X10.5066 Y30.1283 Z-2.1291 F180
G01 X10.4252 Y30.0027 Z-2.0992 F180
G01 X10.3758 Y29.9436 Z-2.0854 F180
G01 X10.2659 Y29.8394 Z-2.0679 F180
G01 X10.1405 Y29.7537 Z-2.0690 F180
G01 X10.0716 Y29.7179 Z-2.0779 F180
G01 X9.9299 Y29.6638 Z-2.1106 F180
G01 X9.7821 Y29.6331 Z-2.1583 F180
G01 X9.7055 Y29.6267 Z-2.1854 F180
G01 X9.5568 Y29.6317 Z-2.2368 F180
G01 X9.4124 Y29.6604 Z-2.2771 F180
G01 X9.3416 Y29.6840 Z-2.2908 F180
G01 X9.2119 Y29.7456 Z-2.3014 F180
G01 X9.0963 Y29.8269 Z-2.2914 F180
G01 X9.0436 Y29.8752 Z-2.2800 F180
G01 X8.9557 Y29.9803 Z-2.2513 F180
G01 X8.8887 Y30.0972 Z-2.2232 F180
G01 X8.8634 Y30.1598 Z-2.2126 F180
G01 X8.8318 Y30.2867 Z-2.2047 F180
G01 X8.8244 Y30.4154 Z-2.2177 F180
G01 X8.8298 Y30.4800 Z-2.2323 F180
G01 X8.8590 Y30.6029 Z-2.2742 F180
G01 X8.9108 Y30.7174 Z-2.3262 F180
G01 X8.9451 Y30.7709 Z-2.3529 F180
G01 X9.0280 Y30.8649 Z-2.3995 F180
G01 X9.1277 Y30.9415 Z-2.4303 F180
G01 X9.1837 Y30.9729 Z-2.4380 F180
G01 X9.3032 Y31.0182 Z-2.4371 F180
G01 X9.4307 Y31.0406 Z-2.4181 F180
G01 X9.4970 Y31.0430 Z-2.4040 F180
G01 X9.6295 Y31.0289 Z-2.3742 F180
G01 X9.7594 Y30.9908 Z-2.3510 F180
G01 X9.8230 Y30.9625 Z-2.3448 F180
G01 X9.9422 Y30.8895 Z-2.3477 F180
G01 X10.0490 Y30.7959 Z-2.3721 F180
G01 X10.0973 Y30.7413 Z-2.3917 F180
G01 X10.1798 Y30.6209 Z-2.4402 F180
G01 X10.2423 Y30.4871 Z-2.4931 F180
G01 X10.2657 Y30.4152 Z-2.5181 F180
G01 X10.2952 Y30.2679 Z-2.5571 F180
G01 X10.3009 Y30.1168 Z-2.5771 F180
G01 X10.2945 Y30.0401 Z-2.5789 F180
G01 X10.2647 Y29.8911 Z-2.5675 F180
G01 X10.2118 Y29.7489 Z-2.5420 F180
G01 X10.1765 Y29.6806 Z-2.5268 F180
G01 X10.0925 Y29.5557 Z-2.4991 F180
G01 X9.9904 Y29.4467 Z-2.4834 F180
G01 X9.9326 Y29.3984 Z-2.4825 F180
G01 X9.8099 Y29.3187 Z-2.4970 F180
G01 X9.6775 Y29.2610 Z-2.5317 F180
G01 X9.6079 Y29.2407 Z-2.5553 F180
G01 X9.4693 Y29.2187 Z-2.6075 F180
G01 X9.3314 Y29.2208 Z-2.6582 F180
G01 X9.2630 Y29.2309 Z-2.6798 F180
G01 X9.1346 Y29.2683 Z-2.7093 F180
G01 X9.0171 Y29.3274 Z-2.7176 F180
G01 X8.9627 Y29.3649 Z-2.7139 F180
G01 X8.8689 Y29.4522 Z-2.6939 F180
G01 X8.7940 Y29.5545 Z-2.6647 F180
G01 X8.7640 Y29.6111 Z-2.6499 F180
G01 X8.7226 Y29.7294 Z-2.6275 F180
G01 X8.7048 Y29.8534 Z-2.6214 F180
G01 X8.7049 Y29.9170 Z-2.6264 F180
G01 X8.7243 Y30.0417 Z-2.6521 F180
G01 X8.7673 Y30.1615 Z-2.6954 F180
G01 X8.7977 Y30.2190 Z-2.7215 F180
G01 X8.8747 Y30.3241 Z-2.7743 F180
G01 X8.9710 Y30.4148 Z-2.8197 F180
G01 X9.0264 Y30.4542 Z-2.8368 F180
G01 X9.1472 Y30.5176 Z-2.8552 F180
G01 X9.2795 Y30.5597 Z-2.8523 F180
G01 X9.3497 Y30.5723 Z-2.8437 F180
G01 X9.4926 Y30.5798 Z-2.8175 F180
G01 X9.6367 Y30.5631 Z-2.7879 F180
G01 X9.7090 Y30.5455 Z-2.7751 F180
G01 X9.8480 Y30.4933 Z-2.7606 F180
G01 X9.9779 Y30.4188 Z-2.7656 F180
G01 X10.0392 Y30.3731 Z-2.7764 F180
G01 X10.1493 Y30.2690 Z-2.8124 F180
G01 X10.2417 Y30.1485 Z-2.8618 F180
G01 X10.2810 Y30.0822 Z-2.8888 F180
G01 X10.3428 Y29.9438 Z-2.9390 F180
G01 X10.3817 Y29.7979 Z-2.9764 F180
G01 X10.3923 Y29.7225 Z-2.9881 F180
G01 X10.3956 Y29.5738 Z-2.9950 F180
G01 X10.3750 Y29.4281 Z-2.9819 F180
G01 X10.3557 Y29.3567 Z-2.9696 F180
G01 X10.3015 Y29.2239 Z-2.9402 F180
G01 X10.2269 Y29.1040 Z-2.9133 F180
G01 X10.1820 Y29.0492 Z-2.9040 F180
G01 X10.0822 Y28.9554 Z-2.8994 F180
G01 X9.9694 Y28.8821 Z-2.9159 F180
G01 X9.9084 Y28.8533 Z-2.9322 F180
G01 X9.7836 Y28.8147 Z-2.9765 F180
G01 X9.6556 Y28.8000 Z-3.0291 F180
G01 X9.5908 Y28.8018 Z-3.0554 F180
G01 X9.4664 Y28.8241 Z-3.0999 F180
G01 X9.3493 Y28.8693 Z-3.1274 F180
G01 X9.2939 Y28.9006 Z-3.1333 F180
G01 X9.1955 Y28.9781 Z-3.1290 F180
G01 X9.1133 Y29.0734 Z-3.1077 F180
G01 X9.0788 Y29.1276 Z-3.0931 F180
G01 X9.0269 Y29.2445 Z-3.0636 F180
G01 X8.9973 Y29.3705 Z-3.0424 F180
G01 X8.9913 Y29.4367 Z-3.0378 F180
G01 X8.9978 Y29.5698 Z-3.0443 F180
G01 X9.0286 Y29.7018 Z-3.0721 F180
G01 X9.0532 Y29.7670 Z-3.0931 F180
G01 X9.1193 Y29.8902 Z-3.1431 F180
G01 X9.2068 Y30.0023 Z-3.1956 F180
G01 X9.2586 Y30.0536 Z-3.2197 F180
G01 X9.3447 Y30.1527 Z-3.2444 F1200
G01 X9.4342 Y30.2251 Z-3.2497 F1200
G01 X9.5453 Y30.2869 Z-3.2353 F1200
G01 X9.6513 Y30.3228 Z-3.2074 F1200
G01 X9.7738 Y30.3413 Z-3.1671 F1200
G01 X9.8833 Y30.3374 Z-3.1313 F1200
G01 X10.0022 Y30.3115 Z-3.1015 F1200
G01 X10.1019 Y30.2689 Z-3.0902 F1200
G01 X10.2029 Y30.2024 Z-3.0980 F1200
G01 X10.2805 Y30.1267 Z-3.1215 F1200
G01 X10.3510 Y30.0277 Z-3.1598 F1200
G01 X10.3968 Y29.9280 Z-3.1967 F1200
G01 X10.4277 Y29.8085 Z-3.2308 F1200
G01 X10.4355 Y29.6966 Z-3.2477 F1200
G01 X10.4222 Y29.5708 Z-3.2468 F1200
G01 X10.3898 Y29.4600 Z-3.2283 F1200
G01 X10.3324 Y29.3428 Z-3.1931 F1200
G01 X10.2623 Y29.2463 Z-3.1560 F1200
G01 X10.1659 Y29.1518 Z-3.1185 F1200
G01 X10.0646 Y29.0812 Z-3.0964 F1200
G01 X9.9384 Y29.0212 Z-3.0906 F1200
G01 X9.8159 Y28.9856 Z-3.1035 F1200
G01 X9.6728 Y28.9682 Z-3.1346 F1200
G01 X9.5414 Y28.9727 Z-3.1708 F1200
G01 X9.3959 Y29.0013 Z-3.2107 F1200
G01 X9.2692 Y29.0470 Z-3.2374 F1200
G01 X9.1363 Y29.1202 Z-3.2499 F1200
G01 X9.0273 Y29.2036 Z-3.2429 F1200
G01 X8.9207 Y29.3151 Z-3.2167 F1200
G01 X8.8405 Y29.4287 Z-3.1823 F1200
G01 X8.7713 Y29.5682 Z-3.1412 F1200
G01 X8.7282 Y29.7012 Z-3.1106 F1200
G01 X8.7034 Y29.8555 Z-3.0918 F1200
G01 X8.7017 Y29.9951 Z-3.0927 F1200
G01 X8.7236 Y30.1492 Z-3.1133 F1200
G01 X8.7631 Y30.2819 Z-3.1449 F1200
G01 X8.8293 Y30.4208 Z-3.1862 F1200
G01 X8.9055 Y30.5339 Z-3.2198 F1200
G01 X9.0086 Y30.6446 Z-3.2444 F1200
G01 X9.1133 Y30.7274 Z-3.2496 F1200
G01 X9.2422 Y30.7996 Z-3.2352 F1200
G01 X9.3641 Y30.8448 Z-3.2073 F1200
G01 X9.5049 Y30.8725 Z-3.1669 F1200
G01 X9.6308 Y30.8769 Z-3.1311 F1200
G01 X9.7686 Y30.8590 Z-3.1014 F1200
G01 X9.8852 Y30.8237 Z-3.0902 F1200
G01 X10.0055 Y30.7639 Z-3.0980 F1200
G01 X10.1004 Y30.6943 Z-3.1216 F1200
G01 X10.1906 Y30.6008 Z-3.1599 F1200
G01 X10.2541 Y30.5061 Z-3.1969 F1200
G01 X10.3051 Y30.3908 Z-3.2309 F1200
G01 X10.3308 Y30.2828 Z-3.2478 F1200
G01 X10.3377 Y30.1599 Z-3.2467 F1200
G01 X10.3235 Y30.0517 Z-3.2282 F1200
G01 X10.2865 Y29.9362 Z-3.1930 F1200
G01 X10.2347 Y29.8411 Z-3.1559 F1200
G01 X10.1588 Y29.7470 Z-3.1184 F1200
G01 X10.0758 Y29.6768 Z-3.0964 F1200
G01 X9.9702 Y29.6158 Z-3.0906 F1200
G01 X9.8660 Y29.5793 Z-3.1036 F1200
G01 X9.7433 Y29.5595 Z-3.1348 F1200
G01 X9.6303 Y29.5620 Z-3.1710 F1200
G01 X9.5050 Y29.5869 Z-3.2109 F1200
G01 X9.3964 Y29.6293 Z-3.2375 F1200
G01 X9.2835 Y29.6975 Z-3.2499 F1200
G01 X9.1923 Y29.7765 Z-3.2428 F1200
G01 X9.1054 Y29.8817 Z-3.2166 F1200
G01 X9.0428 Y29.9896 Z-3.1822 F1200
G01 X8.9928 Y30.1216 Z-3.1410 F1200
G01 X8.9669 Y30.2478 Z-3.1104 F1200
G01 X8.9608 Y30.3932 Z-3.0917 F1200
G01 X8.9757 Y30.5249 Z-3.0927 F1200
G01 X9.0158 Y30.6689 Z-3.1134 F1200
G01 X9.0714 Y30.7926 Z-3.1450 F1200
G01 X9.1549 Y30.9203 Z-3.1864 F1200
G01 X9.2467 Y31.0233 Z-3.2200 F1200
G01 X9.3663 Y31.1215 Z-3.2445 F1200
G01 X9.4859 Y31.1932 Z-3.2496 F1200
G01 X9.6304 Y31.2520 Z-3.2351 F1200
G01 X9.7663 Y31.2851 Z-3.2071 F1200
G01 X9.9219 Y31.2984 Z-3.1667 F1200
G01 X10.0610 Y31.2899 Z-3.1310 F1200
G01 X10.2126 Y31.2566 Z-3.1013 F1200
G01 X10.3414 Y31.2075 Z-3.0902 F1200
G01 X10.4744 Y31.1314 Z-3.0981 F1200
G01 X10.5807 Y31.0473 Z-3.1217 F1200
G01 X10.6824 Y30.9368 Z-3.1601 F1200
G01 X10.7563 Y30.8269 Z-3.1970 F1200
G01 X10.8177 Y30.6939 Z-3.2311 F1200
G01 X10.8527 Y30.5700 Z-3.2478 F1200
G01 X10.8689 Y30.4288 Z-3.2467 F1200
G01 X10.8630 Y30.3042 Z-3.2281 F1200
G01 X10.8340 Y30.1698 Z-3.1928 F1200
G01 X10.7894 Y30.0579 Z-3.1557 F1200
G01 X10.7202 Y29.9444 Z-3.1183 F1200
G01 X10.6434 Y29.8569 Z-3.0963 F1200
G01 X10.5433 Y29.7761 Z-3.0906 F1200
G01 X10.4441 Y29.7220 Z-3.1037 F1200
G01 X10.3256 Y29.6822 Z-3.1349 F1200
G01 X10.2164 Y29.6668 Z-3.1712 F1200
G01 X10.0941 Y29.6714 Z-3.2110 F1200
G01 X9.9882 Y29.6957 Z-3.2376 F1200
G01 X9.8769 Y29.7434 Z-3.2499 F1200
G01 X9.7872 Y29.8041 Z-3.2428 F1200
G01 X9.7007 Y29.8888 Z-3.2164 F1200
G01 X9.6384 Y29.9784 Z-3.1820 F1200
G01 X9.5874 Y30.0899 Z-3.1408 F1200
G01 X9.5606 Y30.1977 Z-3.1103 F1200
G01 X9.5522 Y30.3227 Z-3.0917 F1200
G01 X9.5650 Y30.4361 Z-3.0928 F1200
G01 X9.6014 Y30.5598 Z-3.1135 F1200
G01 X9.6538 Y30.6654 Z-3.1452 F1200
G01 X9.7323 Y30.7731 Z-3.1865 F1200
G01 X9.8196 Y30.8581 Z-3.2201 F1200
G01 X9.9330 Y30.9368 Z-3.2446 F1200
G01 X10.0468 Y30.9909 Z-3.2496 F1200
G01 X10.1838 Y31.0304 Z-3.2350 F1200
G01 X10.3129 Y31.0464 Z-3.2070 F1200
G01 X10.4596 Y31.0410 Z-3.1666 F1200
G01 X10.5908 Y31.0157 Z-3.1308 F1200
G01 X10.7323 Y30.9644 Z-3.1012 F1200
G01 X10.8521 Y30.8991 Z-3.0902 F1200
G01 X10.9738 Y30.8057 Z-3.0982 F1200
G01 X11.0700 Y30.7061 Z-3.1219 F1200
G01 X11.1594 Y30.5791 Z-3.1603 F1200
G01 X11.2221 Y30.4543 Z-3.1972 F1200
G01 X11.2700 Y30.3057 Z-3.2312 F1200
G01 X11.2930 Y30.1678 Z-3.2479 F1200
G01 X11.2948 Y30.0118 Z-3.2466 F1200
G01 X11.2759 Y29.8741 Z-3.2280 F1200
G01 X11.2316 Y29.7259 Z-3.1926 F1200
G01 X11.1732 Y29.6017 Z-3.1555 F1200
G01 X11.0878 Y29.4755 Z-3.1181 F1200
G01 X10.9964 Y29.3767 Z-3.0962 F1200
G01 X10.8793 Y29.2844 Z-3.0906 F1200
G01 X10.7649 Y29.2199 Z-3.1038 F1200
G01 X10.6287 Y29.1696 Z-3.1351 F1200
G01 X10.5036 Y29.1449 Z-3.1713 F1200
G01 X10.3630 Y29.1403 Z-3.2112 F1200
G01 X10.2407 Y29.1563 Z-3.2377 F1200
G01 X10.1106 Y29.1960 Z-3.2499 F1200
G01 X10.0040 Y29.2495 Z-3.2427 F1200
G01 X9.8981 Y29.3274 Z-3.2163 F1200
G01 X9.8185 Y29.4109 Z-3.1818 F1200
G01 X9.7478 Y29.5168 Z-3.1407 F1200
G01 X9.7034 Y29.6197 Z-3.1102 F1200
G01 X9.6749 Y29.7404 Z-3.0916 F1200
G01 X9.6699 Y29.8500 Z-3.0928 F1200
G01 X9.6860 Y29.9707 Z-3.1136 F1200
G01 X9.7202 Y30.0736 Z-3.1453 F1200
G01 X9.7783 Y30.1796 Z-3.1867 F1200
G01 X9.8473 Y30.2632 Z-3.2202 F1200
G01 X9.9401 Y30.3415 Z-3.2446 F1200
G01 X10.0356 Y30.3953 Z-3.2496 F1200
G01 X10.1521 Y30.4358 Z-3.2349 F1200
G01 X10.2628 Y30.4527 Z-3.2068 F1200
G01 X10.3891 Y30.4496 Z-3.1664 F1200
G01 X10.5020 Y30.4264 Z-3.1307 F1200
G01 X10.6232 Y30.3787 Z-3.1011 F1200
G01 X10.7249 Y30.3167 Z-3.0902 F1200
G01 X10.8266 Y30.2283 Z-3.0983 F1200
G01 X10.9049 Y30.1331 Z-3.1220 F1200
G01 X10.9746 Y30.0124 Z-3.1604 F1200
G01 X11.0197 Y29.8933 Z-3.1973 F1200
G01 X11.0484 Y29.7523 Z-3.2313 F1200
G01 X11.0542 Y29.6212 Z-3.2479 F1200
G01 X11.0373 Y29.4741 Z-3.2466 F1200
G01 X11.0017 Y29.3443 Z-3.2279 F1200
G01 X10.9393 Y29.2062 Z-3.1925 F1200
G01 X10.8648 Y29.0910 Z-3.1554 F1200
G01 X10.7621 Y28.9762 Z-3.1180 F1200
G01 X10.6552 Y28.8874 Z-3.0962 F1200
G01 X10.5215 Y28.8075 Z-3.0907 F1200
G01 X10.3923 Y28.7541 Z-3.1039 F1200
G01 X10.2405 Y28.7173 Z-3.1352 F1200
G01 X10.1014 Y28.7046 Z-3.1715 F1200
G01 X9.9460 Y28.7144 Z-3.2113 F1200
G01 X9.8105 Y28.7434 Z-3.2378 F1200
G01 X9.6667 Y28.7985 Z-3.2499 F1200
G01 X9.5479 Y28.8657 Z-3.2426 F1200
G01 X9.4293 Y28.9599 Z-3.2161 F1200
G01 X9.3384 Y29.0579 Z-3.1817 F1200
G01 X9.2561 Y29.1808 Z-3.1405 F1200
G01 X9.2013 Y29.2989 Z-3.1101 F1200
G01 X9.1624 Y29.4373 Z-3.0916 F1200
G01 X9.1480 Y29.5627 Z-3.0928 F1200
G01 X9.1549 Y29.7018 Z-3.1138 F1200
G01 X9.1808 Y29.8211 Z-3.1455 F1200
G01 X9.2309 Y29.9460 Z-3.1869 F1200
G01 X9.2927 Y30.0464 Z-3.2204 F1200
G01 X9.3787 Y30.1440 Z-3.2447 F1200
G01 X9.4681 Y30.2151 Z-3.2496 F1200
G00 Z6.0000 F480


;No. 4: Hole 3
G00 X9.8936 Y49.4996 Z6.0000 F1500
G00 X10.6766 Y49.3615 Z0.5107 F480
G01 X10.6407 Y49.2277 Z0.5223 F180
G01 X10.5821 Y49.1021 Z0.5447 F180
G01 X10.5026 Y48.9886 Z0.5670 F180
G01 X10.4047 Y48.8906 Z0.5786 F180
G01 X10.2911 Y48.8111 Z0.5717 F180
G01 X10.1655 Y48.7525 Z0.5433 F180
G01 X10.0317 Y48.7167 Z0.4963 F180
G01 X9.8936 Y48.7046 Z0.4387 F180
G01 X9.7556 Y48.7167 Z0.3810 F180
G01 X9.6217 Y48.7525 Z0.3341 F180
G01 X9.4961 Y48.8111 Z0.3057 F180
G01 X9.3826 Y48.8906 Z0.2987 F180
G01 X9.2846 Y48.9886 Z0.3103 F180
G01 X9.2051 Y49.1021 Z0.3327 F180
G01 X9.1466 Y49.2277 Z0.3550 F180
G01 X9.1107 Y49.3615 Z0.3666 F180
G01 X9.0986 Y49.4996 Z0.3597 F180
G01 X9.1107 Y49.6376 Z0.3313 F180
G01 X9.1466 Y49.7715 Z0.2843 F180
G01 X9.2051 Y49.8971 Z0.2267 F180
G01 X9.2846 Y50.0106 Z0.1690 F180
G01 X9.3826 Y50.1086 Z0.1221 F180
G01 X9.4961 Y50.1881 Z0.0937 F180
G01 X9.6217 Y50.2466 Z0.0867 F180
G01 X9.7556 Y50.2825 Z0.0983 F180
G01 X9.8936 Y50.2946 Z0.1207 F180
G01 X10.0317 Y50.2825 Z0.1430 F180
G01 X10.1655 Y50.2466 Z0.1546 F180
G01 X10.2045 Y50.2313 Z0.1547 F180
G01 X10.3139 Y50.1694 Z0.1474 F180
G01 X10.4101 Y50.0872 Z0.1190 F180
G01 X10.4528 Y50.0387 Z0.0977 F180
G01 X10.5233 Y49.9319 Z0.0474 F180
G01 X10.5733 Y49.8124 Z-0.0050 F180
G01 X10.5901 Y49.7481 Z-0.0289 F180
G01 X10.6061 Y49.6173 Z-0.0645 F180
G01 X10.5981 Y49.4837 Z-0.0800 F180
G01 X10.5849 Y49.4162 Z-0.0797 F180
G01 X10.5411 Y49.2869 Z-0.0648 F180
G01 X10.4743 Y49.1653 Z-0.0375 F180
G01 X10.4322 Y49.1077 Z-0.0222 F180
G01 X10.3346 Y49.0054 Z0.0038 F180
G01 X10.2195 Y48.9197 Z0.0160 F180
G01 X10.1554 Y48.8834 Z0.0147 F180
G01 X10.0203 Y48.8285 Z-0.0041 F180
G01 X9.8762 Y48.7961 Z-0.0424 F180
G01 X9.8011 Y48.7886 Z-0.0670 F180
G01 X9.6518 Y48.7927 Z-0.1199 F180
G01 X9.5040 Y48.8210 Z-0.1689 F180
G01 X9.4309 Y48.8444 Z-0.1889 F180
G01 X9.2936 Y48.9082 Z-0.2143 F180
G01 X9.1679 Y48.9933 Z-0.2183 F180
G01 X9.1097 Y49.0439 Z-0.2126 F180
G01 X9.0084 Y49.1570 Z-0.1899 F180
G01 X8.9265 Y49.2846 Z-0.1602 F180
G01 X8.8931 Y49.3535 Z-0.1460 F180
G01 X8.8451 Y49.4964 Z-0.1263 F180
G01 X8.8208 Y49.6440 Z-0.1243 F180
G01 X8.8177 Y49.7193 Z-0.1315 F180
G01 X8.8303 Y49.8667 Z-0.1613 F180
G01 X8.8665 Y50.0084 Z-0.2073 F180
G01 X8.8933 Y50.0767 Z-0.2339 F180
G01 X8.9628 Y50.2029 Z-0.2861 F180
G01 X9.0510 Y50.3139 Z-0.3287 F180
G01 X9.1020 Y50.3634 Z-0.3439 F180
G01 X9.2137 Y50.4465 Z-0.3579 F180
G01 X9.3361 Y50.5079 Z-0.3510 F180
G01 X9.4009 Y50.5302 Z-0.3408 F180
G01 X9.5326 Y50.5567 Z-0.3130 F180
G01 X9.6647 Y50.5591 Z-0.2841 F180
G01 X9.7305 Y50.5512 Z-0.2724 F180
G01 X9.8562 Y50.5183 Z-0.2615 F180
G01 X9.9721 Y50.4633 Z-0.2708 F180
G01 X10.0258 Y50.4277 Z-0.2838 F180
G01 X10.1209 Y50.3439 Z-0.3232 F180
G01 X10.1977 Y50.2442 Z-0.3742 F180
G01 X10.2288 Y50.1887 Z-0.4011 F180
G01 X10.2745 Y50.0721 Z-0.4495 F180
G01 X10.2969 Y49.9488 Z-0.4834 F180
G01 X10.2991 Y49.8851 Z-0.4929 F180
G01 X10.2861 Y49.7599 Z-0.4954 F180
G01 X10.2492 Y49.6386 Z-0.4789 F180
G01 X10.2217 Y49.5799 Z-0.4656 F180
G01 X10.1519 Y49.4723 Z-0.4358 F180
G01 X10.0622 Y49.3782 Z-0.4107 F180
G01 X10.0099 Y49.3367 Z-0.4031 F180
G01 X9.8962 Y49.2693 Z-0.4026 F180
G01 X9.7701 Y49.2226 Z-0.4235 F180
G01 X9.7027 Y49.2075 Z-0.4417 F180
G01 X9.5662 Y49.1954 Z-0.4885 F180
G01 X9.4274 Y49.2073 Z-0.5414 F180
G01 X9.3575 Y49.2226 Z-0.5671 F180
G01 X9.2239 Y49.2706 Z-0.6087 F180
G01 X9.0984 Y49.3413 Z-0.6321 F180
G01 X9.0391 Y49.3854 Z-0.6357 F180
G01 X8.9337 Y49.4869 Z-0.6274 F180
G01 X8.8453 Y49.6056 Z-0.6036 F180
G01 X8.8078 Y49.6714 Z-0.5885 F180
G01 X8.7508 Y49.8098 Z-0.5599 F180
G01 X8.7164 Y49.9565 Z-0.5416 F180
G01 X8.7080 Y50.0328 Z-0.5390 F180
G01 X8.7105 Y50.1844 Z-0.5499 F180
G01 X8.7370 Y50.3339 Z-0.5816 F180
G01 X8.7594 Y50.4077 Z-0.6041 F180
G01 X8.8215 Y50.5462 Z-0.6555 F180
G01 X8.9046 Y50.6728 Z-0.7072 F180
G01 X8.9540 Y50.7313 Z-0.7300 F180
G01 X9.0647 Y50.8331 Z-0.7626 F180
G01 X9.1894 Y50.9152 Z-0.7745 F180
G01 X9.2568 Y50.9485 Z-0.7724 F180
G01 X9.3963 Y50.9967 Z-0.7549 F180
G01 X9.5399 Y51.0211 Z-0.7265 F180
G01 X9.6131 Y51.0243 Z-0.7113 F180
G01 X9.7560 Y51.0120 Z-0.6870 F180
G01 X9.8927 Y50.9763 Z-0.6778 F180
G01 X9.9583 Y50.9498 Z-0.6809 F180
G01 X10.0790 Y50.8814 Z-0.7033 F180
G01 X10.1841 Y50.7946 Z-0.7442 F180
G01 X10.2305 Y50.7445 Z-0.7697 F180
G01 X10.3075 Y50.6351 Z-0.8227 F180
G01 X10.3625 Y50.5155 Z-0.8700 F180
G01 X10.3816 Y50.4523 Z-0.8886 F180
G01 X10.4018 Y50.3244 Z-0.9105 F180
G01 X10.3979 Y50.1966 Z-0.9110 F180
G01 X10.3868 Y50.1332 Z-0.9037 F180
G01 X10.3481 Y50.0128 Z-0.8792 F180
G01 X10.2875 Y49.9027 Z-0.8493 F180
G01 X10.2488 Y49.8516 Z-0.8357 F180
G01 X10.1601 Y49.7633 Z-0.8185 F180
G01 X10.0559 Y49.6935 Z-0.8201 F180
G01 X9.9978 Y49.6658 Z-0.8293 F180
G01 X9.8777 Y49.6278 Z-0.8624 F180
G01 X9.7514 Y49.6132 Z-0.9104 F180
G01 X9.6859 Y49.6151 Z-0.9375 F180
G01 X9.5590 Y49.6362 Z-0.9887 F180
G01 X9.4364 Y49.6810 Z-1.0287 F180
G01 X9.3769 Y49.7128 Z-1.0421 F180
G01 X9.2691 Y49.7904 Z-1.0521 F180
G01 X9.1755 Y49.8877 Z-1.0417 F180
G01 X9.1341 Y49.9441 Z-1.0302 F180
G01 X9.0681 Y50.0648 Z-1.0013 F180
G01 X9.0232 Y50.1974 Z-0.9734 F180
G01 X9.0089 Y50.2684 Z-0.9630 F180
G01 X8.9993 Y50.4106 Z-0.9556 F180
G01 X9.0138 Y50.5545 Z-0.9691 F180
G01 X9.0305 Y50.6274 Z-0.9842 F180
G01 X9.0813 Y50.7651 Z-1.0266 F180
G01 X9.1547 Y50.8942 Z-1.0787 F180
G01 X9.2003 Y50.9555 Z-1.1056 F180
G01 X9.3043 Y51.0636 Z-1.1517 F180
G01 X9.4250 Y51.1542 Z-1.1818 F180
G01 X9.4921 Y51.1930 Z-1.1892 F180
G01 X9.6320 Y51.2516 Z-1.1874 F180
G01 X9.7797 Y51.2874 Z-1.1678 F180
G01 X9.8568 Y51.2965 Z-1.1535 F180
G01 X10.0086 Y51.2952 Z-1.1238 F180
G01 X10.1576 Y51.2699 Z-1.1011 F180
G01 X10.2315 Y51.2479 Z-1.0953 F180
G01 X10.3688 Y51.1873 Z-1.0992 F180
G01 X10.4936 Y51.1060 Z-1.1245 F180
G01 X10.5513 Y51.0573 Z-1.1448 F180
G01 X10.6508 Y50.9490 Z-1.1938 F180
G01 X10.7301 Y50.8274 Z-1.2466 F180
G01 X10.7622 Y50.7613 Z-1.2715 F180
G01 X10.8074 Y50.6258 Z-1.3096 F180
G01 X10.8287 Y50.4868 Z-1.3283 F180
G01 X10.8303 Y50.4158 Z-1.3295 F180
G01 X10.8152 Y50.2786 Z-1.3171 F180
G01 X10.7770 Y50.1485 Z-1.2910 F180
G01 X10.7491 Y50.0859 Z-1.2756 F180
G01 X10.6790 Y49.9727 Z-1.2484 F180
G01 X10.5909 Y49.8757 Z-1.2338 F180
G01 X10.5399 Y49.8333 Z-1.2336 F180
G01 X10.4305 Y49.7651 Z-1.2496 F180
G01 X10.3116 Y49.7191 Z-1.2855 F180
G01 X10.2485 Y49.7046 Z-1.3097 F180
G01 X10.1229 Y49.6936 Z-1.3622 F180
G01 X9.9981 Y49.7068 Z-1.4123 F180
G01 X9.9360 Y49.7227 Z-1.4335 F180
G01 X9.8202 Y49.7702 Z-1.4615 F180
G01 X9.7154 Y49.8393 Z-1.4682 F180
G01 X9.6673 Y49.8822 Z-1.4636 F180
G01 X9.5855 Y49.9784 Z-1.4425 F180
G01 X9.5228 Y50.0894 Z-1.4131 F180
G01 X9.4989 Y50.1507 Z-1.3983 F180
G01 X9.4689 Y50.2763 Z-1.3770 F180
G01 X9.4624 Y50.4073 Z-1.3727 F180
G01 X9.4684 Y50.4748 Z-1.3786 F180
G01 X9.4979 Y50.6050 Z-1.4062 F180
G01 X9.5510 Y50.7299 Z-1.4507 F180
G01 X9.5868 Y50.7903 Z-1.4773 F180
G01 X9.6724 Y50.8990 Z-1.5298 F180
G01 X9.7771 Y50.9929 Z-1.5740 F180
G01 X9.8370 Y51.0342 Z-1.5903 F180
G01 X9.9645 Y51.0994 Z-1.6067 F180
G01 X10.1030 Y51.1432 Z-1.6018 F180
G01 X10.1768 Y51.1567 Z-1.5923 F180
G01 X10.3041 Y51.1824 Z-1.5653 F180
G01 X10.4323 Y51.1840 Z-1.5359 F180
G01 X10.4968 Y51.1755 Z-1.5236 F180
G01 X10.6179 Y51.1406 Z-1.5109 F180
G01 X10.7295 Y51.0835 Z-1.5182 F180
G01 X10.7817 Y51.0463 Z-1.5302 F180
G01 X10.8716 Y50.9588 Z-1.5681 F180
G01 X10.9435 Y50.8551 Z-1.6184 F180
G01 X10.9724 Y50.7970 Z-1.6457 F180
G01 X11.0121 Y50.6748 Z-1.6948 F180
G01 X11.0287 Y50.5456 Z-1.7303 F180
G01 X11.0279 Y50.4782 Z-1.7409 F180
G01 X11.0077 Y50.3455 Z-1.7452 F180
G01 X10.9636 Y50.2164 Z-1.7301 F180
G01 X10.9322 Y50.1531 Z-1.7171 F180
G01 X10.8537 Y50.0361 Z-1.6874 F180
G01 X10.7551 Y49.9325 Z-1.6615 F180
G01 X10.6977 Y49.8858 Z-1.6532 F180
G01 X10.5735 Y49.8076 Z-1.6511 F180
G01 X10.4367 Y49.7500 Z-1.6703 F180
G01 X10.3631 Y49.7291 Z-1.6880 F180
G01 X10.2142 Y49.7052 Z-1.7339 F180
G01 X10.0627 Z-1.7868 F180
G01 X9.9856 Y49.7146 Z-1.8129 F180
G01 X9.8379 Y49.7500 Z-1.8556 F180
G01 X9.6980 Y49.8083 Z-1.8803 F180
G01 X9.6307 Y49.8464 Z-1.8847 F180
G01 X9.5096 Y49.9349 Z-1.8777 F180
G01 X9.4053 Y50.0409 Z-1.8546 F180
G01 X9.3593 Y50.1007 Z-1.8396 F180
G01 X9.2853 Y50.2259 Z-1.8106 F180
G01 X9.2338 Y50.3598 Z-1.7914 F180
G01 X9.2166 Y50.4302 Z-1.7882 F180
G01 X9.2011 Y50.5685 Z-1.7979 F180
G01 X9.2098 Y50.7051 Z-1.8285 F180
G01 X9.2233 Y50.7729 Z-1.8508 F180
G01 X9.2669 Y50.8981 Z-1.9019 F180
G01 X9.3315 Y51.0116 Z-1.9539 F180
G01 X9.3720 Y51.0639 Z-1.9772 F180
G01 X9.4639 Y51.1521 Z-2.0107 F180
G01 X9.5699 Y51.2208 Z-2.0237 F180
G01 X9.6284 Y51.2476 Z-2.0220 F180
G01 X9.7489 Y51.2819 Z-2.0051 F180
G01 X9.8737 Y51.2924 Z-1.9770 F180
G01 X9.9379 Y51.2884 Z-1.9617 F180
G01 X10.0617 Y51.2617 Z-1.9370 F180
G01 X10.1795 Y51.2116 Z-1.9270 F180
G01 X10.2360 Y51.1774 Z-1.9297 F180
G01 X10.3374 Y51.0940 Z-1.9513 F180
G01 X10.4234 Y50.9920 Z-1.9917 F180
G01 X10.4604 Y50.9336 Z-2.0172 F180
G01 X10.5178 Y50.8085 Z-2.0702 F180
G01 X10.5535 Y50.6732 Z-2.1179 F180
G01 X10.5627 Y50.6013 Z-2.1369 F180
G01 X10.5632 Y50.4571 Z-2.1594 F180
G01 X10.5395 Y50.3129 Z-2.1604 F180
G01 X10.5181 Y50.2405 Z-2.1534 F180
G01 X10.4593 Y50.1034 Z-2.1291 F180
G01 X10.3785 Y49.9765 Z-2.0992 F180
G01 X10.3294 Y49.9168 Z-2.0854 F180
G01 X10.2203 Y49.8114 Z-2.0679 F180
G01 X10.0956 Y49.7246 Z-2.0690 F180
G01 X10.0270 Y49.6881 Z-2.0779 F180
G01 X9.8862 Y49.6329 Z-2.1106 F180
G01 X9.7392 Y49.6011 Z-2.1583 F180
G01 X9.6630 Y49.5941 Z-2.1854 F180
G01 X9.5152 Y49.5980 Z-2.2368 F180
G01 X9.3717 Y49.6257 Z-2.2771 F180
G01 X9.3013 Y49.6487 Z-2.2908 F180
G01 X9.1726 Y49.7093 Z-2.3014 F180
G01 X9.0579 Y49.7896 Z-2.2914 F180
G01 X9.0058 Y49.8374 Z-2.2800 F180
G01 X8.9188 Y49.9415 Z-2.2513 F180
G01 X8.8529 Y50.0574 Z-2.2232 F180
G01 X8.8281 Y50.1195 Z-2.2126 F180
G01 X8.7976 Y50.2455 Z-2.2047 F180
G01 X8.7912 Y50.3733 Z-2.2177 F180
G01 X8.7972 Y50.4375 Z-2.2323 F180
G01 X8.8275 Y50.5596 Z-2.2742 F180
G01 X8.8805 Y50.6733 Z-2.3262 F180
G01 X8.9154 Y50.7264 Z-2.3529 F180
G01 X8.9994 Y50.8196 Z-2.3995 F180
G01 X9.1003 Y50.8955 Z-2.4303 F180
G01 X9.1569 Y50.9266 Z-2.4380 F180
G01 X9.2777 Y50.9712 Z-2.4371 F180
G01 X9.4064 Y50.9930 Z-2.4181 F180
G01 X9.4734 Y50.9949 Z-2.4040 F180
G01 X9.6071 Y50.9803 Z-2.3742 F180
G01 X9.7383 Y50.9416 Z-2.3510 F180
G01 X9.8025 Y50.9130 Z-2.3448 F180
G01 X9.9230 Y50.8396 Z-2.3477 F180
G01 X10.0311 Y50.7454 Z-2.3721 F180
G01 X10.0800 Y50.6905 Z-2.3917 F180
G01 X10.1639 Y50.5698 Z-2.4402 F180
G01 X10.2278 Y50.4356 Z-2.4931 F180
G01 X10.2518 Y50.3635 Z-2.5181 F180
G01 X10.2827 Y50.2158 Z-2.5571 F180
G01 X10.2897 Y50.0644 Z-2.5771 F180
G01 X10.2841 Y49.9876 Z-2.5789 F180
G01 X10.2557 Y49.8384 Z-2.5675 F180
G01 X10.2041 Y49.6959 Z-2.5420 F180
G01 X10.1695 Y49.6275 Z-2.5268 F180
G01 X10.0869 Y49.5024 Z-2.4991 F180
G01 X9.9862 Y49.3933 Z-2.4834 F180
G01 X9.9291 Y49.3450 Z-2.4825 F180
G01 X9.8078 Y49.2652 Z-2.4970 F180
G01 X9.6768 Y49.2075 Z-2.5317 F180
G01 X9.6079 Y49.1872 Z-2.5553 F180
G01 X9.4707 Y49.1652 Z-2.6075 F180
G01 X9.3342 Y49.1673 Z-2.6582 F180
G01 X9.2665 Y49.1775 Z-2.6798 F180
G01 X9.1395 Y49.2150 Z-2.7093 F180
G01 X9.0233 Y49.2742 Z-2.7176 F180
G01 X8.9697 Y49.3118 Z-2.7139 F180
G01 X8.8773 Y49.3993 Z-2.6939 F180
G01 X8.8037 Y49.5019 Z-2.6647 F180
G01 X8.7745 Y49.5585 Z-2.6499 F180
G01 X8.7345 Y49.6772 Z-2.6275 F180
G01 X8.7180 Y49.8015 Z-2.6214 F180
G01 X8.7188 Y49.8653 Z-2.6264 F180
G01 X8.7395 Y49.9904 Z-2.6521 F180
G01 X8.7838 Y50.1106 Z-2.6954 F180
G01 X8.8149 Y50.1683 Z-2.7215 F180
G01 X8.8932 Y50.2739 Z-2.7743 F180
G01 X8.9909 Y50.3651 Z-2.8197 F180
G01 X9.0469 Y50.4047 Z-2.8368 F180
G01 X9.1690 Y50.4687 Z-2.8552 F180
G01 X9.3025 Y50.5114 Z-2.8523 F180
G01 X9.3734 Y50.5243 Z-2.8437 F180
G01 X9.5175 Y50.5324 Z-2.8175 F180
G01 X9.6629 Y50.5164 Z-2.7879 F180
G01 X9.7358 Y50.4991 Z-2.7751 F180
G01 X9.8759 Y50.4477 Z-2.7606 F180
G01 X10.0071 Y50.3739 Z-2.7656 F180
G01 X10.0689 Y50.3285 Z-2.7764 F180
G01 X10.1802 Y50.2253 Z-2.8124 F180
G01 X10.2738 Y50.1056 Z-2.8618 F180
G01 X10.3136 Y50.0397 Z-2.8888 F180
G01 X10.3765 Y49.9022 Z-2.9390 F180
G01 X10.4164 Y49.7572 Z-2.9764 F180
G01 X10.4276 Y49.6822 Z-2.9881 F180
G01 X10.4319 Y49.5345 Z-2.9950 F180
G01 X10.4124 Y49.3898 Z-2.9819 F180
G01 X10.3935 Y49.3189 Z-2.9696 F180
G01 X10.3403 Y49.1871 Z-2.9402 F180
G01 X10.2666 Y49.0681 Z-2.9133 F180
G01 X10.2223 Y49.0139 Z-2.9040 F180
G01 X10.1234 Y48.9212 Z-2.8994 F180
G01 X10.0114 Y48.8489 Z-2.9159 F180
G01 X9.9508 Y48.8207 Z-2.9322 F180
G01 X9.8269 Y48.7832 Z-2.9765 F180
G01 X9.6997 Y48.7697 Z-3.0291 F180
G01 X9.6353 Y48.7721 Z-3.0554 F180
G01 X9.5117 Y48.7955 Z-3.0999 F180
G01 X9.3953 Y48.8420 Z-3.1274 F180
G01 X9.3403 Y48.8738 Z-3.1333 F180
G01 X9.2425 Y48.9526 Z-3.1290 F180
G01 X9.1610 Y49.0491 Z-3.1077 F180
G01 X9.1269 Y49.1039 Z-3.0931 F180
G01 X9.0755 Y49.2220 Z-3.0636 F180
G01 X9.0465 Y49.3494 Z-3.0424 F180
G01 X9.0407 Y49.4162 Z-3.0378 F180
G01 X9.0478 Y49.5506 Z-3.0443 F180
G01 X9.0790 Y49.6839 Z-3.0721 F180
G01 X9.1039 Y49.7497 Z-3.0931 F180
G01 X9.1704 Y49.8744 Z-3.1431 F180
G01 X9.2583 Y49.9877 Z-3.1956 F180
G01 X9.3103 Y50.0398 Z-3.2197 F180
G01 X9.3958 Y50.1371 Z-3.2444 F1200
G01 X9.4849 Y50.2079 Z-3.2497 F1200
G01 X9.5953 Y50.2680 Z-3.2353 F1200
G01 X9.7008 Y50.3023 Z-3.2074 F1200
G01 X9.8225 Y50.3191 Z-3.1671 F1200
G01 X9.9313 Y50.3137 Z-3.1313 F1200
G01 X10.0494 Y50.2862 Z-3.1015 F1200
G01 X10.1483 Y50.2422 Z-3.0902 F1200
G01 X10.2483 Y50.1740 Z-3.0980 F1200
G01 X10.3250 Y50.0969 Z-3.1215 F1200
G01 X10.3944 Y49.9964 Z-3.1598 F1200
G01 X10.4393 Y49.8954 Z-3.1967 F1200
G01 X10.4690 Y49.7745 Z-3.2308 F1200
G01 X10.4758 Y49.6613 Z-3.2477 F1200
G01 X10.4612 Y49.5341 Z-3.2468 F1200
G01 X10.4277 Y49.4221 Z-3.2283 F1200
G01 X10.3689 Y49.3037 Z-3.1931 F1200
G01 X10.2977 Y49.2060 Z-3.1560 F1200
G01 X10.1998 Y49.1104 Z-3.1185 F1200
G01 X10.0972 Y49.0388 Z-3.0964 F1200
G01 X9.9695 Y48.9777 Z-3.0906 F1200
G01 X9.8457 Y48.9411 Z-3.1035 F1200
G01 X9.7010 Y48.9227 Z-3.1346 F1200
G01 X9.5682 Y48.9264 Z-3.1708 F1200
G01 X9.4211 Y48.9540 Z-3.2107 F1200
G01 X9.2929 Y48.9990 Z-3.2374 F1200
G01 X9.1583 Y49.0714 Z-3.2499 F1200
G01 X9.0478 Y49.1541 Z-3.2429 F1200
G01 X8.9395 Y49.2650 Z-3.2167 F1200
G01 X8.8577 Y49.3780 Z-3.1823 F1200
G01 X8.7868 Y49.5170 Z-3.1412 F1200
G01 X8.7421 Y49.6495 Z-3.1106 F1200
G01 X8.7155 Y49.8033 Z-3.0918 F1200
G01 X8.7121 Y49.9426 Z-3.0927 F1200
G01 X8.7323 Y50.0963 Z-3.1133 F1200
G01 X8.7701 Y50.2288 Z-3.1449 F1200
G01 X8.8344 Y50.3676 Z-3.1862 F1200
G01 X8.9090 Y50.4805 Z-3.2198 F1200
G01 X9.0103 Y50.5911 Z-3.2444 F1200
G01 X9.1133 Y50.6738 Z-3.2496 F1200
G01 X9.2404 Y50.7461 Z-3.2352 F1200
G01 X9.3606 Y50.7913 Z-3.2073 F1200
G01 X9.4996 Y50.8193 Z-3.1669 F1200
G01 X9.6238 Y50.8238 Z-3.1311 F1200
G01 X9.7598 Y50.8062 Z-3.1014 F1200
G01 X9.8748 Y50.7711 Z-3.0902 F1200
G01 X9.9932 Y50.7118 Z-3.0980 F1200
G01 X10.0866 Y50.6425 Z-3.1216 F1200
G01 X10.1750 Y50.5496 Z-3.1599 F1200
G01 X10.2369 Y50.4554 Z-3.1969 F1200
G01 X10.2861 Y50.3408 Z-3.2309 F1200
G01 X10.3103 Y50.2333 Z-3.2478 F1200
G01 X10.3155 Y50.1112 Z-3.2467 F1200
G01 X10.2998 Y50.0037 Z-3.2282 F1200
G01 X10.2612 Y49.8890 Z-3.1930 F1200
G01 X10.2080 Y49.7948 Z-3.1559 F1200
G01 X10.1304 Y49.7016 Z-3.1184 F1200
G01 X10.0461 Y49.6322 Z-3.0964 F1200
G01 X9.9389 Y49.5723 Z-3.0906 F1200
G01 X9.8334 Y49.5368 Z-3.1036 F1200
G01 X9.7093 Y49.5182 Z-3.1348 F1200
G01 X9.5949 Y49.5217 Z-3.1710 F1200
G01 X9.4683 Y49.5479 Z-3.2109 F1200
G01 X9.3585 Y49.5915 Z-3.2375 F1200
G01 X9.2444 Y49.6610 Z-3.2499 F1200
G01 X9.1521 Y49.7411 Z-3.2428 F1200
G01 X9.0640 Y49.8478 Z-3.2166 F1200
G01 X9.0004 Y49.9570 Z-3.1822 F1200
G01 X8.9493 Y50.0905 Z-3.1410 F1200
G01 X8.9224 Y50.2181 Z-3.1104 F1200
G01 X8.9153 Y50.3650 Z-3.0917 F1200
G01 X8.9294 Y50.4981 Z-3.0927 F1200
G01 X8.9685 Y50.6437 Z-3.1134 F1200
G01 X9.0234 Y50.7689 Z-3.1450 F1200
G01 X9.1061 Y50.8983 Z-3.1864 F1200
G01 X9.1972 Y51.0028 Z-3.2200 F1200
G01 X9.3162 Y51.1028 Z-3.2445 F1200
G01 X9.4352 Y51.1760 Z-3.2496 F1200
G01 X9.5792 Y51.2365 Z-3.2351 F1200
G01 X9.7146 Y51.2713 Z-3.2071 F1200
G01 X9.8697 Y51.2864 Z-3.1667 F1200
G01 X10.0085 Y51.2794 Z-3.1310 F1200
G01 X10.1597 Y51.2480 Z-3.1013 F1200
G01 X10.2883 Y51.2005 Z-3.0902 F1200
G01 X10.4211 Y51.1263 Z-3.0981 F1200
G01 X10.5272 Y51.0438 Z-3.1217 F1200
G01 X10.6289 Y50.9352 Z-3.1601 F1200
G01 X10.7027 Y50.8269 Z-3.1970 F1200
G01 X10.7642 Y50.6957 Z-3.2311 F1200
G01 X10.7993 Y50.5735 Z-3.2478 F1200
G01 X10.8156 Y50.4341 Z-3.2467 F1200
G01 X10.8099 Y50.3112 Z-3.2281 F1200
G01 X10.7812 Y50.1786 Z-3.1928 F1200
G01 X10.7369 Y50.0683 Z-3.1557 F1200
G01 X10.6681 Y49.9567 Z-3.1183 F1200
G01 X10.5917 Y49.8707 Z-3.0963 F1200
G01 X10.4921 Y49.7918 Z-3.0906 F1200
G01 X10.3934 Y49.7392 Z-3.1037 F1200
G01 X10.2756 Y49.7011 Z-3.1349 F1200
G01 X10.1669 Y49.6873 Z-3.1712 F1200
G01 X10.0454 Y49.6936 Z-3.2110 F1200
G01 X9.9401 Y49.7194 Z-3.2376 F1200
G01 X9.8298 Y49.7688 Z-3.2499 F1200
G01 X9.7409 Y49.8309 Z-3.2428 F1200
G01 X9.6553 Y49.9172 Z-3.2164 F1200
G01 X9.5939 Y50.0082 Z-3.1820 F1200
G01 X9.5440 Y50.1211 Z-3.1408 F1200
G01 X9.5181 Y50.2303 Z-3.1103 F1200
G01 X9.5109 Y50.3567 Z-3.0917 F1200
G01 X9.5248 Y50.4714 Z-3.0928 F1200
G01 X9.5624 Y50.5965 Z-3.1135 F1200
G01 X9.6159 Y50.7032 Z-3.1452 F1200
G01 X9.6958 Y50.8122 Z-3.1865 F1200
G01 X9.7843 Y50.8984 Z-3.2201 F1200
G01 X9.8991 Y50.9782 Z-3.2446 F1200
G01 X10.0142 Y51.0334 Z-3.2496 F1200
G01 X10.1527 Y51.0740 Z-3.2350 F1200
G01 X10.2831 Y51.0909 Z-3.2070 F1200
G01 X10.4314 Y51.0865 Z-3.1666 F1200
G01 X10.5640 Y51.0621 Z-3.1308 F1200
G01 X10.7071 Y51.0116 Z-3.1012 F1200
G01 X10.8284 Y50.9472 Z-3.0902 F1200
G01 X10.9518 Y50.8545 Z-3.0982 F1200
G01 X11.0495 Y50.7556 Z-3.1219 F1200
G01 X11.1406 Y50.6292 Z-3.1603 F1200
G01 X11.2049 Y50.5050 Z-3.1972 F1200
G01 X11.2546 Y50.3569 Z-3.2312 F1200
G01 X11.2792 Y50.2195 Z-3.2479 F1200
G01 X11.2827 Y50.0639 Z-3.2466 F1200
G01 X11.2655 Y49.9266 Z-3.2280 F1200
G01 X11.2229 Y49.7787 Z-3.1926 F1200
G01 X11.1662 Y49.6548 Z-3.1555 F1200
G01 X11.0826 Y49.5288 Z-3.1181 F1200
G01 X10.9929 Y49.4301 Z-3.0962 F1200
G01 X10.8776 Y49.3379 Z-3.0906 F1200
G01 X10.7649 Y49.2734 Z-3.1038 F1200
G01 X10.6305 Y49.2231 Z-3.1351 F1200
G01 X10.5071 Y49.1983 Z-3.1713 F1200
G01 X10.3683 Y49.1935 Z-3.2112 F1200
G01 X10.2477 Y49.2094 Z-3.2377 F1200
G01 X10.1194 Y49.2488 Z-3.2499 F1200
G01 X10.0145 Y49.3020 Z-3.2427 F1200
G01 X9.9104 Y49.3795 Z-3.2163 F1200
G01 X9.8324 Y49.4626 Z-3.1818 F1200
G01 X9.7635 Y49.5680 Z-3.1407 F1200
G01 X9.7206 Y49.6704 Z-3.1102 F1200
G01 X9.6939 Y49.7905 Z-3.0916 F1200
G01 X9.6904 Y49.8994 Z-3.0928 F1200
G01 X9.7081 Y50.0194 Z-3.1136 F1200
G01 X9.7439 Y50.1216 Z-3.1453 F1200
G01 X9.8036 Y50.2268 Z-3.1867 F1200
G01 X9.8741 Y50.3096 Z-3.2202 F1200
G01 X9.9685 Y50.3869 Z-3.2446 F1200
G01 X10.0654 Y50.4398 Z-3.2496 F1200
G01 X10.1834 Y50.4793 Z-3.2349 F1200
G01 X10.2954 Y50.4951 Z-3.2068 F1200
G01 X10.4231 Y50.4909 Z-3.1664 F1200
G01 X10.5373 Y50.4666 Z-3.1307 F1200
G01 X10.6599 Y50.4177 Z-3.1011 F1200
G01 X10.7627 Y50.3546 Z-3.0902 F1200
G01 X10.8657 Y50.2648 Z-3.0983 F1200
G01 X10.9451 Y50.1685 Z-3.1220 F1200
G01 X11.0160 Y50.0463 Z-3.1604 F1200
G01 X11.0622 Y49.9259 Z-3.1973 F1200
G01 X11.0920 Y49.7833 Z-3.2313 F1200
G01 X11.0988 Y49.6509 Z-3.2479 F1200
G01 X11.0828 Y49.5022 Z-3.2466 F1200
G01 X11.0481 Y49.3711 Z-3.2279 F1200
G01 X10.9866 Y49.2313 Z-3.1925 F1200
G01 X10.9128 Y49.1147 Z-3.1554 F1200
G01 X10.8108 Y48.9982 Z-3.1180 F1200
G01 X10.7046 Y48.9079 Z-3.0962 F1200
G01 X10.5716 Y48.8262 Z-3.0907 F1200
G01 X10.4430 Y48.7713 Z-3.1039 F1200
G01 X10.2917 Y48.7327 Z-3.1352 F1200
G01 X10.1531 Y48.7185 Z-3.1715 F1200
G01 X9.9982 Y48.7265 Z-3.2113 F1200
G01 X9.8630 Y48.7539 Z-3.2378 F1200
G01 X9.7195 Y48.8071 Z-3.2499 F1200
G01 X9.6010 Y48.8727 Z-3.2426 F1200
G01 X9.4826 Y48.9650 Z-3.2161 F1200
G01 X9.3918 Y49.0614 Z-3.1817 F1200
G01 X9.3096 Y49.1825 Z-3.1405 F1200
G01 X9.2549 Y49.2989 Z-3.1101 F1200
G01 X9.2159 Y49.4355 Z-3.0916 F1200
G01 X9.2015 Y49.5592 Z-3.0928 F1200
G01 X9.2081 Y49.6965 Z-3.1138 F1200
G01 X9.2339 Y49.8141 Z-3.1455 F1200
G01 X9.2837 Y49.9372 Z-3.1869 F1200
G01 X9.3452 Y50.0360 Z-3.2204 F1200
G01 X9.4308 Y50.1318 Z-3.2447 F1200
G01 X9.5199 Y50.2012 Z-3.2496 F1200
G00 Z6.0000 F480


;No. 5: Hole 2
G00 X9.9168 Y69.4927 Z6.0000 F1500
G00 X10.6998 Y69.3546 Z0.5107 F480
G01 X10.6639 Y69.2208 Z0.5223 F180
G01 X10.6053 Y69.0952 Z0.5447 F180
G01 X10.5258 Y68.9817 Z0.5670 F180
G01 X10.4278 Y68.8837 Z0.5786 F180
G01 X10.3143 Y68.8042 Z0.5717 F180
G01 X10.1887 Y68.7456 Z0.5433 F180
G01 X10.0549 Y68.7098 Z0.4963 F180
G01 X9.9168 Y68.6977 Z0.4387 F180
G01 X9.7788 Y68.7098 Z0.3810 F180
G01 X9.6449 Y68.7456 Z0.3341 F180
G01 X9.5193 Y68.8042 Z0.3057 F180
G01 X9.4058 Y68.8837 Z0.2987 F180
G01 X9.3078 Y68.9817 Z0.3103 F180
G01 X9.2283 Y69.0952 Z0.3327 F180
G01 X9.1698 Y69.2208 Z0.3550 F180
G01 X9.1339 Y69.3546 Z0.3666 F180
G01 X9.1218 Y69.4927 Z0.3597 F180
G01 X9.1339 Y69.6307 Z0.3313 F180
G01 X9.1698 Y69.7646 Z0.2843 F180
G01 X9.2283 Y69.8902 Z0.2267 F180
G01 X9.3078 Y70.0037 Z0.1690 F180
G01 X9.4058 Y70.1017 Z0.1221 F180
G01 X9.5193 Y70.1812 Z0.0937 F180
G01 X9.6449 Y70.2397 Z0.0867 F180
G01 X9.7788 Y70.2756 Z0.0983 F180
G01 X9.9168 Y70.2877 Z0.1207 F180
G01 X10.0549 Y70.2756 Z0.1430 F180
G01 X10.1887 Y70.2397 Z0.1546 F180
G01 X10.2277 Y70.2244 Z0.1547 F180
G01 X10.3369 Y70.1619 Z0.1474 F180
G01 X10.4330 Y70.0791 Z0.1190 F180
G01 X10.4766 Y70.0290 Z0.0972 F180
G01 X10.5467 Y69.9215 Z0.0468 F180
G01 X10.5962 Y69.8012 Z-0.0056 F180
G01 X10.6132 Y69.7350 Z-0.0299 F180
G01 X10.6284 Y69.6035 Z-0.0651 F180
G01 X10.6196 Y69.4692 Z-0.0801 F180
G01 X10.6055 Y69.3998 Z-0.0795 F180
G01 X10.5606 Y69.2702 Z-0.0640 F180
G01 X10.4928 Y69.1483 Z-0.0364 F180
G01 X10.4491 Y69.0894 Z-0.0208 F180
G01 X10.3503 Y68.9873 Z0.0047 F180
G01 X10.2341 Y68.9018 Z0.0161 F180
G01 X10.1679 Y68.8650 Z0.0142 F180
G01 X10.0318 Y68.8109 Z-0.0059 F180
G01 X9.8870 Y68.7793 Z-0.0452 F180
G01 X9.8097 Y68.7722 Z-0.0708 F180
G01 X9.6601 Y68.7776 Z-0.1237 F180
G01 X9.5122 Y68.8071 Z-0.1720 F180
G01 X9.4374 Y68.8318 Z-0.1919 F180
G01 X9.3006 Y68.8970 Z-0.2155 F180
G01 X9.1756 Y68.9834 Z-0.2177 F180
G01 X9.1165 Y69.0358 Z-0.2110 F180
G01 X9.0166 Y69.1500 Z-0.1872 F180
G01 X8.9363 Y69.2783 Z-0.1573 F180
G01 X8.9031 Y69.3492 Z-0.1432 F180
G01 X8.8572 Y69.4923 Z-0.1251 F180
G01 X8.8351 Y69.6398 Z-0.1254 F180
G01 X8.8331 Y69.7166 Z-0.1341 F180
G01 X8.8482 Y69.8632 Z-0.1662 F180
G01 X8.8867 Y70.0035 Z-0.2136 F180
G01 X8.9154 Y70.0725 Z-0.2411 F180
G01 X8.9870 Y70.1964 Z-0.2926 F180
G01 X9.0771 Y70.3048 Z-0.3332 F180
G01 X9.1302 Y70.3539 Z-0.3473 F180
G01 X9.2431 Y70.4336 Z-0.3581 F180
G01 X9.3662 Y70.4913 Z-0.3484 F180
G01 X9.4328 Y70.5122 Z-0.3369 F180
G01 X9.5642 Y70.5346 Z-0.3082 F180
G01 X9.6955 Y70.5328 Z-0.2801 F180
G01 X9.7621 Y70.5225 Z-0.2693 F180
G01 X9.8859 Y70.4854 Z-0.2615 F180
G01 X9.9991 Y70.4266 Z-0.2746 F180
G01 X10.0525 Y70.3882 Z-0.2898 F180
G01 X10.1438 Y70.3010 Z-0.3320 F180
G01 X10.2164 Y70.1986 Z-0.3840 F180
G01 X10.2459 Y70.1405 Z-0.4113 F180
G01 X10.2865 Y70.0221 Z-0.4575 F180
G01 X10.3036 Y69.8978 Z-0.4877 F180
G01 X10.3030 Y69.8324 Z-0.4952 F180
G01 X10.2844 Y69.7075 Z-0.4934 F180
G01 X10.2420 Y69.5874 Z-0.4737 F180
G01 X10.2111 Y69.5282 Z-0.4592 F180
G01 X10.1361 Y69.4231 Z-0.4295 F180
G01 X10.0417 Y69.3324 Z-0.4069 F180
G01 X9.9859 Y69.2920 Z-0.4011 F180
G01 X9.8684 Y69.2291 Z-0.4055 F180
G01 X9.7394 Y69.1875 Z-0.4313 F180
G01 X9.6691 Y69.1748 Z-0.4520 F180
G01 X9.5311 Y69.1685 Z-0.5013 F180
G01 X9.3917 Y69.1864 Z-0.5541 F180
G01 X9.3202 Y69.2051 Z-0.5791 F180
G01 X9.1877 Y69.2591 Z-0.6167 F180
G01 X9.0642 Y69.3355 Z-0.6346 F180
G01 X9.0050 Y69.3834 Z-0.6354 F180
G01 X8.9033 Y69.4899 Z-0.6222 F180
G01 X8.8193 Y69.6128 Z-0.5957 F180
G01 X8.7835 Y69.6820 Z-0.5800 F180
G01 X8.7321 Y69.8232 Z-0.5533 F180
G01 X8.7037 Y69.9717 Z-0.5395 F180
G01 X8.6984 Y70.0503 Z-0.5400 F180
G01 X8.7073 Y70.2019 Z-0.5572 F180
G01 X8.7402 Y70.3502 Z-0.5942 F180
G01 X8.7665 Y70.4246 Z-0.6191 F180
G01 X8.8346 Y70.5600 Z-0.6718 F180
G01 X8.9230 Y70.6824 Z-0.7214 F180
G01 X8.9761 Y70.7396 Z-0.7424 F180
G01 X9.0911 Y70.8356 Z-0.7688 F180
G01 X9.2188 Y70.9112 Z-0.7738 F180
G01 X9.2890 Y70.9416 Z-0.7684 F180
G01 X9.4297 Y70.9823 Z-0.7462 F180
G01 X9.5734 Y70.9990 Z-0.7165 F180
G01 X9.6476 Y70.9981 Z-0.7018 F180
G01 X9.7883 Y70.9780 Z-0.6818 F180
G01 X9.9214 Y70.9349 Z-0.6793 F180
G01 X9.9862 Y70.9041 Z-0.6864 F180
G01 X10.1012 Y70.8292 Z-0.7160 F180
G01 X10.1995 Y70.7368 Z-0.7618 F180
G01 X10.2430 Y70.6830 Z-0.7891 F180
G01 X10.3117 Y70.5698 Z-0.8413 F180
G01 X10.3578 Y70.4478 Z-0.8839 F180
G01 X10.3724 Y70.3824 Z-0.8994 F180
G01 X10.3830 Y70.2544 Z-0.9132 F180
G01 X10.3695 Y70.1282 Z-0.9060 F180
G01 X10.3532 Y70.0646 Z-0.8954 F180
G01 X10.3052 Y69.9483 Z-0.8675 F180
G01 X10.2362 Y69.8436 Z-0.8386 F180
G01 X10.1949 Y69.7973 Z-0.8274 F180
G01 X10.0996 Y69.7161 Z-0.8166 F180
G01 X9.9900 Y69.6544 Z-0.8263 F180
G01 X9.9317 Y69.6318 Z-0.8390 F180
G01 X9.8085 Y69.6026 Z-0.8784 F180
G01 X9.6807 Y69.5971 Z-0.9294 F180
G01 X9.6170 Y69.6034 Z-0.9557 F180
G01 X9.4907 Y69.6332 Z-1.0042 F180
G01 X9.3703 Y69.6865 Z-1.0383 F180
G01 X9.3141 Y69.7212 Z-1.0478 F180
G01 X9.2102 Y69.8061 Z-1.0508 F180
G01 X9.1215 Y69.9097 Z-1.0347 F180
G01 X9.0842 Y69.9671 Z-1.0218 F180
G01 X9.0242 Y70.0925 Z-0.9920 F180
G01 X8.9859 Y70.2285 Z-0.9666 F180
G01 X8.9754 Y70.2985 Z-0.9588 F180
G01 X8.9725 Y70.4423 Z-0.9573 F180
G01 X8.9938 Y70.5865 Z-0.9772 F180
G01 X9.0132 Y70.6567 Z-0.9944 F180
G01 X9.0702 Y70.7931 Z-1.0405 F180
G01 X9.1492 Y70.9197 Z-1.0934 F180
G01 X9.1959 Y70.9776 Z-1.1187 F180
G01 X9.3044 Y71.0821 Z-1.1614 F180
G01 X9.4287 Y71.1684 Z-1.1863 F180
G01 X9.4951 Y71.2036 Z-1.1907 F180
G01 X9.6371 Y71.2575 Z-1.1840 F180
G01 X9.7859 Y71.2882 Z-1.1612 F180
G01 X9.8607 Y71.2945 Z-1.1467 F180
G01 X10.0121 Y71.2884 Z-1.1176 F180
G01 X10.1598 Y71.2585 Z-1.0979 F180
G01 X10.2303 Y71.2351 Z-1.0943 F180
G01 X10.3652 Y71.1706 Z-1.1028 F180
G01 X10.4868 Y71.0860 Z-1.1324 F180
G01 X10.5409 Y71.0375 Z-1.1536 F180
G01 X10.6366 Y70.9270 Z-1.2042 F180
G01 X10.7117 Y70.8040 Z-1.2565 F180
G01 X10.7406 Y70.7396 Z-1.2795 F180
G01 X10.7816 Y70.6039 Z-1.3145 F180
G01 X10.7986 Y70.4655 Z-1.3294 F180
G01 X10.7981 Y70.3973 Z-1.3288 F180
G01 X10.7792 Y70.2618 Z-1.3135 F180
G01 X10.7374 Y70.1339 Z-1.2861 F180
G01 X10.7088 Y70.0747 Z-1.2712 F180
G01 X10.6360 Y69.9645 Z-1.2453 F180
G01 X10.5456 Y69.8708 Z-1.2332 F180
G01 X10.4954 Y69.8315 Z-1.2345 F180
G01 X10.3847 Y69.7669 Z-1.2532 F180
G01 X10.2651 Y69.7247 Z-1.2914 F180
G01 X10.2038 Y69.7125 Z-1.3154 F180
G01 X10.0782 Y69.7050 Z-1.3682 F180
G01 X9.9540 Y69.7217 Z-1.4174 F180
G01 X9.8944 Y69.7387 Z-1.4371 F180
G01 X9.7797 Y69.7892 Z-1.4631 F180
G01 X9.6765 Y69.8610 Z-1.4677 F180
G01 X9.6308 Y69.9037 Z-1.4624 F180
G01 X9.5508 Y70.0020 Z-1.4403 F180
G01 X9.4901 Y70.1148 Z-1.4106 F180
G01 X9.4679 Y70.1749 Z-1.3966 F180
G01 X9.4397 Y70.3018 Z-1.3761 F180
G01 X9.4352 Y70.4336 Z-1.3731 F180
G01 X9.4419 Y70.4994 Z-1.3795 F180
G01 X9.4730 Y70.6301 Z-1.4080 F180
G01 X9.5276 Y70.7553 Z-1.4532 F180
G01 X9.5630 Y70.8141 Z-1.4790 F180
G01 X9.6497 Y70.9230 Z-1.5315 F180
G01 X9.7555 Y71.0171 Z-1.5752 F180
G01 X9.8140 Y71.0572 Z-1.5908 F180
G01 X9.9422 Y71.1227 Z-1.6067 F180
G01 X10.0814 Y71.1667 Z-1.6015 F180
G01 X10.1531 Y71.1801 Z-1.5923 F180
G01 X10.2799 Y71.2051 Z-1.5653 F180
G01 X10.4076 Y71.2060 Z-1.5359 F180
G01 X10.4698 Y71.1976 Z-1.5240 F180
G01 X10.5904 Y71.1623 Z-1.5109 F180
G01 X10.7017 Y71.1048 Z-1.5179 F180
G01 X10.7522 Y71.0687 Z-1.5293 F180
G01 X10.8422 Y70.9811 Z-1.5666 F180
G01 X10.9143 Y70.8772 Z-1.6167 F180
G01 X10.9425 Y70.8208 Z-1.6431 F180
G01 X10.9829 Y70.6983 Z-1.6927 F180
G01 X11.0003 Y70.5686 Z-1.7290 F180
G01 X11.0000 Y70.5030 Z-1.7398 F180
G01 X10.9811 Y70.3696 Z-1.7456 F180
G01 X10.9382 Y70.2393 Z-1.7316 F180
G01 X10.9084 Y70.1773 Z-1.7193 F180
G01 X10.8314 Y70.0587 Z-1.6898 F180
G01 X10.7340 Y69.9531 Z-1.6632 F180
G01 X10.6791 Y69.9067 Z-1.6544 F180
G01 X10.5561 Y69.8259 Z-1.6503 F180
G01 X10.4201 Y69.7654 Z-1.6675 F180
G01 X10.3492 Y69.7436 Z-1.6836 F180
G01 X10.2008 Y69.7162 Z-1.7281 F180
G01 X10.0492 Y69.7127 Z-1.7808 F180
G01 X9.9743 Y69.7199 Z-1.8064 F180
G01 X9.8258 Y69.7515 Z-1.8509 F180
G01 X9.6845 Y69.8061 Z-1.8783 F180
G01 X9.6185 Y69.8412 Z-1.8841 F180
G01 X9.4951 Y69.9262 Z-1.8799 F180
G01 X9.3881 Y70.0290 Z-1.8587 F180
G01 X9.3420 Y70.0855 Z-1.8445 F180
G01 X9.2644 Y70.2082 Z-1.8149 F180
G01 X9.2091 Y70.3401 Z-1.7935 F180
G01 X9.1905 Y70.4076 Z-1.7888 F180
G01 X9.1707 Y70.5450 Z-1.7946 F180
G01 X9.1751 Y70.6815 Z-1.8217 F180
G01 X9.1860 Y70.7473 Z-1.8419 F180
G01 X9.2253 Y70.8737 Z-1.8915 F180
G01 X9.2861 Y70.9890 Z-1.9442 F180
G01 X9.3235 Y71.0409 Z-1.9679 F180
G01 X9.4121 Y71.1322 Z-2.0052 F180
G01 X9.5156 Y71.2045 Z-2.0227 F180
G01 X9.5712 Y71.2325 Z-2.0234 F180
G01 X9.6902 Y71.2714 Z-2.0103 F180
G01 X9.8146 Y71.2867 Z-1.9839 F180
G01 X9.8769 Y71.2854 Z-1.9690 F180
G01 X10.0018 Y71.2638 Z-1.9420 F180
G01 X10.1216 Y71.2186 Z-1.9277 F180
G01 X10.1777 Y71.1879 Z-1.9276 F180
G01 X10.2829 Y71.1091 Z-1.9437 F180
G01 X10.3734 Y71.0111 Z-1.9797 F180
G01 X10.4119 Y70.9563 Z-2.0031 F180
G01 X10.4754 Y70.8341 Z-2.0556 F180
G01 X10.5175 Y70.7005 Z-2.1058 F180
G01 X10.5299 Y70.6315 Z-2.1265 F180
G01 X10.5378 Y70.4875 Z-2.1550 F180
G01 X10.5215 Y70.3423 Z-2.1623 F180
G01 X10.5045 Y70.2712 Z-2.1582 F180
G01 X10.4531 Y70.1312 Z-2.1377 F180
G01 X10.3793 Y70.0002 Z-2.1084 F180
G01 X10.3351 Y69.9398 Z-2.0940 F180
G01 X10.2320 Y69.8285 Z-2.0719 F180
G01 X10.1125 Y69.7347 Z-2.0663 F180
G01 X10.0482 Y69.6957 Z-2.0713 F180
G01 X9.9108 Y69.6323 Z-2.0974 F180
G01 X9.7659 Y69.5918 Z-2.1409 F180
G01 X9.6926 Y69.5806 Z-2.1663 F180
G01 X9.5447 Y69.5754 Z-2.2191 F180
G01 X9.3996 Y69.5942 Z-2.2645 F180
G01 X9.3301 Y69.6121 Z-2.2813 F180
G01 X9.1976 Y69.6644 Z-2.2999 F180
G01 X9.0777 Y69.7371 Z-2.2973 F180
G01 X9.0241 Y69.7800 Z-2.2890 F180
G01 X8.9300 Y69.8781 Z-2.2631 F180
G01 X8.8561 Y69.9894 Z-2.2334 F180
G01 X8.8264 Y70.0513 Z-2.2202 F180
G01 X8.7874 Y70.1751 Z-2.2054 F180
G01 X8.7724 Y70.3024 Z-2.2102 F180
G01 X8.7741 Y70.3684 Z-2.2212 F180
G01 X8.7964 Y70.4923 Z-2.2572 F180
G01 X8.8417 Y70.6092 Z-2.3066 F180
G01 X8.8738 Y70.6658 Z-2.3343 F180
G01 X8.9518 Y70.7642 Z-2.3843 F180
G01 X9.0476 Y70.8463 Z-2.4216 F180
G01 X9.1034 Y70.8816 Z-2.4334 F180
G01 X9.2212 Y70.9334 Z-2.4397 F180
G01 X9.3482 Y70.9629 Z-2.4262 F180
G01 X9.4165 Y70.9689 Z-2.4134 F180
G01 X9.5506 Y70.9621 Z-2.3839 F180
G01 X9.6837 Y70.9311 Z-2.3573 F180
G01 X9.7510 Y70.9056 Z-2.3481 F180
G01 X9.8753 Y70.8390 Z-2.3445 F180
G01 X9.9883 Y70.7510 Z-2.3621 F180
G01 X10.0414 Y70.6976 Z-2.3793 F180
G01 X10.1315 Y70.5815 Z-2.4244 F180
G01 X10.2024 Y70.4509 Z-2.4772 F180
G01 X10.2308 Y70.3785 Z-2.5039 F180
G01 X10.2691 Y70.2326 Z-2.5474 F180
G01 X10.2838 Y70.0818 Z-2.5734 F180
G01 X10.2819 Y70.0029 Z-2.5785 F180
G01 X10.2609 Y69.8525 Z-2.5725 F180
G01 X10.2163 Y69.7076 Z-2.5501 F180
G01 X10.1843 Y69.6360 Z-2.5349 F180
G01 X10.1077 Y69.5072 Z-2.5058 F180
G01 X10.0122 Y69.3934 Z-2.4860 F180
G01 X9.9561 Y69.3413 Z-2.4823 F180
G01 X9.8385 Y69.2562 Z-2.4912 F180
G01 X9.7102 Y69.1926 Z-2.5211 F180
G01 X9.6407 Y69.1687 Z-2.5435 F180
G01 X9.5046 Y69.1409 Z-2.5944 F180
G01 X9.3681 Y69.1373 Z-2.6465 F180
G01 X9.2985 Y69.1448 Z-2.6704 F180
G01 X9.1702 Y69.1772 Z-2.7042 F180
G01 X9.0518 Y69.2316 Z-2.7176 F180
G01 X8.9955 Y69.2679 Z-2.7161 F180
G01 X8.8998 Y69.3519 Z-2.6994 F180
G01 X8.8225 Y69.4516 Z-2.6714 F180
G01 X8.7904 Y69.5084 Z-2.6558 F180
G01 X8.7463 Y69.6256 Z-2.6310 F180
G01 X8.7254 Y69.7492 Z-2.6210 F180
G01 X8.7241 Y69.8146 Z-2.6238 F180
G01 X8.7406 Y69.9404 Z-2.6455 F180
G01 X8.7810 Y70.0621 Z-2.6859 F180
G01 X8.8110 Y70.1223 Z-2.7119 F180
G01 X8.8860 Y70.2304 Z-2.7649 F180
G01 X8.9809 Y70.3247 Z-2.8124 F180
G01 X9.0371 Y70.3672 Z-2.8316 F180
G01 X9.1574 Y70.4349 Z-2.8536 F180
G01 X9.2898 Y70.4816 Z-2.8542 F180
G01 X9.3621 Y70.4970 Z-2.8468 F180
G01 X9.5061 Y70.5093 Z-2.8222 F180
G01 X9.6521 Y70.4974 Z-2.7924 F180
G01 X9.7273 Y70.4818 Z-2.7785 F180
G01 X9.8690 Y70.4342 Z-2.7616 F180
G01 X10.0022 Y70.3639 Z-2.7635 F180
G01 X10.0668 Y70.3191 Z-2.7730 F180
G01 X10.1807 Y70.2187 Z-2.8065 F180
G01 X10.2773 Y70.1015 Z-2.8547 F180
G01 X10.3197 Y70.0350 Z-2.8823 F180
G01 X10.3858 Y69.8991 Z-2.9333 F180
G01 X10.4290 Y69.7553 Z-2.9728 F180
G01 X10.4421 Y69.6788 Z-2.9861 F180
G01 X10.4496 Y69.5315 Z-2.9953 F180
G01 X10.4330 Y69.3867 Z-2.9842 F180
G01 X10.4152 Y69.3139 Z-2.9722 F180
G01 X10.3645 Y69.1815 Z-2.9432 F180
G01 X10.2931 Y69.0616 Z-2.9155 F180
G01 X10.2487 Y69.0055 Z-2.9053 F180
G01 X10.1514 Y68.9118 Z-2.8990 F180
G01 X10.0408 Y68.8381 Z-2.9137 F180
G01 X9.9793 Y68.8085 Z-2.9296 F180
G01 X9.8560 Y68.7699 Z-2.9729 F180
G01 X9.7293 Y68.7551 Z-3.0252 F180
G01 X9.6634 Y68.7570 Z-3.0524 F180
G01 X9.5398 Y68.7796 Z-3.0976 F180
G01 X9.4232 Y68.8252 Z-3.1263 F180
G01 X9.3667 Y68.8576 Z-3.1330 F180
G01 X9.2684 Y68.9359 Z-3.1296 F180
G01 X9.1863 Y69.0322 Z-3.1090 F180
G01 X9.1510 Y69.0883 Z-3.0942 F180
G01 X9.0991 Y69.2067 Z-3.0646 F180
G01 X9.0694 Y69.3343 Z-3.0429 F180
G01 X9.0633 Y69.4030 Z-3.0379 F180
G01 X9.0699 Y69.5380 Z-3.0439 F180
G01 X9.1007 Y69.6720 Z-3.0712 F180
G01 X9.1261 Y69.7398 Z-3.0925 F180
G01 X9.1925 Y69.8651 Z-3.1425 F180
G01 X9.2803 Y69.9792 Z-3.1950 F180
G01 X9.3336 Y70.0329 Z-3.2197 F180
G01 X9.4189 Y70.1294 Z-3.2444 F1200
G01 X9.5087 Y70.2002 Z-3.2496 F1200
G01 X9.6191 Y70.2592 Z-3.2351 F1200
G01 X9.7254 Y70.2928 Z-3.2067 F1200
G01 X9.8469 Y70.3084 Z-3.1663 F1200
G01 X9.9566 Y70.3017 Z-3.1303 F1200
G01 X10.0741 Y70.2728 Z-3.1009 F1200
G01 X10.1735 Y70.2270 Z-3.0901 F1200
G01 X10.2725 Y70.1574 Z-3.0987 F1200
G01 X10.3491 Y70.0781 Z-3.1230 F1200
G01 X10.4172 Y69.9763 Z-3.1617 F1200
G01 X10.4611 Y69.8730 Z-3.1989 F1200
G01 X10.4891 Y69.7510 Z-3.2323 F1200
G01 X10.4942 Y69.6359 Z-3.2483 F1200
G01 X10.4775 Y69.5081 Z-3.2460 F1200
G01 X10.4417 Y69.3946 Z-3.2261 F1200
G01 X10.3807 Y69.2761 Z-3.1901 F1200
G01 X10.3067 Y69.1777 Z-3.1526 F1200
G01 X10.2066 Y69.0828 Z-3.1159 F1200
G01 X10.1011 Y69.0114 Z-3.0950 F1200
G01 X9.9717 Y68.9517 Z-3.0911 F1200
G01 X9.8451 Y68.9162 Z-3.1059 F1200
G01 X9.6992 Y68.8997 Z-3.1385 F1200
G01 X9.5643 Y68.9053 Z-3.1755 F1200
G01 X9.4167 Y68.9352 Z-3.2147 F1200
G01 X9.2873 Y68.9827 Z-3.2400 F1200
G01 X9.1532 Y69.0573 Z-3.2500 F1200
G01 X9.0423 Y69.1428 Z-3.2405 F1200
G01 X8.9355 Y69.2556 Z-3.2122 F1200
G01 X8.8546 Y69.3712 Z-3.1765 F1200
G01 X8.7858 Y69.5114 Z-3.1358 F1200
G01 X8.7430 Y69.6460 Z-3.1066 F1200
G01 X8.7191 Y69.8001 Z-3.0907 F1200
G01 X8.7184 Y69.9405 Z-3.0946 F1200
G01 X8.7414 Y70.0933 Z-3.1181 F1200
G01 X8.7823 Y70.2257 Z-3.1516 F1200
G01 X8.8493 Y70.3624 Z-3.1930 F1200
G01 X8.9269 Y70.4739 Z-3.2254 F1200
G01 X9.0301 Y70.5813 Z-3.2468 F1200
G01 X9.1355 Y70.6614 Z-3.2485 F1200
G01 X9.2634 Y70.7295 Z-3.2304 F1200
G01 X9.3850 Y70.7711 Z-3.1999 F1200
G01 X9.5235 Y70.7944 Z-3.1588 F1200
G01 X9.6478 Y70.7946 Z-3.1239 F1200
G01 X9.7816 Y70.7724 Z-3.0974 F1200
G01 X9.8951 Y70.7329 Z-3.0901 F1200
G01 X10.0098 Y70.6694 Z-3.1024 F1200
G01 X10.1000 Y70.5962 Z-3.1293 F1200
G01 X10.1833 Y70.5002 Z-3.1692 F1200
G01 X10.2407 Y70.4029 Z-3.2058 F1200
G01 X10.2838 Y70.2869 Z-3.2368 F1200
G01 X10.3023 Y70.1778 Z-3.2495 F1200
G01 X10.3010 Y70.0562 Z-3.2433 F1200
G01 X10.2792 Y69.9489 Z-3.2205 F1200
G01 X10.2341 Y69.8367 Z-3.1828 F1200
G01 X10.1748 Y69.7445 Z-3.1453 F1200
G01 X10.0917 Y69.6558 Z-3.1106 F1200
G01 X10.0021 Y69.5904 Z-3.0927 F1200
G01 X9.8908 Y69.5365 Z-3.0928 F1200
G01 X9.7814 Y69.5065 Z-3.1107 F1200
G01 X9.6551 Y69.4949 Z-3.1455 F1200
G01 X9.5387 Y69.5051 Z-3.1830 F1200
G01 X9.4122 Y69.5387 Z-3.2207 F1200
G01 X9.3025 Y69.5894 Z-3.2433 F1200
G01 X9.1908 Y69.6659 Z-3.2495 F1200
G01 X9.1008 Y69.7528 Z-3.2366 F1200
G01 X9.0174 Y69.8653 Z-3.2056 F1200
G01 X8.9580 Y69.9801 Z-3.1690 F1200
G01 X8.9133 Y70.1176 Z-3.1291 F1200
G01 X8.8923 Y70.2491 Z-3.1023 F1200
G01 X8.8925 Y70.3978 Z-3.0901 F1200
G01 X8.9134 Y70.5326 Z-3.0975 F1200
G01 X8.9601 Y70.6772 Z-3.1241 F1200
G01 X9.0220 Y70.8016 Z-3.1590 F1200
G01 X9.1114 Y70.9275 Z-3.2001 F1200
G01 X9.2089 Y71.0289 Z-3.2306 F1200
G01 X9.3331 Y71.1231 Z-3.2486 F1200
G01 X9.4569 Y71.1911 Z-3.2468 F1200
G01 X9.6038 Y71.2443 Z-3.2252 F1200
G01 X9.7420 Y71.2723 Z-3.1928 F1200
G01 X9.8973 Y71.2792 Z-3.1514 F1200
G01 X10.0362 Y71.2647 Z-3.1179 F1200
G01 X10.1847 Y71.2253 Z-3.0945 F1200
G01 X10.3107 Y71.1705 Z-3.0907 F1200
G01 X10.4378 Y71.0895 Z-3.1067 F1200
G01 X10.5388 Y71.0008 Z-3.1360 F1200
G01 X10.6326 Y70.8874 Z-3.1768 F1200
G01 X10.6992 Y70.7749 Z-3.2124 F1200
G01 X10.7511 Y70.6418 Z-3.2406 F1200
G01 X10.7776 Y70.5180 Z-3.2500 F1200
G01 X10.7839 Y70.3799 Z-3.2399 F1200
G01 X10.7691 Y70.2584 Z-3.2145 F1200
G01 X10.7309 Y70.1304 Z-3.1753 F1200
G01 X10.6781 Y70.0246 Z-3.1383 F1200
G01 X10.6015 Y69.9206 Z-3.1058 F1200
G01 X10.5182 Y69.8419 Z-3.0911 F1200
G01 X10.4134 Y69.7730 Z-3.0951 F1200
G01 X10.3103 Y69.7299 Z-3.1161 F1200
G01 X10.1905 Y69.7033 Z-3.1528 F1200
G01 X10.0807 Y69.7000 Z-3.1903 F1200
G01 X9.9609 Y69.7182 Z-3.2263 F1200
G01 X9.8578 Y69.7548 Z-3.2460 F1200
G01 X9.7529 Y69.8151 Z-3.2483 F1200
G01 X9.6695 Y69.8870 Z-3.2322 F1200
G01 X9.5926 Y69.9822 Z-3.1987 F1200
G01 X9.5397 Y70.0809 Z-3.1615 F1200
G01 X9.5009 Y70.1996 Z-3.1229 F1200
G01 X9.4856 Y70.3136 Z-3.0986 F1200
G01 X9.4908 Y70.4420 Z-3.0901 F1200
G01 X9.5163 Y70.5579 Z-3.1010 F1200
G01 X9.5665 Y70.6809 Z-3.1304 F1200
G01 X9.6314 Y70.7851 Z-3.1665 F1200
G01 X9.7226 Y70.8882 Z-3.2069 F1200
G01 X9.8211 Y70.9683 Z-3.2352 F1200
G01 X9.9446 Y71.0388 Z-3.2496 F1200
G01 X10.0673 Y71.0850 Z-3.2443 F1200
G01 X10.2110 Y71.1140 Z-3.2195 F1200
G01 X10.3455 Y71.1199 Z-3.1855 F1200
G01 X10.4949 Y71.1028 Z-3.1441 F1200
G01 X10.6277 Y71.0666 Z-3.1125 F1200
G01 X10.7675 Y71.0038 Z-3.0924 F1200
G01 X10.8851 Y70.9282 Z-3.0921 F1200
G01 X11.0011 Y70.8250 Z-3.1116 F1200
G01 X11.0915 Y70.7167 Z-3.1430 F1200
G01 X11.1719 Y70.5828 Z-3.1842 F1200
G01 X11.2260 Y70.4523 Z-3.2186 F1200
G01 X11.2629 Y70.3008 Z-3.2438 F1200
G01 X11.2757 Y70.1609 Z-3.2498 F1200
G01 X11.2657 Y70.0064 Z-3.2359 F1200
G01 X11.2362 Y69.8709 Z-3.2080 F1200
G01 X11.1811 Y69.7288 Z-3.1677 F1200
G01 X11.1132 Y69.6107 Z-3.1315 F1200
G01 X11.0194 Y69.4947 Z-3.1016 F1200
G01 X10.9210 Y69.4056 Z-3.0902 F1200
G01 X10.7992 Y69.3265 Z-3.0980 F1200
G01 X10.6814 Y69.2743 Z-3.1219 F1200
G01 X10.5451 Y69.2390 Z-3.1602 F1200
G01 X10.4209 Y69.2278 Z-3.1975 F1200
G01 X10.2853 Y69.2383 Z-3.2314 F1200
G01 X10.1684 Y69.2677 Z-3.2480 F1200
G01 X10.0482 Y69.3209 Z-3.2464 F1200
G01 X9.9516 Y69.3860 Z-3.2272 F1200
G01 X9.8598 Y69.4743 Z-3.1915 F1200
G01 X9.7938 Y69.5663 Z-3.1540 F1200
G01 X9.7403 Y69.6782 Z-3.1170 F1200
G01 X9.7119 Y69.7852 Z-3.0955 F1200
G01 X9.7022 Y69.9066 Z-3.0909 F1200
G01 X9.7143 Y70.0155 Z-3.1051 F1200
G01 X9.7489 Y70.1313 Z-3.1371 F1200
G01 X9.7996 Y70.2284 Z-3.1740 F1200
G01 X9.8742 Y70.3243 Z-3.2134 F1200
G01 X9.9575 Y70.3974 Z-3.2393 F1200
G01 X10.0632 Y70.4610 Z-3.2500 F1200
G01 X10.1693 Y70.5006 Z-3.2412 F1200
G01 X10.2938 Y70.5234 Z-3.2134 F1200
G01 X10.4103 Y70.5236 Z-3.1780 F1200
G01 X10.5389 Y70.5014 Z-3.1371 F1200
G01 X10.6524 Y70.4608 Z-3.1075 F1200
G01 X10.7700 Y70.3945 Z-3.0909 F1200
G01 X10.8670 Y70.3161 Z-3.0941 F1200
G01 X10.9596 Y70.2116 Z-3.1170 F1200
G01 X11.0285 Y70.1026 Z-3.1502 F1200
G01 X11.0849 Y69.9698 Z-3.1916 F1200
G01 X11.1170 Y69.8409 Z-3.2243 F1200
G01 X11.1296 Y69.6931 Z-3.2464 F1200
G01 X11.1203 Y69.5573 Z-3.2488 F1200
G01 X11.0863 Y69.4094 Z-3.2314 F1200
G01 X11.0353 Y69.2803 Z-3.2012 F1200
G01 X10.9569 Y69.1474 Z-3.1602 F1200
G01 X10.8685 Y69.0382 Z-3.1251 F1200
G01 X10.7529 Y68.9337 Z-3.0980 F1200
G01 X10.6353 Y68.8555 Z-3.0900 F1200
G01 X10.4934 Y68.7900 Z-3.1016 F1200
G01 X10.3580 Y68.7504 Z-3.1281 F1200
G01 X10.2038 Y68.7302 Z-3.1678 F1200
G01 X10.0640 Y68.7328 Z-3.2045 F1200
G01 X9.9126 Y68.7595 Z-3.2359 F1200
G01 X9.7821 Y68.8034 Z-3.2493 F1200
G01 X9.6482 Y68.8733 Z-3.2438 F1200
G01 X9.5398 Y68.9532 Z-3.2217 F1200
G01 X9.4363 Y69.0583 Z-3.1842 F1200
G01 X9.3601 Y69.1649 Z-3.1467 F1200
G01 X9.2967 Y69.2933 Z-3.1116 F1200
G01 X9.2594 Y69.4147 Z-3.0931 F1200
G01 X9.2410 Y69.5521 Z-3.0924 F1200
G01 X9.2451 Y69.6747 Z-3.1098 F1200
G01 X9.2719 Y69.8060 Z-3.1442 F1200
G01 X9.3152 Y69.9164 Z-3.1815 F1200
G01 X9.3824 Y70.0271 Z-3.2196 F1200
G01 X9.4586 Y70.1131 Z-3.2427 F1200
G01 X9.5570 Y70.1913 Z-3.2496 F1200
G01 X9.6560 Y70.2437 Z-3.2374 F1200
G00 Z6.0000 F480


;No. 6: Hole 1
G00 X29.7919 Y69.5326 Z6.0000 F1500
