;Project aza-case-panel-rear
;Created by Estlcam version 11 build 11.245
;Machining time about 00:04:51 hours

G90
M03 S10000
G00 X0.0000 Y0.0000 Z0.0000 F1500
G00 Z6.0000 F480


;No. 1: Part 3
G00 X-0.1284 Y-0.9993 F1500
G00 X0.6545 Y-1.1374 Z0.5107 F480
G01 X0.6187 Y-1.2712 Z0.5223 F180 S10000
G01 X0.5601 Y-1.3968 Z0.5447 F180
G01 X0.4806 Y-1.5103 Z0.5670 F180
G01 X0.3826 Y-1.6083 Z0.5786 F180
G01 X0.2691 Y-1.6878 Z0.5717 F180
G01 X0.1435 Y-1.7464 Z0.5433 F180
G01 X0.0097 Y-1.7822 Z0.4963 F180
G01 X-0.1284 Y-1.7943 Z0.4387 F180
G01 X-0.2664 Y-1.7822 Z0.3810 F180
G01 X-0.4003 Y-1.7464 Z0.3341 F180
G01 X-0.5259 Y-1.6878 Z0.3057 F180
G01 X-0.6394 Y-1.6083 Z0.2987 F180
G01 X-0.7374 Y-1.5103 Z0.3103 F180
G01 X-0.8169 Y-1.3968 Z0.3327 F180
G01 X-0.8754 Y-1.2712 Z0.3550 F180
G01 X-0.9113 Y-1.1374 Z0.3666 F180
G01 X-0.9234 Y-0.9993 Z0.3597 F180
G01 X-0.9113 Y-0.8613 Z0.3313 F180
G01 X-0.8754 Y-0.7274 Z0.2843 F180
G01 X-0.8169 Y-0.6018 Z0.2267 F180
G01 X-0.7374 Y-0.4883 Z0.1690 F180
G01 X-0.6394 Y-0.3903 Z0.1221 F180
G01 X-0.5259 Y-0.3108 Z0.0937 F180
G01 X-0.4003 Y-0.2523 Z0.0867 F180
G01 X-0.2664 Y-0.2164 Z0.0983 F180
G01 X-0.1284 Y-0.2043 Z0.1207 F180
G01 X0.0097 Y-0.2164 Z0.1430 F180
G01 X0.1435 Y-0.2523 Z0.1546 F180
G01 X0.1825 Y-0.2676 Z0.1547 F180
G01 X0.3154 Y-0.3408 Z0.1474 F180
G01 X0.4352 Y-0.4343 Z0.1190 F180
G01 X0.5385 Y-0.5455 Z0.0739 F180
G01 X0.6225 Y-0.6711 Z0.0211 F180
G01 X0.6850 Y-0.8077 Z-0.0282 F180
G01 X0.7243 Y-0.9514 Z-0.0641 F180
G01 X0.7397 Y-1.0980 Z-0.0800 F180
G01 X0.7310 Y-1.2434 Z-0.0747 F180
G01 X0.6987 Y-1.3833 Z-0.0527 F180
G01 X0.6442 Y-1.5137 Z-0.0231 F180
G01 X0.5695 Y-1.6310 Z0.0032 F180
G01 X0.4771 Y-1.7318 Z0.0159 F180
G01 X0.3701 Y-1.8134 Z0.0086 F180
G01 X0.2522 Y-1.8734 Z-0.0198 F180
G01 X0.1272 Y-1.9102 Z-0.0649 F180
G01 X-0.0006 Y-1.9232 Z-0.1177 F180
G01 X-0.1273 Y-1.9119 Z-0.1670 F180
G01 X-0.2484 Y-1.8772 Z-0.2029 F180
G01 X-0.3602 Y-1.8202 Z-0.2188 F180
G01 X-0.4588 Y-1.7430 Z-0.2135 F180
G01 X-0.5408 Y-1.6481 Z-0.1915 F180
G01 X-0.6036 Y-1.5387 Z-0.1619 F180
G01 X-0.6449 Y-1.4183 Z-0.1356 F180
G01 X-0.6631 Y-1.2908 Z-0.1229 F180
G01 X-0.6573 Y-1.1605 Z-0.1302 F180
G01 X-0.6273 Y-1.0314 Z-0.1586 F180
G01 X-0.5739 Y-0.9077 Z-0.2037 F180
G01 X-0.4982 Y-0.7935 Z-0.2565 F180
G01 X-0.4022 Y-0.6924 Z-0.3058 F180
G01 X-0.2886 Y-0.6079 Z-0.3417 F180
G01 X-0.1605 Y-0.5426 Z-0.3576 F180
G01 X-0.0214 Y-0.4988 Z-0.3523 F180
G01 X0.1248 Y-0.4782 Z-0.3303 F180
G01 X0.2739 Y-0.4815 Z-0.3007 F180
G01 X0.4217 Y-0.5090 Z-0.2744 F180
G01 X0.4394 Y-0.5139 Z-0.2720 F180
G01 X0.5814 Y-0.5669 Z-0.2614 F180
G01 X0.7135 Y-0.6419 Z-0.2713 F180
G01 X0.8320 Y-0.7369 Z-0.3022 F180
G01 X0.9336 Y-0.8492 Z-0.3487 F180
G01 X1.0157 Y-0.9756 Z-0.4017 F180
G01 X1.0760 Y-1.1125 Z-0.4499 F180
G01 X1.1130 Y-1.2560 Z-0.4836 F180
G01 X1.1260 Y-1.4019 Z-0.4968 F180
G01 X1.1149 Y-1.5460 Z-0.4891 F180
G01 X1.0805 Y-1.6842 Z-0.4657 F180
G01 X1.0239 Y-1.8125 Z-0.4359 F180
G01 X0.9474 Y-1.9271 Z-0.4108 F180
G01 X0.8536 Y-2.0250 Z-0.4002 F180
G01 X0.7457 Y-2.1032 Z-0.4101 F180
G01 X0.6273 Y-2.1596 Z-0.4410 F180
G01 X0.5023 Y-2.1929 Z-0.4875 F180
G01 X0.3749 Y-2.2021 Z-0.5405 F180
G01 X0.2493 Y-2.1872 Z-0.5887 F180
G01 X0.1296 Y-2.1488 Z-0.6224 F180
G01 X0.0198 Y-2.0885 Z-0.6356 F180
G01 X-0.0763 Y-2.0082 Z-0.6279 F180
G01 X-0.1557 Y-1.9106 Z-0.6045 F180
G01 X-0.2154 Y-1.7988 Z-0.5747 F180
G01 X-0.2534 Y-1.6766 Z-0.5496 F180
G01 X-0.2681 Y-1.5478 Z-0.5390 F180
G01 X-0.2588 Y-1.4165 Z-0.5489 F180
G01 X-0.2254 Y-1.2871 Z-0.5798 F180
G01 X-0.1686 Y-1.1636 Z-0.6263 F180
G01 X-0.0897 Y-1.0500 Z-0.6793 F180
G01 X0.0091 Y-0.9500 Z-0.7275 F180
G01 X0.1252 Y-0.8668 Z-0.7612 F180
G01 X0.2554 Y-0.8033 Z-0.7744 F180
G01 X0.3961 Y-0.7615 Z-0.7668 F180
G01 X0.5434 Y-0.7429 Z-0.7433 F180
G01 X0.6932 Y-0.7484 Z-0.7135 F180
G01 X0.7113 Y-0.7507 Z-0.7100 F180
G01 X0.8593 Y-0.7824 Z-0.6862 F180
G01 X1.0008 Y-0.8373 Z-0.6779 F180
G01 X1.1319 Y-0.9140 Z-0.6904 F180
G01 X1.2490 Y-1.0105 Z-0.7235 F180
G01 X1.3489 Y-1.1238 Z-0.7715 F180
G01 X1.4289 Y-1.2509 Z-0.8244 F180
G01 X1.4869 Y-1.3880 Z-0.8714 F180
G01 X1.5216 Y-1.5312 Z-0.9028 F180
G01 X1.5322 Y-1.6762 Z-0.9134 F180
G01 X1.5187 Y-1.8190 Z-0.9034 F180
G01 X1.4819 Y-1.9554 Z-0.8786 F180
G01 X1.4234 Y-2.0814 Z-0.8488 F180
G01 X1.3451 Y-2.1933 Z-0.8250 F180
G01 X1.2499 Y-2.2881 Z-0.8167 F180
G01 X1.1410 Y-2.3629 Z-0.8292 F180
G01 X1.0221 Y-2.4158 Z-0.8623 F180
G01 X0.8971 Y-2.4453 Z-0.9103 F180
G01 X0.7702 Y-2.4508 Z-0.9632 F180
G01 X0.6456 Y-2.4321 Z-1.0102 F180
G01 X0.5274 Y-2.3902 Z-1.0416 F180
G01 X0.4196 Y-2.3265 Z-1.0522 F180
G01 X0.3258 Y-2.2431 Z-1.0422 F180
G01 X0.2492 Y-2.1428 Z-1.0174 F180
G01 X0.1925 Y-2.0287 Z-0.9876 F180
G01 X0.1578 Y-1.9047 Z-0.9638 F180
G01 X0.1465 Y-1.7745 Z-0.9555 F180
G01 X0.1592 Y-1.6425 Z-0.9680 F180
G01 X0.1960 Y-1.5127 Z-1.0012 F180
G01 X0.2561 Y-1.3894 Z-1.0491 F180
G01 X0.3380 Y-1.2764 Z-1.1020 F180
G01 X0.4395 Y-1.1775 Z-1.1490 F180
G01 X0.5580 Y-1.0957 Z-1.1804 F180
G01 X0.6902 Y-1.0339 Z-1.1910 F180
G01 X0.8325 Y-0.9940 Z-1.1810 F180
G01 X0.9808 Y-0.9775 Z-1.1562 F180
G01 X0.9990 Y-0.9772 Z-1.1527 F180
G01 X1.1497 Y-0.9869 Z-1.1230 F180
G01 X1.2975 Y-1.0205 Z-1.1006 F180
G01 X1.4384 Y-1.0773 Z-1.0947 F180
G01 X1.5684 Y-1.1557 Z-1.1098 F180
G01 X1.6840 Y-1.2535 Z-1.1452 F180
G01 X1.7821 Y-1.3679 Z-1.1943 F180
G01 X1.8599 Y-1.4955 Z-1.2471 F180
G01 X1.9156 Y-1.6327 Z-1.2926 F180
G01 X1.9478 Y-1.7755 Z-1.3216 F180
G01 X1.9559 Y-1.9196 Z-1.3296 F180
G01 X1.9400 Y-2.0610 Z-1.3174 F180
G01 X1.9009 Y-2.1954 Z-1.2915 F180
G01 X1.8403 Y-2.3190 Z-1.2618 F180
G01 X1.7602 Y-2.4282 Z-1.2394 F180
G01 X1.6636 Y-2.5198 Z-1.2335 F180
G01 X1.5538 Y-2.5913 Z-1.2486 F180
G01 X1.4343 Y-2.6405 Z-1.2840 F180
G01 X1.3093 Y-2.6662 Z-1.3331 F180
G01 X1.1829 Y-2.6679 Z-1.3859 F180
G01 X1.0593 Y-2.6455 Z-1.4314 F180
G01 X0.9426 Y-2.6000 Z-1.4604 F180
G01 X0.8367 Y-2.5329 Z-1.4684 F180
G01 X0.7453 Y-2.4464 Z-1.4562 F180
G01 X0.6714 Y-2.3434 Z-1.4303 F180
G01 X0.6178 Y-2.2271 Z-1.4006 F180
G01 X0.5863 Y-2.1012 Z-1.3782 F180
G01 X0.5783 Y-1.9697 Z-1.3723 F180
G01 X0.5944 Y-1.8369 Z-1.3874 F180
G01 X0.6345 Y-1.7068 Z-1.4228 F180
G01 X0.6978 Y-1.5837 Z-1.4719 F180
G01 X0.7826 Y-1.4714 Z-1.5247 F180
G01 X0.8868 Y-1.3735 Z-1.5702 F180
G01 X1.0076 Y-1.2932 Z-1.5992 F180
G01 X1.1417 Y-1.2331 Z-1.6072 F180
G01 X1.2853 Y-1.1951 Z-1.5950 F180
G01 X1.3033 Y-1.1921 Z-1.5924 F180
G01 X1.4287 Y-1.1693 Z-1.5654 F180
G01 X1.5550 Y-1.1706 Z-1.5361 F180
G01 X1.6780 Y-1.1958 Z-1.5153 F180
G01 X1.7935 Y-1.2441 Z-1.5118 F180
G01 X1.8978 Y-1.3136 Z-1.5295 F180
G01 X1.9873 Y-1.4023 Z-1.5670 F180
G01 X2.0588 Y-1.5071 Z-1.6171 F180
G01 X2.1099 Y-1.6248 Z-1.6696 F180
G01 X2.1386 Y-1.7516 Z-1.7135 F180
G01 X2.1437 Y-1.8834 Z-1.7402 F180
G01 X2.1246 Y-2.0162 Z-1.7455 F180
G01 X2.0816 Y-2.1456 Z-1.7312 F180
G01 X2.0156 Y-2.2677 Z-1.7042 F180
G01 X1.9283 Y-2.3784 Z-1.6749 F180
G01 X1.8219 Y-2.4743 Z-1.6541 F180
G01 X1.6993 Y-2.5522 Z-1.6506 F180
G01 X1.5639 Y-2.6098 Z-1.6684 F180
G01 X1.4193 Y-2.6449 Z-1.7058 F180
G01 X1.2697 Y-2.6564 Z-1.7559 F180
G01 X1.1192 Y-2.6438 Z-1.8084 F180
G01 X0.9721 Y-2.6073 Z-1.8523 F180
G01 X0.8323 Y-2.5477 Z-1.8790 F180
G01 X0.7038 Y-2.4669 Z-1.8843 F180
G01 X0.5902 Y-2.3669 Z-1.8700 F180
G01 X0.4944 Y-2.2508 Z-1.8430 F180
G01 X0.4192 Y-2.1218 Z-1.8137 F180
G01 X0.3663 Y-1.9837 Z-1.7929 F180
G01 X0.3370 Y-1.8405 Z-1.7894 F180
G01 X0.3319 Y-1.6965 Z-1.8072 F180
G01 X0.3506 Y-1.5557 Z-1.8446 F180
G01 X0.3924 Y-1.4224 Z-1.8947 F180
G01 X0.4556 Y-1.3003 Z-1.9472 F180
G01 X0.5378 Y-1.1931 Z-1.9911 F180
G01 X0.6362 Y-1.1039 Z-2.0178 F180
G01 X0.7474 Y-1.0350 Z-2.0231 F180
G01 X0.7616 Y-1.0282 Z-2.0223 F180
G01 X0.8832 Y-0.9837 Z-2.0061 F180
G01 X1.0094 Y-0.9629 Z-1.9782 F180
G01 X1.1360 Y-0.9663 Z-1.9493 F180
G01 X1.2587 Y-0.9935 Z-1.9302 F180
G01 X1.3736 Y-1.0436 Z-1.9292 F180
G01 X1.4767 Y-1.1148 Z-1.9496 F180
G01 X1.5645 Y-1.2047 Z-1.9890 F180
G01 X1.6342 Y-1.3104 Z-2.0400 F180
G01 X1.6830 Y-1.4286 Z-2.0920 F180
G01 X1.7094 Y-1.5553 Z-2.1342 F180
G01 X1.7120 Y-1.6866 Z-2.1584 F180
G01 X1.6904 Y-1.8184 Z-2.1612 F180
G01 X1.6450 Y-1.9463 Z-2.1449 F180
G01 X1.5768 Y-2.0662 Z-2.1170 F180
G01 X1.4874 Y-2.1745 Z-2.0881 F180
G01 X1.3793 Y-2.2675 Z-2.0690 F180
G01 X1.2554 Y-2.3423 Z-2.0680 F180
G01 X1.1191 Y-2.3963 Z-2.0884 F180
G01 X0.9742 Y-2.4278 Z-2.1278 F180
G01 X0.8247 Y-2.4355 Z-2.1788 F180
G01 X0.6748 Y-2.4191 Z-2.2308 F180
G01 X0.5287 Y-2.3788 Z-2.2730 F180
G01 X0.3906 Y-2.3158 Z-2.2972 F180
G01 X0.2642 Y-2.2316 Z-2.3000 F180
G01 X0.1530 Y-2.1286 Z-2.2837 F180
G01 X0.0600 Y-2.0099 Z-2.2558 F180
G01 X-0.0122 Y-1.8787 Z-2.2269 F180
G01 X-0.0618 Y-1.7389 Z-2.2078 F180
G01 X-0.0877 Y-1.5946 Z-2.2068 F180
G01 X-0.0895 Y-1.4498 Z-2.2272 F180
G01 X-0.0674 Y-1.3089 Z-2.2666 F180
G01 X-0.0225 Y-1.1759 Z-2.3176 F180
G01 X0.0436 Y-1.0546 Z-2.3696 F180
G01 X0.1283 Y-0.9486 Z-2.4118 F180
G01 X0.2289 Y-0.8608 Z-2.4360 F180
G01 X0.2421 Y-0.8515 Z-2.4375 F180
G01 X0.3568 Y-0.7863 Z-2.4377 F180
G01 X0.4797 Y-0.7438 Z-2.4195 F180
G01 X0.6067 Y-0.7252 Z-2.3909 F180
G01 X0.7335 Y-0.7306 Z-2.3626 F180
G01 X0.8560 Y-0.7599 Z-2.3454 F180
G01 X0.9701 Y-0.8118 Z-2.3469 F180
G01 X1.0720 Y-0.8846 Z-2.3698 F180
G01 X1.1583 Y-0.9758 Z-2.4112 F180
G01 X1.2260 Y-1.0824 Z-2.4629 F180
G01 X1.2728 Y-1.2009 Z-2.5143 F180
G01 X1.2967 Y-1.3276 Z-2.5547 F180
G01 X1.2969 Y-1.4584 Z-2.5763 F180
G01 X1.2729 Y-1.5891 Z-2.5765 F180
G01 X1.2252 Y-1.7154 Z-2.5583 F180
G01 X1.1548 Y-1.8333 Z-2.5297 F180
G01 X1.0635 Y-1.9391 Z-2.5015 F180
G01 X0.9538 Y-2.0292 Z-2.4842 F180
G01 X0.8287 Y-2.1007 Z-2.4857 F180
G01 X0.6917 Y-2.1513 Z-2.5086 F180
G01 X0.5465 Y-2.1791 Z-2.5500 F180
G01 X0.3972 Y-2.1831 Z-2.6017 F180
G01 X0.2481 Y-2.1629 Z-2.6531 F180
G01 X0.1032 Y-2.1190 Z-2.6935 F180
G01 X-0.0332 Y-2.0524 Z-2.7151 F180
G01 X-0.1574 Y-1.9650 Z-2.7153 F180
G01 X-0.2661 Y-1.8592 Z-2.6971 F180
G01 X-0.3561 Y-1.7379 Z-2.6685 F180
G01 X-0.4251 Y-1.6046 Z-2.6403 F180
G01 X-0.4714 Y-1.4632 Z-2.6230 F180
G01 X-0.4939 Y-1.3178 Z-2.6245 F180
G01 X-0.4923 Y-1.1725 Z-2.6475 F180
G01 X-0.4668 Y-1.0315 Z-2.6888 F180
G01 X-0.4187 Y-0.8989 Z-2.7405 F180
G01 X-0.3498 Y-0.7785 Z-2.7919 F180
G01 X-0.2624 Y-0.6737 Z-2.8323 F180
G01 X-0.2507 Y-0.6621 Z-2.8360 F180
G01 X-0.1457 Y-0.5776 Z-2.8551 F180
G01 X-0.0292 Y-0.5143 Z-2.8528 F180
G01 X0.0950 Y-0.4739 Z-2.8328 F180
G01 X0.2227 Y-0.4573 Z-2.8036 F180
G01 X0.3498 Y-0.4650 Z-2.7762 F180
G01 X0.4720 Y-0.4963 Z-2.7609 F180
G01 X0.5854 Y-0.5500 Z-2.7650 F180
G01 X0.6862 Y-0.6244 Z-2.7904 F180
G01 X0.7709 Y-0.7168 Z-2.8335 F180
G01 X0.8367 Y-0.8243 Z-2.8858 F180
G01 X0.8813 Y-0.9433 Z-2.9364 F180
G01 X0.9030 Y-1.0699 Z-2.9748 F180
G01 X0.9008 Y-1.2001 Z-2.9939 F180
G01 X0.8745 Y-1.3297 Z-2.9916 F180
G01 X0.8245 Y-1.4544 Z-2.9716 F180
G01 X0.7520 Y-1.5703 Z-2.9424 F180
G01 X0.6589 Y-1.6735 Z-2.9150 F180
G01 X0.5477 Y-1.7608 Z-2.8997 F180
G01 X0.4215 Y-1.8291 Z-2.9038 F180
G01 X0.2838 Y-1.8761 Z-2.9292 F180
G01 X0.1385 Y-1.9003 Z-2.9723 F180
G01 X-0.0105 Y-1.9006 Z-3.0246 F180
G01 X-0.1587 Y-1.8767 Z-3.0752 F180
G01 X-0.3022 Y-1.8292 Z-3.1136 F180
G01 X-0.4368 Y-1.7592 Z-3.1327 F180
G01 X-0.5587 Y-1.6686 Z-3.1304 F180
G01 X-0.6647 Y-1.5599 Z-3.1104 F180
G01 X-0.7517 Y-1.4362 Z-3.0812 F180
G01 X-0.8175 Y-1.3010 Z-3.0538 F180
G01 X-0.8604 Y-1.1581 Z-3.0385 F180
G01 X-0.8794 Y-1.0116 Z-3.0426 F180
G01 X-0.8743 Y-0.8658 Z-3.0680 F180
G01 X-0.8455 Y-0.7249 Z-3.1111 F180
G01 X-0.7942 Y-0.5927 Z-3.1634 F180
G01 X-0.7223 Y-0.4733 Z-3.2140 F180
G01 X-0.7123 Y-0.4598 Z-3.2195 F180
G01 X-0.5958 Y-0.3774 Z-3.2443 F1200
G01 X-0.4646 Y-0.3143 Z-3.2492 F1200
G01 X-0.3224 Y-0.2727 Z-3.2329 F1200
G01 X-0.1731 Y-0.2541 Z-3.1997 F1200
G01 X-0.0207 Y-0.2595 Z-3.1586 F1200
G01 X0.1306 Y-0.2890 Z-3.1205 F1200
G01 X0.2765 Y-0.3421 Z-3.0957 F1200
G01 X0.4131 Y-0.4174 Z-3.0908 F1200
G01 X0.5366 Y-0.5131 Z-3.1071 F1200
G01 X0.6438 Y-0.6265 Z-3.1403 F1200
G01 X0.7317 Y-0.7546 Z-3.1814 F1200
G01 X0.7981 Y-0.8937 Z-3.2195 F1200
G01 X0.8415 Y-1.0399 Z-3.2443 F1200
G01 X0.8609 Y-1.1893 Z-3.2492 F1200
G01 X0.8562 Y-1.3374 Z-3.2329 F1200
G01 X0.8279 Y-1.4803 Z-3.1997 F1200
G01 X0.7773 Y-1.6138 Z-3.1586 F1200
G01 X0.7064 Y-1.7342 Z-3.1205 F1200
G01 X0.6178 Y-1.8382 Z-3.0957 F1200
G01 X0.5146 Y-1.9231 Z-3.0908 F1200
G01 X0.4147 Y-1.9799 Z-3.1041 F1200
G01 X0.2944 Y-2.0222 Z-3.1356 F1200
G01 X0.1706 Y-2.0407 Z-3.1764 F1200
G01 X0.0475 Y-2.0350 Z-3.2154 F1200
G01 X-0.0708 Y-2.0056 Z-3.2422 F1200
G01 X-0.1803 Y-1.9538 Z-3.2497 F1200
G01 X-0.2771 Y-1.8814 Z-3.2359 F1200
G01 X-0.3579 Y-1.7908 Z-3.2044 F1200
G01 X-0.4198 Y-1.6853 Z-3.1636 F1200
G01 X-0.4605 Y-1.5682 Z-3.1246 F1200
G01 X-0.4783 Y-1.4435 Z-3.0978 F1200
G01 X-0.4722 Y-1.3152 Z-3.0903 F1200
G01 X-0.4419 Y-1.1876 Z-3.1041 F1200
G01 X-0.3879 Y-1.0648 Z-3.1356 F1200
G01 X-0.3115 Y-0.9508 Z-3.1764 F1200
G01 X-0.2145 Y-0.8495 Z-3.2154 F1200
G01 X-0.0994 Y-0.7642 Z-3.2422 F1200
G01 X0.0307 Y-0.6978 Z-3.2497 F1200
G01 X0.1723 Y-0.6526 Z-3.2359 F1200
G01 X0.3216 Y-0.6304 Z-3.2044 F1200
G01 X0.4745 Y-0.6320 Z-3.1636 F1200
G01 X0.6083 Y-0.6534 Z-3.1289 F1200
G01 X0.7571 Y-0.6991 Z-3.1001 F1200
G01 X0.8974 Y-0.7676 Z-3.0900 F1200
G01 X1.0256 Y-0.8569 Z-3.1014 F1200
G01 X1.1381 Y-0.9646 Z-3.1311 F1200
G01 X1.2321 Y-1.0877 Z-3.1713 F1200
G01 X1.3051 Y-1.2228 Z-3.2111 F1200
G01 X1.3553 Y-1.3661 Z-3.2399 F1200
G01 X1.3818 Y-1.5134 Z-3.2500 F1200
G01 X1.3840 Y-1.6606 Z-3.2386 F1200
G01 X1.3626 Y-1.8034 Z-3.2089 F1200
G01 X1.3184 Y-1.9379 Z-3.1687 F1200
G01 X1.2534 Y-2.0602 Z-3.1289 F1200
G01 X1.1700 Y-2.1669 Z-3.1001 F1200
G01 X1.0711 Y-2.2550 Z-3.0900 F1200
G01 X0.9603 Y-2.3221 Z-3.1014 F1200
G01 X0.8413 Y-2.3664 Z-3.1311 F1200
G01 X0.7183 Y-2.3870 Z-3.1713 F1200
G01 X0.5954 Y-2.3834 Z-3.2111 F1200
G01 X0.4768 Y-2.3560 Z-3.2399 F1200
G01 X0.3666 Y-2.3060 Z-3.2500 F1200
G01 X0.2798 Y-2.2448 Z-3.2411 F1200
G01 X0.1958 Y-2.1567 Z-3.2133 F1200
G01 X0.1301 Y-2.0528 Z-3.1738 F1200
G01 X0.0851 Y-1.9365 Z-3.1334 F1200
G01 X0.0627 Y-1.8116 Z-3.1027 F1200
G01 X0.0640 Y-1.6821 Z-3.0901 F1200
G01 X0.0894 Y-1.5522 Z-3.0989 F1200
G01 X0.1387 Y-1.4261 Z-3.1267 F1200
G01 X0.2109 Y-1.3079 Z-3.1662 F1200
G01 X0.3041 Y-1.2015 Z-3.2066 F1200
G01 X0.4161 Y-1.1103 Z-3.2373 F1200
G01 X0.5439 Y-1.0373 Z-3.2499 F1200
G01 X0.6841 Y-0.9851 Z-3.2411 F1200
G01 X0.8329 Y-0.9554 Z-3.2133 F1200
G01 X0.9864 Y-0.9494 Z-3.1738 F1200
G01 X1.1402 Y-0.9676 Z-3.1334 F1200
G01 X1.2902 Y-1.0097 Z-3.1027 F1200
G01 X1.4323 Y-1.0746 Z-3.0901 F1200
G01 X1.5626 Y-1.1606 Z-3.0989 F1200
G01 X1.6777 Y-1.2653 Z-3.1267 F1200
G01 X1.7746 Y-1.3859 Z-3.1662 F1200
G01 X1.8426 Y-1.5021 Z-3.2020 F1200
G01 X1.8995 Y-1.6419 Z-3.2344 F1200
G01 X1.9327 Y-1.7869 Z-3.2495 F1200
G01 X1.9418 Y-1.9327 Z-3.2433 F1200
G01 X1.9270 Y-2.0752 Z-3.2175 F1200
G01 X1.8892 Y-2.2104 Z-3.1789 F1200
G01 X1.8300 Y-2.3342 Z-3.1380 F1200
G01 X1.7518 Y-2.4432 Z-3.1056 F1200
G01 X1.6573 Y-2.5343 Z-3.0905 F1200
G01 X1.5500 Y-2.6050 Z-3.0967 F1200
G01 X1.4336 Y-2.6532 Z-3.1225 F1200
G01 X1.3122 Y-2.6779 Z-3.1611 F1200
G01 X1.1898 Y-2.6784 Z-3.2020 F1200
G01 X1.0707 Y-2.6550 Z-3.2344 F1200
G01 X0.9590 Y-2.6086 Z-3.2495 F1200
G01 X0.8587 Y-2.5408 Z-3.2433 F1200
G01 X0.7731 Y-2.4540 Z-3.2175 F1200
G01 X0.7055 Y-2.3509 Z-3.1789 F1200
G01 X0.6583 Y-2.2350 Z-3.1380 F1200
G01 X0.6335 Y-2.1100 Z-3.1056 F1200
G01 X0.6323 Y-1.9800 Z-3.0905 F1200
G01 X0.6512 Y-1.8649 Z-3.0948 F1200
G01 X0.6956 Y-1.7357 Z-3.1185 F1200
G01 X0.7631 Y-1.6134 Z-3.1560 F1200
G01 X0.8522 Y-1.5019 Z-3.1973 F1200
G01 X0.9607 Y-1.4049 Z-3.2312 F1200
G01 X1.0858 Y-1.3254 Z-3.2488 F1200
G01 X1.2242 Y-1.2661 Z-3.2452 F1200
G01 X1.3721 Y-1.2290 Z-3.2215 F1200
G01 X1.5257 Y-1.2153 Z-3.1840 F1200
G01 X1.6806 Y-1.2258 Z-3.1427 F1200
G01 X1.8328 Y-1.2603 Z-3.1088 F1200
G01 X1.9780 Y-1.3179 Z-3.0912 F1200
G01 X2.1124 Y-1.3972 Z-3.0948 F1200
G01 X2.2324 Y-1.4958 Z-3.1185 F1200
G01 X2.3348 Y-1.6109 Z-3.1560 F1200
G01 X2.4170 Y-1.7394 Z-3.1973 F1200
G01 X2.4771 Y-1.8774 Z-3.2312 F1200
G01 X2.5136 Y-2.0211 Z-3.2488 F1200
G01 X2.5261 Y-2.1661 Z-3.2452 F1200
G01 X2.5145 Y-2.3083 Z-3.2215 F1200
G01 X2.4798 Y-2.4437 Z-3.1840 F1200
G01 X2.4315 Y-2.5537 Z-3.1476 F1200
G01 X2.3584 Y-2.6647 Z-3.1122 F1200
G01 X2.2684 Y-2.7586 Z-3.0923 F1200
G01 X2.1646 Y-2.8326 Z-3.0932 F1200
G01 X2.0508 Y-2.8846 Z-3.1147 F1200
G01 X1.9309 Y-2.9132 Z-3.1510 F1200
G01 X1.8091 Y-2.9177 Z-3.1924 F1200
G01 X1.6896 Y-2.8982 Z-3.2278 F1200
G01 X1.5765 Y-2.8554 Z-3.2477 F1200
G01 X1.4738 Y-2.7908 Z-3.2468 F1200
G01 X1.3850 Y-2.7065 Z-3.2253 F1200
G01 X1.3135 Y-2.6053 Z-3.1890 F1200
G01 X1.2619 Y-2.4903 Z-3.1476 F1200
G01 X1.2322 Y-2.3653 Z-3.1122 F1200
G01 X1.2259 Y-2.2343 Z-3.0923 F1200
G01 X1.2437 Y-2.1013 Z-3.0932 F1200
G01 X1.2856 Y-1.9706 Z-3.1147 F1200
G01 X1.3507 Y-1.8463 Z-3.1510 F1200
G01 X1.4376 Y-1.7323 Z-3.1924 F1200
G01 X1.5443 Y-1.6324 Z-3.2278 F1200
G01 X1.6678 Y-1.5497 Z-3.2477 F1200
G01 X1.7878 Y-1.4934 Z-3.2481 F1200
G01 X1.9344 Y-1.4488 Z-3.2289 F1200
G01 X2.0876 Y-1.4275 Z-3.1939 F1200
G01 X2.2432 Y-1.4302 Z-3.1525 F1200
G01 X2.3970 Y-1.4570 Z-3.1158 F1200
G01 X2.5450 Y-1.5072 Z-3.0937 F1200
G01 X2.6830 Y-1.5794 Z-3.0919 F1200
G01 X2.8074 Y-1.6716 Z-3.1111 F1200
G01 X2.9150 Y-1.7811 Z-3.1461 F1200
G01 X3.0030 Y-1.9048 Z-3.1875 F1200
G01 X3.0692 Y-2.0389 Z-3.2242 F1200
G01 X3.1122 Y-2.1797 Z-3.2463 F1200
G01 X3.1312 Y-2.3228 Z-3.2481 F1200
G01 X3.1261 Y-2.4643 Z-3.2289 F1200
G01 X3.0976 Y-2.5997 Z-3.1939 F1200
G01 X3.0470 Y-2.7253 Z-3.1525 F1200
G01 X2.9765 Y-2.8373 Z-3.1158 F1200
G01 X2.8886 Y-2.9324 Z-3.0937 F1200
G01 X2.7866 Y-3.0080 Z-3.0919 F1200
G01 X2.6741 Y-3.0618 Z-3.1111 F1200
G01 X2.5550 Y-3.0924 Z-3.1461 F1200
G01 X2.4483 Y-3.0994 Z-3.1825 F1200
G01 X2.3284 Y-3.0838 Z-3.2203 F1200
G01 X2.2139 Y-3.0446 Z-3.2447 F1200
G01 X2.1088 Y-2.9832 Z-3.2490 F1200
G01 X2.0169 Y-2.9016 Z-3.2322 F1200
G01 X1.9414 Y-2.8023 Z-3.1987 F1200
G01 X1.8852 Y-2.6884 Z-3.1575 F1200
G01 X1.8506 Y-2.5635 Z-3.1197 F1200
G01 X1.8390 Y-2.4316 Z-3.0953 F1200
G01 X1.8514 Y-2.2968 Z-3.0910 F1200
G01 X1.8880 Y-2.1632 Z-3.1078 F1200
G01 X1.9481 Y-2.0350 Z-3.1413 F1200
G01 X2.0304 Y-1.9163 Z-3.1825 F1200
G01 X2.1330 Y-1.8107 Z-3.2203 F1200
G01 X2.2532 Y-1.7216 Z-3.2447 F1200
G01 X2.3880 Y-1.6518 Z-3.2490 F1200
G01 X2.5338 Y-1.6035 Z-3.2322 F1200
G01 X2.6866 Y-1.5783 Z-3.1987 F1200
G01 X2.8424 Y-1.5770 Z-3.1575 F1200
G01 X2.9969 Y-1.5999 Z-3.1197 F1200
G01 X3.1460 Y-1.6464 Z-3.0953 F1200
G01 X3.2693 Y-1.7055 Z-3.0903 F1200
G01 X3.3977 Y-1.7911 Z-3.1047 F1200
G01 X3.5101 Y-1.8947 Z-3.1366 F1200
G01 X3.6035 Y-2.0133 Z-3.1774 F1200
G01 X3.6757 Y-2.1433 Z-3.2162 F1200
G01 X3.7249 Y-2.2808 Z-3.2427 F1200
G01 X3.7501 Y-2.4218 Z-3.2497 F1200
G01 X3.7513 Y-2.5621 Z-3.2353 F1200
G01 X3.7288 Y-2.6974 Z-3.2034 F1200
G01 X3.6838 Y-2.8238 Z-3.1626 F1200
G01 X3.6183 Y-2.9375 Z-3.1238 F1200
G01 X3.5348 Y-3.0351 Z-3.0973 F1200
G01 X3.4364 Y-3.1137 Z-3.0903 F1200
G01 X3.3265 Y-3.1710 Z-3.1047 F1200
G01 X3.2091 Y-3.2053 Z-3.1366 F1200
G01 X3.0882 Y-3.2158 Z-3.1774 F1200
G01 X2.9680 Y-3.2021 Z-3.2162 F1200
G01 X2.8528 Y-3.1648 Z-3.2427 F1200
G01 X2.7466 Y-3.1050 Z-3.2497 F1200
G01 X2.6530 Y-3.0247 Z-3.2353 F1200
G01 X2.5756 Y-2.9264 Z-3.2034 F1200
G01 X2.5231 Y-2.8276 Z-3.1677 F1200
G01 X2.4833 Y-2.7031 Z-3.1280 F1200
G01 X2.4664 Y-2.5706 Z-3.0996 F1200
G01 X2.4732 Y-2.4341 Z-3.0900 F1200
G01 X2.5042 Y-2.2978 Z-3.1019 F1200
G01 X2.5589 Y-2.1660 Z-3.1320 F1200
G01 X2.6363 Y-2.0426 Z-3.1723 F1200
G01 X2.7344 Y-1.9315 Z-3.2120 F1200
G01 X2.8509 Y-1.8361 Z-3.2404 F1200
G01 X2.9828 Y-1.7594 Z-3.2500 F1200
G01 X3.1265 Y-1.7037 Z-3.2381 F1200
G01 X3.2783 Y-1.6708 Z-3.2080 F1200
G01 X3.4341 Y-1.6617 Z-3.1677 F1200
G01 X3.5896 Y-1.6767 Z-3.1280 F1200
G01 X3.7407 Y-1.7155 Z-3.0996 F1200
G01 X3.8833 Y-1.7769 Z-3.0900 F1200
G01 X4.0136 Y-1.8592 Z-3.1019 F1200
G01 X4.1283 Y-1.9597 Z-3.1320 F1200
G01 X4.2243 Y-2.0757 Z-3.1723 F1200
G01 X4.2992 Y-2.2035 Z-3.2120 F1200
G01 X4.3514 Y-2.3393 Z-3.2404 F1200
G01 X4.3776 Y-2.4620 Z-3.2500 F1200
G01 X4.3847 Y-2.6009 Z-3.2406 F1200
G01 X4.3681 Y-2.7358 Z-3.2124 F1200
G01 X4.3287 Y-2.8627 Z-3.1728 F1200
G01 X4.2682 Y-2.9778 Z-3.1325 F1200
G01 X4.1890 Y-3.0776 Z-3.1022 F1200
G01 X4.0941 Y-3.1590 Z-3.0900 F1200
G01 X3.9868 Y-3.2197 Z-3.0994 F1200
G01 X3.8710 Y-3.2578 Z-3.1276 F1200
G01 X3.7508 Y-3.2722 Z-3.1672 F1200
G01 X3.6303 Y-3.2624 Z-3.2075 F1200
G01 X3.5137 Y-3.2287 Z-3.2378 F1200
G01 X3.4050 Y-3.1723 Z-3.2500 F1200
G01 X3.3083 Y-3.0948 Z-3.2406 F1200
G01 X3.2268 Y-2.9986 Z-3.2124 F1200
G01 X3.1636 Y-2.8867 Z-3.1728 F1200
G01 X3.1213 Y-2.7624 Z-3.1325 F1200
G01 X3.1015 Y-2.6297 Z-3.1022 F1200
G01 X3.1054 Y-2.4924 Z-3.0900 F1200
G01 X3.1336 Y-2.3549 Z-3.0994 F1200
G01 X3.1855 Y-2.2213 Z-3.1276 F1200
G01 X3.2500 Y-2.1104 Z-3.1621 F1200
G01 X3.3433 Y-1.9943 Z-3.2030 F1200
G01 X3.4557 Y-1.8932 Z-3.2350 F1200
G01 X3.5842 Y-1.8100 Z-3.2496 F1200
G01 X3.7255 Y-1.7473 Z-3.2429 F1200
G01 X3.8757 Y-1.7071 Z-3.2166 F1200
G01 X4.0310 Y-1.6904 Z-3.1779 F1200
G01 X4.1870 Y-1.6980 Z-3.1370 F1200
G01 X4.3397 Y-1.7294 Z-3.1050 F1200
G01 X4.4848 Y-1.7838 Z-3.0904 F1200
G01 X4.6185 Y-1.8595 Z-3.0971 F1200
G01 X4.7374 Y-1.9542 Z-3.1234 F1200
G01 X4.8382 Y-2.0650 Z-3.1621 F1200
G01 X4.9186 Y-2.1886 Z-3.2030 F1200
G01 X4.9765 Y-2.3212 Z-3.2350 F1200
G01 X5.0108 Y-2.4588 Z-3.2496 F1200
G01 X5.0209 Y-2.5972 Z-3.2429 F1200
G01 X5.0071 Y-2.7321 Z-3.2166 F1200
G01 X4.9704 Y-2.8596 Z-3.1779 F1200
G01 X4.9124 Y-2.9757 Z-3.1370 F1200
G01 X4.8354 Y-3.0768 Z-3.1050 F1200
G01 X4.7422 Y-3.1600 Z-3.0904 F1200
G01 X4.6363 Y-3.2227 Z-3.0971 F1200
G01 X4.5213 Y-3.2629 Z-3.1234 F1200
G01 X4.4014 Y-3.2796 Z-3.1621 F1200
G01 X4.2807 Y-3.2720 Z-3.2030 F1200
G01 X4.1634 Y-3.2406 Z-3.2350 F1200
G01 X4.0536 Y-3.1862 Z-3.2496 F1200
G01 X3.9552 Y-3.1105 Z-3.2429 F1200
G01 X3.8717 Y-3.0158 Z-3.2166 F1200
G01 X3.8062 Y-2.9050 Z-3.1779 F1200
G01 X3.7612 Y-2.7814 Z-3.1370 F1200
G01 X3.7386 Y-2.6488 Z-3.1050 F1200
G01 X3.7396 Y-2.5112 Z-3.0904 F1200
G01 X3.7648 Y-2.3728 Z-3.0971 F1200
G01 X3.8139 Y-2.2379 Z-3.1234 F1200
G01 X3.8860 Y-2.1104 Z-3.1621 F1200
G01 X3.9793 Y-1.9943 Z-3.2030 F1200
G01 X4.0917 Y-1.8932 Z-3.2350 F1200
G01 X4.2202 Y-1.8100 Z-3.2496 F1200
G01 X4.3615 Y-1.7473 Z-3.2429 F1200
G01 X4.5117 Y-1.7071 Z-3.2166 F1200
G01 X4.6670 Y-1.6904 Z-3.1779 F1200
G01 X4.8230 Y-1.6980 Z-3.1370 F1200
G01 X4.9757 Y-1.7294 Z-3.1050 F1200
G01 X5.1208 Y-1.7838 Z-3.0904 F1200
G01 X5.2545 Y-1.8595 Z-3.0971 F1200
G01 X5.3734 Y-1.9542 Z-3.1234 F1200
G01 X5.4742 Y-2.0650 Z-3.1621 F1200
G01 X5.5546 Y-2.1886 Z-3.2030 F1200
G01 X5.6125 Y-2.3212 Z-3.2350 F1200
G01 X5.6468 Y-2.4588 Z-3.2496 F1200
G01 X5.6569 Y-2.5972 Z-3.2429 F1200
G01 X5.6431 Y-2.7321 Z-3.2166 F1200
G01 X5.6064 Y-2.8596 Z-3.1779 F1200
G01 X5.5484 Y-2.9757 Z-3.1370 F1200
G01 X5.4714 Y-3.0768 Z-3.1050 F1200
G01 X5.3782 Y-3.1600 Z-3.0904 F1200
G01 X5.2723 Y-3.2227 Z-3.0971 F1200
G01 X5.1573 Y-3.2629 Z-3.1234 F1200
G01 X5.0374 Y-3.2796 Z-3.1621 F1200
G01 X4.9167 Y-3.2720 Z-3.2030 F1200
G01 X4.7994 Y-3.2406 Z-3.2350 F1200
G01 X4.6896 Y-3.1862 Z-3.2496 F1200
G01 X4.5912 Y-3.1105 Z-3.2429 F1200
G01 X4.5077 Y-3.0158 Z-3.2166 F1200
G01 X4.4422 Y-2.9050 Z-3.1779 F1200
G01 X4.3972 Y-2.7814 Z-3.1370 F1200
G01 X4.3746 Y-2.6488 Z-3.1050 F1200
G01 X4.3756 Y-2.5112 Z-3.0904 F1200
G01 X4.4008 Y-2.3728 Z-3.0971 F1200
G01 X4.4499 Y-2.2379 Z-3.1234 F1200
G01 X4.5220 Y-2.1104 Z-3.1621 F1200
G01 X4.6153 Y-1.9943 Z-3.2030 F1200
G01 X4.7277 Y-1.8932 Z-3.2350 F1200
G01 X4.8562 Y-1.8100 Z-3.2496 F1200
G01 X4.9975 Y-1.7473 Z-3.2429 F1200
G01 X5.1477 Y-1.7071 Z-3.2166 F1200
G01 X5.3030 Y-1.6904 Z-3.1779 F1200
G01 X5.4590 Y-1.6980 Z-3.1370 F1200
G01 X5.6117 Y-1.7294 Z-3.1050 F1200
G01 X5.7568 Y-1.7838 Z-3.0904 F1200
G01 X5.8905 Y-1.8595 Z-3.0971 F1200
G01 X6.0094 Y-1.9542 Z-3.1234 F1200
G01 X6.1102 Y-2.0650 Z-3.1621 F1200
G01 X6.1906 Y-2.1886 Z-3.2030 F1200
G01 X6.2485 Y-2.3212 Z-3.2350 F1200
G01 X6.2828 Y-2.4588 Z-3.2496 F1200
G01 X6.2929 Y-2.5972 Z-3.2429 F1200
G01 X6.2791 Y-2.7321 Z-3.2166 F1200
G01 X6.2424 Y-2.8596 Z-3.1779 F1200
G01 X6.1844 Y-2.9757 Z-3.1370 F1200
G01 X6.1074 Y-3.0768 Z-3.1050 F1200
G01 X6.0142 Y-3.1600 Z-3.0904 F1200
G01 X5.9083 Y-3.2227 Z-3.0971 F1200
G01 X5.7933 Y-3.2629 Z-3.1234 F1200
G01 X5.6734 Y-3.2796 Z-3.1621 F1200
G01 X5.5527 Y-3.2720 Z-3.2030 F1200
G01 X5.4354 Y-3.2406 Z-3.2350 F1200
G01 X5.3256 Y-3.1862 Z-3.2496 F1200
G01 X5.2272 Y-3.1105 Z-3.2429 F1200
G01 X5.1437 Y-3.0158 Z-3.2166 F1200
G01 X5.0782 Y-2.9050 Z-3.1779 F1200
G01 X5.0332 Y-2.7814 Z-3.1370 F1200
G01 X5.0106 Y-2.6488 Z-3.1050 F1200
G01 X5.0116 Y-2.5112 Z-3.0904 F1200
G01 X5.0368 Y-2.3728 Z-3.0971 F1200
G01 X5.0859 Y-2.2379 Z-3.1234 F1200
G01 X5.1580 Y-2.1104 Z-3.1621 F1200
G01 X5.2513 Y-1.9943 Z-3.2030 F1200
G01 X5.3637 Y-1.8932 Z-3.2350 F1200
G01 X5.4922 Y-1.8100 Z-3.2496 F1200
G01 X5.6335 Y-1.7473 Z-3.2429 F1200
G01 X5.7837 Y-1.7071 Z-3.2166 F1200
G01 X5.9390 Y-1.6904 Z-3.1779 F1200
G01 X6.0950 Y-1.6980 Z-3.1370 F1200
G01 X6.2477 Y-1.7294 Z-3.1050 F1200
G01 X6.3928 Y-1.7838 Z-3.0904 F1200
G01 X6.5265 Y-1.8595 Z-3.0971 F1200
G01 X6.6454 Y-1.9542 Z-3.1234 F1200
G01 X6.7462 Y-2.0650 Z-3.1621 F1200
G01 X6.8266 Y-2.1886 Z-3.2030 F1200
G01 X6.8845 Y-2.3212 Z-3.2350 F1200
G01 X6.9188 Y-2.4588 Z-3.2496 F1200
G01 X6.9289 Y-2.5972 Z-3.2429 F1200
G01 X6.9151 Y-2.7321 Z-3.2166 F1200
G01 X6.8784 Y-2.8596 Z-3.1779 F1200
G01 X6.8204 Y-2.9757 Z-3.1370 F1200
G01 X6.7434 Y-3.0768 Z-3.1050 F1200
G01 X6.6502 Y-3.1600 Z-3.0904 F1200
G01 X6.5443 Y-3.2227 Z-3.0971 F1200
G01 X6.4293 Y-3.2629 Z-3.1234 F1200
G01 X6.3094 Y-3.2796 Z-3.1621 F1200
G01 X6.1887 Y-3.2720 Z-3.2030 F1200
G01 X6.0714 Y-3.2406 Z-3.2350 F1200
G01 X5.9616 Y-3.1862 Z-3.2496 F1200
G01 X5.8632 Y-3.1105 Z-3.2429 F1200
G01 X5.7797 Y-3.0158 Z-3.2166 F1200
G01 X5.7142 Y-2.9050 Z-3.1779 F1200
G01 X5.6692 Y-2.7814 Z-3.1370 F1200
G01 X5.6466 Y-2.6488 Z-3.1050 F1200
G01 X5.6476 Y-2.5112 Z-3.0904 F1200
G01 X5.6728 Y-2.3728 Z-3.0971 F1200
G01 X5.7219 Y-2.2379 Z-3.1234 F1200
G01 X5.7940 Y-2.1104 Z-3.1621 F1200
G01 X5.8873 Y-1.9943 Z-3.2030 F1200
G01 X5.9997 Y-1.8932 Z-3.2350 F1200
G01 X6.1282 Y-1.8100 Z-3.2496 F1200
G01 X6.2695 Y-1.7473 Z-3.2429 F1200
G01 X6.4197 Y-1.7071 Z-3.2166 F1200
G01 X6.5750 Y-1.6904 Z-3.1779 F1200
G01 X6.7310 Y-1.6980 Z-3.1370 F1200
G01 X6.8837 Y-1.7294 Z-3.1050 F1200
G01 X7.0288 Y-1.7838 Z-3.0904 F1200
G01 X7.1625 Y-1.8595 Z-3.0971 F1200
G01 X7.2814 Y-1.9542 Z-3.1234 F1200
G01 X7.3822 Y-2.0650 Z-3.1621 F1200
G01 X7.4626 Y-2.1886 Z-3.2030 F1200
G01 X7.5205 Y-2.3212 Z-3.2350 F1200
G01 X7.5548 Y-2.4588 Z-3.2496 F1200
G01 X7.5649 Y-2.5972 Z-3.2429 F1200
G01 X7.5511 Y-2.7321 Z-3.2166 F1200
G01 X7.5144 Y-2.8596 Z-3.1779 F1200
G01 X7.4564 Y-2.9757 Z-3.1370 F1200
G01 X7.3794 Y-3.0768 Z-3.1050 F1200
G01 X7.2862 Y-3.1600 Z-3.0904 F1200
G01 X7.1803 Y-3.2227 Z-3.0971 F1200
G01 X7.0653 Y-3.2629 Z-3.1234 F1200
G01 X6.9454 Y-3.2796 Z-3.1621 F1200
G01 X6.8247 Y-3.2720 Z-3.2030 F1200
G01 X6.7074 Y-3.2406 Z-3.2350 F1200
G01 X6.5976 Y-3.1862 Z-3.2496 F1200
G01 X6.4992 Y-3.1105 Z-3.2429 F1200
G01 X6.4157 Y-3.0158 Z-3.2166 F1200
G01 X6.3502 Y-2.9050 Z-3.1779 F1200
G01 X6.3052 Y-2.7814 Z-3.1370 F1200
G01 X6.2826 Y-2.6488 Z-3.1050 F1200
G01 X6.2836 Y-2.5112 Z-3.0904 F1200
G01 X6.3088 Y-2.3728 Z-3.0971 F1200
G01 X6.3579 Y-2.2379 Z-3.1234 F1200
G01 X6.4300 Y-2.1104 Z-3.1621 F1200
G01 X6.5233 Y-1.9943 Z-3.2030 F1200
G01 X6.6357 Y-1.8932 Z-3.2350 F1200
G01 X6.7642 Y-1.8100 Z-3.2496 F1200
G01 X6.9055 Y-1.7473 Z-3.2429 F1200
G01 X7.0557 Y-1.7071 Z-3.2166 F1200
G01 X7.2110 Y-1.6904 Z-3.1779 F1200
G01 X7.3670 Y-1.6980 Z-3.1370 F1200
G01 X7.5197 Y-1.7294 Z-3.1050 F1200
G01 X7.6648 Y-1.7838 Z-3.0904 F1200
G01 X7.7985 Y-1.8595 Z-3.0971 F1200
G01 X7.9174 Y-1.9542 Z-3.1234 F1200
G01 X8.0182 Y-2.0650 Z-3.1621 F1200
G01 X8.0986 Y-2.1886 Z-3.2030 F1200
G01 X8.1565 Y-2.3212 Z-3.2350 F1200
G01 X8.1908 Y-2.4588 Z-3.2496 F1200
G01 X8.2009 Y-2.5972 Z-3.2429 F1200
G01 X8.1871 Y-2.7321 Z-3.2166 F1200
G01 X8.1504 Y-2.8596 Z-3.1779 F1200
G01 X8.0924 Y-2.9757 Z-3.1370 F1200
G01 X8.0154 Y-3.0768 Z-3.1050 F1200
G01 X7.9222 Y-3.1600 Z-3.0904 F1200
G01 X7.8163 Y-3.2227 Z-3.0971 F1200
G01 X7.7013 Y-3.2629 Z-3.1234 F1200
G01 X7.5814 Y-3.2796 Z-3.1621 F1200
G01 X7.4607 Y-3.2720 Z-3.2030 F1200
G01 X7.3434 Y-3.2406 Z-3.2350 F1200
G01 X7.2336 Y-3.1862 Z-3.2496 F1200
G01 X7.1352 Y-3.1105 Z-3.2429 F1200
G01 X7.0517 Y-3.0158 Z-3.2166 F1200
G01 X6.9862 Y-2.9050 Z-3.1779 F1200
G01 X6.9412 Y-2.7814 Z-3.1370 F1200
G01 X6.9186 Y-2.6488 Z-3.1050 F1200
G01 X6.9196 Y-2.5112 Z-3.0904 F1200
G01 X6.9448 Y-2.3728 Z-3.0971 F1200
G01 X6.9939 Y-2.2379 Z-3.1234 F1200
G01 X7.0660 Y-2.1104 Z-3.1621 F1200
G01 X7.1593 Y-1.9943 Z-3.2030 F1200
G01 X7.2717 Y-1.8932 Z-3.2350 F1200
G01 X7.4002 Y-1.8100 Z-3.2496 F1200
G01 X7.5415 Y-1.7473 Z-3.2429 F1200
G01 X7.6917 Y-1.7071 Z-3.2166 F1200
G01 X7.8470 Y-1.6904 Z-3.1779 F1200
G01 X8.0030 Y-1.6980 Z-3.1370 F1200
G01 X8.1557 Y-1.7294 Z-3.1050 F1200
G01 X8.3008 Y-1.7838 Z-3.0904 F1200
G01 X8.4345 Y-1.8595 Z-3.0971 F1200
G01 X8.5534 Y-1.9542 Z-3.1234 F1200
G01 X8.6542 Y-2.0650 Z-3.1621 F1200
G01 X8.7346 Y-2.1886 Z-3.2030 F1200
G01 X8.7925 Y-2.3212 Z-3.2350 F1200
G01 X8.8268 Y-2.4588 Z-3.2496 F1200
G01 X8.8369 Y-2.5972 Z-3.2429 F1200
G01 X8.8231 Y-2.7321 Z-3.2166 F1200
G01 X8.7864 Y-2.8596 Z-3.1779 F1200
G01 X8.7284 Y-2.9757 Z-3.1370 F1200
G01 X8.6514 Y-3.0768 Z-3.1050 F1200
G01 X8.5582 Y-3.1600 Z-3.0904 F1200
G01 X8.4523 Y-3.2227 Z-3.0971 F1200
G01 X8.3373 Y-3.2629 Z-3.1234 F1200
G01 X8.2174 Y-3.2796 Z-3.1621 F1200
G01 X8.0967 Y-3.2720 Z-3.2030 F1200
G01 X7.9794 Y-3.2406 Z-3.2350 F1200
G01 X7.8696 Y-3.1862 Z-3.2496 F1200
G01 X7.7712 Y-3.1105 Z-3.2429 F1200
G01 X7.6877 Y-3.0158 Z-3.2166 F1200
G01 X7.6222 Y-2.9050 Z-3.1779 F1200
G01 X7.5772 Y-2.7814 Z-3.1370 F1200
G01 X7.5546 Y-2.6488 Z-3.1050 F1200
G01 X7.5556 Y-2.5112 Z-3.0904 F1200
G01 X7.5808 Y-2.3728 Z-3.0971 F1200
G01 X7.6299 Y-2.2379 Z-3.1234 F1200
G01 X7.7020 Y-2.1104 Z-3.1621 F1200
G01 X7.7953 Y-1.9943 Z-3.2030 F1200
G01 X7.9077 Y-1.8932 Z-3.2350 F1200
G01 X8.0362 Y-1.8100 Z-3.2496 F1200
G01 X8.1775 Y-1.7473 Z-3.2429 F1200
G01 X8.3277 Y-1.7071 Z-3.2166 F1200
G01 X8.4830 Y-1.6904 Z-3.1779 F1200
G01 X8.6390 Y-1.6980 Z-3.1370 F1200
G01 X8.7917 Y-1.7294 Z-3.1050 F1200
G01 X8.9368 Y-1.7838 Z-3.0904 F1200
G01 X9.0705 Y-1.8595 Z-3.0971 F1200
G01 X9.1894 Y-1.9542 Z-3.1234 F1200
G01 X9.2902 Y-2.0650 Z-3.1621 F1200
G01 X9.3706 Y-2.1886 Z-3.2030 F1200
G01 X9.4285 Y-2.3212 Z-3.2350 F1200
G01 X9.4628 Y-2.4588 Z-3.2496 F1200
G01 X9.4729 Y-2.5972 Z-3.2429 F1200
G01 X9.4591 Y-2.7321 Z-3.2166 F1200
G01 X9.4224 Y-2.8596 Z-3.1779 F1200
G01 X9.3644 Y-2.9757 Z-3.1370 F1200
G01 X9.2874 Y-3.0768 Z-3.1050 F1200
G01 X9.1942 Y-3.1600 Z-3.0904 F1200
G01 X9.0883 Y-3.2227 Z-3.0971 F1200
G01 X8.9733 Y-3.2629 Z-3.1234 F1200
G01 X8.8534 Y-3.2796 Z-3.1621 F1200
G01 X8.7327 Y-3.2720 Z-3.2030 F1200
G01 X8.6154 Y-3.2406 Z-3.2350 F1200
G01 X8.5056 Y-3.1862 Z-3.2496 F1200
G01 X8.4072 Y-3.1105 Z-3.2429 F1200
G01 X8.3237 Y-3.0158 Z-3.2166 F1200
G01 X8.2582 Y-2.9050 Z-3.1779 F1200
G01 X8.2132 Y-2.7814 Z-3.1370 F1200
G01 X8.1906 Y-2.6488 Z-3.1050 F1200
G01 X8.1916 Y-2.5112 Z-3.0904 F1200
G01 X8.2168 Y-2.3728 Z-3.0971 F1200
G01 X8.2659 Y-2.2379 Z-3.1234 F1200
G01 X8.3380 Y-2.1104 Z-3.1621 F1200
G01 X8.4313 Y-1.9943 Z-3.2030 F1200
G01 X8.5437 Y-1.8932 Z-3.2350 F1200
G01 X8.6722 Y-1.8100 Z-3.2496 F1200
G01 X8.8135 Y-1.7473 Z-3.2429 F1200
G01 X8.9637 Y-1.7071 Z-3.2166 F1200
G01 X9.1190 Y-1.6904 Z-3.1779 F1200
G01 X9.2750 Y-1.6980 Z-3.1370 F1200
G01 X9.4277 Y-1.7294 Z-3.1050 F1200
G01 X9.5728 Y-1.7838 Z-3.0904 F1200
G01 X9.7065 Y-1.8595 Z-3.0971 F1200
G01 X9.8254 Y-1.9542 Z-3.1234 F1200
G01 X9.9262 Y-2.0650 Z-3.1621 F1200
G01 X10.0066 Y-2.1886 Z-3.2030 F1200
G01 X10.0645 Y-2.3212 Z-3.2350 F1200
G01 X10.0988 Y-2.4588 Z-3.2496 F1200
G01 X10.1089 Y-2.5972 Z-3.2429 F1200
G01 X10.0951 Y-2.7321 Z-3.2166 F1200
G01 X10.0584 Y-2.8596 Z-3.1779 F1200
G01 X10.0004 Y-2.9757 Z-3.1370 F1200
G01 X9.9234 Y-3.0768 Z-3.1050 F1200
G01 X9.8302 Y-3.1600 Z-3.0904 F1200
G01 X9.7243 Y-3.2227 Z-3.0971 F1200
G01 X9.6093 Y-3.2629 Z-3.1234 F1200
G01 X9.4894 Y-3.2796 Z-3.1621 F1200
G01 X9.3687 Y-3.2720 Z-3.2030 F1200
G01 X9.2514 Y-3.2406 Z-3.2350 F1200
G01 X9.1416 Y-3.1862 Z-3.2496 F1200
G01 X9.0432 Y-3.1105 Z-3.2429 F1200
G01 X8.9597 Y-3.0158 Z-3.2166 F1200
G01 X8.8942 Y-2.9050 Z-3.1779 F1200
G01 X8.8492 Y-2.7814 Z-3.1370 F1200
G01 X8.8266 Y-2.6488 Z-3.1050 F1200
G01 X8.8276 Y-2.5112 Z-3.0904 F1200
G01 X8.8528 Y-2.3728 Z-3.0971 F1200
G01 X8.9019 Y-2.2379 Z-3.1234 F1200
G01 X8.9740 Y-2.1104 Z-3.1621 F1200
G01 X9.0673 Y-1.9943 Z-3.2030 F1200
G01 X9.1797 Y-1.8932 Z-3.2350 F1200
G01 X9.3082 Y-1.8100 Z-3.2496 F1200
G01 X9.4495 Y-1.7473 Z-3.2429 F1200
G01 X9.5997 Y-1.7071 Z-3.2166 F1200
G01 X9.7550 Y-1.6904 Z-3.1779 F1200
G01 X9.9110 Y-1.6980 Z-3.1370 F1200
G01 X10.0637 Y-1.7294 Z-3.1050 F1200
G01 X10.2088 Y-1.7838 Z-3.0904 F1200
G01 X10.3425 Y-1.8595 Z-3.0971 F1200
G01 X10.4614 Y-1.9542 Z-3.1234 F1200
G01 X10.5622 Y-2.0650 Z-3.1621 F1200
G01 X10.6426 Y-2.1886 Z-3.2030 F1200
G01 X10.7005 Y-2.3212 Z-3.2350 F1200
G01 X10.7348 Y-2.4588 Z-3.2496 F1200
G01 X10.7449 Y-2.5972 Z-3.2429 F1200
G01 X10.7311 Y-2.7321 Z-3.2166 F1200
G01 X10.6944 Y-2.8596 Z-3.1779 F1200
G01 X10.6364 Y-2.9757 Z-3.1370 F1200
G01 X10.5594 Y-3.0768 Z-3.1050 F1200
G01 X10.4662 Y-3.1600 Z-3.0904 F1200
G01 X10.3603 Y-3.2227 Z-3.0971 F1200
G01 X10.2453 Y-3.2629 Z-3.1234 F1200
G01 X10.1254 Y-3.2796 Z-3.1621 F1200
G01 X10.0047 Y-3.2720 Z-3.2030 F1200
G01 X9.8874 Y-3.2406 Z-3.2350 F1200
G01 X9.7776 Y-3.1862 Z-3.2496 F1200
G01 X9.6792 Y-3.1105 Z-3.2429 F1200
G01 X9.5957 Y-3.0158 Z-3.2166 F1200
G01 X9.5302 Y-2.9050 Z-3.1779 F1200
G01 X9.4852 Y-2.7814 Z-3.1370 F1200
G01 X9.4626 Y-2.6488 Z-3.1050 F1200
G01 X9.4636 Y-2.5112 Z-3.0904 F1200
G01 X9.4888 Y-2.3728 Z-3.0971 F1200
G01 X9.5379 Y-2.2379 Z-3.1234 F1200
G01 X9.6100 Y-2.1104 Z-3.1621 F1200
G01 X9.7033 Y-1.9943 Z-3.2030 F1200
G01 X9.8157 Y-1.8932 Z-3.2350 F1200
G01 X9.9442 Y-1.8100 Z-3.2496 F1200
G01 X10.0855 Y-1.7473 Z-3.2429 F1200
G01 X10.2357 Y-1.7071 Z-3.2166 F1200
G01 X10.3910 Y-1.6904 Z-3.1779 F1200
G01 X10.5470 Y-1.6980 Z-3.1370 F1200
G01 X10.6997 Y-1.7294 Z-3.1050 F1200
G01 X10.8448 Y-1.7838 Z-3.0904 F1200
G01 X10.9785 Y-1.8595 Z-3.0971 F1200
G01 X11.0974 Y-1.9542 Z-3.1234 F1200
G01 X11.1982 Y-2.0650 Z-3.1621 F1200
G01 X11.2786 Y-2.1886 Z-3.2030 F1200
G01 X11.3365 Y-2.3212 Z-3.2350 F1200
G01 X11.3708 Y-2.4588 Z-3.2496 F1200
G01 X11.3809 Y-2.5972 Z-3.2429 F1200
G01 X11.3671 Y-2.7321 Z-3.2166 F1200
G01 X11.3304 Y-2.8596 Z-3.1779 F1200
G01 X11.2724 Y-2.9757 Z-3.1370 F1200
G01 X11.1954 Y-3.0768 Z-3.1050 F1200
G01 X11.1022 Y-3.1600 Z-3.0904 F1200
G01 X10.9963 Y-3.2227 Z-3.0971 F1200
G01 X10.8813 Y-3.2629 Z-3.1234 F1200
G01 X10.7614 Y-3.2796 Z-3.1621 F1200
G01 X10.6407 Y-3.2720 Z-3.2030 F1200
G01 X10.5234 Y-3.2406 Z-3.2350 F1200
G01 X10.4136 Y-3.1862 Z-3.2496 F1200
G01 X10.3152 Y-3.1105 Z-3.2429 F1200
G01 X10.2317 Y-3.0158 Z-3.2166 F1200
G01 X10.1662 Y-2.9050 Z-3.1779 F1200
G01 X10.1212 Y-2.7814 Z-3.1370 F1200
G01 X10.0986 Y-2.6488 Z-3.1050 F1200
G01 X10.0996 Y-2.5112 Z-3.0904 F1200
G01 X10.1248 Y-2.3728 Z-3.0971 F1200
G01 X10.1739 Y-2.2379 Z-3.1234 F1200
G01 X10.2460 Y-2.1104 Z-3.1621 F1200
G01 X10.3393 Y-1.9943 Z-3.2030 F1200
G01 X10.4517 Y-1.8932 Z-3.2350 F1200
G01 X10.5802 Y-1.8100 Z-3.2496 F1200
G01 X10.7215 Y-1.7473 Z-3.2429 F1200
G01 X10.8717 Y-1.7071 Z-3.2166 F1200
G01 X11.0270 Y-1.6904 Z-3.1779 F1200
G01 X11.1830 Y-1.6980 Z-3.1370 F1200
G01 X11.3357 Y-1.7294 Z-3.1050 F1200
G01 X11.4808 Y-1.7838 Z-3.0904 F1200
G01 X11.6145 Y-1.8595 Z-3.0971 F1200
G01 X11.7334 Y-1.9542 Z-3.1234 F1200
G01 X11.8342 Y-2.0650 Z-3.1621 F1200
G01 X11.9146 Y-2.1886 Z-3.2030 F1200
G01 X11.9725 Y-2.3212 Z-3.2350 F1200
G01 X12.0068 Y-2.4588 Z-3.2496 F1200
G01 X12.0169 Y-2.5972 Z-3.2429 F1200
G01 X12.0031 Y-2.7321 Z-3.2166 F1200
G01 X11.9664 Y-2.8596 Z-3.1779 F1200
G01 X11.9084 Y-2.9757 Z-3.1370 F1200
G01 X11.8314 Y-3.0768 Z-3.1050 F1200
G01 X11.7382 Y-3.1600 Z-3.0904 F1200
G01 X11.6323 Y-3.2227 Z-3.0971 F1200
G01 X11.5173 Y-3.2629 Z-3.1234 F1200
G01 X11.3974 Y-3.2796 Z-3.1621 F1200
G01 X11.2767 Y-3.2720 Z-3.2030 F1200
G01 X11.1594 Y-3.2406 Z-3.2350 F1200
G01 X11.0496 Y-3.1862 Z-3.2496 F1200
G01 X10.9512 Y-3.1105 Z-3.2429 F1200
G01 X10.8677 Y-3.0158 Z-3.2166 F1200
G01 X10.8022 Y-2.9050 Z-3.1779 F1200
G01 X10.7572 Y-2.7814 Z-3.1370 F1200
G01 X10.7346 Y-2.6488 Z-3.1050 F1200
G01 X10.7356 Y-2.5112 Z-3.0904 F1200
G01 X10.7608 Y-2.3728 Z-3.0971 F1200
G01 X10.8099 Y-2.2379 Z-3.1234 F1200
G01 X10.8820 Y-2.1104 Z-3.1621 F1200
G01 X10.9753 Y-1.9943 Z-3.2030 F1200
G01 X11.0877 Y-1.8932 Z-3.2350 F1200
G01 X11.2162 Y-1.8100 Z-3.2496 F1200
G01 X11.3575 Y-1.7473 Z-3.2429 F1200
G01 X11.5077 Y-1.7071 Z-3.2166 F1200
G01 X11.6630 Y-1.6904 Z-3.1779 F1200
G01 X11.8190 Y-1.6980 Z-3.1370 F1200
G01 X11.9717 Y-1.7294 Z-3.1050 F1200
G01 X12.1168 Y-1.7838 Z-3.0904 F1200
G01 X12.2505 Y-1.8595 Z-3.0971 F1200
G01 X12.3694 Y-1.9542 Z-3.1234 F1200
G01 X12.4702 Y-2.0650 Z-3.1621 F1200
G01 X12.5506 Y-2.1886 Z-3.2030 F1200
G01 X12.6085 Y-2.3212 Z-3.2350 F1200
G01 X12.6428 Y-2.4588 Z-3.2496 F1200
G01 X12.6529 Y-2.5972 Z-3.2429 F1200
G01 X12.6391 Y-2.7321 Z-3.2166 F1200
G01 X12.6024 Y-2.8596 Z-3.1779 F1200
G01 X12.5444 Y-2.9757 Z-3.1370 F1200
G01 X12.4674 Y-3.0768 Z-3.1050 F1200
G01 X12.3742 Y-3.1600 Z-3.0904 F1200
G01 X12.2683 Y-3.2227 Z-3.0971 F1200
G01 X12.1533 Y-3.2629 Z-3.1234 F1200
G01 X12.0334 Y-3.2796 Z-3.1621 F1200
G01 X11.9127 Y-3.2720 Z-3.2030 F1200
G01 X11.7954 Y-3.2406 Z-3.2350 F1200
G01 X11.6856 Y-3.1862 Z-3.2496 F1200
G01 X11.5872 Y-3.1105 Z-3.2429 F1200
G01 X11.5037 Y-3.0158 Z-3.2166 F1200
G01 X11.4382 Y-2.9050 Z-3.1779 F1200
G01 X11.3932 Y-2.7814 Z-3.1370 F1200
G01 X11.3706 Y-2.6488 Z-3.1050 F1200
G01 X11.3716 Y-2.5112 Z-3.0904 F1200
G01 X11.3968 Y-2.3728 Z-3.0971 F1200
G01 X11.4459 Y-2.2379 Z-3.1234 F1200
G01 X11.5180 Y-2.1104 Z-3.1621 F1200
G01 X11.6113 Y-1.9943 Z-3.2030 F1200
G01 X11.7237 Y-1.8932 Z-3.2350 F1200
G01 X11.8522 Y-1.8100 Z-3.2496 F1200
G01 X11.9935 Y-1.7473 Z-3.2429 F1200
G01 X12.1437 Y-1.7071 Z-3.2166 F1200
G01 X12.2990 Y-1.6904 Z-3.1779 F1200
G01 X12.4550 Y-1.6980 Z-3.1370 F1200
G01 X12.6077 Y-1.7294 Z-3.1050 F1200
G01 X12.7528 Y-1.7838 Z-3.0904 F1200
G01 X12.8865 Y-1.8595 Z-3.0971 F1200
G01 X13.0054 Y-1.9542 Z-3.1234 F1200
G01 X13.1062 Y-2.0650 Z-3.1621 F1200
G01 X13.1866 Y-2.1886 Z-3.2030 F1200
G01 X13.2445 Y-2.3212 Z-3.2350 F1200
G01 X13.2788 Y-2.4588 Z-3.2496 F1200
G01 X13.2889 Y-2.5972 Z-3.2429 F1200
G01 X13.2751 Y-2.7321 Z-3.2166 F1200
G01 X13.2384 Y-2.8596 Z-3.1779 F1200
G01 X13.1804 Y-2.9757 Z-3.1370 F1200
G01 X13.1034 Y-3.0768 Z-3.1050 F1200
G01 X13.0102 Y-3.1600 Z-3.0904 F1200
G01 X12.9043 Y-3.2227 Z-3.0971 F1200
G01 X12.7893 Y-3.2629 Z-3.1234 F1200
G01 X12.6694 Y-3.2796 Z-3.1621 F1200
G01 X12.5487 Y-3.2720 Z-3.2030 F1200
G01 X12.4314 Y-3.2406 Z-3.2350 F1200
G01 X12.3216 Y-3.1862 Z-3.2496 F1200
G01 X12.2232 Y-3.1105 Z-3.2429 F1200
G01 X12.1397 Y-3.0158 Z-3.2166 F1200
G01 X12.0742 Y-2.9050 Z-3.1779 F1200
G01 X12.0292 Y-2.7814 Z-3.1370 F1200
G01 X12.0066 Y-2.6488 Z-3.1050 F1200
G01 X12.0076 Y-2.5112 Z-3.0904 F1200
G01 X12.0328 Y-2.3728 Z-3.0971 F1200
G01 X12.0819 Y-2.2379 Z-3.1234 F1200
G01 X12.1540 Y-2.1104 Z-3.1621 F1200
G01 X12.2473 Y-1.9943 Z-3.2030 F1200
G01 X12.3597 Y-1.8932 Z-3.2350 F1200
G01 X12.4882 Y-1.8100 Z-3.2496 F1200
G01 X12.6295 Y-1.7473 Z-3.2429 F1200
G01 X12.7797 Y-1.7071 Z-3.2166 F1200
G01 X12.9350 Y-1.6904 Z-3.1779 F1200
G01 X13.0910 Y-1.6980 Z-3.1370 F1200
G01 X13.2437 Y-1.7294 Z-3.1050 F1200
G01 X13.3888 Y-1.7838 Z-3.0904 F1200
G01 X13.5225 Y-1.8595 Z-3.0971 F1200
G01 X13.6414 Y-1.9542 Z-3.1234 F1200
G01 X13.7422 Y-2.0650 Z-3.1621 F1200
G01 X13.8226 Y-2.1886 Z-3.2030 F1200
G01 X13.8805 Y-2.3212 Z-3.2350 F1200
G01 X13.9148 Y-2.4588 Z-3.2496 F1200
G01 X13.9249 Y-2.5972 Z-3.2429 F1200
G01 X13.9111 Y-2.7321 Z-3.2166 F1200
G01 X13.8744 Y-2.8596 Z-3.1779 F1200
G01 X13.8164 Y-2.9757 Z-3.1370 F1200
G01 X13.7394 Y-3.0768 Z-3.1050 F1200
G01 X13.6462 Y-3.1600 Z-3.0904 F1200
G01 X13.5403 Y-3.2227 Z-3.0971 F1200
G01 X13.4253 Y-3.2629 Z-3.1234 F1200
G01 X13.3054 Y-3.2796 Z-3.1621 F1200
G01 X13.1847 Y-3.2720 Z-3.2030 F1200
G01 X13.0674 Y-3.2406 Z-3.2350 F1200
G01 X12.9576 Y-3.1862 Z-3.2496 F1200
G01 X12.8592 Y-3.1105 Z-3.2429 F1200
G01 X12.7757 Y-3.0158 Z-3.2166 F1200
G01 X12.7102 Y-2.9050 Z-3.1779 F1200
G01 X12.6652 Y-2.7814 Z-3.1370 F1200
G01 X12.6426 Y-2.6488 Z-3.1050 F1200
G01 X12.6436 Y-2.5112 Z-3.0904 F1200
G01 X12.6688 Y-2.3728 Z-3.0971 F1200
G01 X12.7179 Y-2.2379 Z-3.1234 F1200
G01 X12.7900 Y-2.1104 Z-3.1621 F1200
G01 X12.8833 Y-1.9943 Z-3.2030 F1200
G01 X12.9957 Y-1.8932 Z-3.2350 F1200
G01 X13.1242 Y-1.8100 Z-3.2496 F1200
G01 X13.2655 Y-1.7473 Z-3.2429 F1200
G01 X13.4157 Y-1.7071 Z-3.2166 F1200
G01 X13.5710 Y-1.6904 Z-3.1779 F1200
G01 X13.7270 Y-1.6980 Z-3.1370 F1200
G01 X13.8797 Y-1.7294 Z-3.1050 F1200
G01 X14.0248 Y-1.7838 Z-3.0904 F1200
G01 X14.1585 Y-1.8595 Z-3.0971 F1200
G01 X14.2774 Y-1.9542 Z-3.1234 F1200
G01 X14.3782 Y-2.0650 Z-3.1621 F1200
G01 X14.4586 Y-2.1886 Z-3.2030 F1200
G01 X14.5165 Y-2.3212 Z-3.2350 F1200
G01 X14.5508 Y-2.4588 Z-3.2496 F1200
G01 X14.5609 Y-2.5972 Z-3.2429 F1200
G01 X14.5471 Y-2.7321 Z-3.2166 F1200
G01 X14.5104 Y-2.8596 Z-3.1779 F1200
G01 X14.4524 Y-2.9757 Z-3.1370 F1200
G01 X14.3754 Y-3.0768 Z-3.1050 F1200
G01 X14.2822 Y-3.1600 Z-3.0904 F1200
G01 X14.1763 Y-3.2227 Z-3.0971 F1200
G01 X14.0613 Y-3.2629 Z-3.1234 F1200
G01 X13.9414 Y-3.2796 Z-3.1621 F1200
G01 X13.8207 Y-3.2720 Z-3.2030 F1200
G01 X13.7034 Y-3.2406 Z-3.2350 F1200
G01 X13.5936 Y-3.1862 Z-3.2496 F1200
G01 X13.4952 Y-3.1105 Z-3.2429 F1200
G01 X13.4117 Y-3.0158 Z-3.2166 F1200
G01 X13.3462 Y-2.9050 Z-3.1779 F1200
G01 X13.3012 Y-2.7814 Z-3.1370 F1200
G01 X13.2786 Y-2.6488 Z-3.1050 F1200
G01 X13.2796 Y-2.5112 Z-3.0904 F1200
G01 X13.3048 Y-2.3728 Z-3.0971 F1200
G01 X13.3539 Y-2.2379 Z-3.1234 F1200
G01 X13.4260 Y-2.1104 Z-3.1621 F1200
G01 X13.5193 Y-1.9943 Z-3.2030 F1200
G01 X13.6317 Y-1.8932 Z-3.2350 F1200
G01 X13.7602 Y-1.8100 Z-3.2496 F1200
G01 X13.9015 Y-1.7473 Z-3.2429 F1200
G01 X14.0517 Y-1.7071 Z-3.2166 F1200
G01 X14.2070 Y-1.6904 Z-3.1779 F1200
G01 X14.3630 Y-1.6980 Z-3.1370 F1200
G01 X14.5157 Y-1.7294 Z-3.1050 F1200
G01 X14.6608 Y-1.7838 Z-3.0904 F1200
G01 X14.7945 Y-1.8595 Z-3.0971 F1200
G01 X14.9134 Y-1.9542 Z-3.1234 F1200
G01 X15.0142 Y-2.0650 Z-3.1621 F1200
G01 X15.0946 Y-2.1886 Z-3.2030 F1200
G01 X15.1525 Y-2.3212 Z-3.2350 F1200
G01 X15.1868 Y-2.4588 Z-3.2496 F1200
G01 X15.1969 Y-2.5972 Z-3.2429 F1200
G01 X15.1831 Y-2.7321 Z-3.2166 F1200
G01 X15.1464 Y-2.8596 Z-3.1779 F1200
G01 X15.0884 Y-2.9757 Z-3.1370 F1200
G01 X15.0114 Y-3.0768 Z-3.1050 F1200
G01 X14.9182 Y-3.1600 Z-3.0904 F1200
G01 X14.8123 Y-3.2227 Z-3.0971 F1200
G01 X14.6973 Y-3.2629 Z-3.1234 F1200
G01 X14.5774 Y-3.2796 Z-3.1621 F1200
G01 X14.4567 Y-3.2720 Z-3.2030 F1200
G01 X14.3394 Y-3.2406 Z-3.2350 F1200
G01 X14.2296 Y-3.1862 Z-3.2496 F1200
G01 X14.1312 Y-3.1105 Z-3.2429 F1200
G01 X14.0477 Y-3.0158 Z-3.2166 F1200
G01 X13.9822 Y-2.9050 Z-3.1779 F1200
G01 X13.9372 Y-2.7814 Z-3.1370 F1200
G01 X13.9146 Y-2.6488 Z-3.1050 F1200
G01 X13.9156 Y-2.5112 Z-3.0904 F1200
G01 X13.9408 Y-2.3728 Z-3.0971 F1200
G01 X13.9899 Y-2.2379 Z-3.1234 F1200
G01 X14.0620 Y-2.1104 Z-3.1621 F1200
G01 X14.1553 Y-1.9943 Z-3.2030 F1200
G01 X14.2677 Y-1.8932 Z-3.2350 F1200
G01 X14.3962 Y-1.8100 Z-3.2496 F1200
G01 X14.5375 Y-1.7473 Z-3.2429 F1200
G01 X14.6877 Y-1.7071 Z-3.2166 F1200
G01 X14.8430 Y-1.6904 Z-3.1779 F1200
G01 X14.9990 Y-1.6980 Z-3.1370 F1200
G01 X15.1517 Y-1.7294 Z-3.1050 F1200
G01 X15.2968 Y-1.7838 Z-3.0904 F1200
G01 X15.4305 Y-1.8595 Z-3.0971 F1200
G01 X15.5494 Y-1.9542 Z-3.1234 F1200
G01 X15.6502 Y-2.0650 Z-3.1621 F1200
G01 X15.7306 Y-2.1886 Z-3.2030 F1200
G01 X15.7885 Y-2.3212 Z-3.2350 F1200
G01 X15.8228 Y-2.4588 Z-3.2496 F1200
G01 X15.8329 Y-2.5972 Z-3.2429 F1200
G01 X15.8191 Y-2.7321 Z-3.2166 F1200
G01 X15.7824 Y-2.8596 Z-3.1779 F1200
G01 X15.7244 Y-2.9757 Z-3.1370 F1200
G01 X15.6474 Y-3.0768 Z-3.1050 F1200
G01 X15.5542 Y-3.1600 Z-3.0904 F1200
G01 X15.4483 Y-3.2227 Z-3.0971 F1200
G01 X15.3333 Y-3.2629 Z-3.1234 F1200
G01 X15.2134 Y-3.2796 Z-3.1621 F1200
G01 X15.0927 Y-3.2720 Z-3.2030 F1200
G01 X14.9754 Y-3.2406 Z-3.2350 F1200
G01 X14.8656 Y-3.1862 Z-3.2496 F1200
G01 X14.7672 Y-3.1105 Z-3.2429 F1200
G01 X14.6837 Y-3.0158 Z-3.2166 F1200
G01 X14.6182 Y-2.9050 Z-3.1779 F1200
G01 X14.5732 Y-2.7814 Z-3.1370 F1200
G01 X14.5506 Y-2.6488 Z-3.1050 F1200
G01 X14.5516 Y-2.5112 Z-3.0904 F1200
G01 X14.5768 Y-2.3728 Z-3.0971 F1200
G01 X14.6259 Y-2.2379 Z-3.1234 F1200
G01 X14.6980 Y-2.1104 Z-3.1621 F1200
G01 X14.7913 Y-1.9943 Z-3.2030 F1200
G01 X14.9037 Y-1.8932 Z-3.2350 F1200
G01 X15.0322 Y-1.8100 Z-3.2496 F1200
G01 X15.1735 Y-1.7473 Z-3.2429 F1200
G01 X15.3237 Y-1.7071 Z-3.2166 F1200
G01 X15.4790 Y-1.6904 Z-3.1779 F1200
G01 X15.6350 Y-1.6980 Z-3.1370 F1200
G01 X15.7877 Y-1.7294 Z-3.1050 F1200
G01 X15.9328 Y-1.7838 Z-3.0904 F1200
G01 X16.0665 Y-1.8595 Z-3.0971 F1200
G01 X16.1854 Y-1.9542 Z-3.1234 F1200
G01 X16.2862 Y-2.0650 Z-3.1621 F1200
G01 X16.3666 Y-2.1886 Z-3.2030 F1200
G01 X16.4245 Y-2.3212 Z-3.2350 F1200
G01 X16.4588 Y-2.4588 Z-3.2496 F1200
G01 X16.4689 Y-2.5972 Z-3.2429 F1200
G01 X16.4551 Y-2.7321 Z-3.2166 F1200
G01 X16.4184 Y-2.8596 Z-3.1779 F1200
G01 X16.3604 Y-2.9757 Z-3.1370 F1200
G01 X16.2834 Y-3.0768 Z-3.1050 F1200
G01 X16.1902 Y-3.1600 Z-3.0904 F1200
G01 X16.0843 Y-3.2227 Z-3.0971 F1200
G01 X15.9693 Y-3.2629 Z-3.1234 F1200
G01 X15.8494 Y-3.2796 Z-3.1621 F1200
G01 X15.7287 Y-3.2720 Z-3.2030 F1200
G01 X15.6114 Y-3.2406 Z-3.2350 F1200
G01 X15.5016 Y-3.1862 Z-3.2496 F1200
G01 X15.4032 Y-3.1105 Z-3.2429 F1200
G01 X15.3197 Y-3.0158 Z-3.2166 F1200
G01 X15.2542 Y-2.9050 Z-3.1779 F1200
G01 X15.2092 Y-2.7814 Z-3.1370 F1200
G01 X15.1866 Y-2.6488 Z-3.1050 F1200
G01 X15.1876 Y-2.5112 Z-3.0904 F1200
G01 X15.2128 Y-2.3728 Z-3.0971 F1200
G01 X15.2619 Y-2.2379 Z-3.1234 F1200
G01 X15.3340 Y-2.1104 Z-3.1621 F1200
G01 X15.4273 Y-1.9943 Z-3.2030 F1200
G01 X15.5397 Y-1.8932 Z-3.2350 F1200
G01 X15.6682 Y-1.8100 Z-3.2496 F1200
G01 X15.8095 Y-1.7473 Z-3.2429 F1200
G01 X15.9597 Y-1.7071 Z-3.2166 F1200
G01 X16.1150 Y-1.6904 Z-3.1779 F1200
G01 X16.2710 Y-1.6980 Z-3.1370 F1200
G01 X16.4237 Y-1.7294 Z-3.1050 F1200
G01 X16.5688 Y-1.7838 Z-3.0904 F1200
G01 X16.7025 Y-1.8595 Z-3.0971 F1200
G01 X16.8214 Y-1.9542 Z-3.1234 F1200
G01 X16.9222 Y-2.0650 Z-3.1621 F1200
G01 X17.0026 Y-2.1886 Z-3.2030 F1200
G01 X17.0605 Y-2.3212 Z-3.2350 F1200
G01 X17.0948 Y-2.4588 Z-3.2496 F1200
G01 X17.1049 Y-2.5972 Z-3.2429 F1200
G01 X17.0911 Y-2.7321 Z-3.2166 F1200
G01 X17.0544 Y-2.8596 Z-3.1779 F1200
G01 X16.9964 Y-2.9757 Z-3.1370 F1200
G01 X16.9194 Y-3.0768 Z-3.1050 F1200
G01 X16.8262 Y-3.1600 Z-3.0904 F1200
G01 X16.7203 Y-3.2227 Z-3.0971 F1200
G01 X16.6053 Y-3.2629 Z-3.1234 F1200
G01 X16.4854 Y-3.2796 Z-3.1621 F1200
G01 X16.3647 Y-3.2720 Z-3.2030 F1200
G01 X16.2474 Y-3.2406 Z-3.2350 F1200
G01 X16.1376 Y-3.1862 Z-3.2496 F1200
G01 X16.0392 Y-3.1105 Z-3.2429 F1200
G01 X15.9557 Y-3.0158 Z-3.2166 F1200
G01 X15.8902 Y-2.9050 Z-3.1779 F1200
G01 X15.8452 Y-2.7814 Z-3.1370 F1200
G01 X15.8226 Y-2.6488 Z-3.1050 F1200
G01 X15.8236 Y-2.5112 Z-3.0904 F1200
G01 X15.8488 Y-2.3728 Z-3.0971 F1200
G01 X15.8979 Y-2.2379 Z-3.1234 F1200
G01 X15.9700 Y-2.1104 Z-3.1621 F1200
G01 X16.0633 Y-1.9943 Z-3.2030 F1200
G01 X16.1757 Y-1.8932 Z-3.2350 F1200
G01 X16.3042 Y-1.8100 Z-3.2496 F1200
G01 X16.4455 Y-1.7473 Z-3.2429 F1200
G01 X16.5957 Y-1.7071 Z-3.2166 F1200
G01 X16.7510 Y-1.6904 Z-3.1779 F1200
G01 X16.9070 Y-1.6980 Z-3.1370 F1200
G01 X17.0597 Y-1.7294 Z-3.1050 F1200
G01 X17.2048 Y-1.7838 Z-3.0904 F1200
G01 X17.3385 Y-1.8595 Z-3.0971 F1200
G01 X17.4574 Y-1.9542 Z-3.1234 F1200
G01 X17.5582 Y-2.0650 Z-3.1621 F1200
G01 X17.6386 Y-2.1886 Z-3.2030 F1200
G01 X17.6965 Y-2.3212 Z-3.2350 F1200
G01 X17.7308 Y-2.4588 Z-3.2496 F1200
G01 X17.7409 Y-2.5972 Z-3.2429 F1200
G01 X17.7271 Y-2.7321 Z-3.2166 F1200
G01 X17.6904 Y-2.8596 Z-3.1779 F1200
G01 X17.6324 Y-2.9757 Z-3.1370 F1200
G01 X17.5554 Y-3.0768 Z-3.1050 F1200
G01 X17.4622 Y-3.1600 Z-3.0904 F1200
G01 X17.3563 Y-3.2227 Z-3.0971 F1200
G01 X17.2413 Y-3.2629 Z-3.1234 F1200
G01 X17.1214 Y-3.2796 Z-3.1621 F1200
G01 X17.0007 Y-3.2720 Z-3.2030 F1200
G01 X16.8834 Y-3.2406 Z-3.2350 F1200
G01 X16.7736 Y-3.1862 Z-3.2496 F1200
G01 X16.6752 Y-3.1105 Z-3.2429 F1200
G01 X16.5917 Y-3.0158 Z-3.2166 F1200
G01 X16.5262 Y-2.9050 Z-3.1779 F1200
G01 X16.4812 Y-2.7814 Z-3.1370 F1200
G01 X16.4586 Y-2.6488 Z-3.1050 F1200
G01 X16.4596 Y-2.5112 Z-3.0904 F1200
G01 X16.4848 Y-2.3728 Z-3.0971 F1200
G01 X16.5339 Y-2.2379 Z-3.1234 F1200
G01 X16.6060 Y-2.1104 Z-3.1621 F1200
G01 X16.6993 Y-1.9943 Z-3.2030 F1200
G01 X16.8117 Y-1.8932 Z-3.2350 F1200
G01 X16.9402 Y-1.8100 Z-3.2496 F1200
G01 X17.0815 Y-1.7473 Z-3.2429 F1200
G01 X17.2317 Y-1.7071 Z-3.2166 F1200
G01 X17.3870 Y-1.6904 Z-3.1779 F1200
G01 X17.5430 Y-1.6980 Z-3.1370 F1200
G01 X17.6957 Y-1.7294 Z-3.1050 F1200
G01 X17.8408 Y-1.7838 Z-3.0904 F1200
G01 X17.9745 Y-1.8595 Z-3.0971 F1200
G01 X18.0934 Y-1.9542 Z-3.1234 F1200
G01 X18.1942 Y-2.0650 Z-3.1621 F1200
G01 X18.2746 Y-2.1886 Z-3.2030 F1200
G01 X18.3325 Y-2.3212 Z-3.2350 F1200
G01 X18.3668 Y-2.4588 Z-3.2496 F1200
G01 X18.3769 Y-2.5972 Z-3.2429 F1200
G01 X18.3631 Y-2.7321 Z-3.2166 F1200
G01 X18.3264 Y-2.8596 Z-3.1779 F1200
G01 X18.2684 Y-2.9757 Z-3.1370 F1200
G01 X18.1914 Y-3.0768 Z-3.1050 F1200
G01 X18.0982 Y-3.1600 Z-3.0904 F1200
G01 X17.9923 Y-3.2227 Z-3.0971 F1200
G01 X17.8773 Y-3.2629 Z-3.1234 F1200
G01 X17.7574 Y-3.2796 Z-3.1621 F1200
G01 X17.6367 Y-3.2720 Z-3.2030 F1200
G01 X17.5194 Y-3.2406 Z-3.2350 F1200
G01 X17.4096 Y-3.1862 Z-3.2496 F1200
G01 X17.3112 Y-3.1105 Z-3.2429 F1200
G01 X17.2277 Y-3.0158 Z-3.2166 F1200
G01 X17.1622 Y-2.9050 Z-3.1779 F1200
G01 X17.1172 Y-2.7814 Z-3.1370 F1200
G01 X17.0946 Y-2.6488 Z-3.1050 F1200
G01 X17.0956 Y-2.5112 Z-3.0904 F1200
G01 X17.1208 Y-2.3728 Z-3.0971 F1200
G01 X17.1699 Y-2.2379 Z-3.1234 F1200
G01 X17.2420 Y-2.1104 Z-3.1621 F1200
G01 X17.3353 Y-1.9943 Z-3.2030 F1200
G01 X17.4477 Y-1.8932 Z-3.2350 F1200
G01 X17.5762 Y-1.8100 Z-3.2496 F1200
G01 X17.7175 Y-1.7473 Z-3.2429 F1200
G01 X17.8677 Y-1.7071 Z-3.2166 F1200
G01 X18.0230 Y-1.6904 Z-3.1779 F1200
G01 X18.1790 Y-1.6980 Z-3.1370 F1200
G01 X18.3317 Y-1.7294 Z-3.1050 F1200
G01 X18.4768 Y-1.7838 Z-3.0904 F1200
G01 X18.6105 Y-1.8595 Z-3.0971 F1200
G01 X18.7294 Y-1.9542 Z-3.1234 F1200
G01 X18.8302 Y-2.0650 Z-3.1621 F1200
G01 X18.9106 Y-2.1886 Z-3.2030 F1200
G01 X18.9685 Y-2.3212 Z-3.2350 F1200
G01 X19.0028 Y-2.4588 Z-3.2496 F1200
G01 X19.0129 Y-2.5972 Z-3.2429 F1200
G01 X18.9991 Y-2.7321 Z-3.2166 F1200
G01 X18.9624 Y-2.8596 Z-3.1779 F1200
G01 X18.9044 Y-2.9757 Z-3.1370 F1200
G01 X18.8274 Y-3.0768 Z-3.1050 F1200
G01 X18.7342 Y-3.1600 Z-3.0904 F1200
G01 X18.6283 Y-3.2227 Z-3.0971 F1200
G01 X18.5133 Y-3.2629 Z-3.1234 F1200
G01 X18.3934 Y-3.2796 Z-3.1621 F1200
G01 X18.2727 Y-3.2720 Z-3.2030 F1200
G01 X18.1554 Y-3.2406 Z-3.2350 F1200
G01 X18.0456 Y-3.1862 Z-3.2496 F1200
G01 X17.9472 Y-3.1105 Z-3.2429 F1200
G01 X17.8637 Y-3.0158 Z-3.2166 F1200
G01 X17.7982 Y-2.9050 Z-3.1779 F1200
G01 X17.7532 Y-2.7814 Z-3.1370 F1200
G01 X17.7306 Y-2.6488 Z-3.1050 F1200
G01 X17.7316 Y-2.5112 Z-3.0904 F1200
G01 X17.7568 Y-2.3728 Z-3.0971 F1200
G01 X17.8059 Y-2.2379 Z-3.1234 F1200
G01 X17.8780 Y-2.1104 Z-3.1621 F1200
G01 X17.9713 Y-1.9943 Z-3.2030 F1200
G01 X18.0837 Y-1.8932 Z-3.2350 F1200
G01 X18.2122 Y-1.8100 Z-3.2496 F1200
G01 X18.3535 Y-1.7473 Z-3.2429 F1200
G01 X18.5037 Y-1.7071 Z-3.2166 F1200
G01 X18.6590 Y-1.6904 Z-3.1779 F1200
G01 X18.8150 Y-1.6980 Z-3.1370 F1200
G01 X18.9677 Y-1.7294 Z-3.1050 F1200
G01 X19.1128 Y-1.7838 Z-3.0904 F1200
G01 X19.2465 Y-1.8595 Z-3.0971 F1200
G01 X19.3654 Y-1.9542 Z-3.1234 F1200
G01 X19.4662 Y-2.0650 Z-3.1621 F1200
G01 X19.5466 Y-2.1886 Z-3.2030 F1200
G01 X19.6045 Y-2.3212 Z-3.2350 F1200
G01 X19.6388 Y-2.4588 Z-3.2496 F1200
G01 X19.6489 Y-2.5972 Z-3.2429 F1200
G01 X19.6351 Y-2.7321 Z-3.2166 F1200
G01 X19.5984 Y-2.8596 Z-3.1779 F1200
G01 X19.5404 Y-2.9757 Z-3.1370 F1200
G01 X19.4634 Y-3.0768 Z-3.1050 F1200
G01 X19.3702 Y-3.1600 Z-3.0904 F1200
G01 X19.2643 Y-3.2227 Z-3.0971 F1200
G01 X19.1493 Y-3.2629 Z-3.1234 F1200
G01 X19.0294 Y-3.2796 Z-3.1621 F1200
G01 X18.9087 Y-3.2720 Z-3.2030 F1200
G01 X18.7914 Y-3.2406 Z-3.2350 F1200
G01 X18.6816 Y-3.1862 Z-3.2496 F1200
G01 X18.5832 Y-3.1105 Z-3.2429 F1200
G01 X18.4997 Y-3.0158 Z-3.2166 F1200
G01 X18.4342 Y-2.9050 Z-3.1779 F1200
G01 X18.3892 Y-2.7814 Z-3.1370 F1200
G01 X18.3666 Y-2.6488 Z-3.1050 F1200
G01 X18.3676 Y-2.5112 Z-3.0904 F1200
G01 X18.3928 Y-2.3728 Z-3.0971 F1200
G01 X18.4419 Y-2.2379 Z-3.1234 F1200
G01 X18.5140 Y-2.1104 Z-3.1621 F1200
G01 X18.6073 Y-1.9943 Z-3.2030 F1200
G01 X18.7197 Y-1.8932 Z-3.2350 F1200
G01 X18.8482 Y-1.8100 Z-3.2496 F1200
G01 X18.9895 Y-1.7473 Z-3.2429 F1200
G01 X19.1397 Y-1.7071 Z-3.2166 F1200
G01 X19.2950 Y-1.6904 Z-3.1779 F1200
G01 X19.4510 Y-1.6980 Z-3.1370 F1200
G01 X19.6037 Y-1.7294 Z-3.1050 F1200
G01 X19.7488 Y-1.7838 Z-3.0904 F1200
G01 X19.8825 Y-1.8595 Z-3.0971 F1200
G01 X20.0014 Y-1.9542 Z-3.1234 F1200
G01 X20.1022 Y-2.0650 Z-3.1621 F1200
G01 X20.1826 Y-2.1886 Z-3.2030 F1200
G01 X20.2405 Y-2.3212 Z-3.2350 F1200
G01 X20.2748 Y-2.4588 Z-3.2496 F1200
G01 X20.2849 Y-2.5972 Z-3.2429 F1200
G01 X20.2711 Y-2.7321 Z-3.2166 F1200
G01 X20.2344 Y-2.8596 Z-3.1779 F1200
G01 X20.1764 Y-2.9757 Z-3.1370 F1200
G01 X20.0994 Y-3.0768 Z-3.1050 F1200
G01 X20.0062 Y-3.1600 Z-3.0904 F1200
G01 X19.9003 Y-3.2227 Z-3.0971 F1200
G01 X19.7853 Y-3.2629 Z-3.1234 F1200
G01 X19.6654 Y-3.2796 Z-3.1621 F1200
G01 X19.5447 Y-3.2720 Z-3.2030 F1200
G01 X19.4274 Y-3.2406 Z-3.2350 F1200
G01 X19.3176 Y-3.1862 Z-3.2496 F1200
G01 X19.2192 Y-3.1105 Z-3.2429 F1200
G01 X19.1357 Y-3.0158 Z-3.2166 F1200
G01 X19.0702 Y-2.9050 Z-3.1779 F1200
G01 X19.0252 Y-2.7814 Z-3.1370 F1200
G01 X19.0026 Y-2.6488 Z-3.1050 F1200
G01 X19.0036 Y-2.5112 Z-3.0904 F1200
G01 X19.0288 Y-2.3728 Z-3.0971 F1200
G01 X19.0779 Y-2.2379 Z-3.1234 F1200
G01 X19.1500 Y-2.1104 Z-3.1621 F1200
G01 X19.2433 Y-1.9943 Z-3.2030 F1200
G01 X19.3557 Y-1.8932 Z-3.2350 F1200
G01 X19.4842 Y-1.8100 Z-3.2496 F1200
G01 X19.6255 Y-1.7473 Z-3.2429 F1200
G01 X19.7757 Y-1.7071 Z-3.2166 F1200
G01 X19.9310 Y-1.6904 Z-3.1779 F1200
G01 X20.0870 Y-1.6980 Z-3.1370 F1200
G01 X20.2397 Y-1.7294 Z-3.1050 F1200
G01 X20.3848 Y-1.7838 Z-3.0904 F1200
G01 X20.5185 Y-1.8595 Z-3.0971 F1200
G01 X20.6374 Y-1.9542 Z-3.1234 F1200
G01 X20.7382 Y-2.0650 Z-3.1621 F1200
G01 X20.8186 Y-2.1886 Z-3.2030 F1200
G01 X20.8765 Y-2.3212 Z-3.2350 F1200
G01 X20.9108 Y-2.4588 Z-3.2496 F1200
G01 X20.9209 Y-2.5972 Z-3.2429 F1200
G01 X20.9071 Y-2.7321 Z-3.2166 F1200
G01 X20.8704 Y-2.8596 Z-3.1779 F1200
G01 X20.8124 Y-2.9757 Z-3.1370 F1200
G01 X20.7354 Y-3.0768 Z-3.1050 F1200
G01 X20.6422 Y-3.1600 Z-3.0904 F1200
G01 X20.5363 Y-3.2227 Z-3.0971 F1200
G01 X20.4213 Y-3.2629 Z-3.1234 F1200
G01 X20.3014 Y-3.2796 Z-3.1621 F1200
G01 X20.1807 Y-3.2720 Z-3.2030 F1200
G01 X20.0634 Y-3.2406 Z-3.2350 F1200
G01 X19.9536 Y-3.1862 Z-3.2496 F1200
G01 X19.8552 Y-3.1105 Z-3.2429 F1200
G01 X19.7717 Y-3.0158 Z-3.2166 F1200
G01 X19.7062 Y-2.9050 Z-3.1779 F1200
G01 X19.6612 Y-2.7814 Z-3.1370 F1200
G01 X19.6386 Y-2.6488 Z-3.1050 F1200
G01 X19.6396 Y-2.5112 Z-3.0904 F1200
G01 X19.6648 Y-2.3728 Z-3.0971 F1200
G01 X19.7139 Y-2.2379 Z-3.1234 F1200
G01 X19.7860 Y-2.1104 Z-3.1621 F1200
G01 X19.8793 Y-1.9943 Z-3.2030 F1200
G01 X19.9917 Y-1.8932 Z-3.2350 F1200
G01 X20.1202 Y-1.8100 Z-3.2496 F1200
G01 X20.2615 Y-1.7473 Z-3.2429 F1200
G01 X20.4117 Y-1.7071 Z-3.2166 F1200
G01 X20.5670 Y-1.6904 Z-3.1779 F1200
G01 X20.7230 Y-1.6980 Z-3.1370 F1200
G01 X20.8757 Y-1.7294 Z-3.1050 F1200
G01 X21.0208 Y-1.7838 Z-3.0904 F1200
G01 X21.1545 Y-1.8595 Z-3.0971 F1200
G01 X21.2734 Y-1.9542 Z-3.1234 F1200
G01 X21.3742 Y-2.0650 Z-3.1621 F1200
G01 X21.4546 Y-2.1886 Z-3.2030 F1200
G01 X21.5125 Y-2.3212 Z-3.2350 F1200
G01 X21.5468 Y-2.4588 Z-3.2496 F1200
G01 X21.5569 Y-2.5972 Z-3.2429 F1200
G01 X21.5431 Y-2.7321 Z-3.2166 F1200
G01 X21.5064 Y-2.8596 Z-3.1779 F1200
G01 X21.4484 Y-2.9757 Z-3.1370 F1200
G01 X21.3714 Y-3.0768 Z-3.1050 F1200
G01 X21.2782 Y-3.1600 Z-3.0904 F1200
G01 X21.1723 Y-3.2227 Z-3.0971 F1200
G01 X21.0573 Y-3.2629 Z-3.1234 F1200
G01 X20.9374 Y-3.2796 Z-3.1621 F1200
G01 X20.8167 Y-3.2720 Z-3.2030 F1200
G01 X20.6994 Y-3.2406 Z-3.2350 F1200
G01 X20.5896 Y-3.1862 Z-3.2496 F1200
G01 X20.4912 Y-3.1105 Z-3.2429 F1200
G01 X20.4077 Y-3.0158 Z-3.2166 F1200
G01 X20.3422 Y-2.9050 Z-3.1779 F1200
G01 X20.2972 Y-2.7814 Z-3.1370 F1200
G01 X20.2746 Y-2.6488 Z-3.1050 F1200
G01 X20.2756 Y-2.5112 Z-3.0904 F1200
G01 X20.3008 Y-2.3728 Z-3.0971 F1200
G01 X20.3499 Y-2.2379 Z-3.1234 F1200
G01 X20.4220 Y-2.1104 Z-3.1621 F1200
G01 X20.5153 Y-1.9943 Z-3.2030 F1200
G01 X20.6277 Y-1.8932 Z-3.2350 F1200
G01 X20.7562 Y-1.8100 Z-3.2496 F1200
G01 X20.8975 Y-1.7473 Z-3.2429 F1200
G01 X21.0477 Y-1.7071 Z-3.2166 F1200
G01 X21.2030 Y-1.6904 Z-3.1779 F1200
G01 X21.3590 Y-1.6980 Z-3.1370 F1200
G01 X21.5117 Y-1.7294 Z-3.1050 F1200
G01 X21.6568 Y-1.7838 Z-3.0904 F1200
G01 X21.7905 Y-1.8595 Z-3.0971 F1200
G01 X21.9094 Y-1.9542 Z-3.1234 F1200
G01 X22.0102 Y-2.0650 Z-3.1621 F1200
G01 X22.0906 Y-2.1886 Z-3.2030 F1200
G01 X22.1485 Y-2.3212 Z-3.2350 F1200
G01 X22.1828 Y-2.4588 Z-3.2496 F1200
G01 X22.1929 Y-2.5972 Z-3.2429 F1200
G01 X22.1791 Y-2.7321 Z-3.2166 F1200
G01 X22.1424 Y-2.8596 Z-3.1779 F1200
G01 X22.0844 Y-2.9757 Z-3.1370 F1200
G01 X22.0074 Y-3.0768 Z-3.1050 F1200
G01 X21.9142 Y-3.1600 Z-3.0904 F1200
G01 X21.8083 Y-3.2227 Z-3.0971 F1200
G01 X21.6933 Y-3.2629 Z-3.1234 F1200
G01 X21.5734 Y-3.2796 Z-3.1621 F1200
G01 X21.4527 Y-3.2720 Z-3.2030 F1200
G01 X21.3354 Y-3.2406 Z-3.2350 F1200
G01 X21.2256 Y-3.1862 Z-3.2496 F1200
G01 X21.1272 Y-3.1105 Z-3.2429 F1200
G01 X21.0437 Y-3.0158 Z-3.2166 F1200
G01 X20.9782 Y-2.9050 Z-3.1779 F1200
G01 X20.9332 Y-2.7814 Z-3.1370 F1200
G01 X20.9106 Y-2.6488 Z-3.1050 F1200
G01 X20.9116 Y-2.5112 Z-3.0904 F1200
G01 X20.9368 Y-2.3728 Z-3.0971 F1200
G01 X20.9859 Y-2.2379 Z-3.1234 F1200
G01 X21.0580 Y-2.1104 Z-3.1621 F1200
G01 X21.1513 Y-1.9943 Z-3.2030 F1200
G01 X21.2637 Y-1.8932 Z-3.2350 F1200
G01 X21.3922 Y-1.8100 Z-3.2496 F1200
G01 X21.5335 Y-1.7473 Z-3.2429 F1200
G01 X21.6837 Y-1.7071 Z-3.2166 F1200
G01 X21.8390 Y-1.6904 Z-3.1779 F1200
G01 X21.9950 Y-1.6980 Z-3.1370 F1200
G01 X22.1477 Y-1.7294 Z-3.1050 F1200
G01 X22.2928 Y-1.7838 Z-3.0904 F1200
G01 X22.4265 Y-1.8595 Z-3.0971 F1200
G01 X22.5454 Y-1.9542 Z-3.1234 F1200
G01 X22.6462 Y-2.0650 Z-3.1621 F1200
G01 X22.7266 Y-2.1886 Z-3.2030 F1200
G01 X22.7845 Y-2.3212 Z-3.2350 F1200
G01 X22.8188 Y-2.4588 Z-3.2496 F1200
G01 X22.8289 Y-2.5972 Z-3.2429 F1200
G01 X22.8151 Y-2.7321 Z-3.2166 F1200
G01 X22.7784 Y-2.8596 Z-3.1779 F1200
G01 X22.7204 Y-2.9757 Z-3.1370 F1200
G01 X22.6434 Y-3.0768 Z-3.1050 F1200
G01 X22.5502 Y-3.1600 Z-3.0904 F1200
G01 X22.4443 Y-3.2227 Z-3.0971 F1200
G01 X22.3293 Y-3.2629 Z-3.1234 F1200
G01 X22.2094 Y-3.2796 Z-3.1621 F1200
G01 X22.0887 Y-3.2720 Z-3.2030 F1200
G01 X21.9714 Y-3.2406 Z-3.2350 F1200
G01 X21.8616 Y-3.1862 Z-3.2496 F1200
G01 X21.7632 Y-3.1105 Z-3.2429 F1200
G01 X21.6797 Y-3.0158 Z-3.2166 F1200
G01 X21.6142 Y-2.9050 Z-3.1779 F1200
G01 X21.5692 Y-2.7814 Z-3.1370 F1200
G01 X21.5466 Y-2.6488 Z-3.1050 F1200
G01 X21.5476 Y-2.5112 Z-3.0904 F1200
G01 X21.5728 Y-2.3728 Z-3.0971 F1200
G01 X21.6219 Y-2.2379 Z-3.1234 F1200
G01 X21.6940 Y-2.1104 Z-3.1621 F1200
G01 X21.7873 Y-1.9943 Z-3.2030 F1200
G01 X21.8997 Y-1.8932 Z-3.2350 F1200
G01 X22.0282 Y-1.8100 Z-3.2496 F1200
G01 X22.1695 Y-1.7473 Z-3.2429 F1200
G01 X22.3197 Y-1.7071 Z-3.2166 F1200
G01 X22.4750 Y-1.6904 Z-3.1779 F1200
G01 X22.6310 Y-1.6980 Z-3.1370 F1200
G01 X22.7837 Y-1.7294 Z-3.1050 F1200
G01 X22.9288 Y-1.7838 Z-3.0904 F1200
G01 X23.0625 Y-1.8595 Z-3.0971 F1200
G01 X23.1814 Y-1.9542 Z-3.1234 F1200
G01 X23.2822 Y-2.0650 Z-3.1621 F1200
G01 X23.3626 Y-2.1886 Z-3.2030 F1200
G01 X23.4205 Y-2.3212 Z-3.2350 F1200
G01 X23.4548 Y-2.4588 Z-3.2496 F1200
G01 X23.4649 Y-2.5972 Z-3.2429 F1200
G01 X23.4511 Y-2.7321 Z-3.2166 F1200
G01 X23.4144 Y-2.8596 Z-3.1779 F1200
G01 X23.3564 Y-2.9757 Z-3.1370 F1200
G01 X23.2794 Y-3.0768 Z-3.1050 F1200
G01 X23.1862 Y-3.1600 Z-3.0904 F1200
G01 X23.0803 Y-3.2227 Z-3.0971 F1200
G01 X22.9653 Y-3.2629 Z-3.1234 F1200
G01 X22.8454 Y-3.2796 Z-3.1621 F1200
G01 X22.7247 Y-3.2720 Z-3.2030 F1200
G01 X22.6074 Y-3.2406 Z-3.2350 F1200
G01 X22.4976 Y-3.1862 Z-3.2496 F1200
G01 X22.3992 Y-3.1105 Z-3.2429 F1200
G01 X22.3157 Y-3.0158 Z-3.2166 F1200
G01 X22.2502 Y-2.9050 Z-3.1779 F1200
G01 X22.2052 Y-2.7814 Z-3.1370 F1200
G01 X22.1826 Y-2.6488 Z-3.1050 F1200
G01 X22.1836 Y-2.5112 Z-3.0904 F1200
G01 X22.2088 Y-2.3728 Z-3.0971 F1200
G01 X22.2579 Y-2.2379 Z-3.1234 F1200
G01 X22.3300 Y-2.1104 Z-3.1621 F1200
G01 X22.4233 Y-1.9943 Z-3.2030 F1200
G01 X22.5357 Y-1.8932 Z-3.2350 F1200
G01 X22.6642 Y-1.8100 Z-3.2496 F1200
G01 X22.8055 Y-1.7473 Z-3.2429 F1200
G01 X22.9557 Y-1.7071 Z-3.2166 F1200
G01 X23.1110 Y-1.6904 Z-3.1779 F1200
G01 X23.2670 Y-1.6980 Z-3.1370 F1200
G01 X23.4197 Y-1.7294 Z-3.1050 F1200
G01 X23.5648 Y-1.7838 Z-3.0904 F1200
G01 X23.6985 Y-1.8595 Z-3.0971 F1200
G01 X23.8174 Y-1.9542 Z-3.1234 F1200
G01 X23.9182 Y-2.0650 Z-3.1621 F1200
G01 X23.9986 Y-2.1886 Z-3.2030 F1200
G01 X24.0565 Y-2.3212 Z-3.2350 F1200
G01 X24.0908 Y-2.4588 Z-3.2496 F1200
G01 X24.1009 Y-2.5972 Z-3.2429 F1200
G01 X24.0871 Y-2.7321 Z-3.2166 F1200
G01 X24.0504 Y-2.8596 Z-3.1779 F1200
G01 X23.9924 Y-2.9757 Z-3.1370 F1200
G01 X23.9154 Y-3.0768 Z-3.1050 F1200
G01 X23.8222 Y-3.1600 Z-3.0904 F1200
G01 X23.7163 Y-3.2227 Z-3.0971 F1200
G01 X23.6013 Y-3.2629 Z-3.1234 F1200
G01 X23.4814 Y-3.2796 Z-3.1621 F1200
G01 X23.3607 Y-3.2720 Z-3.2030 F1200
G01 X23.2434 Y-3.2406 Z-3.2350 F1200
G01 X23.1336 Y-3.1862 Z-3.2496 F1200
G01 X23.0352 Y-3.1105 Z-3.2429 F1200
G01 X22.9517 Y-3.0158 Z-3.2166 F1200
G01 X22.8862 Y-2.9050 Z-3.1779 F1200
G01 X22.8412 Y-2.7814 Z-3.1370 F1200
G01 X22.8186 Y-2.6488 Z-3.1050 F1200
G01 X22.8196 Y-2.5112 Z-3.0904 F1200
G01 X22.8448 Y-2.3728 Z-3.0971 F1200
G01 X22.8939 Y-2.2379 Z-3.1234 F1200
G01 X22.9660 Y-2.1104 Z-3.1621 F1200
G01 X23.0593 Y-1.9943 Z-3.2030 F1200
G01 X23.1717 Y-1.8932 Z-3.2350 F1200
G01 X23.3002 Y-1.8100 Z-3.2496 F1200
G01 X23.4415 Y-1.7473 Z-3.2429 F1200
G01 X23.5917 Y-1.7071 Z-3.2166 F1200
G01 X23.7470 Y-1.6904 Z-3.1779 F1200
G01 X23.9030 Y-1.6980 Z-3.1370 F1200
G01 X24.0557 Y-1.7294 Z-3.1050 F1200
G01 X24.2008 Y-1.7838 Z-3.0904 F1200
G01 X24.3345 Y-1.8595 Z-3.0971 F1200
G01 X24.4534 Y-1.9542 Z-3.1234 F1200
G01 X24.5542 Y-2.0650 Z-3.1621 F1200
G01 X24.6346 Y-2.1886 Z-3.2030 F1200
G01 X24.6925 Y-2.3212 Z-3.2350 F1200
G01 X24.7268 Y-2.4588 Z-3.2496 F1200
G01 X24.7369 Y-2.5972 Z-3.2429 F1200
G01 X24.7231 Y-2.7321 Z-3.2166 F1200
G01 X24.6864 Y-2.8596 Z-3.1779 F1200
G01 X24.6284 Y-2.9757 Z-3.1370 F1200
G01 X24.5514 Y-3.0768 Z-3.1050 F1200
G01 X24.4582 Y-3.1600 Z-3.0904 F1200
G01 X24.3523 Y-3.2227 Z-3.0971 F1200
G01 X24.2373 Y-3.2629 Z-3.1234 F1200
G01 X24.1174 Y-3.2796 Z-3.1621 F1200
G01 X23.9967 Y-3.2720 Z-3.2030 F1200
G01 X23.8794 Y-3.2406 Z-3.2350 F1200
G01 X23.7696 Y-3.1862 Z-3.2496 F1200
G01 X23.6712 Y-3.1105 Z-3.2429 F1200
G01 X23.5877 Y-3.0158 Z-3.2166 F1200
G01 X23.5222 Y-2.9050 Z-3.1779 F1200
G01 X23.4772 Y-2.7814 Z-3.1370 F1200
G01 X23.4546 Y-2.6488 Z-3.1050 F1200
G01 X23.4556 Y-2.5112 Z-3.0904 F1200
G01 X23.4808 Y-2.3728 Z-3.0971 F1200
G01 X23.5299 Y-2.2379 Z-3.1234 F1200
G01 X23.6020 Y-2.1104 Z-3.1621 F1200
G01 X23.6953 Y-1.9943 Z-3.2030 F1200
G01 X23.8077 Y-1.8932 Z-3.2350 F1200
G01 X23.9362 Y-1.8100 Z-3.2496 F1200
G01 X24.0775 Y-1.7473 Z-3.2429 F1200
G01 X24.2277 Y-1.7071 Z-3.2166 F1200
G01 X24.3830 Y-1.6904 Z-3.1779 F1200
G01 X24.5390 Y-1.6980 Z-3.1370 F1200
G01 X24.6917 Y-1.7294 Z-3.1050 F1200
G01 X24.8368 Y-1.7838 Z-3.0904 F1200
G01 X24.9705 Y-1.8595 Z-3.0971 F1200
G01 X25.0894 Y-1.9542 Z-3.1234 F1200
G01 X25.1902 Y-2.0650 Z-3.1621 F1200
G01 X25.2706 Y-2.1886 Z-3.2030 F1200
G01 X25.3285 Y-2.3212 Z-3.2350 F1200
G01 X25.3628 Y-2.4588 Z-3.2496 F1200
G01 X25.3729 Y-2.5972 Z-3.2429 F1200
G01 X25.3591 Y-2.7321 Z-3.2166 F1200
G01 X25.3224 Y-2.8596 Z-3.1779 F1200
G01 X25.2644 Y-2.9757 Z-3.1370 F1200
G01 X25.1874 Y-3.0768 Z-3.1050 F1200
G01 X25.0942 Y-3.1600 Z-3.0904 F1200
G01 X24.9883 Y-3.2227 Z-3.0971 F1200
G01 X24.8733 Y-3.2629 Z-3.1234 F1200
G01 X24.7534 Y-3.2796 Z-3.1621 F1200
G01 X24.6327 Y-3.2720 Z-3.2030 F1200
G01 X24.5154 Y-3.2406 Z-3.2350 F1200
G01 X24.4056 Y-3.1862 Z-3.2496 F1200
G01 X24.3072 Y-3.1105 Z-3.2429 F1200
G01 X24.2237 Y-3.0158 Z-3.2166 F1200
G01 X24.1582 Y-2.9050 Z-3.1779 F1200
G01 X24.1132 Y-2.7814 Z-3.1370 F1200
G01 X24.0906 Y-2.6488 Z-3.1050 F1200
G01 X24.0916 Y-2.5112 Z-3.0904 F1200
G01 X24.1168 Y-2.3728 Z-3.0971 F1200
G01 X24.1659 Y-2.2379 Z-3.1234 F1200
G01 X24.2380 Y-2.1104 Z-3.1621 F1200
G01 X24.3313 Y-1.9943 Z-3.2030 F1200
G01 X24.4437 Y-1.8932 Z-3.2350 F1200
G01 X24.5722 Y-1.8100 Z-3.2496 F1200
G01 X24.7135 Y-1.7473 Z-3.2429 F1200
G01 X24.8637 Y-1.7071 Z-3.2166 F1200
G01 X25.0190 Y-1.6904 Z-3.1779 F1200
G01 X25.1750 Y-1.6980 Z-3.1370 F1200
G01 X25.3277 Y-1.7294 Z-3.1050 F1200
G01 X25.4728 Y-1.7838 Z-3.0904 F1200
G01 X25.6065 Y-1.8595 Z-3.0971 F1200
G01 X25.7254 Y-1.9542 Z-3.1234 F1200
G01 X25.8262 Y-2.0650 Z-3.1621 F1200
G01 X25.9066 Y-2.1886 Z-3.2030 F1200
G01 X25.9645 Y-2.3212 Z-3.2350 F1200
G01 X25.9988 Y-2.4588 Z-3.2496 F1200
G01 X26.0089 Y-2.5972 Z-3.2429 F1200
G01 X25.9951 Y-2.7321 Z-3.2166 F1200
G01 X25.9584 Y-2.8596 Z-3.1779 F1200
G01 X25.9004 Y-2.9757 Z-3.1370 F1200
G01 X25.8234 Y-3.0768 Z-3.1050 F1200
G01 X25.7302 Y-3.1600 Z-3.0904 F1200
G01 X25.6243 Y-3.2227 Z-3.0971 F1200
G01 X25.5093 Y-3.2629 Z-3.1234 F1200
G01 X25.3894 Y-3.2796 Z-3.1621 F1200
G01 X25.2687 Y-3.2720 Z-3.2030 F1200
G01 X25.1514 Y-3.2406 Z-3.2350 F1200
G01 X25.0416 Y-3.1862 Z-3.2496 F1200
G01 X24.9432 Y-3.1105 Z-3.2429 F1200
G01 X24.8597 Y-3.0158 Z-3.2166 F1200
G01 X24.7942 Y-2.9050 Z-3.1779 F1200
G01 X24.7492 Y-2.7814 Z-3.1370 F1200
G01 X24.7266 Y-2.6488 Z-3.1050 F1200
G01 X24.7276 Y-2.5112 Z-3.0904 F1200
G01 X24.7528 Y-2.3728 Z-3.0971 F1200
G01 X24.8019 Y-2.2379 Z-3.1234 F1200
G01 X24.8740 Y-2.1104 Z-3.1621 F1200
G01 X24.9673 Y-1.9943 Z-3.2030 F1200
G01 X25.0797 Y-1.8932 Z-3.2350 F1200
G01 X25.2082 Y-1.8100 Z-3.2496 F1200
G01 X25.3495 Y-1.7473 Z-3.2429 F1200
G01 X25.4997 Y-1.7071 Z-3.2166 F1200
G01 X25.6550 Y-1.6904 Z-3.1779 F1200
G01 X25.8110 Y-1.6980 Z-3.1370 F1200
G01 X25.9637 Y-1.7294 Z-3.1050 F1200
G01 X26.1088 Y-1.7838 Z-3.0904 F1200
G01 X26.2425 Y-1.8595 Z-3.0971 F1200
G01 X26.3614 Y-1.9542 Z-3.1234 F1200
G01 X26.4622 Y-2.0650 Z-3.1621 F1200
G01 X26.5426 Y-2.1886 Z-3.2030 F1200
G01 X26.6005 Y-2.3212 Z-3.2350 F1200
G01 X26.6348 Y-2.4588 Z-3.2496 F1200
G01 X26.6449 Y-2.5972 Z-3.2429 F1200
G01 X26.6311 Y-2.7321 Z-3.2166 F1200
G01 X26.5944 Y-2.8596 Z-3.1779 F1200
G01 X26.5364 Y-2.9757 Z-3.1370 F1200
G01 X26.4594 Y-3.0768 Z-3.1050 F1200
G01 X26.3662 Y-3.1600 Z-3.0904 F1200
G01 X26.2603 Y-3.2227 Z-3.0971 F1200
G01 X26.1453 Y-3.2629 Z-3.1234 F1200
G01 X26.0254 Y-3.2796 Z-3.1621 F1200
G01 X25.9047 Y-3.2720 Z-3.2030 F1200
G01 X25.7874 Y-3.2406 Z-3.2350 F1200
G01 X25.6776 Y-3.1862 Z-3.2496 F1200
G01 X25.5792 Y-3.1105 Z-3.2429 F1200
G01 X25.4957 Y-3.0158 Z-3.2166 F1200
G01 X25.4302 Y-2.9050 Z-3.1779 F1200
G01 X25.3852 Y-2.7814 Z-3.1370 F1200
G01 X25.3626 Y-2.6488 Z-3.1050 F1200
G01 X25.3636 Y-2.5112 Z-3.0904 F1200
G01 X25.3888 Y-2.3728 Z-3.0971 F1200
G01 X25.4379 Y-2.2379 Z-3.1234 F1200
G01 X25.5100 Y-2.1104 Z-3.1621 F1200
G01 X25.6033 Y-1.9943 Z-3.2030 F1200
G01 X25.7157 Y-1.8932 Z-3.2350 F1200
G01 X25.8442 Y-1.8100 Z-3.2496 F1200
G01 X25.9855 Y-1.7473 Z-3.2429 F1200
G01 X26.1357 Y-1.7071 Z-3.2166 F1200
G01 X26.2910 Y-1.6904 Z-3.1779 F1200
G01 X26.4470 Y-1.6980 Z-3.1370 F1200
G01 X26.5997 Y-1.7294 Z-3.1050 F1200
G01 X26.7448 Y-1.7838 Z-3.0904 F1200
G01 X26.8785 Y-1.8595 Z-3.0971 F1200
G01 X26.9974 Y-1.9542 Z-3.1234 F1200
G01 X27.0982 Y-2.0650 Z-3.1621 F1200
G01 X27.1786 Y-2.1886 Z-3.2030 F1200
G01 X27.2365 Y-2.3212 Z-3.2350 F1200
G01 X27.2708 Y-2.4588 Z-3.2496 F1200
G01 X27.2809 Y-2.5972 Z-3.2429 F1200
G01 X27.2671 Y-2.7321 Z-3.2166 F1200
G01 X27.2304 Y-2.8596 Z-3.1779 F1200
G01 X27.1724 Y-2.9757 Z-3.1370 F1200
G01 X27.0954 Y-3.0768 Z-3.1050 F1200
G01 X27.0022 Y-3.1600 Z-3.0904 F1200
G01 X26.8963 Y-3.2227 Z-3.0971 F1200
G01 X26.7813 Y-3.2629 Z-3.1234 F1200
G01 X26.6614 Y-3.2796 Z-3.1621 F1200
G01 X26.5407 Y-3.2720 Z-3.2030 F1200
G01 X26.4234 Y-3.2406 Z-3.2350 F1200
G01 X26.3136 Y-3.1862 Z-3.2496 F1200
G01 X26.2152 Y-3.1105 Z-3.2429 F1200
G01 X26.1317 Y-3.0158 Z-3.2166 F1200
G01 X26.0662 Y-2.9050 Z-3.1779 F1200
G01 X26.0212 Y-2.7814 Z-3.1370 F1200
G01 X25.9986 Y-2.6488 Z-3.1050 F1200
G01 X25.9996 Y-2.5112 Z-3.0904 F1200
G01 X26.0248 Y-2.3728 Z-3.0971 F1200
G01 X26.0739 Y-2.2379 Z-3.1234 F1200
G01 X26.1460 Y-2.1104 Z-3.1621 F1200
G01 X26.2393 Y-1.9943 Z-3.2030 F1200
G01 X26.3517 Y-1.8932 Z-3.2350 F1200
G01 X26.4802 Y-1.8100 Z-3.2496 F1200
G01 X26.6215 Y-1.7473 Z-3.2429 F1200
G01 X26.7717 Y-1.7071 Z-3.2166 F1200
G01 X26.9270 Y-1.6904 Z-3.1779 F1200
G01 X27.0830 Y-1.6980 Z-3.1370 F1200
G01 X27.2357 Y-1.7294 Z-3.1050 F1200
G01 X27.3808 Y-1.7838 Z-3.0904 F1200
G01 X27.5145 Y-1.8595 Z-3.0971 F1200
G01 X27.6334 Y-1.9542 Z-3.1234 F1200
G01 X27.7342 Y-2.0650 Z-3.1621 F1200
G01 X27.8146 Y-2.1886 Z-3.2030 F1200
G01 X27.8725 Y-2.3212 Z-3.2350 F1200
G01 X27.9068 Y-2.4588 Z-3.2496 F1200
G01 X27.9169 Y-2.5972 Z-3.2429 F1200
G01 X27.9031 Y-2.7321 Z-3.2166 F1200
G01 X27.8664 Y-2.8596 Z-3.1779 F1200
G01 X27.8084 Y-2.9757 Z-3.1370 F1200
G01 X27.7314 Y-3.0768 Z-3.1050 F1200
G01 X27.6382 Y-3.1600 Z-3.0904 F1200
G01 X27.5323 Y-3.2227 Z-3.0971 F1200
G01 X27.4173 Y-3.2629 Z-3.1234 F1200
G01 X27.2974 Y-3.2796 Z-3.1621 F1200
G01 X27.1767 Y-3.2720 Z-3.2030 F1200
G01 X27.0594 Y-3.2406 Z-3.2350 F1200
G01 X26.9496 Y-3.1862 Z-3.2496 F1200
G01 X26.8512 Y-3.1105 Z-3.2429 F1200
G01 X26.7677 Y-3.0158 Z-3.2166 F1200
G01 X26.7022 Y-2.9050 Z-3.1779 F1200
G01 X26.6572 Y-2.7814 Z-3.1370 F1200
G01 X26.6346 Y-2.6488 Z-3.1050 F1200
G01 X26.6356 Y-2.5112 Z-3.0904 F1200
G01 X26.6608 Y-2.3728 Z-3.0971 F1200
G01 X26.7099 Y-2.2379 Z-3.1234 F1200
G01 X26.7820 Y-2.1104 Z-3.1621 F1200
G01 X26.8753 Y-1.9943 Z-3.2030 F1200
G01 X26.9877 Y-1.8932 Z-3.2350 F1200
G01 X27.1162 Y-1.8100 Z-3.2496 F1200
G01 X27.2575 Y-1.7473 Z-3.2429 F1200
G01 X27.4077 Y-1.7071 Z-3.2166 F1200
G01 X27.5630 Y-1.6904 Z-3.1779 F1200
G01 X27.7190 Y-1.6980 Z-3.1370 F1200
G01 X27.8717 Y-1.7294 Z-3.1050 F1200
G01 X28.0168 Y-1.7838 Z-3.0904 F1200
G01 X28.1505 Y-1.8595 Z-3.0971 F1200
G01 X28.2694 Y-1.9542 Z-3.1234 F1200
G01 X28.3702 Y-2.0650 Z-3.1621 F1200
G01 X28.4506 Y-2.1886 Z-3.2030 F1200
G01 X28.5085 Y-2.3212 Z-3.2350 F1200
G01 X28.5428 Y-2.4588 Z-3.2496 F1200
G01 X28.5529 Y-2.5972 Z-3.2429 F1200
G01 X28.5391 Y-2.7321 Z-3.2166 F1200
G01 X28.5024 Y-2.8596 Z-3.1779 F1200
G01 X28.4444 Y-2.9757 Z-3.1370 F1200
G01 X28.3674 Y-3.0768 Z-3.1050 F1200
G01 X28.2742 Y-3.1600 Z-3.0904 F1200
G01 X28.1683 Y-3.2227 Z-3.0971 F1200
G01 X28.0533 Y-3.2629 Z-3.1234 F1200
G01 X27.9334 Y-3.2796 Z-3.1621 F1200
G01 X27.8127 Y-3.2720 Z-3.2030 F1200
G01 X27.6954 Y-3.2406 Z-3.2350 F1200
G01 X27.5856 Y-3.1862 Z-3.2496 F1200
G01 X27.4872 Y-3.1105 Z-3.2429 F1200
G01 X27.4037 Y-3.0158 Z-3.2166 F1200
G01 X27.3382 Y-2.9050 Z-3.1779 F1200
G01 X27.2932 Y-2.7814 Z-3.1370 F1200
G01 X27.2706 Y-2.6488 Z-3.1050 F1200
G01 X27.2716 Y-2.5112 Z-3.0904 F1200
G01 X27.2968 Y-2.3728 Z-3.0971 F1200
G01 X27.3459 Y-2.2379 Z-3.1234 F1200
G01 X27.4180 Y-2.1104 Z-3.1621 F1200
G01 X27.5113 Y-1.9943 Z-3.2030 F1200
G01 X27.6237 Y-1.8932 Z-3.2350 F1200
G01 X27.7522 Y-1.8100 Z-3.2496 F1200
G01 X27.8935 Y-1.7473 Z-3.2429 F1200
G01 X28.0437 Y-1.7071 Z-3.2166 F1200
G01 X28.1990 Y-1.6904 Z-3.1779 F1200
G01 X28.3550 Y-1.6980 Z-3.1370 F1200
G01 X28.5077 Y-1.7294 Z-3.1050 F1200
G01 X28.6528 Y-1.7838 Z-3.0904 F1200
G01 X28.7865 Y-1.8595 Z-3.0971 F1200
G01 X28.9054 Y-1.9542 Z-3.1234 F1200
G01 X29.0062 Y-2.0650 Z-3.1621 F1200
G01 X29.0866 Y-2.1886 Z-3.2030 F1200
G01 X29.1445 Y-2.3212 Z-3.2350 F1200
G01 X29.1788 Y-2.4588 Z-3.2496 F1200
G01 X29.1889 Y-2.5972 Z-3.2429 F1200
G01 X29.1751 Y-2.7321 Z-3.2166 F1200
G01 X29.1384 Y-2.8596 Z-3.1779 F1200
G01 X29.0804 Y-2.9757 Z-3.1370 F1200
G01 X29.0034 Y-3.0768 Z-3.1050 F1200
G01 X28.9102 Y-3.1600 Z-3.0904 F1200
G01 X28.8043 Y-3.2227 Z-3.0971 F1200
G01 X28.6893 Y-3.2629 Z-3.1234 F1200
G01 X28.5694 Y-3.2796 Z-3.1621 F1200
G01 X28.4487 Y-3.2720 Z-3.2030 F1200
G01 X28.3314 Y-3.2406 Z-3.2350 F1200
G01 X28.2216 Y-3.1862 Z-3.2496 F1200
G01 X28.1232 Y-3.1105 Z-3.2429 F1200
G01 X28.0397 Y-3.0158 Z-3.2166 F1200
G01 X27.9742 Y-2.9050 Z-3.1779 F1200
G01 X27.9292 Y-2.7814 Z-3.1370 F1200
G01 X27.9066 Y-2.6488 Z-3.1050 F1200
G01 X27.9076 Y-2.5112 Z-3.0904 F1200
G01 X27.9328 Y-2.3728 Z-3.0971 F1200
G01 X27.9819 Y-2.2379 Z-3.1234 F1200
G01 X28.0540 Y-2.1104 Z-3.1621 F1200
G01 X28.1473 Y-1.9943 Z-3.2030 F1200
G01 X28.2597 Y-1.8932 Z-3.2350 F1200
G01 X28.3882 Y-1.8100 Z-3.2496 F1200
G01 X28.5295 Y-1.7473 Z-3.2429 F1200
G01 X28.6797 Y-1.7071 Z-3.2166 F1200
G01 X28.8350 Y-1.6904 Z-3.1779 F1200
G01 X28.9910 Y-1.6980 Z-3.1370 F1200
G01 X29.1437 Y-1.7294 Z-3.1050 F1200
G01 X29.2888 Y-1.7838 Z-3.0904 F1200
G01 X29.4225 Y-1.8595 Z-3.0971 F1200
G01 X29.5414 Y-1.9542 Z-3.1234 F1200
G01 X29.6422 Y-2.0650 Z-3.1621 F1200
G01 X29.7226 Y-2.1886 Z-3.2030 F1200
G01 X29.7805 Y-2.3212 Z-3.2350 F1200
G01 X29.8148 Y-2.4588 Z-3.2496 F1200
G01 X29.8249 Y-2.5972 Z-3.2429 F1200
G01 X29.8111 Y-2.7321 Z-3.2166 F1200
G01 X29.7744 Y-2.8596 Z-3.1779 F1200
G01 X29.7164 Y-2.9757 Z-3.1370 F1200
G01 X29.6394 Y-3.0768 Z-3.1050 F1200
G01 X29.5462 Y-3.1600 Z-3.0904 F1200
G01 X29.4403 Y-3.2227 Z-3.0971 F1200
G01 X29.3253 Y-3.2629 Z-3.1234 F1200
G01 X29.2054 Y-3.2796 Z-3.1621 F1200
G01 X29.0847 Y-3.2720 Z-3.2030 F1200
G01 X28.9674 Y-3.2406 Z-3.2350 F1200
G01 X28.8576 Y-3.1862 Z-3.2496 F1200
G01 X28.7592 Y-3.1105 Z-3.2429 F1200
G01 X28.6757 Y-3.0158 Z-3.2166 F1200
G01 X28.6102 Y-2.9050 Z-3.1779 F1200
G01 X28.5652 Y-2.7814 Z-3.1370 F1200
G01 X28.5426 Y-2.6488 Z-3.1050 F1200
G01 X28.5436 Y-2.5112 Z-3.0904 F1200
G01 X28.5688 Y-2.3728 Z-3.0971 F1200
G01 X28.6179 Y-2.2379 Z-3.1234 F1200
G01 X28.6900 Y-2.1104 Z-3.1621 F1200
G01 X28.7833 Y-1.9943 Z-3.2030 F1200
G01 X28.8957 Y-1.8932 Z-3.2350 F1200
G01 X29.0242 Y-1.8100 Z-3.2496 F1200
G01 X29.1655 Y-1.7473 Z-3.2429 F1200
G01 X29.3157 Y-1.7071 Z-3.2166 F1200
G01 X29.4710 Y-1.6904 Z-3.1779 F1200
G01 X29.6270 Y-1.6980 Z-3.1370 F1200
G01 X29.7797 Y-1.7294 Z-3.1050 F1200
G01 X29.9248 Y-1.7838 Z-3.0904 F1200
G01 X30.0585 Y-1.8595 Z-3.0971 F1200
G01 X30.1774 Y-1.9542 Z-3.1234 F1200
G01 X30.2782 Y-2.0650 Z-3.1621 F1200
G01 X30.3586 Y-2.1886 Z-3.2030 F1200
G01 X30.4165 Y-2.3212 Z-3.2350 F1200
G01 X30.4508 Y-2.4588 Z-3.2496 F1200
G01 X30.4609 Y-2.5972 Z-3.2429 F1200
G01 X30.4471 Y-2.7321 Z-3.2166 F1200
G01 X30.4104 Y-2.8596 Z-3.1779 F1200
G01 X30.3524 Y-2.9757 Z-3.1370 F1200
G01 X30.2754 Y-3.0768 Z-3.1050 F1200
G01 X30.1822 Y-3.1600 Z-3.0904 F1200
G01 X30.0763 Y-3.2227 Z-3.0971 F1200
G01 X29.9613 Y-3.2629 Z-3.1234 F1200
G01 X29.8414 Y-3.2796 Z-3.1621 F1200
G01 X29.7207 Y-3.2720 Z-3.2030 F1200
G01 X29.6034 Y-3.2406 Z-3.2350 F1200
G01 X29.4936 Y-3.1862 Z-3.2496 F1200
G01 X29.3952 Y-3.1105 Z-3.2429 F1200
G01 X29.3117 Y-3.0158 Z-3.2166 F1200
G01 X29.2462 Y-2.9050 Z-3.1779 F1200
G01 X29.2012 Y-2.7814 Z-3.1370 F1200
G01 X29.1786 Y-2.6488 Z-3.1050 F1200
G01 X29.1796 Y-2.5112 Z-3.0904 F1200
G01 X29.2048 Y-2.3728 Z-3.0971 F1200
G01 X29.2539 Y-2.2379 Z-3.1234 F1200
G01 X29.3260 Y-2.1104 Z-3.1621 F1200
G01 X29.4193 Y-1.9943 Z-3.2030 F1200
G01 X29.5317 Y-1.8932 Z-3.2350 F1200
G01 X29.6602 Y-1.8100 Z-3.2496 F1200
G01 X29.8015 Y-1.7473 Z-3.2429 F1200
G01 X29.9517 Y-1.7071 Z-3.2166 F1200
G01 X30.1070 Y-1.6904 Z-3.1779 F1200
G01 X30.2630 Y-1.6980 Z-3.1370 F1200
G01 X30.4157 Y-1.7294 Z-3.1050 F1200
G01 X30.5608 Y-1.7838 Z-3.0904 F1200
G01 X30.6945 Y-1.8595 Z-3.0971 F1200
G01 X30.8134 Y-1.9542 Z-3.1234 F1200
G01 X30.9142 Y-2.0650 Z-3.1621 F1200
G01 X30.9946 Y-2.1886 Z-3.2030 F1200
G01 X31.0525 Y-2.3212 Z-3.2350 F1200
G01 X31.0868 Y-2.4588 Z-3.2496 F1200
G01 X31.0969 Y-2.5972 Z-3.2429 F1200
G01 X31.0831 Y-2.7321 Z-3.2166 F1200
G01 X31.0464 Y-2.8596 Z-3.1779 F1200
G01 X30.9884 Y-2.9757 Z-3.1370 F1200
G01 X30.9114 Y-3.0768 Z-3.1050 F1200
G01 X30.8182 Y-3.1600 Z-3.0904 F1200
G01 X30.7123 Y-3.2227 Z-3.0971 F1200
G01 X30.5973 Y-3.2629 Z-3.1234 F1200
G01 X30.4774 Y-3.2796 Z-3.1621 F1200
G01 X30.3567 Y-3.2720 Z-3.2030 F1200
G01 X30.2394 Y-3.2406 Z-3.2350 F1200
G01 X30.1296 Y-3.1862 Z-3.2496 F1200
G01 X30.0312 Y-3.1105 Z-3.2429 F1200
G01 X29.9477 Y-3.0158 Z-3.2166 F1200
G01 X29.8822 Y-2.9050 Z-3.1779 F1200
G01 X29.8372 Y-2.7814 Z-3.1370 F1200
G01 X29.8146 Y-2.6488 Z-3.1050 F1200
G01 X29.8156 Y-2.5112 Z-3.0904 F1200
G01 X29.8408 Y-2.3728 Z-3.0971 F1200
G01 X29.8899 Y-2.2379 Z-3.1234 F1200
G01 X29.9620 Y-2.1104 Z-3.1621 F1200
G01 X30.0553 Y-1.9943 Z-3.2030 F1200
G01 X30.1677 Y-1.8932 Z-3.2350 F1200
G01 X30.2962 Y-1.8100 Z-3.2496 F1200
G01 X30.4375 Y-1.7473 Z-3.2429 F1200
G01 X30.5877 Y-1.7071 Z-3.2166 F1200
G01 X30.7430 Y-1.6904 Z-3.1779 F1200
G01 X30.8990 Y-1.6980 Z-3.1370 F1200
G01 X31.0517 Y-1.7294 Z-3.1050 F1200
G01 X31.1968 Y-1.7838 Z-3.0904 F1200
G01 X31.3305 Y-1.8595 Z-3.0971 F1200
G01 X31.4494 Y-1.9542 Z-3.1234 F1200
G01 X31.5502 Y-2.0650 Z-3.1621 F1200
G01 X31.6306 Y-2.1886 Z-3.2030 F1200
G01 X31.6885 Y-2.3212 Z-3.2350 F1200
G01 X31.7228 Y-2.4588 Z-3.2496 F1200
G01 X31.7329 Y-2.5972 Z-3.2429 F1200
G01 X31.7191 Y-2.7321 Z-3.2166 F1200
G01 X31.6824 Y-2.8596 Z-3.1779 F1200
G01 X31.6244 Y-2.9757 Z-3.1370 F1200
G01 X31.5474 Y-3.0768 Z-3.1050 F1200
G01 X31.4542 Y-3.1600 Z-3.0904 F1200
G01 X31.3483 Y-3.2227 Z-3.0971 F1200
G01 X31.2333 Y-3.2629 Z-3.1234 F1200
G01 X31.1134 Y-3.2796 Z-3.1621 F1200
G01 X30.9927 Y-3.2720 Z-3.2030 F1200
G01 X30.8754 Y-3.2406 Z-3.2350 F1200
G01 X30.7656 Y-3.1862 Z-3.2496 F1200
G01 X30.6672 Y-3.1105 Z-3.2429 F1200
G01 X30.5837 Y-3.0158 Z-3.2166 F1200
G01 X30.5182 Y-2.9050 Z-3.1779 F1200
G01 X30.4732 Y-2.7814 Z-3.1370 F1200
G01 X30.4506 Y-2.6488 Z-3.1050 F1200
G01 X30.4516 Y-2.5112 Z-3.0904 F1200
G01 X30.4768 Y-2.3728 Z-3.0971 F1200
G01 X30.5259 Y-2.2379 Z-3.1234 F1200
G01 X30.5980 Y-2.1104 Z-3.1621 F1200
G01 X30.6913 Y-1.9943 Z-3.2030 F1200
G01 X30.8037 Y-1.8932 Z-3.2350 F1200
G01 X30.9322 Y-1.8100 Z-3.2496 F1200
G01 X31.0735 Y-1.7473 Z-3.2429 F1200
G01 X31.2237 Y-1.7071 Z-3.2166 F1200
G01 X31.3790 Y-1.6904 Z-3.1779 F1200
G01 X31.5350 Y-1.6980 Z-3.1370 F1200
G01 X31.6877 Y-1.7294 Z-3.1050 F1200
G01 X31.8328 Y-1.7838 Z-3.0904 F1200
G01 X31.9665 Y-1.8595 Z-3.0971 F1200
G01 X32.0854 Y-1.9542 Z-3.1234 F1200
G01 X32.1862 Y-2.0650 Z-3.1621 F1200
G01 X32.2666 Y-2.1886 Z-3.2030 F1200
G01 X32.3245 Y-2.3212 Z-3.2350 F1200
G01 X32.3588 Y-2.4588 Z-3.2496 F1200
G01 X32.3689 Y-2.5972 Z-3.2429 F1200
G01 X32.3551 Y-2.7321 Z-3.2166 F1200
G01 X32.3184 Y-2.8596 Z-3.1779 F1200
G01 X32.2604 Y-2.9757 Z-3.1370 F1200
G01 X32.1834 Y-3.0768 Z-3.1050 F1200
G01 X32.0902 Y-3.1600 Z-3.0904 F1200
G01 X31.9843 Y-3.2227 Z-3.0971 F1200
G01 X31.8693 Y-3.2629 Z-3.1234 F1200
G01 X31.7494 Y-3.2796 Z-3.1621 F1200
G01 X31.6287 Y-3.2720 Z-3.2030 F1200
G01 X31.5114 Y-3.2406 Z-3.2350 F1200
G01 X31.4016 Y-3.1862 Z-3.2496 F1200
G01 X31.3032 Y-3.1105 Z-3.2429 F1200
G01 X31.2197 Y-3.0158 Z-3.2166 F1200
G01 X31.1542 Y-2.9050 Z-3.1779 F1200
G01 X31.1092 Y-2.7814 Z-3.1370 F1200
G01 X31.0866 Y-2.6488 Z-3.1050 F1200
G01 X31.0876 Y-2.5112 Z-3.0904 F1200
G01 X31.1128 Y-2.3728 Z-3.0971 F1200
G01 X31.1619 Y-2.2379 Z-3.1234 F1200
G01 X31.2340 Y-2.1104 Z-3.1621 F1200
G01 X31.3273 Y-1.9943 Z-3.2030 F1200
G01 X31.4397 Y-1.8932 Z-3.2350 F1200
G01 X31.5682 Y-1.8100 Z-3.2496 F1200
G01 X31.7095 Y-1.7473 Z-3.2429 F1200
G01 X31.8597 Y-1.7071 Z-3.2166 F1200
G01 X32.0150 Y-1.6904 Z-3.1779 F1200
G01 X32.1710 Y-1.6980 Z-3.1370 F1200
G01 X32.3237 Y-1.7294 Z-3.1050 F1200
G01 X32.4688 Y-1.7838 Z-3.0904 F1200
G01 X32.6025 Y-1.8595 Z-3.0971 F1200
G01 X32.7214 Y-1.9542 Z-3.1234 F1200
G01 X32.8222 Y-2.0650 Z-3.1621 F1200
G01 X32.9026 Y-2.1886 Z-3.2030 F1200
G01 X32.9605 Y-2.3212 Z-3.2350 F1200
G01 X32.9948 Y-2.4588 Z-3.2496 F1200
G01 X33.0049 Y-2.5972 Z-3.2429 F1200
G01 X32.9911 Y-2.7321 Z-3.2166 F1200
G01 X32.9544 Y-2.8596 Z-3.1779 F1200
G01 X32.8964 Y-2.9757 Z-3.1370 F1200
G01 X32.8194 Y-3.0768 Z-3.1050 F1200
G01 X32.7262 Y-3.1600 Z-3.0904 F1200
G01 X32.6203 Y-3.2227 Z-3.0971 F1200
G01 X32.5053 Y-3.2629 Z-3.1234 F1200
G01 X32.3854 Y-3.2796 Z-3.1621 F1200
G01 X32.2647 Y-3.2720 Z-3.2030 F1200
G01 X32.1474 Y-3.2406 Z-3.2350 F1200
G01 X32.0376 Y-3.1862 Z-3.2496 F1200
G01 X31.9392 Y-3.1105 Z-3.2429 F1200
G01 X31.8557 Y-3.0158 Z-3.2166 F1200
G01 X31.7902 Y-2.9050 Z-3.1779 F1200
G01 X31.7452 Y-2.7814 Z-3.1370 F1200
G01 X31.7226 Y-2.6488 Z-3.1050 F1200
G01 X31.7236 Y-2.5112 Z-3.0904 F1200
G01 X31.7488 Y-2.3728 Z-3.0971 F1200
G01 X31.7979 Y-2.2379 Z-3.1234 F1200
G01 X31.8700 Y-2.1104 Z-3.1621 F1200
G01 X31.9633 Y-1.9943 Z-3.2030 F1200
G01 X32.0757 Y-1.8932 Z-3.2350 F1200
G01 X32.2042 Y-1.8100 Z-3.2496 F1200
G01 X32.3455 Y-1.7473 Z-3.2429 F1200
G01 X32.4957 Y-1.7071 Z-3.2166 F1200
G01 X32.6510 Y-1.6904 Z-3.1779 F1200
G01 X32.8070 Y-1.6980 Z-3.1370 F1200
G01 X32.9597 Y-1.7294 Z-3.1050 F1200
G01 X33.1048 Y-1.7838 Z-3.0904 F1200
G01 X33.2385 Y-1.8595 Z-3.0971 F1200
G01 X33.3574 Y-1.9542 Z-3.1234 F1200
G01 X33.4582 Y-2.0650 Z-3.1621 F1200
G01 X33.5386 Y-2.1886 Z-3.2030 F1200
G01 X33.5965 Y-2.3212 Z-3.2350 F1200
G01 X33.6308 Y-2.4588 Z-3.2496 F1200
G01 X33.6409 Y-2.5972 Z-3.2429 F1200
G01 X33.6271 Y-2.7321 Z-3.2166 F1200
G01 X33.5904 Y-2.8596 Z-3.1779 F1200
G01 X33.5324 Y-2.9757 Z-3.1370 F1200
G01 X33.4554 Y-3.0768 Z-3.1050 F1200
G01 X33.3622 Y-3.1600 Z-3.0904 F1200
G01 X33.2563 Y-3.2227 Z-3.0971 F1200
G01 X33.1413 Y-3.2629 Z-3.1234 F1200
G01 X33.0214 Y-3.2796 Z-3.1621 F1200
G01 X32.9007 Y-3.2720 Z-3.2030 F1200
G01 X32.7834 Y-3.2406 Z-3.2350 F1200
G01 X32.6736 Y-3.1862 Z-3.2496 F1200
G01 X32.5752 Y-3.1105 Z-3.2429 F1200
G01 X32.4917 Y-3.0158 Z-3.2166 F1200
G01 X32.4262 Y-2.9050 Z-3.1779 F1200
G01 X32.3812 Y-2.7814 Z-3.1370 F1200
G01 X32.3586 Y-2.6488 Z-3.1050 F1200
G01 X32.3596 Y-2.5112 Z-3.0904 F1200
G01 X32.3848 Y-2.3728 Z-3.0971 F1200
G01 X32.4339 Y-2.2379 Z-3.1234 F1200
G01 X32.5060 Y-2.1104 Z-3.1621 F1200
G01 X32.5993 Y-1.9943 Z-3.2030 F1200
G01 X32.7117 Y-1.8932 Z-3.2350 F1200
G01 X32.8402 Y-1.8100 Z-3.2496 F1200
G01 X32.9815 Y-1.7473 Z-3.2429 F1200
G01 X33.1317 Y-1.7071 Z-3.2166 F1200
G01 X33.2870 Y-1.6904 Z-3.1779 F1200
G01 X33.4430 Y-1.6980 Z-3.1370 F1200
G01 X33.5957 Y-1.7294 Z-3.1050 F1200
G01 X33.7408 Y-1.7838 Z-3.0904 F1200
G01 X33.8745 Y-1.8595 Z-3.0971 F1200
G01 X33.9934 Y-1.9542 Z-3.1234 F1200
G01 X34.0942 Y-2.0650 Z-3.1621 F1200
G01 X34.1746 Y-2.1886 Z-3.2030 F1200
G01 X34.2325 Y-2.3212 Z-3.2350 F1200
G01 X34.2668 Y-2.4588 Z-3.2496 F1200
G01 X34.2769 Y-2.5972 Z-3.2429 F1200
G01 X34.2631 Y-2.7321 Z-3.2166 F1200
G01 X34.2264 Y-2.8596 Z-3.1779 F1200
G01 X34.1684 Y-2.9757 Z-3.1370 F1200
G01 X34.0914 Y-3.0768 Z-3.1050 F1200
G01 X33.9982 Y-3.1600 Z-3.0904 F1200
G01 X33.8923 Y-3.2227 Z-3.0971 F1200
G01 X33.7773 Y-3.2629 Z-3.1234 F1200
G01 X33.6574 Y-3.2796 Z-3.1621 F1200
G01 X33.5367 Y-3.2720 Z-3.2030 F1200
G01 X33.4194 Y-3.2406 Z-3.2350 F1200
G01 X33.3096 Y-3.1862 Z-3.2496 F1200
G01 X33.2112 Y-3.1105 Z-3.2429 F1200
G01 X33.1277 Y-3.0158 Z-3.2166 F1200
G01 X33.0622 Y-2.9050 Z-3.1779 F1200
G01 X33.0172 Y-2.7814 Z-3.1370 F1200
G01 X32.9946 Y-2.6488 Z-3.1050 F1200
G01 X32.9956 Y-2.5112 Z-3.0904 F1200
G01 X33.0208 Y-2.3728 Z-3.0971 F1200
G01 X33.0699 Y-2.2379 Z-3.1234 F1200
G01 X33.1420 Y-2.1104 Z-3.1621 F1200
G01 X33.2353 Y-1.9943 Z-3.2030 F1200
G01 X33.3477 Y-1.8932 Z-3.2350 F1200
G01 X33.4762 Y-1.8100 Z-3.2496 F1200
G01 X33.6175 Y-1.7473 Z-3.2429 F1200
G01 X33.7677 Y-1.7071 Z-3.2166 F1200
G01 X33.9230 Y-1.6904 Z-3.1779 F1200
G01 X34.0790 Y-1.6980 Z-3.1370 F1200
G01 X34.2317 Y-1.7294 Z-3.1050 F1200
G01 X34.3768 Y-1.7838 Z-3.0904 F1200
G01 X34.5105 Y-1.8595 Z-3.0971 F1200
G01 X34.6294 Y-1.9542 Z-3.1234 F1200
G01 X34.7302 Y-2.0650 Z-3.1621 F1200
G01 X34.8106 Y-2.1886 Z-3.2030 F1200
G01 X34.8685 Y-2.3212 Z-3.2350 F1200
G01 X34.9028 Y-2.4588 Z-3.2496 F1200
G01 X34.9129 Y-2.5972 Z-3.2429 F1200
G01 X34.8991 Y-2.7321 Z-3.2166 F1200
G01 X34.8624 Y-2.8596 Z-3.1779 F1200
G01 X34.8044 Y-2.9757 Z-3.1370 F1200
G01 X34.7274 Y-3.0768 Z-3.1050 F1200
G01 X34.6342 Y-3.1600 Z-3.0904 F1200
G01 X34.5283 Y-3.2227 Z-3.0971 F1200
G01 X34.4133 Y-3.2629 Z-3.1234 F1200
G01 X34.2934 Y-3.2796 Z-3.1621 F1200
G01 X34.1727 Y-3.2720 Z-3.2030 F1200
G01 X34.0554 Y-3.2406 Z-3.2350 F1200
G01 X33.9456 Y-3.1862 Z-3.2496 F1200
G01 X33.8472 Y-3.1105 Z-3.2429 F1200
G01 X33.7637 Y-3.0158 Z-3.2166 F1200
G01 X33.6982 Y-2.9050 Z-3.1779 F1200
G01 X33.6532 Y-2.7814 Z-3.1370 F1200
G01 X33.6306 Y-2.6488 Z-3.1050 F1200
G01 X33.6316 Y-2.5112 Z-3.0904 F1200
G01 X33.6568 Y-2.3728 Z-3.0971 F1200
G01 X33.7059 Y-2.2379 Z-3.1234 F1200
G01 X33.7780 Y-2.1104 Z-3.1621 F1200
G01 X33.8713 Y-1.9943 Z-3.2030 F1200
G01 X33.9837 Y-1.8932 Z-3.2350 F1200
G01 X34.1122 Y-1.8100 Z-3.2496 F1200
G01 X34.2535 Y-1.7473 Z-3.2429 F1200
G01 X34.4037 Y-1.7071 Z-3.2166 F1200
G01 X34.5590 Y-1.6904 Z-3.1779 F1200
G01 X34.7150 Y-1.6980 Z-3.1370 F1200
G01 X34.8677 Y-1.7294 Z-3.1050 F1200
G01 X35.0128 Y-1.7838 Z-3.0904 F1200
G01 X35.1465 Y-1.8595 Z-3.0971 F1200
G01 X35.2654 Y-1.9542 Z-3.1234 F1200
G01 X35.3662 Y-2.0650 Z-3.1621 F1200
G01 X35.4466 Y-2.1886 Z-3.2030 F1200
G01 X35.5045 Y-2.3212 Z-3.2350 F1200
G01 X35.5388 Y-2.4588 Z-3.2496 F1200
G01 X35.5489 Y-2.5972 Z-3.2429 F1200
G01 X35.5351 Y-2.7321 Z-3.2166 F1200
G01 X35.4984 Y-2.8596 Z-3.1779 F1200
G01 X35.4404 Y-2.9757 Z-3.1370 F1200
G01 X35.3634 Y-3.0768 Z-3.1050 F1200
G01 X35.2702 Y-3.1600 Z-3.0904 F1200
G01 X35.1643 Y-3.2227 Z-3.0971 F1200
G01 X35.0493 Y-3.2629 Z-3.1234 F1200
G01 X34.9294 Y-3.2796 Z-3.1621 F1200
G01 X34.8087 Y-3.2720 Z-3.2030 F1200
G01 X34.6914 Y-3.2406 Z-3.2350 F1200
G01 X34.5816 Y-3.1862 Z-3.2496 F1200
G01 X34.4832 Y-3.1105 Z-3.2429 F1200
G01 X34.3997 Y-3.0158 Z-3.2166 F1200
G01 X34.3342 Y-2.9050 Z-3.1779 F1200
G01 X34.2892 Y-2.7814 Z-3.1370 F1200
G01 X34.2666 Y-2.6488 Z-3.1050 F1200
G01 X34.2676 Y-2.5112 Z-3.0904 F1200
G01 X34.2928 Y-2.3728 Z-3.0971 F1200
G01 X34.3419 Y-2.2379 Z-3.1234 F1200
G01 X34.4140 Y-2.1104 Z-3.1621 F1200
G01 X34.5073 Y-1.9943 Z-3.2030 F1200
G01 X34.6197 Y-1.8932 Z-3.2350 F1200
G01 X34.7482 Y-1.8100 Z-3.2496 F1200
G01 X34.8895 Y-1.7473 Z-3.2429 F1200
G01 X35.0397 Y-1.7071 Z-3.2166 F1200
G01 X35.1950 Y-1.6904 Z-3.1779 F1200
G01 X35.3510 Y-1.6980 Z-3.1370 F1200
G01 X35.5037 Y-1.7294 Z-3.1050 F1200
G01 X35.6488 Y-1.7838 Z-3.0904 F1200
G01 X35.7825 Y-1.8595 Z-3.0971 F1200
G01 X35.9014 Y-1.9542 Z-3.1234 F1200
G01 X36.0022 Y-2.0650 Z-3.1621 F1200
G01 X36.0826 Y-2.1886 Z-3.2030 F1200
G01 X36.1405 Y-2.3212 Z-3.2350 F1200
G01 X36.1748 Y-2.4588 Z-3.2496 F1200
G01 X36.1849 Y-2.5972 Z-3.2429 F1200
G01 X36.1711 Y-2.7321 Z-3.2166 F1200
G01 X36.1344 Y-2.8596 Z-3.1779 F1200
G01 X36.0764 Y-2.9757 Z-3.1370 F1200
G01 X35.9994 Y-3.0768 Z-3.1050 F1200
G01 X35.9062 Y-3.1600 Z-3.0904 F1200
G01 X35.8003 Y-3.2227 Z-3.0971 F1200
G01 X35.6853 Y-3.2629 Z-3.1234 F1200
G01 X35.5654 Y-3.2796 Z-3.1621 F1200
G01 X35.4447 Y-3.2720 Z-3.2030 F1200
G01 X35.3274 Y-3.2406 Z-3.2350 F1200
G01 X35.2176 Y-3.1862 Z-3.2496 F1200
G01 X35.1192 Y-3.1105 Z-3.2429 F1200
G01 X35.0357 Y-3.0158 Z-3.2166 F1200
G01 X34.9702 Y-2.9050 Z-3.1779 F1200
G01 X34.9252 Y-2.7814 Z-3.1370 F1200
G01 X34.9026 Y-2.6488 Z-3.1050 F1200
G01 X34.9036 Y-2.5112 Z-3.0904 F1200
G01 X34.9288 Y-2.3728 Z-3.0971 F1200
G01 X34.9779 Y-2.2379 Z-3.1234 F1200
G01 X35.0500 Y-2.1104 Z-3.1621 F1200
G01 X35.1433 Y-1.9943 Z-3.2030 F1200
G01 X35.2557 Y-1.8932 Z-3.2350 F1200
G01 X35.3842 Y-1.8100 Z-3.2496 F1200
G01 X35.5255 Y-1.7473 Z-3.2429 F1200
G01 X35.6757 Y-1.7071 Z-3.2166 F1200
G01 X35.8310 Y-1.6904 Z-3.1779 F1200
G01 X35.9870 Y-1.6980 Z-3.1370 F1200
G01 X36.1397 Y-1.7294 Z-3.1050 F1200
G01 X36.2848 Y-1.7838 Z-3.0904 F1200
G01 X36.4185 Y-1.8595 Z-3.0971 F1200
G01 X36.5374 Y-1.9542 Z-3.1234 F1200
G01 X36.6382 Y-2.0650 Z-3.1621 F1200
G01 X36.7186 Y-2.1886 Z-3.2030 F1200
G01 X36.7765 Y-2.3212 Z-3.2350 F1200
G01 X36.8108 Y-2.4588 Z-3.2496 F1200
G01 X36.8209 Y-2.5972 Z-3.2429 F1200
G01 X36.8071 Y-2.7321 Z-3.2166 F1200
G01 X36.7704 Y-2.8596 Z-3.1779 F1200
G01 X36.7124 Y-2.9757 Z-3.1370 F1200
G01 X36.6354 Y-3.0768 Z-3.1050 F1200
G01 X36.5422 Y-3.1600 Z-3.0904 F1200
G01 X36.4363 Y-3.2227 Z-3.0971 F1200
G01 X36.3213 Y-3.2629 Z-3.1234 F1200
G01 X36.2014 Y-3.2796 Z-3.1621 F1200
G01 X36.0807 Y-3.2720 Z-3.2030 F1200
G01 X35.9634 Y-3.2406 Z-3.2350 F1200
G01 X35.8536 Y-3.1862 Z-3.2496 F1200
G01 X35.7552 Y-3.1105 Z-3.2429 F1200
G01 X35.6717 Y-3.0158 Z-3.2166 F1200
G01 X35.6062 Y-2.9050 Z-3.1779 F1200
G01 X35.5612 Y-2.7814 Z-3.1370 F1200
G01 X35.5386 Y-2.6488 Z-3.1050 F1200
G01 X35.5396 Y-2.5112 Z-3.0904 F1200
G01 X35.5648 Y-2.3728 Z-3.0971 F1200
G01 X35.6139 Y-2.2379 Z-3.1234 F1200
G01 X35.6860 Y-2.1104 Z-3.1621 F1200
G01 X35.7793 Y-1.9943 Z-3.2030 F1200
G01 X35.8917 Y-1.8932 Z-3.2350 F1200
G01 X36.0202 Y-1.8100 Z-3.2496 F1200
G01 X36.1615 Y-1.7473 Z-3.2429 F1200
G01 X36.3117 Y-1.7071 Z-3.2166 F1200
G01 X36.4670 Y-1.6904 Z-3.1779 F1200
G01 X36.6230 Y-1.6980 Z-3.1370 F1200
G01 X36.7757 Y-1.7294 Z-3.1050 F1200
G01 X36.9208 Y-1.7838 Z-3.0904 F1200
G01 X37.0545 Y-1.8595 Z-3.0971 F1200
G01 X37.1734 Y-1.9542 Z-3.1234 F1200
G01 X37.2742 Y-2.0650 Z-3.1621 F1200
G01 X37.3546 Y-2.1886 Z-3.2030 F1200
G01 X37.4125 Y-2.3212 Z-3.2350 F1200
G01 X37.4468 Y-2.4588 Z-3.2496 F1200
G01 X37.4569 Y-2.5972 Z-3.2429 F1200
G01 X37.4431 Y-2.7321 Z-3.2166 F1200
G01 X37.4064 Y-2.8596 Z-3.1779 F1200
G01 X37.3484 Y-2.9757 Z-3.1370 F1200
G01 X37.2714 Y-3.0768 Z-3.1050 F1200
G01 X37.1782 Y-3.1600 Z-3.0904 F1200
G01 X37.0723 Y-3.2227 Z-3.0971 F1200
G01 X36.9573 Y-3.2629 Z-3.1234 F1200
G01 X36.8374 Y-3.2796 Z-3.1621 F1200
G01 X36.7167 Y-3.2720 Z-3.2030 F1200
G01 X36.5994 Y-3.2406 Z-3.2350 F1200
G01 X36.4896 Y-3.1862 Z-3.2496 F1200
G01 X36.3912 Y-3.1105 Z-3.2429 F1200
G01 X36.3077 Y-3.0158 Z-3.2166 F1200
G01 X36.2422 Y-2.9050 Z-3.1779 F1200
G01 X36.1972 Y-2.7814 Z-3.1370 F1200
G01 X36.1746 Y-2.6488 Z-3.1050 F1200
G01 X36.1756 Y-2.5112 Z-3.0904 F1200
G01 X36.2008 Y-2.3728 Z-3.0971 F1200
G01 X36.2499 Y-2.2379 Z-3.1234 F1200
G01 X36.3220 Y-2.1104 Z-3.1621 F1200
G01 X36.4153 Y-1.9943 Z-3.2030 F1200
G01 X36.5277 Y-1.8932 Z-3.2350 F1200
G01 X36.6562 Y-1.8100 Z-3.2496 F1200
G01 X36.7975 Y-1.7473 Z-3.2429 F1200
G01 X36.9477 Y-1.7071 Z-3.2166 F1200
G01 X37.1030 Y-1.6904 Z-3.1779 F1200
G01 X37.2590 Y-1.6980 Z-3.1370 F1200
G01 X37.4117 Y-1.7294 Z-3.1050 F1200
G01 X37.5568 Y-1.7838 Z-3.0904 F1200
G01 X37.6905 Y-1.8595 Z-3.0971 F1200
G01 X37.8094 Y-1.9542 Z-3.1234 F1200
G01 X37.9102 Y-2.0650 Z-3.1621 F1200
G01 X37.9906 Y-2.1886 Z-3.2030 F1200
G01 X38.0485 Y-2.3212 Z-3.2350 F1200
G01 X38.0828 Y-2.4588 Z-3.2496 F1200
G01 X38.0929 Y-2.5972 Z-3.2429 F1200
G01 X38.0791 Y-2.7321 Z-3.2166 F1200
G01 X38.0424 Y-2.8596 Z-3.1779 F1200
G01 X37.9844 Y-2.9757 Z-3.1370 F1200
G01 X37.9074 Y-3.0768 Z-3.1050 F1200
G01 X37.8142 Y-3.1600 Z-3.0904 F1200
G01 X37.7083 Y-3.2227 Z-3.0971 F1200
G01 X37.5933 Y-3.2629 Z-3.1234 F1200
G01 X37.4734 Y-3.2796 Z-3.1621 F1200
G01 X37.3527 Y-3.2720 Z-3.2030 F1200
G01 X37.2354 Y-3.2406 Z-3.2350 F1200
G01 X37.1256 Y-3.1862 Z-3.2496 F1200
G01 X37.0272 Y-3.1105 Z-3.2429 F1200
G01 X36.9437 Y-3.0158 Z-3.2166 F1200
G01 X36.8782 Y-2.9050 Z-3.1779 F1200
G01 X36.8332 Y-2.7814 Z-3.1370 F1200
G01 X36.8106 Y-2.6488 Z-3.1050 F1200
G01 X36.8116 Y-2.5112 Z-3.0904 F1200
G01 X36.8368 Y-2.3728 Z-3.0971 F1200
G01 X36.8859 Y-2.2379 Z-3.1234 F1200
G01 X36.9580 Y-2.1104 Z-3.1621 F1200
G01 X37.0513 Y-1.9943 Z-3.2030 F1200
G01 X37.1637 Y-1.8932 Z-3.2350 F1200
G01 X37.2922 Y-1.8100 Z-3.2496 F1200
G01 X37.4335 Y-1.7473 Z-3.2429 F1200
G01 X37.5837 Y-1.7071 Z-3.2166 F1200
G01 X37.7390 Y-1.6904 Z-3.1779 F1200
G01 X37.8950 Y-1.6980 Z-3.1370 F1200
G01 X38.0477 Y-1.7294 Z-3.1050 F1200
G01 X38.1928 Y-1.7838 Z-3.0904 F1200
G01 X38.3265 Y-1.8595 Z-3.0971 F1200
G01 X38.4454 Y-1.9542 Z-3.1234 F1200
G01 X38.5462 Y-2.0650 Z-3.1621 F1200
G01 X38.6266 Y-2.1886 Z-3.2030 F1200
G01 X38.6845 Y-2.3212 Z-3.2350 F1200
G01 X38.7188 Y-2.4588 Z-3.2496 F1200
G01 X38.7289 Y-2.5972 Z-3.2429 F1200
G01 X38.7151 Y-2.7321 Z-3.2166 F1200
G01 X38.6784 Y-2.8596 Z-3.1779 F1200
G01 X38.6204 Y-2.9757 Z-3.1370 F1200
G01 X38.5434 Y-3.0768 Z-3.1050 F1200
G01 X38.4502 Y-3.1600 Z-3.0904 F1200
G01 X38.3443 Y-3.2227 Z-3.0971 F1200
G01 X38.2293 Y-3.2629 Z-3.1234 F1200
G01 X38.1094 Y-3.2796 Z-3.1621 F1200
G01 X37.9887 Y-3.2720 Z-3.2030 F1200
G01 X37.8714 Y-3.2406 Z-3.2350 F1200
G01 X37.7616 Y-3.1862 Z-3.2496 F1200
G01 X37.6632 Y-3.1105 Z-3.2429 F1200
G01 X37.5797 Y-3.0158 Z-3.2166 F1200
G01 X37.5142 Y-2.9050 Z-3.1779 F1200
G01 X37.4692 Y-2.7814 Z-3.1370 F1200
G01 X37.4466 Y-2.6488 Z-3.1050 F1200
G01 X37.4476 Y-2.5112 Z-3.0904 F1200
G01 X37.4728 Y-2.3728 Z-3.0971 F1200
G01 X37.5219 Y-2.2379 Z-3.1234 F1200
G01 X37.5940 Y-2.1104 Z-3.1621 F1200
G01 X37.6873 Y-1.9943 Z-3.2030 F1200
G01 X37.7997 Y-1.8932 Z-3.2350 F1200
G01 X37.9282 Y-1.8100 Z-3.2496 F1200
G01 X38.0695 Y-1.7473 Z-3.2429 F1200
G01 X38.2197 Y-1.7071 Z-3.2166 F1200
G01 X38.3750 Y-1.6904 Z-3.1779 F1200
G01 X38.5310 Y-1.6980 Z-3.1370 F1200
G01 X38.6837 Y-1.7294 Z-3.1050 F1200
G01 X38.8288 Y-1.7838 Z-3.0904 F1200
G01 X38.9625 Y-1.8595 Z-3.0971 F1200
G01 X39.0814 Y-1.9542 Z-3.1234 F1200
G01 X39.1822 Y-2.0650 Z-3.1621 F1200
G01 X39.2626 Y-2.1886 Z-3.2030 F1200
G01 X39.3205 Y-2.3212 Z-3.2350 F1200
G01 X39.3548 Y-2.4588 Z-3.2496 F1200
G01 X39.3649 Y-2.5972 Z-3.2429 F1200
G01 X39.3511 Y-2.7321 Z-3.2166 F1200
G01 X39.3144 Y-2.8596 Z-3.1779 F1200
G01 X39.2564 Y-2.9757 Z-3.1370 F1200
G01 X39.1794 Y-3.0768 Z-3.1050 F1200
G01 X39.0862 Y-3.1600 Z-3.0904 F1200
G01 X38.9803 Y-3.2227 Z-3.0971 F1200
G01 X38.8653 Y-3.2629 Z-3.1234 F1200
G01 X38.7454 Y-3.2796 Z-3.1621 F1200
G01 X38.6247 Y-3.2720 Z-3.2030 F1200
G01 X38.5074 Y-3.2406 Z-3.2350 F1200
G01 X38.3976 Y-3.1862 Z-3.2496 F1200
G01 X38.2992 Y-3.1105 Z-3.2429 F1200
G01 X38.2157 Y-3.0158 Z-3.2166 F1200
G01 X38.1502 Y-2.9050 Z-3.1779 F1200
G01 X38.1052 Y-2.7814 Z-3.1370 F1200
G01 X38.0826 Y-2.6488 Z-3.1050 F1200
G01 X38.0836 Y-2.5112 Z-3.0904 F1200
G01 X38.1088 Y-2.3728 Z-3.0971 F1200
G01 X38.1579 Y-2.2379 Z-3.1234 F1200
G01 X38.2300 Y-2.1104 Z-3.1621 F1200
G01 X38.3233 Y-1.9943 Z-3.2030 F1200
G01 X38.4357 Y-1.8932 Z-3.2350 F1200
G01 X38.5642 Y-1.8100 Z-3.2496 F1200
G01 X38.7055 Y-1.7473 Z-3.2429 F1200
G01 X38.8557 Y-1.7071 Z-3.2166 F1200
G01 X39.0110 Y-1.6904 Z-3.1779 F1200
G01 X39.1670 Y-1.6980 Z-3.1370 F1200
G01 X39.3197 Y-1.7294 Z-3.1050 F1200
G01 X39.4648 Y-1.7838 Z-3.0904 F1200
G01 X39.5985 Y-1.8595 Z-3.0971 F1200
G01 X39.7174 Y-1.9542 Z-3.1234 F1200
G01 X39.8182 Y-2.0650 Z-3.1621 F1200
G01 X39.8986 Y-2.1886 Z-3.2030 F1200
G01 X39.9565 Y-2.3212 Z-3.2350 F1200
G01 X39.9908 Y-2.4588 Z-3.2496 F1200
G01 X40.0009 Y-2.5972 Z-3.2429 F1200
G01 X39.9871 Y-2.7321 Z-3.2166 F1200
G01 X39.9504 Y-2.8596 Z-3.1779 F1200
G01 X39.8924 Y-2.9757 Z-3.1370 F1200
G01 X39.8154 Y-3.0768 Z-3.1050 F1200
G01 X39.7222 Y-3.1600 Z-3.0904 F1200
G01 X39.6163 Y-3.2227 Z-3.0971 F1200
G01 X39.5013 Y-3.2629 Z-3.1234 F1200
G01 X39.3814 Y-3.2796 Z-3.1621 F1200
G01 X39.2607 Y-3.2720 Z-3.2030 F1200
G01 X39.1434 Y-3.2406 Z-3.2350 F1200
G01 X39.0336 Y-3.1862 Z-3.2496 F1200
G01 X38.9352 Y-3.1105 Z-3.2429 F1200
G01 X38.8517 Y-3.0158 Z-3.2166 F1200
G01 X38.7862 Y-2.9050 Z-3.1779 F1200
G01 X38.7412 Y-2.7814 Z-3.1370 F1200
G01 X38.7186 Y-2.6488 Z-3.1050 F1200
G01 X38.7196 Y-2.5112 Z-3.0904 F1200
G01 X38.7448 Y-2.3728 Z-3.0971 F1200
G01 X38.7939 Y-2.2379 Z-3.1234 F1200
G01 X38.8660 Y-2.1104 Z-3.1621 F1200
G01 X38.9593 Y-1.9943 Z-3.2030 F1200
G01 X39.0717 Y-1.8932 Z-3.2350 F1200
G01 X39.2002 Y-1.8100 Z-3.2496 F1200
G01 X39.3415 Y-1.7473 Z-3.2429 F1200
G01 X39.4917 Y-1.7071 Z-3.2166 F1200
G01 X39.6470 Y-1.6904 Z-3.1779 F1200
G01 X39.8030 Y-1.6980 Z-3.1370 F1200
G01 X39.9557 Y-1.7294 Z-3.1050 F1200
G01 X40.1008 Y-1.7838 Z-3.0904 F1200
G01 X40.2345 Y-1.8595 Z-3.0971 F1200
G01 X40.3534 Y-1.9542 Z-3.1234 F1200
G01 X40.4542 Y-2.0650 Z-3.1621 F1200
G01 X40.5346 Y-2.1886 Z-3.2030 F1200
G01 X40.5925 Y-2.3212 Z-3.2350 F1200
G01 X40.6268 Y-2.4588 Z-3.2496 F1200
G01 X40.6369 Y-2.5972 Z-3.2429 F1200
G01 X40.6231 Y-2.7321 Z-3.2166 F1200
G01 X40.5864 Y-2.8596 Z-3.1779 F1200
G01 X40.5284 Y-2.9757 Z-3.1370 F1200
G01 X40.4514 Y-3.0768 Z-3.1050 F1200
G01 X40.3582 Y-3.1600 Z-3.0904 F1200
G01 X40.2523 Y-3.2227 Z-3.0971 F1200
G01 X40.1373 Y-3.2629 Z-3.1234 F1200
G01 X40.0174 Y-3.2796 Z-3.1621 F1200
G01 X39.8967 Y-3.2720 Z-3.2030 F1200
G01 X39.7794 Y-3.2406 Z-3.2350 F1200
G01 X39.6696 Y-3.1862 Z-3.2496 F1200
G01 X39.5712 Y-3.1105 Z-3.2429 F1200
G01 X39.4877 Y-3.0158 Z-3.2166 F1200
G01 X39.4222 Y-2.9050 Z-3.1779 F1200
G01 X39.3772 Y-2.7814 Z-3.1370 F1200
G01 X39.3546 Y-2.6488 Z-3.1050 F1200
G01 X39.3556 Y-2.5112 Z-3.0904 F1200
G01 X39.3808 Y-2.3728 Z-3.0971 F1200
G01 X39.4299 Y-2.2379 Z-3.1234 F1200
G01 X39.5020 Y-2.1104 Z-3.1621 F1200
G01 X39.5953 Y-1.9943 Z-3.2030 F1200
G01 X39.7077 Y-1.8932 Z-3.2350 F1200
G01 X39.8362 Y-1.8100 Z-3.2496 F1200
G01 X39.9775 Y-1.7473 Z-3.2429 F1200
G01 X40.1277 Y-1.7071 Z-3.2166 F1200
G01 X40.2830 Y-1.6904 Z-3.1779 F1200
G01 X40.4390 Y-1.6980 Z-3.1370 F1200
G01 X40.5917 Y-1.7294 Z-3.1050 F1200
G01 X40.7368 Y-1.7838 Z-3.0904 F1200
G01 X40.8705 Y-1.8595 Z-3.0971 F1200
G01 X40.9894 Y-1.9542 Z-3.1234 F1200
G01 X41.0902 Y-2.0650 Z-3.1621 F1200
G01 X41.1706 Y-2.1886 Z-3.2030 F1200
G01 X41.2285 Y-2.3212 Z-3.2350 F1200
G01 X41.2628 Y-2.4588 Z-3.2496 F1200
G01 X41.2729 Y-2.5972 Z-3.2429 F1200
G01 X41.2591 Y-2.7321 Z-3.2166 F1200
G01 X41.2224 Y-2.8596 Z-3.1779 F1200
G01 X41.1644 Y-2.9757 Z-3.1370 F1200
G01 X41.0874 Y-3.0768 Z-3.1050 F1200
G01 X40.9942 Y-3.1600 Z-3.0904 F1200
G01 X40.8883 Y-3.2227 Z-3.0971 F1200
G01 X40.7733 Y-3.2629 Z-3.1234 F1200
G01 X40.6534 Y-3.2796 Z-3.1621 F1200
G01 X40.5327 Y-3.2720 Z-3.2030 F1200
G01 X40.4154 Y-3.2406 Z-3.2350 F1200
G01 X40.3056 Y-3.1862 Z-3.2496 F1200
G01 X40.2072 Y-3.1105 Z-3.2429 F1200
G01 X40.1237 Y-3.0158 Z-3.2166 F1200
G01 X40.0582 Y-2.9050 Z-3.1779 F1200
G01 X40.0132 Y-2.7814 Z-3.1370 F1200
G01 X39.9906 Y-2.6488 Z-3.1050 F1200
G01 X39.9916 Y-2.5112 Z-3.0904 F1200
G01 X40.0168 Y-2.3728 Z-3.0971 F1200
G01 X40.0659 Y-2.2379 Z-3.1234 F1200
G01 X40.1380 Y-2.1104 Z-3.1621 F1200
G01 X40.2313 Y-1.9943 Z-3.2030 F1200
G01 X40.3437 Y-1.8932 Z-3.2350 F1200
G01 X40.4722 Y-1.8100 Z-3.2496 F1200
G01 X40.6135 Y-1.7473 Z-3.2429 F1200
G01 X40.7637 Y-1.7071 Z-3.2166 F1200
G01 X40.9190 Y-1.6904 Z-3.1779 F1200
G01 X41.0750 Y-1.6980 Z-3.1370 F1200
G01 X41.2277 Y-1.7294 Z-3.1050 F1200
G01 X41.3728 Y-1.7838 Z-3.0904 F1200
G01 X41.5065 Y-1.8595 Z-3.0971 F1200
G01 X41.6254 Y-1.9542 Z-3.1234 F1200
G01 X41.7262 Y-2.0650 Z-3.1621 F1200
G01 X41.8066 Y-2.1886 Z-3.2030 F1200
G01 X41.8645 Y-2.3212 Z-3.2350 F1200
G01 X41.8988 Y-2.4588 Z-3.2496 F1200
G01 X41.9089 Y-2.5972 Z-3.2429 F1200
G01 X41.8951 Y-2.7321 Z-3.2166 F1200
G01 X41.8584 Y-2.8596 Z-3.1779 F1200
G01 X41.8004 Y-2.9757 Z-3.1370 F1200
G01 X41.7234 Y-3.0768 Z-3.1050 F1200
G01 X41.6302 Y-3.1600 Z-3.0904 F1200
G01 X41.5243 Y-3.2227 Z-3.0971 F1200
G01 X41.4093 Y-3.2629 Z-3.1234 F1200
G01 X41.2894 Y-3.2796 Z-3.1621 F1200
G01 X41.1687 Y-3.2720 Z-3.2030 F1200
G01 X41.0514 Y-3.2406 Z-3.2350 F1200
G01 X40.9416 Y-3.1862 Z-3.2496 F1200
G01 X40.8432 Y-3.1105 Z-3.2429 F1200
G01 X40.7597 Y-3.0158 Z-3.2166 F1200
G01 X40.6942 Y-2.9050 Z-3.1779 F1200
G01 X40.6492 Y-2.7814 Z-3.1370 F1200
G01 X40.6266 Y-2.6488 Z-3.1050 F1200
G01 X40.6276 Y-2.5112 Z-3.0904 F1200
G01 X40.6528 Y-2.3728 Z-3.0971 F1200
G01 X40.7019 Y-2.2379 Z-3.1234 F1200
G01 X40.7740 Y-2.1104 Z-3.1621 F1200
G01 X40.8673 Y-1.9943 Z-3.2030 F1200
G01 X40.9797 Y-1.8932 Z-3.2350 F1200
G01 X41.1082 Y-1.8100 Z-3.2496 F1200
G01 X41.2495 Y-1.7473 Z-3.2429 F1200
G01 X41.3997 Y-1.7071 Z-3.2166 F1200
G01 X41.5550 Y-1.6904 Z-3.1779 F1200
G01 X41.7110 Y-1.6980 Z-3.1370 F1200
G01 X41.8637 Y-1.7294 Z-3.1050 F1200
G01 X42.0088 Y-1.7838 Z-3.0904 F1200
G01 X42.1425 Y-1.8595 Z-3.0971 F1200
G01 X42.2614 Y-1.9542 Z-3.1234 F1200
G01 X42.3622 Y-2.0650 Z-3.1621 F1200
G01 X42.4426 Y-2.1886 Z-3.2030 F1200
G01 X42.5005 Y-2.3212 Z-3.2350 F1200
G01 X42.5348 Y-2.4588 Z-3.2496 F1200
G01 X42.5449 Y-2.5972 Z-3.2429 F1200
G01 X42.5311 Y-2.7321 Z-3.2166 F1200
G01 X42.4944 Y-2.8596 Z-3.1779 F1200
G01 X42.4364 Y-2.9757 Z-3.1370 F1200
G01 X42.3594 Y-3.0768 Z-3.1050 F1200
G01 X42.2662 Y-3.1600 Z-3.0904 F1200
G01 X42.1603 Y-3.2227 Z-3.0971 F1200
G01 X42.0453 Y-3.2629 Z-3.1234 F1200
G01 X41.9254 Y-3.2796 Z-3.1621 F1200
G01 X41.8047 Y-3.2720 Z-3.2030 F1200
G01 X41.6874 Y-3.2406 Z-3.2350 F1200
G01 X41.5776 Y-3.1862 Z-3.2496 F1200
G01 X41.4792 Y-3.1105 Z-3.2429 F1200
G01 X41.3957 Y-3.0158 Z-3.2166 F1200
G01 X41.3302 Y-2.9050 Z-3.1779 F1200
G01 X41.2852 Y-2.7814 Z-3.1370 F1200
G01 X41.2626 Y-2.6488 Z-3.1050 F1200
G01 X41.2636 Y-2.5112 Z-3.0904 F1200
