;Project case-top
;Created by Estlcam version 11 build 11.245
;Machining time about 00:03:19 hours

G90
M03 S10000
G00 X0.0000 Y0.0000 Z0.0000 F1500
G00 Z6.0000 F480


;No. 1: Hole 3
G00 X9.8481 Y29.5325 F1500
G00 X10.6310 Y29.3944 Z0.5107 F480
G01 X10.5952 Y29.2606 Z0.5223 F180 S10000
G01 X10.5366 Y29.1350 Z0.5447 F180
G01 X10.4571 Y29.0215 Z0.5670 F180
G01 X10.3591 Y28.9235 Z0.5786 F180
G01 X10.2456 Y28.8440 Z0.5717 F180
G01 X10.1200 Y28.7854 Z0.5433 F180
G01 X9.9861 Y28.7496 Z0.4963 F180
G01 X9.8481 Y28.7375 Z0.4387 F180
G01 X9.7100 Y28.7496 Z0.3810 F180
G01 X9.5762 Y28.7854 Z0.3341 F180
G01 X9.4506 Y28.8440 Z0.3057 F180
G01 X9.3371 Y28.9235 Z0.2987 F180
G01 X9.2391 Y29.0215 Z0.3103 F180
G01 X9.1596 Y29.1350 Z0.3327 F180
G01 X9.1010 Y29.2606 Z0.3550 F180
G01 X9.0652 Y29.3944 Z0.3666 F180
G01 X9.0531 Y29.5325 Z0.3597 F180
G01 X9.0652 Y29.6705 Z0.3313 F180
G01 X9.1010 Y29.8044 Z0.2843 F180
G01 X9.1596 Y29.9300 Z0.2267 F180
G01 X9.2391 Y30.0435 Z0.1690 F180
G01 X9.3371 Y30.1415 Z0.1221 F180
G01 X9.4506 Y30.2210 Z0.0937 F180
G01 X9.5762 Y30.2796 Z0.0867 F180
G01 X9.7100 Y30.3154 Z0.0983 F180
G01 X9.8481 Y30.3275 Z0.1207 F180
G01 X9.9861 Y30.3154 Z0.1430 F180
G01 X10.1200 Y30.2796 Z0.1546 F180
G01 X10.1590 Y30.2642 Z0.1547 F180
G01 X10.2687 Y30.2036 Z0.1474 F180
G01 X10.3654 Y30.1228 Z0.1190 F180
G01 X10.4003 Y30.0845 Z0.1021 F180
G01 X10.4732 Y29.9805 Z0.0526 F180
G01 X10.5258 Y29.8634 Z-0.0001 F180
G01 X10.5409 Y29.8126 Z-0.0200 F180
G01 X10.5622 Y29.6841 Z-0.0589 F180
G01 X10.5595 Y29.5520 Z-0.0787 F180
G01 X10.5514 Y29.4979 Z-0.0805 F180
G01 X10.5153 Y29.3685 Z-0.0709 F180
G01 X10.4558 Y29.2454 Z-0.0463 F180
G01 X10.4251 Y29.1978 Z-0.0341 F180
G01 X10.3359 Y29.0911 Z-0.0053 F180
G01 X10.2280 Y28.9996 Z0.0133 F180
G01 X10.1792 Y28.9674 Z0.0160 F180
G01 X10.0507 Y28.9032 Z0.0078 F180
G01 X9.9113 Y28.8607 Z-0.0215 F180
G01 X9.8522 Y28.8499 Z-0.0386 F180
G01 X9.7049 Y28.8409 Z-0.0885 F180
G01 X9.5566 Y28.8561 Z-0.1411 F180
G01 X9.4966 Y28.8692 Z-0.1608 F180
G01 X9.3546 Y28.9185 Z-0.1991 F180
G01 X9.2215 Y28.9903 Z-0.2179 F180
G01 X9.1705 Y29.0257 Z-0.2193 F180
G01 X9.0569 Y29.1263 Z-0.2088 F180
G01 X8.9605 Y29.2438 Z-0.1838 F180
G01 X8.9268 Y29.2959 Z-0.1715 F180
G01 X8.8599 Y29.4321 Z-0.1430 F180
G01 X8.8157 Y29.5766 Z-0.1250 F180
G01 X8.8044 Y29.6371 Z-0.1227 F180
G01 X8.7945 Y29.7869 Z-0.1319 F180
G01 X8.8088 Y29.9351 Z-0.1620 F180
G01 X8.8214 Y29.9942 Z-0.1794 F180
G01 X8.8691 Y30.1335 Z-0.2297 F180
G01 X8.9381 Y30.2614 Z-0.2821 F180
G01 X8.9720 Y30.3096 Z-0.3016 F180
G01 X9.0678 Y30.4161 Z-0.3391 F180
G01 X9.1784 Y30.5035 Z-0.3570 F180
G01 X9.2271 Y30.5332 Z-0.3581 F180
G01 X9.3534 Y30.5903 Z-0.3468 F180
G01 X9.4855 Y30.6241 Z-0.3213 F180
G01 X9.5402 Y30.6309 Z-0.3090 F180
G01 X9.6741 Z-0.2807 F180
G01 X9.8038 Y30.6072 Z-0.2634 F180
G01 X9.8546 Y30.5909 Z-0.2614 F180
G01 X9.9722 Y30.5359 Z-0.2716 F180
G01 X10.0762 Y30.4610 Z-0.3026 F180
G01 X10.1140 Y30.4253 Z-0.3203 F180
G01 X10.1942 Y30.3271 Z-0.3708 F180
G01 X10.2538 Y30.2163 Z-0.4231 F180
G01 X10.2718 Y30.1682 Z-0.4424 F180
G01 X10.3003 Y30.0462 Z-0.4792 F180
G01 X10.3048 Y29.9210 Z-0.4961 F180
G01 X10.2997 Y29.8699 Z-0.4968 F180
G01 X10.2712 Y29.7475 Z-0.4847 F180
G01 X10.2195 Y29.6320 Z-0.4588 F180
G01 X10.1921 Y29.5877 Z-0.4465 F180
G01 X10.1115 Y29.4885 Z-0.4184 F180
G01 X10.0126 Y29.4051 Z-0.4018 F180
G01 X9.9675 Y29.3762 Z-0.4002 F180
G01 X9.8489 Y29.3198 Z-0.4113 F180
G01 X9.7200 Y29.2852 Z-0.4432 F180
G01 X9.6652 Y29.2777 Z-0.4611 F180
G01 X9.5295 Y29.2761 Z-0.5120 F180
G01 X9.3932 Y29.2987 Z-0.5641 F180
G01 X9.3383 Y29.3148 Z-0.5832 F180
G01 X9.2094 Y29.3706 Z-0.6192 F180
G01 X9.0898 Y29.4486 Z-0.6351 F180
G01 X9.0446 Y29.4865 Z-0.6354 F180
G01 X8.9454 Y29.5922 Z-0.6226 F180
G01 X8.8639 Y29.7143 Z-0.5963 F180
G01 X8.8362 Y29.7682 Z-0.5839 F180
G01 X8.7847 Y29.9075 Z-0.5562 F180
G01 X8.7561 Y30.0546 Z-0.5403 F180
G01 X8.7512 Y30.1160 Z-0.5390 F180
G01 X8.7571 Y30.2668 Z-0.5511 F180
G01 X8.7870 Y30.4154 Z-0.5838 F180
G01 X8.8061 Y30.4746 Z-0.6020 F180
G01 X8.8693 Y30.6127 Z-0.6531 F180
G01 X8.9535 Y30.7391 Z-0.7050 F180
G01 X8.9935 Y30.7865 Z-0.7239 F180
G01 X9.1041 Y30.8899 Z-0.7591 F180
G01 X9.2290 Y30.9739 Z-0.7741 F180
G01 X9.2834 Y31.0022 F180
G01 X9.4232 Y31.0548 Z-0.7604 F180
G01 X9.5682 Y31.0839 Z-0.7338 F180
G01 X9.6281 Y31.0888 Z-0.7214 F180
G01 X9.7741 Y31.0834 Z-0.6940 F180
G01 X9.9152 Y31.0542 Z-0.6788 F180
G01 X9.9706 Y31.0358 Z-0.6779 F180
G01 X10.0988 Y30.9750 Z-0.6909 F180
G01 X10.2129 Y30.8945 Z-0.7245 F180
G01 X10.2547 Y30.8566 Z-0.7429 F180
G01 X10.3443 Y30.7527 Z-0.7943 F180
G01 X10.4130 Y30.6366 Z-0.8460 F180
G01 X10.4347 Y30.5865 Z-0.8646 F180
G01 X10.4717 Y30.4591 Z-0.8990 F180
G01 X10.4847 Y30.3292 Z-0.9131 F180
G01 X10.4841 Y30.2950 Z-0.9132 F180
G01 X10.4672 Y30.1671 Z-0.9013 F180
G01 X10.4271 Y30.0462 Z-0.8755 F180
G01 X10.4128 Y30.0158 Z-0.8676 F180
G01 X10.3462 Y29.9084 Z-0.8387 F180
G01 X10.2609 Y29.8163 Z-0.8197 F180
G01 X10.2355 Y29.7949 Z-0.8175 F180
G01 X10.1312 Y29.7256 Z-0.8221 F180
G01 X10.0155 Y29.6775 Z-0.8481 F180
G01 X9.9834 Y29.6686 Z-0.8581 F180
G01 X9.8592 Y29.6491 Z-0.9049 F180
G01 X9.7326 Y29.6536 Z-0.9579 F180
G01 X9.6992 Y29.6588 Z-0.9715 F180
G01 X9.5761 Y29.6929 Z-1.0165 F180
G01 X9.4600 Y29.7501 Z-1.0448 F180
G01 X9.4309 Y29.7689 Z-1.0487 F180
G01 X9.3297 Y29.8522 Z-1.0502 F180
G01 X9.2438 Y29.9541 Z-1.0329 F180
G01 X9.2241 Y29.9838 Z-1.0261 F180
G01 X9.1622 Y30.1041 Z-0.9966 F180
G01 X9.1217 Y30.2356 Z-0.9698 F180
G01 X9.1148 Y30.2717 Z-0.9645 F180
G01 X9.1038 Y30.4110 Z-0.9554 F180
G01 X9.1169 Y30.5524 Z-0.9670 F180
G01 X9.1244 Y30.5896 Z-0.9737 F180
G01 X9.1680 Y30.7268 Z-1.0107 F180
G01 X9.2346 Y30.8566 Z-1.0607 F180
G01 X9.2559 Y30.8893 Z-1.0748 F180
G01 X9.3492 Y31.0035 Z-1.1262 F180
G01 X9.4610 Y31.1022 Z-1.1666 F180
G01 X9.4933 Y31.1252 Z-1.1743 F180
G01 X9.6241 Y31.1991 Z-1.1903 F180
G01 X9.7659 Y31.2515 Z-1.1852 F180
G01 X9.8048 Y31.2615 Z-1.1807 F180
G01 X9.9548 Y31.2837 Z-1.1558 F180
G01 X10.1068 Y31.2818 Z-1.1260 F180
G01 X10.1467 Y31.2773 Z-1.1187 F180
G01 X10.2949 Y31.2442 Z-1.0984 F180
G01 X10.4355 Y31.1883 Z-1.0956 F180
G01 X10.4710 Y31.1698 Z-1.0984 F180
G01 X10.5964 Y31.0865 Z-1.1225 F180
G01 X10.7061 Y30.9849 Z-1.1647 F180
G01 X10.7321 Y30.9553 Z-1.1779 F180
G01 X10.8175 Y30.8342 Z-1.2308 F180
G01 X10.8812 Y30.7023 Z-1.2797 F180
G01 X10.8943 Y30.6661 Z-1.2906 F180
G01 X10.9283 Y30.5254 Z-1.3206 F180
G01 X10.9383 Y30.3832 Z-1.3297 F180
G01 X10.9369 Y30.3458 Z-1.3285 F180
G01 X10.9164 Y30.2067 Z-1.3126 F180
G01 X10.8730 Y30.0755 Z-1.2850 F180
G01 X10.8579 Y30.0425 Z-1.2769 F180
G01 X10.7878 Y29.9258 Z-1.2494 F180
G01 X10.6996 Y29.8251 Z-1.2341 F180
G01 X10.6737 Y29.8015 Z-1.2330 F180
G01 X10.5667 Y29.7244 Z-1.2427 F180
G01 X10.4491 Y29.6689 Z-1.2733 F180
G01 X10.4168 Y29.6581 Z-1.2843 F180
G01 X10.2911 Y29.6315 Z-1.3335 F180
G01 X10.1642 Y29.6290 Z-1.3863 F180
G01 X10.1309 Y29.6324 Z-1.3995 F180
G01 X10.0077 Y29.6594 Z-1.4412 F180
G01 X9.8926 Y29.7093 Z-1.4647 F180
G01 X9.8640 Y29.7260 Z-1.4674 F180
G01 X9.7640 Y29.8014 Z-1.4640 F180
G01 X9.6802 Y29.8948 Z-1.4433 F180
G01 X9.6611 Y29.9221 Z-1.4360 F180
G01 X9.6013 Y30.0330 Z-1.4061 F180
G01 X9.5633 Y30.1542 Z-1.3815 F180
G01 X9.5571 Y30.1875 Z-1.3772 F180
G01 X9.5482 Y30.3155 Z-1.3726 F180
G01 X9.5634 Y30.4446 Z-1.3892 F180
G01 X9.5714 Y30.4784 Z-1.3971 F180
G01 X9.6162 Y30.6024 Z-1.4379 F180
G01 X9.6837 Y30.7181 Z-1.4895 F180
G01 X9.7051 Y30.7469 Z-1.5036 F180
G01 X9.7981 Y30.8462 Z-1.5533 F180
G01 X9.9088 Y30.9291 Z-1.5899 F180
G01 X9.9406 Y30.9480 Z-1.5964 F180
G01 X10.0686 Y31.0057 Z-1.6073 F180
G01 X10.2068 Y31.0416 Z-1.5977 F180
G01 X10.2445 Y31.0472 Z-1.5923 F180
G01 X10.3743 Y31.0752 Z-1.5653 F180
G01 X10.5051 Y31.0791 Z-1.5359 F180
G01 X10.5393 Y31.0761 Z-1.5292 F180
G01 X10.6644 Y31.0494 Z-1.5123 F180
G01 X10.7811 Y31.0000 Z-1.5144 F180
G01 X10.8101 Y30.9834 Z-1.5185 F180
G01 X10.9100 Y30.9076 Z-1.5473 F180
G01 X10.9934 Y30.8141 Z-1.5927 F180
G01 X11.0123 Y30.7869 Z-1.6063 F180
G01 X11.0703 Y30.6752 Z-1.6593 F180
G01 X11.1062 Y30.5536 Z-1.7058 F180
G01 X11.1118 Y30.5203 Z-1.7157 F180
G01 X11.1174 Y30.3913 Z-1.7411 F180
G01 X11.0988 Y30.2618 Z-1.7451 F180
G01 X11.0899 Y30.2279 Z-1.7427 F180
G01 X11.0408 Y30.1029 Z-1.7233 F180
G01 X10.9691 Y29.9866 Z-1.6943 F180
G01 X10.9466 Y29.9578 Z-1.6864 F180
G01 X10.8486 Y29.8572 Z-1.6608 F180
G01 X10.7333 Y29.7733 Z-1.6495 F180
G01 X10.7002 Y29.7543 Z-1.6497 F180
G01 X10.5670 Y29.6947 Z-1.6644 F180
G01 X10.4241 Y29.6574 Z-1.6993 F180
G01 X10.3852 Y29.6514 Z-1.7113 F180
G01 X10.2354 Y29.6431 Z-1.7623 F180
G01 X10.0853 Y29.6590 Z-1.8143 F180
G01 X10.0460 Y29.6672 Z-1.8268 F180
G01 X9.9010 Y29.7123 Z-1.8649 F180
G01 X9.7650 Y29.7799 Z-1.8835 F180
G01 X9.7310 Y29.8013 Z-1.8848 F180
G01 X9.6113 Y29.8937 Z-1.8769 F180
G01 X9.5085 Y30.0034 Z-1.8533 F180
G01 X9.4845 Y30.0349 Z-1.8456 F180
G01 X9.4066 Y30.1610 Z-1.8160 F180
G01 X9.3510 Y30.2965 Z-1.7940 F180
G01 X9.3402 Y30.3335 Z-1.7908 F180
G01 X9.3143 Y30.4744 Z-1.7909 F180
G01 X9.3125 Y30.6154 Z-1.8125 F180
G01 X9.3161 Y30.6522 Z-1.8216 F180
G01 X9.3441 Y30.7866 Z-1.8657 F180
G01 X9.3945 Y30.9119 Z-1.9183 F180
G01 X9.4113 Y30.9430 Z-1.9322 F180
G01 X9.4870 Y31.0505 Z-1.9797 F180
G01 X9.5798 Y31.1410 Z-2.0121 F180
G01 X9.6068 Y31.1617 Z-2.0173 F180
G01 X9.7165 Y31.2260 Z-2.0232 F180
G01 X9.8354 Y31.2679 Z-2.0094 F180
G01 X9.8679 Y31.2751 Z-2.0032 F180
G01 X9.9927 Y31.2862 Z-1.9746 F180
G01 X10.1173 Y31.2732 Z-1.9463 F180
G01 X10.1497 Y31.2658 Z-1.9403 F180
G01 X10.2683 Y31.2220 Z-1.9273 F180
G01 X10.3775 Y31.1560 Z-1.9343 F180
G01 X10.4043 Y31.1351 Z-1.9398 F180
G01 X10.4964 Y31.0431 Z-1.9731 F180
G01 X10.5713 Y30.9341 Z-2.0211 F180
G01 X10.5879 Y30.9028 Z-2.0351 F180
G01 X10.6373 Y30.7764 Z-2.0875 F180
G01 X10.6644 Y30.6409 Z-2.1310 F180
G01 X10.6676 Y30.6041 Z-2.1398 F180
G01 X10.6648 Y30.4623 Z-2.1604 F180
G01 X10.6379 Y30.3209 Z-2.1595 F180
G01 X10.6268 Y30.2841 Z-2.1560 F180
G01 X10.5702 Y30.1483 Z-2.1334 F180
G01 X10.4916 Y30.0221 Z-2.1037 F180
G01 X10.4673 Y29.9908 Z-2.0961 F180
G01 X10.3638 Y29.8812 Z-2.0730 F180
G01 X10.2436 Y29.7891 Z-2.0660 F180
G01 X10.2094 Y29.7680 Z-2.0676 F180
G01 X10.0731 Y29.7009 Z-2.0873 F180
G01 X9.9281 Y29.6562 Z-2.1262 F180
G01 X9.8888 Y29.6484 Z-2.1388 F180
G01 X9.7389 Y29.6331 Z-2.1911 F180
G01 X9.5895 Y29.6419 Z-2.2418 F180
G01 X9.5507 Y29.6483 Z-2.2535 F180
G01 X9.4085 Y29.6862 Z-2.2875 F180
G01 X9.2762 Y29.7462 Z-2.3012 F180
G01 X9.2433 Y29.7655 Z-2.3011 F180
G01 X9.1291 Y29.8497 Z-2.2889 F180
G01 X9.0325 Y29.9505 Z-2.2629 F180
G01 X9.0103 Y29.9795 Z-2.2550 F180
G01 X8.9401 Y30.0958 Z-2.2262 F180
G01 X8.8925 Y30.2206 Z-2.2075 F180
G01 X8.8838 Y30.2545 Z-2.2053 F180
G01 X8.8669 Y30.3836 Z-2.2104 F180
G01 X8.8742 Y30.5119 Z-2.2368 F180
G01 X8.8840 Y30.5632 Z-2.2530 F180
G01 X8.9248 Y30.6826 Z-2.3015 F180
G01 X8.9874 Y30.7914 Z-2.3544 F180
G01 X9.0187 Y30.8320 Z-2.3747 F180
G01 X9.1086 Y30.9193 Z-2.4153 F180
G01 X9.2140 Y30.9880 Z-2.4373 F180
G01 X9.2608 Y31.0102 Z-2.4400 F180
G01 X9.3828 Y31.0483 Z-2.4323 F180
G01 X9.5113 Y31.0632 Z-2.4088 F180
G01 X9.5648 Y31.0624 Z-2.3968 F180
G01 X9.6962 Y31.0429 Z-2.3676 F180
G01 X9.8241 Y30.9995 Z-2.3474 F180
G01 X9.8745 Y30.9750 Z-2.3439 F180
G01 X9.9913 Y30.8993 Z-2.3499 F180
G01 X10.0952 Y30.8032 Z-2.3772 F180
G01 X10.1332 Y30.7587 Z-2.3937 F180
G01 X10.2141 Y30.6379 Z-2.4426 F180
G01 X10.2748 Y30.5039 Z-2.4955 F180
G01 X10.2933 Y30.4461 Z-2.5156 F180
G01 X10.3232 Y30.2993 Z-2.5555 F180
G01 X10.3293 Y30.1486 Z-2.5765 F180
G01 X10.3248 Y30.0868 Z-2.5789 F180
G01 X10.2978 Y29.9374 Z-2.5703 F180
G01 X10.2474 Y29.7941 Z-2.5464 F180
G01 X10.2203 Y29.7382 Z-2.5343 F180
G01 X10.1404 Y29.6100 Z-2.5052 F180
G01 X10.0417 Y29.4969 Z-2.4857 F180
G01 X9.9965 Y29.4557 Z-2.4825 F180
G01 X9.8772 Y29.3688 Z-2.4895 F180
G01 X9.7468 Y29.3034 Z-2.5177 F180
G01 X9.6912 Y29.2833 Z-2.5344 F180
G01 X9.5528 Y29.2506 Z-2.5838 F180
G01 X9.4132 Y29.2420 Z-2.6365 F180
G01 X9.3567 Y29.2455 Z-2.6565 F180
G01 X9.2233 Y29.2704 Z-2.6957 F180
G01 X9.0985 Y29.3179 Z-2.7158 F180
G01 X9.0509 Y29.3434 Z-2.7177 F180
G01 X8.9456 Y29.4194 Z-2.7083 F180
G01 X8.8574 Y29.5125 Z-2.6839 F180
G01 X8.8269 Y29.5547 Z-2.6717 F180
G01 X8.7681 Y29.6662 Z-2.6429 F180
G01 X8.7319 Y29.7863 Z-2.6240 F180
G01 X8.7239 Y29.8369 Z-2.6212 F180
G01 X8.7222 Y29.9623 Z-2.6291 F180
G01 X8.7446 Y30.0863 Z-2.6581 F180
G01 X8.7606 Y30.1356 Z-2.6752 F180
G01 X8.8166 Y30.2507 Z-2.7249 F180
G01 X8.8941 Y30.3548 Z-2.7776 F180
G01 X8.9314 Y30.3933 Z-2.7973 F180
G01 X9.0359 Y30.4759 Z-2.8358 F180
G01 X9.1555 Y30.5397 Z-2.8550 F180
G01 X9.2080 Y30.5598 Z-2.8565 F180
G01 X9.3435 Y30.5934 Z-2.8463 F180
G01 X9.4851 Y30.6037 Z-2.8214 F180
G01 X9.5438 Y30.6009 Z-2.8092 F180
G01 X9.6875 Y30.5776 Z-2.7806 F180
G01 X9.8273 Y30.5304 Z-2.7623 F180
G01 X9.8823 Y30.5045 Z-2.7599 F180
G01 X10.0102 Y30.4261 Z-2.7688 F180
G01 X10.1247 Y30.3277 Z-2.7987 F180
G01 X10.1669 Y30.2822 Z-2.8160 F180
G01 X10.2578 Y30.1605 Z-2.8661 F180
G01 X10.3283 Y30.0260 Z-2.9186 F180
G01 X10.3507 Y29.9681 Z-2.9382 F180
G01 X10.3899 Y29.8224 Z-2.9759 F180
G01 X10.4053 Y29.6732 Z-2.9941 F180
G01 X10.4046 Y29.6123 Z-2.9953 F180
G01 X10.3867 Y29.4660 Z-2.9843 F180
G01 X10.3456 Y29.3265 Z-2.9589 F180
G01 X10.3224 Y29.2723 Z-2.9466 F180
G01 X10.2520 Y29.1493 Z-2.9183 F180
G01 X10.1631 Y29.0418 Z-2.9007 F180
G01 X10.1220 Y29.0031 Z-2.8986 F180
G01 X10.0129 Y28.9231 Z-2.9085 F180
G01 X9.8932 Y28.8649 Z-2.9392 F180
G01 X9.8421 Y28.8478 Z-2.9568 F180
G01 X9.7150 Y28.8232 Z-3.0072 F180
G01 X9.5870 Y28.8228 Z-3.0596 F180
G01 X9.5355 Y28.8296 Z-3.0790 F180
G01 X9.4142 Y28.8634 Z-3.1160 F180
G01 X9.3021 Y28.9194 Z-3.1332 F180
G01 X9.2598 Y28.9484 Z-3.1340 F180
G01 X9.1674 Y29.0332 Z-3.1222 F180
G01 X9.0925 Y29.1347 Z-3.0964 F180
G01 X9.0675 Y29.1803 Z-3.0841 F180
G01 X9.0220 Y29.3003 Z-3.0560 F180
G01 X8.9993 Y29.4283 Z-3.0391 F180
G01 X8.9969 Y29.4821 Z-3.0374 F180
G01 X9.0082 Y29.6153 Z-3.0482 F180
G01 X9.0437 Y29.7466 Z-3.0798 F180
G01 X9.0649 Y29.7987 Z-3.0976 F180
G01 X9.1333 Y29.9210 Z-3.1484 F180
G01 X9.2228 Y30.0317 Z-3.2006 F180
G01 X9.2649 Y30.0728 Z-3.2197 F180
G01 X9.3510 Y30.1719 Z-3.2444 F1200
G01 X9.4327 Y30.2389 Z-3.2499 F1200
G01 X9.5432 Y30.3023 Z-3.2370 F1200
G01 X9.6399 Y30.3373 Z-3.2128 F1200
G01 X9.7620 Y30.3594 Z-3.1732 F1200
G01 X9.8628 Z-3.1396 F1200
G01 X9.9830 Y30.3387 Z-3.1067 F1200
G01 X10.0764 Y30.3044 Z-3.0921 F1200
G01 X10.1811 Y30.2439 Z-3.0935 F1200
G01 X10.2567 Y30.1794 Z-3.1101 F1200
G01 X10.3341 Y30.0861 Z-3.1447 F1200
G01 X10.3831 Y29.9987 Z-3.1786 F1200
G01 X10.4241 Y29.8830 Z-3.2172 F1200
G01 X10.4406 Y29.7822 Z-3.2398 F1200
G01 X10.4397 Y29.6569 Z-3.2500 F1200
G01 X10.4210 Y29.5539 Z-3.2422 F1200
G01 X10.3773 Y29.4326 Z-3.2154 F1200
G01 X10.3243 Y29.3386 Z-3.1838 F1200
G01 X10.2410 Y29.2349 Z-3.1426 F1200
G01 X10.1581 Y29.1605 Z-3.1137 F1200
G01 X10.0426 Y29.0861 Z-3.0928 F1200
G01 X9.9372 Y29.0397 Z-3.0911 F1200
G01 X9.8001 Y29.0035 Z-3.1081 F1200
G01 X9.6821 Y28.9910 Z-3.1348 F1200
G01 X9.5363 Y28.9980 Z-3.1755 F1200
G01 X9.4169 Y29.0219 Z-3.2082 F1200
G01 X9.2763 Y29.0731 Z-3.2382 F1200
G01 X9.1668 Y29.1322 Z-3.2494 F1200
G01 X9.0448 Y29.2239 Z-3.2435 F1200
G01 X8.9557 Y29.3136 Z-3.2237 F1200
G01 X8.8641 Y29.4384 Z-3.1869 F1200
G01 X8.8038 Y29.5510 Z-3.1528 F1200
G01 X8.7513 Y29.6979 Z-3.1160 F1200
G01 X8.7256 Y29.8236 Z-3.0963 F1200
G01 X8.7172 Y29.9796 Z-3.0906 F1200
G01 X8.7284 Y30.1071 Z-3.1019 F1200
G01 X8.7648 Y30.2582 Z-3.1320 F1200
G01 X8.8116 Y30.3761 Z-3.1648 F1200
G01 X8.8889 Y30.5090 Z-3.2054 F1200
G01 X8.9666 Y30.6069 Z-3.2321 F1200
G01 X9.0773 Y30.7099 Z-3.2490 F1200
G01 X9.1781 Y30.7793 Z-3.2471 F1200
G01 X9.3111 Y30.8438 Z-3.2260 F1200
G01 X9.4251 Y30.8793 Z-3.1972 F1200
G01 X9.5674 Y30.9004 Z-3.1559 F1200
G01 X9.6833 Y30.8998 Z-3.1244 F1200
G01 X9.8211 Y30.8772 Z-3.0976 F1200
G01 X9.9276 Y30.8418 Z-3.0900 F1200
G01 X10.0474 Y30.7793 Z-3.1003 F1200
G01 X10.1343 Y30.7140 Z-3.1230 F1200
G01 X10.2248 Y30.6195 Z-3.1617 F1200
G01 X10.2838 Y30.5322 Z-3.1956 F1200
G01 X10.3366 Y30.4167 Z-3.2301 F1200
G01 X10.3624 Y30.3174 Z-3.2466 F1200
G01 X10.3729 Y30.1940 Z-3.2479 F1200
G01 X10.3635 Y30.0939 Z-3.2331 F1200
G01 X10.3316 Y29.9763 Z-3.2001 F1200
G01 X10.2887 Y29.8866 Z-3.1665 F1200
G01 X10.2186 Y29.7880 Z-3.1270 F1200
G01 X10.1473 Y29.7188 Z-3.1028 F1200
G01 X10.0470 Y29.6505 Z-3.0901 F1200
G01 X9.9553 Y29.6098 Z-3.0957 F1200
G01 X9.8360 Y29.5798 Z-3.1205 F1200
G01 X9.7340 Y29.5728 Z-3.1512 F1200
G01 X9.6089 Y29.5853 Z-3.1926 F1200
G01 X9.5078 Y29.6136 Z-3.2225 F1200
G01 X9.3907 Y29.6684 Z-3.2456 F1200
G01 X9.3017 Y29.7300 Z-3.2496 F1200
G01 X9.2057 Y29.8227 Z-3.2350 F1200
G01 X9.1389 Y29.9124 Z-3.2097 F1200
G01 X9.0750 Y30.0345 Z-3.1696 F1200
G01 X9.0382 Y30.1440 Z-3.1363 F1200
G01 X9.0144 Y30.2842 Z-3.1046 F1200
G01 X9.0124 Y30.4031 Z-3.0913 F1200
G01 X9.0325 Y30.5481 Z-3.0946 F1200
G01 X9.0670 Y30.6652 Z-3.1126 F1200
G01 X9.1305 Y30.8010 Z-3.1481 F1200
G01 X9.1992 Y30.9051 Z-3.1822 F1200
G01 X9.3015 Y31.0187 Z-3.2201 F1200
G01 X9.3988 Y31.0997 Z-3.2415 F1200
G01 X9.5313 Y31.1801 Z-3.2499 F1200
G01 X9.6489 Y31.2303 Z-3.2406 F1200
G01 X9.7999 Y31.2697 Z-3.2124 F1200
G01 X9.9273 Y31.2843 Z-3.1803 F1200
G01 X10.0834 Y31.2790 Z-3.1392 F1200
G01 X10.2093 Y31.2567 Z-3.1113 F1200
G01 X10.3566 Y31.2072 Z-3.0920 F1200
G01 X10.4698 Y31.1503 Z-3.0917 F1200
G01 X10.5951 Y31.0617 Z-3.1104 F1200
G01 X10.6856 Y30.9758 Z-3.1381 F1200
G01 X10.7783 Y30.8567 Z-3.1790 F1200
G01 X10.8384 Y30.7504 Z-3.2113 F1200
G01 X10.8906 Y30.6125 Z-3.2400 F1200
G01 X10.9158 Y30.4962 Z-3.2498 F1200
G01 X10.9241 Y30.3529 Z-3.2421 F1200
G01 X10.9130 Y30.2379 Z-3.2210 F1200
G01 X10.8782 Y30.1032 Z-3.1834 F1200
G01 X10.8334 Y30.0006 Z-3.1493 F1200
G01 X10.7605 Y29.8874 Z-3.1134 F1200
G01 X10.6878 Y29.8071 Z-3.0950 F1200
G01 X10.5857 Y29.7259 Z-3.0911 F1200
G01 X10.4936 Y29.6754 Z-3.1039 F1200
G01 X10.3741 Y29.6337 Z-3.1352 F1200
G01 X10.2730 Y29.6173 Z-3.1684 F1200
G01 X10.1494 Y29.6183 Z-3.2086 F1200
G01 X10.0508 Y29.6370 Z-3.2343 F1200
G01 X9.9368 Y29.6798 Z-3.2495 F1200
G01 X9.8516 Y29.7309 Z-3.2460 F1200
G01 X9.7601 Y29.8100 Z-3.2234 F1200
G01 X9.6979 Y29.8875 Z-3.1938 F1200
G01 X9.6393 Y29.9939 Z-3.1524 F1200
G01 X9.6073 Y30.0892 Z-3.1215 F1200
G01 X9.5886 Y30.2109 Z-3.0962 F1200
G01 X9.5911 Y30.3134 Z-3.0900 F1200
G01 X9.6152 Y30.4371 Z-3.1021 F1200
G01 X9.6528 Y30.5355 Z-3.1260 F1200
G01 X9.7184 Y30.6473 Z-3.1652 F1200
G01 X9.7881 Y30.7306 Z-3.1989 F1200
G01 X9.8895 Y30.8180 Z-3.2324 F1200
G01 X9.9852 Y30.8766 Z-3.2476 F1200
G01 X10.1130 Y30.9293 Z-3.2470 F1200
G01 X10.2257 Y30.9563 Z-3.2309 F1200
G01 X10.3679 Y30.9675 Z-3.1968 F1200
G01 X10.4869 Y30.9587 Z-3.1629 F1200
G01 X10.6299 Y30.9257 Z-3.1240 F1200
G01 X10.7437 Y30.8809 Z-3.1009 F1200
G01 X10.8737 Y30.8054 Z-3.0900 F1200
G01 X10.9715 Y30.7277 Z-3.0971 F1200
G01 X11.0757 Y30.6156 Z-3.1234 F1200
G01 X11.1480 Y30.5114 Z-3.1547 F1200
G01 X11.2165 Y30.3723 Z-3.1960 F1200
G01 X11.2562 Y30.2507 Z-3.2251 F1200
G01 X11.2822 Y30.0968 Z-3.2467 F1200
G01 X11.2856 Y29.9685 Z-3.2492 F1200
G01 X11.2666 Y29.8135 Z-3.2329 F1200
G01 X11.2334 Y29.6901 Z-3.2065 F1200
G01 X11.1713 Y29.5479 Z-3.1661 F1200
G01 X11.1047 Y29.4403 Z-3.1331 F1200
G01 X11.0055 Y29.3234 Z-3.1026 F1200
G01 X10.9122 Y29.2410 Z-3.0908 F1200
G01 X10.7856 Y29.1594 Z-3.0959 F1200
G01 X10.6746 Y29.1091 Z-3.1151 F1200
G01 X10.5330 Y29.0694 Z-3.1516 F1200
G01 X10.4152 Y29.0548 Z-3.1857 F1200
G01 X10.2722 Y29.0593 Z-3.2228 F1200
G01 X10.1590 Y29.0806 Z-3.2430 F1200
G01 X10.0284 Y29.1273 Z-3.2496 F1200
G01 X9.9307 Y29.1810 Z-3.2389 F1200
G01 X9.8249 Y29.2637 Z-3.2093 F1200
G01 X9.7518 Y29.3432 Z-3.1767 F1200
G01 X9.6806 Y29.4520 Z-3.1360 F1200
G01 X9.6389 Y29.5481 Z-3.1089 F1200
G01 X9.6086 Y29.6707 Z-3.0913 F1200
G01 X9.6017 Y29.7725 Z-3.0925 F1200
G01 X9.6142 Y29.8953 Z-3.1129 F1200
G01 X9.6421 Y29.9916 Z-3.1414 F1200
G01 X9.6953 Y30.1009 Z-3.1826 F1200
G01 X9.7542 Y30.1809 Z-3.2144 F1200
G01 X9.8415 Y30.2645 Z-3.2417 F1200
G01 X9.9246 Y30.3192 Z-3.2500 F1200
G01 X10.0361 Y30.3676 Z-3.2404 F1200
G01 X10.1342 Y30.3905 Z-3.2182 F1200
G01 X10.2574 Y30.3978 Z-3.1799 F1200
G01 X10.3594 Y30.3858 Z-3.1459 F1200
G01 X10.4807 Y30.3501 Z-3.1110 F1200
G01 X10.5754 Y30.3035 Z-3.0938 F1200
G01 X10.6811 Y30.2277 Z-3.0918 F1200
G01 X10.7578 Y30.1504 Z-3.1059 F1200
G01 X10.8359 Y30.0411 Z-3.1385 F1200
G01 X10.8858 Y29.9402 Z-3.1720 F1200
G01 X10.9269 Y29.8077 Z-3.2117 F1200
G01 X10.9436 Y29.6927 Z-3.2364 F1200
G01 X10.9420 Y29.5496 Z-3.2498 F1200
G01 X10.9227 Y29.4316 Z-3.2449 F1200
G01 X10.8770 Y29.2917 Z-3.2207 F1200
G01 X10.8222 Y29.1820 Z-3.1903 F1200
G01 X10.7353 Y29.0590 Z-3.1489 F1200
G01 X10.6491 Y28.9683 Z-3.1187 F1200
G01 X10.5281 Y28.8741 Z-3.0949 F1200
G01 X10.4178 Y28.8112 Z-3.0902 F1200
G01 X10.2730 Y28.7552 Z-3.1041 F1200
G01 X10.1483 Y28.7262 Z-3.1290 F1200
G01 X9.9927 Y28.7138 Z-3.1688 F1200
G01 X9.8647 Y28.7217 Z-3.2023 F1200
G01 X9.7120 Y28.7542 Z-3.2345 F1200
G01 X9.5921 Y28.7981 Z-3.2484 F1200
G01 X9.4560 Y28.8724 Z-3.2459 F1200
G01 X9.3548 Y28.9481 Z-3.2285 F1200
G01 X9.2472 Y29.0570 Z-3.1934 F1200
G01 X9.1735 Y29.1571 Z-3.1594 F1200
G01 X9.1036 Y29.2901 Z-3.1211 F1200
G01 X9.0634 Y29.4048 Z-3.0992 F1200
G00 Z6.0000 F480


;No. 2: Hole 2
G00 X9.9733 Y149.5066 Z6.0000 F1500
G00 X10.7562 Y149.3686 Z0.5107 F480
G01 X10.7203 Y149.2347 Z0.5223 F180
G01 X10.6617 Y149.1091 Z0.5447 F180
G01 X10.5823 Y148.9956 Z0.5670 F180
G01 X10.4843 Y148.8976 Z0.5786 F180
G01 X10.3708 Y148.8182 Z0.5717 F180
G01 X10.2452 Y148.7596 Z0.5433 F180
G01 X10.1113 Y148.7237 Z0.4963 F180
G01 X9.9733 Y148.7116 Z0.4387 F180
G01 X9.8352 Y148.7237 Z0.3810 F180
G01 X9.7013 Y148.7596 Z0.3341 F180
G01 X9.5758 Y148.8182 Z0.3057 F180
G01 X9.4622 Y148.8976 Z0.2987 F180
G01 X9.3642 Y148.9956 Z0.3103 F180
G01 X9.2848 Y149.1091 Z0.3327 F180
G01 X9.2262 Y149.2347 Z0.3550 F180
G01 X9.1903 Y149.3686 Z0.3666 F180
G01 X9.1783 Y149.5066 Z0.3597 F180
G01 X9.1903 Y149.6447 Z0.3313 F180
G01 X9.2262 Y149.7785 Z0.2843 F180
G01 X9.2848 Y149.9041 Z0.2267 F180
G01 X9.3642 Y150.0177 Z0.1690 F180
G01 X9.4622 Y150.1156 Z0.1221 F180
G01 X9.5758 Y150.1951 Z0.0937 F180
G01 X9.7013 Y150.2537 Z0.0867 F180
G01 X9.8352 Y150.2896 Z0.0983 F180
G01 X9.9733 Y150.3016 Z0.1207 F180
G01 X10.1113 Y150.2896 Z0.1430 F180
G01 X10.2452 Y150.2537 Z0.1546 F180
G01 X10.2841 Y150.2383 Z0.1547 F180
G01 X10.3932 Y150.1744 Z0.1474 F180
G01 X10.4890 Y150.0902 Z0.1190 F180
G01 X10.5246 Y150.0493 Z0.1016 F180
G01 X10.5963 Y149.9418 Z0.0520 F180
G01 X10.6477 Y149.8212 Z-0.0007 F180
G01 X10.6627 Y149.7674 Z-0.0211 F180
G01 X10.6822 Y149.6355 Z-0.0597 F180
G01 X10.6778 Y149.5001 Z-0.0789 F180
G01 X10.6686 Y149.4430 Z-0.0805 F180
G01 X10.6302 Y149.3106 Z-0.0702 F180
G01 X10.5685 Y149.1846 Z-0.0452 F180
G01 X10.5359 Y149.1345 Z-0.0326 F180
G01 X10.4441 Y149.0253 Z-0.0041 F180
G01 X10.3338 Y148.9317 Z0.0138 F180
G01 X10.2825 Y148.8976 Z0.0162 F180
G01 X10.1514 Y148.8318 Z0.0066 F180
G01 X10.0097 Y148.7877 Z-0.0239 F180
G01 X9.9478 Y148.7760 Z-0.0420 F180
G01 X9.7984 Y148.7660 Z-0.0924 F180
G01 X9.6482 Y148.7801 Z-0.1448 F180
G01 X9.5857 Y148.7932 Z-0.1647 F180
G01 X9.4421 Y148.8418 Z-0.2015 F180
G01 X9.3078 Y148.9127 Z-0.2185 F180
G01 X9.2549 Y148.9488 Z-0.2191 F180
G01 X9.1405 Y149.0487 Z-0.2069 F180
G01 X9.0437 Y149.1651 Z-0.1809 F180
G01 X9.0088 Y149.2183 Z-0.1682 F180
G01 X8.9419 Y149.3532 Z-0.1403 F180
G01 X8.8978 Y149.4960 Z-0.1240 F180
G01 X8.8863 Y149.5575 Z-0.1226 F180
G01 X8.8768 Y149.7051 Z-0.1345 F180
G01 X8.8913 Y149.8505 Z-0.1670 F180
G01 X8.9045 Y149.9101 Z-0.1857 F180
G01 X8.9524 Y150.0460 Z-0.2369 F180
G01 X9.0213 Y150.1701 Z-0.2888 F180
G01 X9.0561 Y150.2179 Z-0.3082 F180
G01 X9.1514 Y150.3198 Z-0.3431 F180
G01 X9.2611 Y150.4024 Z-0.3578 F180
G01 X9.3107 Y150.4307 Z-0.3575 F180
G01 X9.4352 Y150.4825 Z-0.3434 F180
G01 X9.5647 Y150.5107 Z-0.3165 F180
G01 X9.6198 Y150.5154 Z-0.3038 F180
G01 X9.7502 Y150.5098 Z-0.2767 F180
G01 X9.8756 Y150.4806 Z-0.2621 F180
G01 X9.9259 Y150.4615 Z-0.2617 F180
G01 X10.0380 Y150.4014 Z-0.2758 F180
G01 X10.1358 Y150.3219 Z-0.3103 F180
G01 X10.1720 Y150.2832 Z-0.3296 F180
G01 X10.2450 Y150.1812 Z-0.3814 F180
G01 X10.2970 Y150.0673 Z-0.4327 F180
G01 X10.3122 Y150.0166 Z-0.4515 F180
G01 X10.3323 Y149.8928 Z-0.4845 F180
G01 X10.3284 Y149.7666 Z-0.4969 F180
G01 X10.3195 Y149.7139 Z-0.4957 F180
G01 X10.2824 Y149.5920 Z-0.4798 F180
G01 X10.2224 Y149.4780 Z-0.4521 F180
G01 X10.1906 Y149.4333 Z-0.4394 F180
G01 X10.1021 Y149.3371 Z-0.4132 F180
G01 X9.9958 Y149.2574 Z-0.4005 F180
G01 X9.9466 Y149.2295 Z-0.4009 F180
G01 X9.8216 Y149.1781 Z-0.4174 F180
G01 X9.6873 Y149.1490 Z-0.4537 F180
G01 X9.6289 Y149.1438 Z-0.4735 F180
G01 X9.4891 Y149.1485 Z-0.5258 F180
G01 X9.3499 Y149.1774 Z-0.5764 F180
G01 X9.2925 Y149.1967 Z-0.5947 F180
G01 X9.1623 Y149.2590 Z-0.6256 F180
G01 X9.0425 Y149.3430 Z-0.6357 F180
G01 X8.9961 Y149.3844 Z-0.6336 F180
G01 X8.8982 Y149.4956 Z-0.6161 F180
G01 X8.8188 Y149.6223 Z-0.5877 F180
G01 X8.7915 Y149.6795 Z-0.5751 F180
G01 X8.7432 Y149.8223 Z-0.5498 F180
G01 X8.7182 Y149.9717 Z-0.5390 F180
G01 X8.7148 Y150.0356 Z-0.5404 F180
G01 X8.7248 Y150.1871 Z-0.5592 F180
G01 X8.7588 Y150.3352 Z-0.5973 F180
G01 X8.7800 Y150.3955 Z-0.6176 F180
G01 X8.8469 Y150.5314 Z-0.6702 F180
G01 X8.9342 Y150.6543 Z-0.7201 F180
G01 X8.9765 Y150.7014 Z-0.7376 F180
G01 X9.0890 Y150.8001 Z-0.7665 F180
G01 X9.2148 Y150.8785 Z-0.7743 F180
G01 X9.2709 Y150.9050 Z-0.7714 F180
G01 X9.4099 Y150.9512 Z-0.7522 F180
G01 X9.5527 Y150.9735 Z-0.7233 F180
G01 X9.6129 Y150.9757 Z-0.7108 F180
G01 X9.7547 Y150.9635 Z-0.6867 F180
G01 X9.8902 Y150.9279 Z-0.6778 F180
G01 X9.9444 Y150.9063 Z-0.6802 F180
G01 X10.0649 Y150.8399 Z-0.7012 F180
G01 X10.1701 Y150.7549 Z-0.7410 F180
G01 X10.2091 Y150.7141 Z-0.7618 F180
G01 X10.2883 Y150.6073 Z-0.8147 F180
G01 X10.3458 Y150.4897 Z-0.8635 F180
G01 X10.3631 Y150.4379 Z-0.8804 F180
G01 X10.3882 Y150.3114 Z-0.9072 F180
G01 X10.3890 Y150.1839 Z-0.9127 F180
G01 X10.3855 Y150.1524 Z-0.9108 F180
G01 X10.3572 Y150.0292 Z-0.8927 F180
G01 X10.3062 Y149.9144 Z-0.8641 F180
G01 X10.2901 Y149.8874 Z-0.8565 F180
G01 X10.2141 Y149.7878 Z-0.8301 F180
G01 X10.1203 Y149.7047 Z-0.8170 F180
G01 X10.0944 Y149.6868 Z-0.8167 F180
G01 X9.9835 Y149.6276 Z-0.8289 F180
G01 X9.8626 Y149.5903 Z-0.8617 F180
G01 X9.8311 Y149.5845 Z-0.8726 F180
G01 X9.7037 Y149.5760 Z-0.9227 F180
G01 X9.5753 Y149.5916 Z-0.9752 F180
G01 X9.5435 Y149.5993 Z-0.9875 F180
G01 X9.4204 Y149.6441 Z-1.0278 F180
G01 X9.3057 Y149.7115 Z-1.0494 F180
G01 X9.2788 Y149.7317 Z-1.0515 F180
G01 X9.1804 Y149.8242 Z-1.0465 F180
G01 X9.0983 Y149.9344 Z-1.0248 F180
G01 X9.0807 Y149.9644 Z-1.0178 F180
G01 X9.0236 Y150.0917 Z-0.9879 F180
G01 X8.9884 Y150.2290 Z-0.9640 F180
G01 X8.9832 Y150.2645 Z-0.9601 F180
G01 X8.9778 Y150.4081 Z-0.9565 F180
G01 X8.9965 Y150.5526 Z-0.9742 F180
G01 X9.0050 Y150.5885 Z-0.9819 F180
G01 X9.0539 Y150.7275 Z-1.0232 F180
G01 X9.1254 Y150.8581 Z-1.0750 F180
G01 X9.1466 Y150.8891 Z-1.0883 F180
G01 X9.2442 Y151.0032 Z-1.1379 F180
G01 X9.3594 Y151.1008 Z-1.1740 F180
G01 X9.3907 Y151.1224 Z-1.1801 F180
G01 X9.5239 Y151.1948 Z-1.1909 F180
G01 X9.6672 Y151.2453 Z-1.1812 F180
G01 X9.7042 Y151.2543 Z-1.1761 F180
G01 X9.8547 Y151.2746 Z-1.1491 F180
G01 X10.0061 Y151.2708 Z-1.1197 F180
G01 X10.0437 Y151.2661 Z-1.1133 F180
G01 X10.1904 Y151.2317 Z-1.0961 F180
G01 X10.3288 Y151.1746 Z-1.0977 F180
G01 X10.3617 Y151.1570 Z-1.1015 F180
G01 X10.4844 Y151.0734 Z-1.1296 F180
G01 X10.5907 Y150.9721 Z-1.1745 F180
G01 X10.6144 Y150.9443 Z-1.1874 F180
G01 X10.6962 Y150.8246 Z-1.2403 F180
G01 X10.7561 Y150.6947 Z-1.2874 F180
G01 X10.7675 Y150.6611 Z-1.2970 F180
G01 X10.7981 Y150.5234 Z-1.3237 F180
G01 X10.8045 Y150.3849 Z-1.3291 F180
G01 X10.8023 Y150.3505 Z-1.3272 F180
G01 X10.7789 Y150.2160 Z-1.3089 F180
G01 X10.7329 Y150.0898 Z-1.2803 F180
G01 X10.7180 Y150.0600 Z-1.2727 F180
G01 X10.6461 Y149.9488 Z-1.2463 F180
G01 X10.5566 Y149.8541 Z-1.2333 F180
G01 X10.5318 Y149.8333 Z-1.2331 F180
G01 X10.4244 Y149.7623 Z-1.2455 F180
G01 X10.3070 Y149.7132 Z-1.2784 F180
G01 X10.2764 Y149.7045 Z-1.2893 F180
G01 X10.1519 Y149.6840 Z-1.3395 F180
G01 X10.0264 Y149.6876 Z-1.3920 F180
G01 X9.9953 Y149.6923 Z-1.4042 F180
G01 X9.8744 Y149.7249 Z-1.4444 F180
G01 X9.7619 Y149.7802 Z-1.4659 F180
G01 X9.7355 Y149.7974 Z-1.4679 F180
G01 X9.6386 Y149.8776 Z-1.4628 F180
G01 X9.5581 Y149.9755 Z-1.4410 F180
G01 X9.5408 Y150.0024 Z-1.4339 F180
G01 X9.4845 Y150.1173 Z-1.4041 F180
G01 X9.4501 Y150.2422 Z-1.3803 F180
G01 X9.4451 Y150.2746 Z-1.3764 F180
G01 X9.4397 Y150.4057 Z-1.3729 F180
G01 X9.4584 Y150.5377 Z-1.3908 F180
G01 X9.4669 Y150.5704 Z-1.3985 F180
G01 X9.5151 Y150.6970 Z-1.4400 F180
G01 X9.5858 Y150.8151 Z-1.4917 F180
G01 X9.6069 Y150.8429 Z-1.5051 F180
G01 X9.7029 Y150.9445 Z-1.5546 F180
G01 X9.8166 Y151.0296 Z-1.5906 F180
G01 X9.8475 Y151.0480 Z-1.5967 F180
G01 X9.9784 Y151.1080 Z-1.6073 F180
G01 X10.1194 Y151.1461 Z-1.5974 F180
G01 X10.1558 Y151.1520 Z-1.5923 F180
G01 X10.2829 Y151.1775 Z-1.5653 F180
G01 X10.4109 Y151.1788 Z-1.5359 F180
G01 X10.4426 Y151.1754 Z-1.5295 F180
G01 X10.5654 Y151.1463 Z-1.5124 F180
G01 X10.6796 Y151.0945 Z-1.5142 F180
G01 X10.7065 Y151.0782 Z-1.5180 F180
G01 X10.8045 Y151.0001 Z-1.5463 F180
G01 X10.8860 Y150.9043 Z-1.5912 F180
G01 X10.9035 Y150.8779 Z-1.6041 F180
G01 X10.9601 Y150.7637 Z-1.6571 F180
G01 X10.9948 Y150.6395 Z-1.7041 F180
G01 X10.9999 Y150.6073 Z-1.7137 F180
G01 X11.0048 Y150.4754 Z-1.7402 F180
G01 X10.9856 Y150.3427 Z-1.7454 F180
G01 X10.9770 Y150.3098 Z-1.7435 F180
G01 X10.9277 Y150.1811 Z-1.7251 F180
G01 X10.8558 Y150.0609 Z-1.6964 F180
G01 X10.8344 Y150.0326 Z-1.6889 F180
G01 X10.7365 Y149.9274 Z-1.6626 F180
G01 X10.6209 Y149.8387 Z-1.6497 F180
G01 X10.5895 Y149.8194 Z-1.6495 F180
G01 X10.4561 Y149.7544 Z-1.6620 F180
G01 X10.3125 Y149.7114 Z-1.6951 F180
G01 X10.2755 Y149.7043 Z-1.7061 F180
G01 X10.1248 Y149.6898 Z-1.7563 F180
G01 X9.9733 Y149.6996 Z-1.8087 F180
G01 X9.9358 Y149.7058 Z-1.8209 F180
G01 X9.7890 Y149.7445 Z-1.8611 F180
G01 X9.6506 Y149.8058 Z-1.8824 F180
G01 X9.6177 Y149.8245 Z-1.8843 F180
G01 X9.4952 Y149.9107 Z-1.8791 F180
G01 X9.3890 Y150.0146 Z-1.8572 F180
G01 X9.3654 Y150.0430 Z-1.8501 F180
G01 X9.2837 Y150.1637 Z-1.8203 F180
G01 X9.2240 Y150.2945 Z-1.7965 F180
G01 X9.2127 Y150.3283 Z-1.7927 F180
G01 X9.1824 Y150.4652 Z-1.7894 F180
G01 X9.1763 Y150.6029 Z-1.8074 F180
G01 X9.1785 Y150.6370 Z-1.8151 F180
G01 X9.2022 Y150.7691 Z-1.8567 F180
G01 X9.2486 Y150.8927 Z-1.9085 F180
G01 X9.2635 Y150.9219 Z-1.9219 F180
G01 X9.3356 Y151.0289 Z-1.9713 F180
G01 X9.4254 Y151.1193 Z-2.0072 F180
G01 X9.4503 Y151.1391 Z-2.0132 F180
G01 X9.5579 Y151.2043 Z-2.0237 F180
G01 X9.6755 Y151.2475 Z-2.0137 F180
G01 X9.7061 Y151.2547 Z-2.0085 F180
G01 X9.8309 Y151.2677 Z-1.9814 F180
G01 X9.9565 Y151.2566 Z-1.9521 F180
G01 X9.9876 Y151.2501 Z-1.9457 F180
G01 X10.1086 Y151.2084 Z-1.9288 F180
G01 X10.2211 Y151.1442 Z-1.9307 F180
G01 X10.2476 Y151.1247 Z-1.9345 F180
G01 X10.3445 Y151.0340 Z-1.9629 F180
G01 X10.4250 Y150.9257 Z-2.0080 F180
G01 X10.4423 Y150.8961 Z-2.0209 F180
G01 X10.4986 Y150.7694 Z-2.0739 F180
G01 X10.5330 Y150.6326 Z-2.1207 F180
G01 X10.5380 Y150.5973 Z-2.1303 F180
G01 X10.5434 Y150.4529 Z-2.1567 F180
G01 X10.5247 Y150.3077 Z-2.1618 F180
G01 X10.5162 Y150.2717 Z-2.1598 F180
G01 X10.4681 Y150.1306 Z-2.1413 F180
G01 X10.3974 Y149.9981 Z-2.1126 F180
G01 X10.3763 Y149.9666 Z-2.1051 F180
G01 X10.2804 Y149.8493 Z-2.0788 F180
G01 X10.1668 Y149.7484 Z-2.0661 F180
G01 X10.1360 Y149.7261 Z-2.0659 F180
G01 X10.0053 Y149.6491 Z-2.0786 F180
G01 X9.8646 Y149.5941 Z-2.1118 F180
G01 X9.8283 Y149.5839 Z-2.1228 F180
G01 X9.6812 Y149.5577 Z-2.1730 F180
G01 X9.5334 Y149.5556 Z-2.2255 F180
G01 X9.4967 Y149.5589 Z-2.2377 F180
G01 X9.3543 Y149.5860 Z-2.2777 F180
G01 X9.2203 Y149.6358 Z-2.2988 F180
G01 X9.1885 Y149.6516 Z-2.3008 F180
G01 X9.0711 Y149.7265 Z-2.2954 F180
G01 X8.9702 Y149.8191 Z-2.2734 F180
G01 X8.9478 Y149.8446 Z-2.2663 F180
G01 X8.8720 Y149.9543 Z-2.2365 F180
G01 X8.8182 Y150.0740 Z-2.2128 F180
G01 X8.8084 Y150.1051 Z-2.2090 F180
G01 X8.7847 Y150.2313 Z-2.2058 F180
G01 X8.7851 Y150.3582 Z-2.2240 F180
G01 X8.7925 Y150.4109 Z-2.2378 F180
G01 X8.8274 Y150.5314 Z-2.2818 F180
G01 X8.8847 Y150.6428 Z-2.3344 F180
G01 X8.9151 Y150.6860 Z-2.3564 F180
G01 X9.0015 Y150.7776 Z-2.4022 F180
G01 X9.1045 Y150.8517 Z-2.4316 F180
G01 X9.1521 Y150.8771 Z-2.4378 F180
G01 X9.2738 Y150.9216 Z-2.4372 F180
G01 X9.4035 Y150.9433 Z-2.4185 F180
G01 X9.4596 Y150.9454 Z-2.4070 F180
G01 X9.5944 Y150.9328 Z-2.3772 F180
G01 X9.7272 Y150.8962 Z-2.3527 F180
G01 X9.7815 Y150.8737 Z-2.3465 F180
G01 X9.9051 Y150.8041 Z-2.3455 F180
G01 X10.0170 Y150.7134 Z-2.3659 F180
G01 X10.0597 Y150.6694 Z-2.3805 F180
G01 X10.1499 Y150.5527 Z-2.4260 F180
G01 X10.2206 Y150.4216 Z-2.4788 F180
G01 X10.2441 Y150.3629 Z-2.5006 F180
G01 X10.2845 Y150.2174 Z-2.5450 F180
G01 X10.3014 Y150.0667 Z-2.5723 F180
G01 X10.3013 Y150.0027 Z-2.5775 F180
G01 X10.2847 Y149.8517 Z-2.5748 F180
G01 X10.2445 Y149.7056 Z-2.5546 F180
G01 X10.2208 Y149.6466 Z-2.5427 F180
G01 X10.1501 Y149.5144 Z-2.5129 F180
G01 X10.0599 Y149.3964 Z-2.4897 F180
G01 X10.0167 Y149.3517 Z-2.4843 F180
G01 X9.9044 Y149.2593 Z-2.4855 F180
G01 X9.7801 Y149.1878 Z-2.5081 F180
G01 X9.7251 Y149.1644 Z-2.5235 F180
G01 X9.5912 Y149.1257 Z-2.5702 F180
G01 X9.4549 Y149.1110 Z-2.6232 F180
G01 X9.3979 Y149.1121 Z-2.6447 F180
G01 X9.2663 Y149.1316 Z-2.6876 F180
G01 X9.1425 Y149.1741 Z-2.7128 F180
G01 X9.0936 Y149.1985 Z-2.7170 F180
G01 X8.9881 Y149.2707 Z-2.7122 F180
G01 X8.8991 Y149.3606 Z-2.6905 F180
G01 X8.8672 Y149.4030 Z-2.6784 F180
G01 X8.8070 Y149.5129 Z-2.6488 F180
G01 X8.7690 Y149.6323 Z-2.6268 F180
G01 X8.7600 Y149.6844 Z-2.6222 F180
G01 X8.7565 Y149.8106 Z-2.6256 F180
G01 X8.7772 Y149.9363 Z-2.6505 F180
G01 X8.7930 Y149.9880 Z-2.6666 F180
G01 X8.8478 Y150.1062 Z-2.7145 F180
G01 X8.9244 Y150.2140 Z-2.7675 F180
G01 X8.9627 Y150.2554 Z-2.7886 F180
G01 X9.0673 Y150.3427 Z-2.8300 F180
G01 X9.1875 Y150.4116 Z-2.8530 F180
G01 X9.2420 Y150.4345 Z-2.8563 F180
G01 X9.3791 Y150.4738 Z-2.8494 F180
G01 X9.5230 Y150.4898 Z-2.8264 F180
G01 X9.5846 Y150.4894 Z-2.8140 F180
G01 X9.7316 Y150.4717 Z-2.7847 F180
G01 X9.8752 Y150.4302 Z-2.7642 F180
G01 X9.9336 Y150.4057 Z-2.7604 F180
G01 X10.0660 Y150.3326 Z-2.7661 F180
G01 X10.1855 Y150.2390 Z-2.7930 F180
G01 X10.2312 Y150.1941 Z-2.8100 F180
G01 X10.3273 Y150.0766 Z-2.8589 F180
G01 X10.4033 Y149.9458 Z-2.9117 F180
G01 X10.4288 Y149.8876 Z-2.9325 F180
G01 X10.4734 Y149.7450 Z-2.9722 F180
G01 X10.4942 Y149.5984 Z-2.9930 F180
G01 X10.4957 Y149.5366 Z-2.9953 F180
G01 X10.4828 Y149.3924 Z-2.9863 F180
G01 X10.4466 Y149.2544 Z-2.9621 F180
G01 X10.4246 Y149.1992 Z-2.9496 F180
G01 X10.3583 Y149.0775 Z-2.9207 F180
G01 X10.2732 Y148.9711 Z-2.9017 F180
G01 X10.2325 Y148.9316 Z-2.8988 F180
G01 X10.1264 Y148.8527 Z-2.9067 F180
G01 X10.0095 Y148.7954 Z-2.9358 F180
G01 X9.9579 Y148.7781 Z-2.9534 F180
G01 X9.8327 Y148.7548 Z-3.0033 F180
G01 X9.7065 Y148.7556 Z-3.0559 F180
G01 X9.6540 Y148.7631 Z-3.0762 F180
G01 X9.5339 Y148.7985 Z-3.1142 F180
G01 X9.4227 Y148.8563 Z-3.1328 F180
G01 X9.3795 Y148.8870 Z-3.1341 F180
G01 X9.2877 Y148.9741 Z-3.1232 F180
G01 X9.2132 Y149.0780 Z-3.0979 F180
G01 X9.1877 Y149.1261 Z-3.0852 F180
G01 X9.1426 Y149.2490 Z-3.0569 F180
G01 X9.1202 Y149.3800 Z-3.0395 F180
G01 X9.1179 Y149.4367 Z-3.0374 F180
G01 X9.1296 Y149.5733 Z-3.0477 F180
G01 X9.1654 Y149.7080 Z-3.0788 F180
G01 X9.1876 Y149.7631 Z-3.0971 F180
G01 X9.2564 Y149.8889 Z-3.1477 F180
G01 X9.3464 Y150.0032 Z-3.2000 F180
G01 X9.3901 Y150.0470 Z-3.2198 F180
G01 X9.4752 Y150.1416 Z-3.2444 F1200
G01 X9.5571 Y150.2056 Z-3.2499 F1200
G01 X9.6663 Y150.2644 Z-3.2368 F1200
G01 X9.7631 Y150.2958 Z-3.2121 F1200
G01 X9.8838 Y150.3131 Z-3.1724 F1200
G01 X9.9843 Y150.3091 Z-3.1385 F1200
G01 X10.1026 Y150.2835 Z-3.1060 F1200
G01 X10.1953 Y150.2448 Z-3.0917 F1200
G01 X10.2974 Y150.1794 Z-3.0939 F1200
G01 X10.3716 Y150.1102 Z-3.1115 F1200
G01 X10.4457 Y150.0122 Z-3.1466 F1200
G01 X10.4925 Y149.9200 Z-3.1810 F1200
G01 X10.5295 Y149.8000 Z-3.2191 F1200
G01 X10.5429 Y149.6947 Z-3.2411 F1200
G01 X10.5376 Y149.5657 Z-3.2499 F1200
G01 X10.5149 Y149.4586 Z-3.2408 F1200
G01 X10.4663 Y149.3344 Z-3.2128 F1200
G01 X10.4087 Y149.2372 Z-3.1803 F1200
G01 X10.3204 Y149.1314 Z-3.1393 F1200
G01 X10.2324 Y149.0546 Z-3.1110 F1200
G01 X10.1119 Y148.9790 Z-3.0919 F1200
G01 X10.0015 Y148.9314 F1200
G01 X9.8598 Y148.8948 Z-3.1109 F1200
G01 X9.7369 Y148.8820 Z-3.1391 F1200
G01 X9.5871 Y148.8893 Z-3.1802 F1200
G01 X9.4634 Y148.9137 Z-3.2126 F1200
G01 X9.3195 Y148.9655 Z-3.2408 F1200
G01 X9.2065 Y149.0258 Z-3.2499 F1200
G01 X9.0821 Y149.1182 Z-3.2412 F1200
G01 X8.9903 Y149.2094 Z-3.2192 F1200
G01 X8.8972 Y149.3345 Z-3.1811 F1200
G01 X8.8352 Y149.4485 Z-3.1467 F1200
G01 X8.7817 Y149.5953 Z-3.1116 F1200
G01 X8.7551 Y149.7218 Z-3.0940 F1200
G01 X8.7462 Y149.8768 Z-3.0917 F1200
G01 X8.7570 Y150.0044 Z-3.1059 F1200
G01 X8.7928 Y150.1536 Z-3.1384 F1200
G01 X8.8395 Y150.2707 Z-3.1723 F1200
G01 X8.9158 Y150.4006 Z-3.2119 F1200
G01 X8.9933 Y150.4967 Z-3.2367 F1200
G01 X9.1021 Y150.5958 Z-3.2499 F1200
G01 X9.2021 Y150.6625 Z-3.2445 F1200
G01 X9.3320 Y150.7226 Z-3.2199 F1200
G01 X9.4442 Y150.7546 Z-3.1889 F1200
G01 X9.5820 Y150.7712 Z-3.1475 F1200
G01 X9.6948 Y150.7667 Z-3.1173 F1200
G01 X9.8264 Y150.7398 Z-3.0943 F1200
G01 X9.9284 Y150.7006 Z-3.0905 F1200
G01 X10.0406 Y150.6347 Z-3.1054 F1200
G01 X10.1215 Y150.5663 Z-3.1313 F1200
G01 X10.2030 Y150.4698 Z-3.1714 F1200
G01 X10.2548 Y150.3804 Z-3.2050 F1200
G01 X10.2976 Y150.2647 Z-3.2363 F1200
G01 X10.3152 Y150.1648 Z-3.2490 F1200
G01 X10.3154 Y150.0433 Z-3.2448 F1200
G01 X10.2974 Y149.9444 Z-3.2258 F1200
G01 X10.2555 Y149.8310 Z-3.1897 F1200
G01 X10.2040 Y149.7446 Z-3.1552 F1200
G01 X10.1247 Y149.6524 Z-3.1179 F1200
G01 X10.0455 Y149.5883 Z-3.0972 F1200
G01 X9.9377 Y149.5282 Z-3.0904 F1200
G01 X9.8393 Y149.4944 Z-3.1010 F1200
G01 X9.7145 Y149.4740 Z-3.1305 F1200
G01 X9.6076 Y149.4751 Z-3.1635 F1200
G01 X9.4794 Y149.4980 Z-3.2043 F1200
G01 X9.3755 Y149.5351 Z-3.2315 F1200
G01 X9.2578 Y149.6002 Z-3.2488 F1200
G01 X9.1683 Y149.6708 Z-3.2472 F1200
G01 X9.0741 Y149.7730 Z-3.2264 F1200
G01 X9.0088 Y149.8709 Z-3.1973 F1200
G01 X8.9489 Y150.0011 Z-3.1560 F1200
G01 X8.9155 Y150.1176 Z-3.1242 F1200
G01 X8.8970 Y150.2638 Z-3.0975 F1200
G01 X8.8998 Y150.3880 Z-3.0900 F1200
G01 X8.9260 Y150.5365 Z-3.1006 F1200
G01 X8.9659 Y150.6568 Z-3.1239 F1200
G01 X9.0355 Y150.7936 Z-3.1627 F1200
G01 X9.1096 Y150.8986 Z-3.1969 F1200
G01 X9.2170 Y151.0108 Z-3.2310 F1200
G01 X9.3189 Y151.0907 Z-3.2471 F1200
G01 X9.4547 Y151.1678 Z-3.2474 F1200
G01 X9.5755 Y151.2152 Z-3.2317 F1200
G01 X9.7276 Y151.2501 Z-3.1980 F1200
G01 X9.8562 Y151.2608 Z-3.1639 F1200
G01 X10.0107 Y151.2505 Z-3.1248 F1200
G01 X10.1356 Y151.2239 Z-3.1012 F1200
G01 X10.2785 Y151.1701 Z-3.0900 F1200
G01 X10.3883 Y151.1094 Z-3.0970 F1200
G01 X10.5069 Y151.0178 Z-3.1232 F1200
G01 X10.5919 Y150.9295 Z-3.1549 F1200
G01 X10.6759 Y150.8098 Z-3.1962 F1200
G01 X10.7288 Y150.7029 Z-3.2256 F1200
G01 X10.7713 Y150.5673 Z-3.2469 F1200
G01 X10.7884 Y150.4529 Z-3.2490 F1200
G01 X10.7868 Y150.3153 Z-3.2323 F1200
G01 X10.7676 Y150.2050 Z-3.2053 F1200
G01 X10.7239 Y150.0792 Z-3.1647 F1200
G01 X10.6718 Y149.9841 Z-3.1316 F1200
G01 X10.5920 Y149.8827 Z-3.1016 F1200
G01 X10.5137 Y149.8124 Z-3.0905 F1200
G01 X10.4077 Y149.7454 Z-3.0967 F1200
G01 X10.3125 Y149.7067 Z-3.1170 F1200
G01 X10.1925 Y149.6805 Z-3.1541 F1200
G01 X10.0915 Y149.6770 Z-3.1886 F1200
G01 X9.9715 Y149.6938 Z-3.2250 F1200
G01 X9.8762 Y149.7255 Z-3.2443 F1200
G01 X9.7697 Y149.7830 Z-3.2492 F1200
G01 X9.6912 Y149.8462 Z-3.2369 F1200
G01 X9.6107 Y149.9379 Z-3.2060 F1200
G01 X9.5581 Y150.0257 Z-3.1726 F1200
G01 X9.5133 Y150.1414 Z-3.1323 F1200
G01 X9.4932 Y150.2442 Z-3.1061 F1200
G01 X9.4900 Y150.3715 Z-3.0906 F1200
G01 X9.5057 Y150.4781 Z-3.0939 F1200
G01 X9.5458 Y150.6031 Z-3.1164 F1200
G01 X9.5969 Y150.7020 Z-3.1464 F1200
G01 X9.6777 Y150.8109 Z-3.1878 F1200
G01 X9.7600 Y150.8912 Z-3.2190 F1200
G01 X9.8745 Y150.9719 Z-3.2440 F1200
G01 X9.9809 Y151.0245 Z-3.2499 F1200
G01 X10.1187 Y151.0676 Z-3.2374 F1200
G01 X10.2393 Y151.0860 Z-3.2129 F1200
G01 X10.3876 Y151.0859 Z-3.1734 F1200
G01 X10.5112 Y151.0673 Z-3.1395 F1200
G01 X10.6560 Y151.0225 Z-3.1066 F1200
G01 X10.7709 Y150.9677 Z-3.0919 F1200
G01 X10.8984 Y150.8813 Z-3.0936 F1200
G01 X10.9937 Y150.7946 Z-3.1108 F1200
G01 X11.0920 Y150.6739 Z-3.1456 F1200
G01 X11.1587 Y150.5627 Z-3.1800 F1200
G01 X11.2184 Y150.4183 Z-3.2183 F1200
G01 X11.2506 Y150.2928 Z-3.2407 F1200
G01 X11.2663 Y150.1377 Z-3.2499 F1200
G01 X11.2610 Y150.0091 Z-3.2413 F1200
G01 X11.2317 Y149.8574 Z-3.2136 F1200
G01 X11.1900 Y149.7374 Z-3.1813 F1200
G01 X11.1191 Y149.6028 Z-3.1402 F1200
G01 X11.0454 Y149.5021 Z-3.1117 F1200
G01 X10.9403 Y149.3966 Z-3.0921 F1200
G01 X10.8425 Y149.3240 Z-3.0917 F1200
G01 X10.7140 Y149.2564 Z-3.1102 F1200
G01 X10.6021 Y149.2179 Z-3.1382 F1200
G01 X10.4633 Y149.1935 Z-3.1792 F1200
G01 X10.3486 Y149.1915 Z-3.2118 F1200
G01 X10.2135 Y149.2110 Z-3.2403 F1200
G01 X10.1076 Y149.2443 Z-3.2498 F1200
G01 X9.9898 Y149.3039 Z-3.2417 F1200
G01 X9.9033 Y149.3678 Z-3.2200 F1200
G01 X9.8144 Y149.4599 Z-3.1821 F1200
G01 X9.7558 Y149.5465 Z-3.1477 F1200
G01 X9.7044 Y149.6601 Z-3.1123 F1200
G01 X9.6794 Y149.7592 Z-3.0943 F1200
G01 X9.6702 Y149.8811 Z-3.0915 F1200
G01 X9.6809 Y149.9813 Z-3.1053 F1200
G01 X9.7143 Y150.0977 Z-3.1374 F1200
G01 X9.7591 Y150.1876 Z-3.1712 F1200
G01 X9.8311 Y150.2850 Z-3.2111 F1200
G01 X9.9049 Y150.3541 Z-3.2362 F1200
G01 X10.0073 Y150.4213 Z-3.2498 F1200
G01 X10.1020 Y150.4614 Z-3.2448 F1200
G01 X10.2236 Y150.4900 Z-3.2207 F1200
G01 X10.3288 Y150.4959 Z-3.1899 F1200
G01 X10.4564 Y150.4816 Z-3.1485 F1200
G01 X10.5607 Y150.4515 Z-3.1180 F1200
G01 X10.6802 Y150.3945 Z-3.0946 F1200
G01 X10.7722 Y150.3302 Z-3.0904 F1200
G01 X10.8704 Y150.2350 Z-3.1048 F1200
G01 X10.9399 Y150.1421 Z-3.1304 F1200
G01 X11.0056 Y150.0171 Z-3.1704 F1200
G01 X11.0444 Y149.9040 Z-3.2041 F1200
G01 X11.0697 Y149.7608 Z-3.2357 F1200
G01 X11.0728 Y149.6380 Z-3.2488 F1200
G01 X11.0538 Y149.4900 Z-3.2451 F1200
G01 X11.0197 Y149.3691 Z-3.2265 F1200
G01 X10.9568 Y149.2304 Z-3.1907 F1200
G01 X10.8879 Y149.1228 Z-3.1562 F1200
G01 X10.7860 Y149.0066 Z-3.1187 F1200
G01 X10.6879 Y148.9226 Z-3.0976 F1200
G01 X10.5558 Y148.8399 Z-3.0903 F1200
G01 X10.4372 Y148.7873 Z-3.1005 F1200
G01 X10.2865 Y148.7459 Z-3.1297 F1200
G01 X10.1581 Y148.7296 Z-3.1625 F1200
G01 X10.0026 Y148.7332 Z-3.2033 F1200
G01 X9.8759 Y148.7543 Z-3.2309 F1200
G01 X9.7296 Y148.8021 Z-3.2487 F1200
G01 X9.6162 Y148.8582 Z-3.2475 F1200
G01 X9.4921 Y148.9450 Z-3.2271 F1200
G01 X9.4020 Y149.0302 Z-3.1982 F1200
G01 X9.3112 Y149.1471 Z-3.1570 F1200
G01 X9.2520 Y149.2526 Z-3.1250 F1200
G01 X9.2018 Y149.3876 Z-3.0979 F1200
G01 X9.1783 Y149.5027 Z-3.0900 F1200
G00 Z6.0000 F480


;No. 3: Hole 1
G00 X10.0000 Y269.5084 Z6.0000 F1500
G00 X10.7829 Y269.3704 Z0.5107 F480
G01 X10.7471 Y269.2365 Z0.5223 F180
G01 X10.6885 Y269.1109 Z0.5447 F180
G01 X10.6090 Y268.9974 Z0.5670 F180
G01 X10.5110 Y268.8994 Z0.5786 F180
G01 X10.3975 Y268.8199 Z0.5717 F180
G01 X10.2719 Y268.7614 Z0.5433 F180
G01 X10.1381 Y268.7255 Z0.4963 F180
G01 X10.0000 Y268.7134 Z0.4387 F180
G01 X9.8619 Y268.7255 Z0.3810 F180
G01 X9.7281 Y268.7614 Z0.3341 F180
G01 X9.6025 Y268.8199 Z0.3057 F180
G01 X9.4890 Y268.8994 Z0.2987 F180
G01 X9.3910 Y268.9974 Z0.3103 F180
G01 X9.3115 Y269.1109 Z0.3327 F180
G01 X9.2529 Y269.2365 Z0.3550 F180
G01 X9.2171 Y269.3704 Z0.3666 F180
G01 X9.2050 Y269.5084 Z0.3597 F180
G01 X9.2171 Y269.6465 Z0.3313 F180
G01 X9.2529 Y269.7803 Z0.2843 F180
G01 X9.3115 Y269.9059 Z0.2267 F180
G01 X9.3910 Y270.0195 Z0.1690 F180
G01 X9.4890 Y270.1174 Z0.1221 F180
G01 X9.6025 Y270.1969 Z0.0937 F180
G01 X9.7281 Y270.2555 Z0.0867 F180
G01 X9.8619 Y270.2914 Z0.0983 F180
G01 X10.0000 Y270.3034 Z0.1207 F180
G01 X10.1381 Y270.2914 Z0.1430 F180
G01 X10.2719 Y270.2555 Z0.1546 F180
G01 X10.3109 Y270.2401 Z0.1547 F180
G01 X10.4199 Y270.1755 Z0.1474 F180
G01 X10.5157 Y270.0906 Z0.1190 F180
G01 X10.5503 Y270.0506 Z0.1021 F180
G01 X10.6221 Y269.9425 Z0.0526 F180
G01 X10.6737 Y269.8214 Z-0.0001 F180
G01 X10.6884 Y269.7689 Z-0.0200 F180
G01 X10.7083 Y269.6365 Z-0.0589 F180
G01 X10.7043 Y269.5004 Z-0.0787 F180
G01 X10.6957 Y269.4447 Z-0.0805 F180
G01 X10.6580 Y269.3114 Z-0.0709 F180
G01 X10.5969 Y269.1844 Z-0.0463 F180
G01 X10.5656 Y269.1353 Z-0.0341 F180
G01 X10.4746 Y269.0247 Z-0.0053 F180
G01 X10.3649 Y268.9296 Z0.0133 F180
G01 X10.3153 Y268.8958 Z0.0160 F180
G01 X10.1847 Y268.8280 Z0.0078 F180
G01 X10.0433 Y268.7818 Z-0.0215 F180
G01 X9.9833 Y268.7696 Z-0.0386 F180
G01 X9.8337 Y268.7571 Z-0.0885 F180
G01 X9.6831 Y268.7688 Z-0.1411 F180
G01 X9.6222 Y268.7805 Z-0.1608 F180
G01 X9.4777 Y268.8264 Z-0.1991 F180
G01 X9.3420 Y268.8949 Z-0.2179 F180
G01 X9.2900 Y268.9289 Z-0.2193 F180
G01 X9.1737 Y269.0264 Z-0.2088 F180
G01 X9.0746 Y269.1407 Z-0.1838 F180
G01 X9.0397 Y269.1915 Z-0.1715 F180
G01 X8.9699 Y269.3247 Z-0.1430 F180
G01 X8.9227 Y269.4662 Z-0.1250 F180
G01 X8.9103 Y269.5256 Z-0.1227 F180
G01 X8.8973 Y269.6726 Z-0.1319 F180
G01 X8.9084 Y269.8180 Z-0.1620 F180
G01 X8.9198 Y269.8760 Z-0.1794 F180
G01 X8.9641 Y270.0127 Z-0.2297 F180
G01 X9.0299 Y270.1380 Z-0.2821 F180
G01 X9.0623 Y270.1852 Z-0.3016 F180
G01 X9.1547 Y270.2893 Z-0.3391 F180
G01 X9.2619 Y270.3744 Z-0.3570 F180
G01 X9.3092 Y270.4031 Z-0.3581 F180
G01 X9.4319 Y270.4582 Z-0.3468 F180
G01 X9.5603 Y270.4898 Z-0.3213 F180
G01 X9.6136 Y270.4957 Z-0.3090 F180
G01 X9.7438 Y270.4939 Z-0.2807 F180
G01 X9.8697 Y270.4683 Z-0.2634 F180
G01 X9.9190 Y270.4512 Z-0.2614 F180
G01 X10.0327 Y270.3946 Z-0.2716 F180
G01 X10.1329 Y270.3181 Z-0.3026 F180
G01 X10.1691 Y270.2817 Z-0.3203 F180
G01 X10.2454 Y270.1822 Z-0.3708 F180
G01 X10.3010 Y270.0700 Z-0.4231 F180
G01 X10.3174 Y270.0214 Z-0.4424 F180
G01 X10.3419 Y269.8982 Z-0.4792 F180
G01 X10.3423 Y269.7719 Z-0.4961 F180
G01 X10.3356 Y269.7204 Z-0.4968 F180
G01 X10.3030 Y269.5971 Z-0.4847 F180
G01 X10.2472 Y269.4808 Z-0.4588 F180
G01 X10.2181 Y269.4361 Z-0.4465 F180
G01 X10.1334 Y269.3364 Z-0.4184 F180
G01 X10.0303 Y269.2524 Z-0.4018 F180
G01 X9.9836 Y269.2233 Z-0.4002 F180
G01 X9.8608 Y269.1665 Z-0.4113 F180
G01 X9.7277 Y269.1316 Z-0.4432 F180
G01 X9.6713 Y269.1240 Z-0.4611 F180
G01 X9.5313 Y269.1224 Z-0.5120 F180
G01 X9.3909 Y269.1450 Z-0.5641 F180
G01 X9.3343 Y269.1611 Z-0.5832 F180
G01 X9.2012 Y269.2171 Z-0.6192 F180
G01 X9.0775 Y269.2954 Z-0.6351 F180
G01 X9.0305 Y269.3334 Z-0.6354 F180
G01 X8.9271 Y269.4395 Z-0.6226 F180
G01 X8.8415 Y269.5622 Z-0.5963 F180
G01 X8.8122 Y269.6163 Z-0.5839 F180
G01 X8.7566 Y269.7564 Z-0.5562 F180
G01 X8.7238 Y269.9042 Z-0.5403 F180
G01 X8.7172 Y269.9660 Z-0.5390 F180
G01 X8.7191 Y270.1179 Z-0.5511 F180
G01 X8.7450 Y270.2675 Z-0.5838 F180
G01 X8.7624 Y270.3271 Z-0.6020 F180
G01 X8.8216 Y270.4666 Z-0.6531 F180
G01 X8.9019 Y270.5942 Z-0.7050 F180
G01 X8.9403 Y270.6422 Z-0.7239 F180
G01 X9.0470 Y270.7472 Z-0.7591 F180
G01 X9.1680 Y270.8328 Z-0.7741 F180
G01 X9.2209 Y270.8617 F180
G01 X9.3569 Y270.9161 Z-0.7604 F180
G01 X9.4982 Y270.9470 Z-0.7338 F180
G01 X9.5565 Y270.9527 Z-0.7214 F180
G01 X9.6988 Y270.9493 Z-0.6940 F180
G01 X9.8364 Y270.9223 Z-0.6788 F180
G01 X9.8902 Y270.9047 Z-0.6779 F180
G01 X10.0149 Y270.8461 Z-0.6909 F180
G01 X10.1256 Y270.7680 Z-0.7245 F180
G01 X10.1660 Y270.7310 Z-0.7429 F180
G01 X10.2522 Y270.6296 Z-0.7943 F180
G01 X10.3176 Y270.5160 Z-0.8460 F180
G01 X10.3379 Y270.4670 Z-0.8646 F180
G01 X10.3717 Y270.3424 Z-0.8990 F180
G01 X10.3816 Y270.2152 Z-0.9131 F180
G01 X10.3801 Y270.1816 Z-0.9132 F180
G01 X10.3602 Y270.0567 Z-0.9013 F180
G01 X10.3172 Y269.9387 Z-0.8755 F180
G01 X10.3021 Y269.9091 Z-0.8676 F180
G01 X10.2327 Y269.8048 Z-0.8387 F180
G01 X10.1445 Y269.7157 Z-0.8197 F180
G01 X10.1185 Y269.6951 Z-0.8175 F180
G01 X10.0115 Y269.6291 Z-0.8221 F180
G01 X9.8932 Y269.5843 Z-0.8481 F180
G01 X9.8604 Y269.5763 Z-0.8581 F180
G01 X9.7338 Y269.5601 Z-0.9049 F180
G01 X9.6048 Y269.5681 Z-0.9579 F180
G01 X9.5708 Y269.5742 Z-0.9715 F180
G01 X9.4454 Y269.6119 Z-1.0165 F180
G01 X9.3272 Y269.6726 Z-1.0448 F180
G01 X9.2975 Y269.6924 Z-1.0487 F180
G01 X9.1943 Y269.7794 Z-1.0502 F180
G01 X9.1065 Y269.8849 Z-1.0329 F180
G01 X9.0862 Y269.9156 Z-1.0261 F180
G01 X9.0226 Y270.0397 Z-0.9966 F180
G01 X8.9804 Y270.1750 Z-0.9698 F180
G01 X8.9730 Y270.2122 Z-0.9645 F180
G01 X8.9606 Y270.3553 Z-0.9554 F180
G01 X8.9721 Y270.5006 Z-0.9670 F180
G01 X8.9793 Y270.5388 Z-0.9737 F180
G01 X9.0216 Y270.6800 Z-1.0107 F180
G01 X9.0869 Y270.8138 Z-1.0607 F180
G01 X9.1078 Y270.8475 Z-1.0748 F180
G01 X9.2002 Y270.9658 Z-1.1262 F180
G01 X9.3110 Y271.0685 Z-1.1666 F180
G01 X9.3430 Y271.0927 Z-1.1743 F180
G01 X9.4731 Y271.1707 Z-1.1903 F180
G01 X9.6141 Y271.2272 Z-1.1852 F180
G01 X9.6528 Y271.2383 Z-1.1807 F180
G01 X9.8023 Y271.2646 Z-1.1558 F180
G01 X9.9537 Y271.2669 Z-1.1260 F180
G01 X9.9936 Y271.2634 Z-1.1187 F180
G01 X10.1415 Y271.2345 Z-1.0984 F180
G01 X10.2819 Y271.1827 Z-1.0956 F180
G01 X10.3172 Y271.1654 Z-1.0984 F180
G01 X10.4427 Y271.0862 Z-1.1225 F180
G01 X10.5524 Y270.9888 Z-1.1647 F180
G01 X10.5784 Y270.9603 Z-1.1779 F180
G01 X10.6640 Y270.8434 Z-1.2308 F180
G01 X10.7280 Y270.7157 Z-1.2797 F180
G01 X10.7411 Y270.6806 Z-1.2906 F180
G01 X10.7758 Y270.5441 Z-1.3206 F180
G01 X10.7863 Y270.4060 Z-1.3297 F180
G01 X10.7850 Y270.3697 Z-1.3285 F180
G01 X10.7653 Y270.2347 Z-1.3126 F180
G01 X10.7226 Y270.1076 Z-1.2850 F180
G01 X10.7077 Y270.0757 Z-1.2769 F180
G01 X10.6387 Y269.9630 Z-1.2494 F180
G01 X10.5515 Y269.8664 Z-1.2341 F180
G01 X10.5258 Y269.8439 Z-1.2330 F180
G01 X10.4201 Y269.7707 Z-1.2427 F180
G01 X10.3038 Y269.7192 Z-1.2733 F180
G01 X10.2718 Y269.7095 Z-1.2843 F180
G01 X10.1477 Y269.6868 Z-1.3335 F180
G01 X10.0222 Y269.6882 Z-1.3863 F180
G01 X9.9893 Y269.6926 Z-1.3995 F180
G01 X9.8680 Y269.7234 Z-1.4412 F180
G01 X9.7546 Y269.7770 Z-1.4647 F180
G01 X9.7265 Y269.7948 Z-1.4674 F180
G01 X9.6285 Y269.8739 Z-1.4640 F180
G01 X9.5466 Y269.9709 Z-1.4433 F180
G01 X9.5281 Y269.9992 Z-1.4360 F180
G01 X9.4704 Y270.1136 Z-1.4061 F180
G01 X9.4346 Y270.2384 Z-1.3815 F180
G01 X9.4290 Y270.2726 Z-1.3772 F180
G01 X9.4225 Y270.4040 Z-1.3726 F180
G01 X9.4401 Y270.5366 Z-1.3892 F180
G01 X9.4488 Y270.5713 Z-1.3971 F180
G01 X9.4962 Y270.6985 Z-1.4379 F180
G01 X9.5663 Y270.8175 Z-1.4895 F180
G01 X9.5885 Y270.8471 Z-1.5036 F180
G01 X9.6842 Y270.9495 Z-1.5533 F180
G01 X9.7977 Y271.0355 Z-1.5899 F180
G01 X9.8303 Y271.0551 Z-1.5964 F180
G01 X9.9614 Y271.1158 Z-1.6073 F180
G01 X10.1025 Y271.1546 Z-1.5977 F180
G01 X10.1410 Y271.1610 Z-1.5923 F180
G01 X10.2679 Y271.1861 Z-1.5653 F180
G01 X10.3956 Y271.1871 Z-1.5359 F180
G01 X10.4290 Y271.1833 Z-1.5292 F180
G01 X10.5513 Y271.1535 Z-1.5123 F180
G01 X10.6652 Y271.1010 Z-1.5144 F180
G01 X10.6934 Y271.0836 Z-1.5185 F180
G01 X10.7907 Y271.0045 Z-1.5473 F180
G01 X10.8715 Y270.9079 Z-1.5927 F180
G01 X10.8897 Y270.8797 Z-1.6063 F180
G01 X10.9453 Y270.7646 Z-1.6593 F180
G01 X10.9787 Y270.6396 Z-1.7058 F180
G01 X10.9837 Y270.6054 Z-1.7157 F180
G01 X10.9871 Y270.4729 Z-1.7411 F180
G01 X10.9663 Y270.3398 Z-1.7451 F180
G01 X10.9568 Y270.3050 Z-1.7427 F180
G01 X10.9057 Y270.1763 Z-1.7233 F180
G01 X10.8320 Y270.0563 Z-1.6943 F180
G01 X10.8090 Y270.0265 Z-1.6864 F180
G01 X10.7093 Y269.9221 Z-1.6608 F180
G01 X10.5922 Y269.8345 Z-1.6495 F180
G01 X10.5587 Y269.8144 Z-1.6497 F180
G01 X10.4240 Y269.7510 Z-1.6644 F180
G01 X10.2795 Y269.7097 Z-1.6993 F180
G01 X10.2402 Y269.7027 Z-1.7113 F180
G01 X10.0892 Y269.6905 Z-1.7623 F180
G01 X9.9378 Y269.7023 Z-1.8143 F180
G01 X9.8982 Y269.7095 Z-1.8268 F180
G01 X9.7522 Y269.7506 Z-1.8649 F180
G01 X9.6151 Y269.8141 Z-1.8835 F180
G01 X9.5808 Y269.8345 Z-1.8848 F180
G01 X9.4603 Y269.9228 Z-1.8769 F180
G01 X9.3567 Y270.0284 Z-1.8533 F180
G01 X9.3325 Y270.0588 Z-1.8456 F180
G01 X9.2542 Y270.1807 Z-1.8160 F180
G01 X9.1980 Y270.3121 Z-1.7940 F180
G01 X9.1871 Y270.3479 Z-1.7908 F180
G01 X9.1609 Y270.4847 Z-1.7909 F180
G01 X9.1589 Y270.6215 Z-1.8125 F180
G01 X9.1623 Y270.6572 Z-1.8216 F180
G01 X9.1904 Y270.7875 Z-1.8657 F180
G01 X9.2408 Y270.9086 Z-1.9183 F180
G01 X9.2576 Y270.9386 Z-1.9322 F180
G01 X9.3335 Y271.0419 Z-1.9797 F180
G01 X9.4266 Y271.1282 Z-2.0121 F180
G01 X9.4537 Y271.1478 Z-2.0173 F180
G01 X9.5639 Y271.2079 Z-2.0232 F180
G01 X9.6833 Y271.2457 Z-2.0094 F180
G01 X9.7159 Y271.2518 Z-2.0032 F180
G01 X9.8414 Y271.2588 Z-1.9746 F180
G01 X9.9668 Y271.2417 Z-1.9463 F180
G01 X9.9994 Y271.2332 Z-1.9403 F180
G01 X10.1190 Y271.1854 Z-1.9273 F180
G01 X10.2292 Y271.1154 Z-1.9343 F180
G01 X10.2563 Y271.0934 Z-1.9398 F180
G01 X10.3497 Y270.9973 Z-1.9731 F180
G01 X10.4258 Y270.8844 Z-2.0211 F180
G01 X10.4427 Y270.8521 Z-2.0351 F180
G01 X10.4937 Y270.7217 Z-2.0875 F180
G01 X10.5222 Y270.5824 Z-2.1310 F180
G01 X10.5258 Y270.5445 Z-2.1398 F180
G01 X10.5248 Y270.3989 Z-2.1604 F180
G01 X10.4996 Y270.2537 Z-2.1595 F180
G01 X10.4889 Y270.2159 Z-2.1560 F180
G01 X10.4344 Y270.0764 Z-2.1334 F180
G01 X10.3576 Y269.9465 Z-2.1037 F180
G01 X10.3339 Y269.9142 Z-2.0961 F180
G01 X10.2326 Y269.8011 Z-2.0730 F180
G01 X10.1146 Y269.7055 Z-2.0660 F180
G01 X10.0810 Y269.6834 Z-2.0676 F180
G01 X9.9471 Y269.6128 Z-2.0873 F180
G01 X9.8045 Y269.5648 Z-2.1262 F180
G01 X9.7658 Y269.5560 Z-2.1388 F180
G01 X9.6185 Y269.5375 Z-2.1911 F180
G01 X9.4718 Y269.5431 Z-2.2418 F180
G01 X9.4336 Y269.5485 Z-2.2535 F180
G01 X9.2942 Y269.5834 Z-2.2875 F180
G01 X9.1647 Y269.6403 Z-2.3012 F180
G01 X9.1326 Y269.6588 Z-2.3011 F180
G01 X9.0214 Y269.7400 Z-2.2889 F180
G01 X8.9278 Y269.8379 Z-2.2629 F180
G01 X8.9063 Y269.8661 Z-2.2550 F180
G01 X8.8393 Y269.9797 Z-2.2262 F180
G01 X8.7949 Y270.1018 Z-2.2075 F180
G01 X8.7871 Y270.1350 Z-2.2053 F180
G01 X8.7735 Y270.2616 Z-2.2104 F180
G01 X8.7840 Y270.3874 Z-2.2368 F180
G01 X8.7952 Y270.4376 Z-2.2530 F180
G01 X8.8396 Y270.5547 Z-2.3015 F180
G01 X8.9056 Y270.6613 Z-2.3544 F180
G01 X8.9383 Y270.7009 Z-2.3747 F180
G01 X9.0319 Y270.7861 Z-2.4153 F180
G01 X9.1409 Y270.8528 Z-2.4373 F180
G01 X9.1892 Y270.8741 Z-2.4400 F180
G01 X9.3149 Y270.9104 Z-2.4323 F180
G01 X9.4472 Y270.9235 Z-2.4088 F180
G01 X9.5022 Y270.9219 Z-2.3968 F180
G01 X9.6375 Y270.9008 Z-2.3676 F180
G01 X9.7693 Y270.8558 Z-2.3474 F180
G01 X9.8212 Y270.8307 Z-2.3439 F180
G01 X9.9421 Y270.7537 Z-2.3499 F180
G01 X10.0499 Y270.6563 Z-2.3772 F180
G01 X10.0895 Y270.6112 Z-2.3937 F180
G01 X10.1744 Y270.4894 Z-2.4426 F180
G01 X10.2392 Y270.3543 Z-2.4955 F180
G01 X10.2594 Y270.2961 Z-2.5156 F180
G01 X10.2934 Y270.1485 Z-2.5555 F180
G01 X10.3036 Y269.9970 Z-2.5765 F180
G01 X10.3008 Y269.9349 Z-2.5789 F180
G01 X10.2779 Y269.7850 Z-2.5703 F180
G01 X10.2316 Y269.6411 Z-2.5464 F180
G01 X10.2063 Y269.5850 Z-2.5343 F180
G01 X10.1305 Y269.4566 Z-2.5052 F180
G01 X10.0359 Y269.3432 Z-2.4857 F180
G01 X9.9925 Y269.3020 Z-2.4825 F180
G01 X9.8773 Y269.2151 Z-2.4895 F180
G01 X9.7511 Y269.1497 Z-2.5177 F180
G01 X9.6972 Y269.1296 Z-2.5344 F180
G01 X9.5631 Y269.0972 Z-2.5838 F180
G01 X9.4276 Y269.0890 Z-2.6365 F180
G01 X9.3728 Y269.0925 Z-2.6565 F180
G01 X9.2435 Y269.1180 Z-2.6957 F180
G01 X9.1229 Y269.1661 Z-2.7158 F180
G01 X9.0770 Y269.1919 Z-2.7177 F180
G01 X8.9757 Y269.2687 Z-2.7083 F180
G01 X8.8916 Y269.3626 Z-2.6839 F180
G01 X8.8628 Y269.4051 Z-2.6717 F180
G01 X8.8080 Y269.5178 Z-2.6429 F180
G01 X8.7759 Y269.6390 Z-2.6240 F180
G01 X8.7695 Y269.6900 Z-2.6212 F180
G01 X8.7718 Y269.8168 Z-2.6291 F180
G01 X8.7981 Y269.9421 Z-2.6581 F180
G01 X8.8157 Y269.9920 Z-2.6752 F180
G01 X8.8756 Y270.1088 Z-2.7249 F180
G01 X8.9569 Y270.2144 Z-2.7776 F180
G01 X8.9958 Y270.2536 Z-2.7973 F180
G01 X9.1041 Y270.3382 Z-2.8358 F180
G01 X9.2274 Y270.4038 Z-2.8550 F180
G01 X9.2813 Y270.4246 Z-2.8565 F180
G01 X9.4205 Y270.4604 Z-2.8463 F180
G01 X9.5657 Y270.4727 Z-2.8214 F180
G01 X9.6258 Y270.4709 Z-2.8092 F180
G01 X9.7731 Y270.4499 Z-2.7806 F180
G01 X9.9163 Y270.4050 Z-2.7623 F180
G01 X9.9727 Y270.3800 Z-2.7599 F180
G01 X10.1039 Y270.3042 Z-2.7688 F180
G01 X10.2217 Y270.2084 Z-2.7987 F180
G01 X10.2653 Y270.1640 Z-2.8160 F180
G01 X10.3593 Y270.0451 Z-2.8661 F180
G01 X10.4328 Y269.9133 Z-2.9186 F180
G01 X10.4566 Y269.8566 Z-2.9382 F180
G01 X10.4987 Y269.7138 Z-2.9759 F180
G01 X10.5170 Y269.5676 Z-2.9941 F180
G01 X10.5175 Y269.5079 Z-2.9953 F180
G01 X10.5024 Y269.3648 Z-2.9843 F180
G01 X10.4640 Y269.2284 Z-2.9589 F180
G01 X10.4419 Y269.1755 Z-2.9466 F180
G01 X10.3740 Y269.0558 Z-2.9183 F180
G01 X10.2876 Y268.9517 Z-2.9007 F180
G01 X10.2476 Y268.9143 Z-2.8986 F180
G01 X10.1408 Y268.8379 Z-2.9085 F180
G01 X10.0234 Y268.7832 Z-2.9392 F180
G01 X9.9733 Y268.7674 Z-2.9568 F180
G01 X9.8481 Y268.7465 Z-3.0072 F180
G01 X9.7223 Y268.7497 Z-3.0596 F180
G01 X9.6716 Y268.7580 Z-3.0790 F180
G01 X9.5521 Y268.7955 Z-3.1160 F180
G01 X9.4419 Y268.8553 Z-3.1332 F180
G01 X9.4003 Y268.8858 Z-3.1340 F180
G01 X9.3095 Y268.9745 Z-3.1222 F180
G01 X9.2361 Y269.0799 Z-3.0964 F180
G01 X9.2118 Y269.1270 Z-3.0841 F180
G01 X9.1676 Y269.2510 Z-3.0560 F180
G01 X9.1462 Y269.3830 Z-3.0391 F180
G01 X9.1443 Y269.4384 Z-3.0374 F180
G01 X9.1567 Y269.5757 Z-3.0482 F180
G01 X9.1932 Y269.7110 Z-3.0798 F180
G01 X9.2149 Y269.7648 Z-3.0976 F180
G01 X9.2841 Y269.8912 Z-3.1484 F180
G01 X9.3744 Y270.0060 Z-3.2006 F180
G01 X9.4168 Y270.0488 Z-3.2197 F180
G01 X9.5019 Y270.1424 Z-3.2444 F1200
G01 X9.5827 Y270.2050 Z-3.2499 F1200
G01 X9.6918 Y270.2630 Z-3.2370 F1200
G01 X9.7873 Y270.2936 Z-3.2128 F1200
G01 X9.9078 Y270.3104 Z-3.1732 F1200
G01 X10.0070 Y270.3062 Z-3.1396 F1200
G01 X10.1252 Y270.2803 Z-3.1067 F1200
G01 X10.2169 Y270.2419 Z-3.0921 F1200
G01 X10.3192 Y270.1763 Z-3.0935 F1200
G01 X10.3928 Y270.1078 Z-3.1101 F1200
G01 X10.4674 Y270.0097 Z-3.1447 F1200
G01 X10.5142 Y269.9183 Z-3.1786 F1200
G01 X10.5522 Y269.7980 Z-3.2172 F1200
G01 X10.5662 Y269.6935 Z-3.2398 F1200
G01 X10.5620 Y269.5637 Z-3.2500 F1200
G01 X10.5405 Y269.4571 Z-3.2422 F1200
G01 X10.4932 Y269.3316 Z-3.2154 F1200
G01 X10.4372 Y269.2342 Z-3.1838 F1200
G01 X10.3501 Y269.1266 Z-3.1426 F1200
G01 X10.2639 Y269.0489 Z-3.1137 F1200
G01 X10.1443 Y268.9708 Z-3.0928 F1200
G01 X10.0356 Y268.9214 Z-3.0911 F1200
G01 X9.8941 Y268.8818 Z-3.1081 F1200
G01 X9.7725 Y268.8665 Z-3.1348 F1200
G01 X9.6222 Y268.8705 Z-3.1755 F1200
G01 X9.4990 Y268.8918 Z-3.2082 F1200
G01 X9.3536 Y268.9402 Z-3.2382 F1200
G01 X9.2402 Y268.9970 Z-3.2494 F1200
G01 X9.1133 Y269.0863 Z-3.2435 F1200
G01 X9.0201 Y269.1740 Z-3.2237 F1200
G01 X8.9234 Y269.2966 Z-3.1869 F1200
G01 X8.8589 Y269.4075 Z-3.1528 F1200
G01 X8.8012 Y269.5525 Z-3.1160 F1200
G01 X8.7712 Y269.6767 Z-3.0963 F1200
G01 X8.7575 Y269.8313 Z-3.0906 F1200
G01 X8.7643 Y269.9575 Z-3.1019 F1200
G01 X8.7953 Y270.1076 Z-3.1320 F1200
G01 X8.8376 Y270.2245 Z-3.1648 F1200
G01 X8.9095 Y270.3567 Z-3.2054 F1200
G01 X8.9827 Y270.4539 Z-3.2321 F1200
G01 X9.0879 Y270.5565 Z-3.2490 F1200
G01 X9.1842 Y270.6257 Z-3.2471 F1200
G01 X9.3116 Y270.6901 Z-3.2260 F1200
G01 X9.4211 Y270.7255 Z-3.1972 F1200
G01 X9.5579 Y270.7470 Z-3.1559 F1200
G01 X9.6693 Y270.7466 Z-3.1244 F1200
G01 X9.8015 Y270.7247 Z-3.0976 F1200
G01 X9.9036 Y270.6899 Z-3.0900 F1200
G01 X10.0179 Y270.6284 Z-3.1003 F1200
G01 X10.1004 Y270.5640 Z-3.1230 F1200
G01 X10.1855 Y270.4709 Z-3.1617 F1200
G01 X10.2401 Y270.3848 Z-3.1956 F1200
G01 X10.2876 Y270.2710 Z-3.2301 F1200
G01 X10.3091 Y270.1731 Z-3.2466 F1200
G01 X10.3145 Y270.0518 Z-3.2479 F1200
G01 X10.3009 Y269.9534 Z-3.2331 F1200
G01 X10.2641 Y269.8382 Z-3.2001 F1200
G01 X10.2171 Y269.7505 Z-3.1665 F1200
G01 X10.1422 Y269.6546 Z-3.1270 F1200
G01 X10.0669 Y269.5877 Z-3.1028 F1200
G01 X9.9620 Y269.5224 Z-3.0901 F1200
G01 X9.8665 Y269.4842 Z-3.0957 F1200
G01 X9.7428 Y269.4576 Z-3.1205 F1200
G01 X9.6372 Y269.4533 Z-3.1512 F1200
G01 X9.5079 Y269.4694 Z-3.1926 F1200
G01 X9.4034 Y269.5006 Z-3.2225 F1200
G01 X9.2824 Y269.5593 Z-3.2456 F1200
G01 X9.1902 Y269.6242 Z-3.2496 F1200
G01 X9.0905 Y269.7210 Z-3.2350 F1200
G01 X9.0206 Y269.8140 Z-3.2097 F1200
G01 X8.9534 Y269.9405 Z-3.1696 F1200
G01 X8.9138 Y270.0536 Z-3.1363 F1200
G01 X8.8868 Y270.1984 Z-3.1046 F1200
G01 X8.8824 Y270.3211 Z-3.0913 F1200
G01 X8.8997 Y270.4708 Z-3.0946 F1200
G01 X8.9318 Y270.5919 Z-3.1126 F1200
G01 X8.9929 Y270.7326 Z-3.1481 F1200
G01 X9.0595 Y270.8407 Z-3.1822 F1200
G01 X9.1597 Y270.9594 Z-3.2201 F1200
G01 X9.2553 Y271.0446 Z-3.2415 F1200
G01 X9.3859 Y271.1302 Z-3.2499 F1200
G01 X9.5020 Y271.1847 Z-3.2406 F1200
G01 X9.6515 Y271.2294 Z-3.2124 F1200
G01 X9.7778 Y271.2484 Z-3.1803 F1200
G01 X9.9327 Y271.2485 Z-3.1392 F1200
G01 X10.0578 Y271.2306 Z-3.1113 F1200
G01 X10.2043 Y271.1867 Z-3.0920 F1200
G01 X10.3168 Y271.1342 Z-3.0917 F1200
G01 X10.4418 Y271.0511 Z-3.1104 F1200
G01 X10.5320 Y270.9698 Z-3.1381 F1200
G01 X10.6245 Y270.8562 Z-3.1790 F1200
G01 X10.6846 Y270.7544 Z-3.2113 F1200
G01 X10.7372 Y270.6221 Z-3.2400 F1200
G01 X10.7626 Y270.5102 Z-3.2498 F1200
G01 X10.7716 Y270.3725 Z-3.2421 F1200
G01 X10.7611 Y270.2620 Z-3.2210 F1200
G01 X10.7273 Y270.1327 Z-3.1834 F1200
G01 X10.6834 Y270.0346 Z-3.1493 F1200
G01 X10.6119 Y269.9267 Z-3.1134 F1200
G01 X10.5404 Y269.8508 Z-3.0950 F1200
G01 X10.4400 Y269.7749 Z-3.0911 F1200
G01 X10.3493 Y269.7286 Z-3.1039 F1200
G01 X10.2318 Y269.6920 Z-3.1352 F1200
G01 X10.1325 Y269.6798 Z-3.1684 F1200
G01 X10.0113 Y269.6859 Z-3.2086 F1200
G01 X9.9146 Y269.7086 Z-3.2343 F1200
G01 X9.8035 Y269.7562 Z-3.2495 F1200
G01 X9.7205 Y269.8112 Z-3.2460 F1200
G01 X9.6320 Y269.8949 Z-3.2234 F1200
G01 X9.5723 Y269.9763 Z-3.1938 F1200
G01 X9.5170 Y270.0870 Z-3.1524 F1200
G01 X9.4878 Y270.1860 Z-3.1215 F1200
G01 X9.4727 Y270.3119 Z-3.0962 F1200
G01 X9.4781 Y270.4178 Z-3.0900 F1200
G01 X9.5062 Y270.5454 Z-3.1021 F1200
G01 X9.5469 Y270.6470 Z-3.1260 F1200
G01 X9.6167 Y270.7625 Z-3.1652 F1200
G01 X9.6898 Y270.8488 Z-3.1989 F1200
G01 X9.7955 Y270.9396 Z-3.2324 F1200
G01 X9.8948 Y271.0010 Z-3.2476 F1200
G01 X10.0272 Y271.0568 Z-3.2470 F1200
G01 X10.1436 Y271.0863 Z-3.2309 F1200
G01 X10.2906 Y271.1003 Z-3.1968 F1200
G01 X10.4135 Y271.0939 Z-3.1629 F1200
G01 X10.5614 Y271.0634 Z-3.1240 F1200
G01 X10.6794 Y271.0206 Z-3.1009 F1200
G01 X10.8144 Y270.9473 Z-3.0900 F1200
G01 X10.9164 Y270.8713 Z-3.0971 F1200
G01 X11.0259 Y270.7610 Z-3.1234 F1200
G01 X11.1024 Y270.6583 Z-3.1547 F1200
G01 X11.1762 Y270.5206 Z-3.1960 F1200
G01 X11.2203 Y270.4002 Z-3.2251 F1200
G01 X11.2517 Y270.2474 Z-3.2467 F1200
G01 X11.2596 Y270.1201 Z-3.2492 F1200
G01 X11.2461 Y269.9659 Z-3.2329 F1200
G01 X11.2173 Y269.8431 Z-3.2065 F1200
G01 X11.1607 Y269.7013 Z-3.1661 F1200
G01 X11.0986 Y269.5940 Z-3.1331 F1200
G01 X11.0050 Y269.4771 Z-3.1026 F1200
G01 X10.9162 Y269.3947 Z-3.0908 F1200
G01 X10.7952 Y269.3129 Z-3.0959 F1200
G01 X10.6887 Y269.2623 Z-3.1151 F1200
G01 X10.5526 Y269.2219 Z-3.1516 F1200
G01 X10.4393 Y269.2067 Z-3.1857 F1200
G01 X10.3017 Y269.2102 Z-3.2228 F1200
G01 X10.1930 Y269.2306 Z-3.2430 F1200
G01 X10.0677 Y269.2759 Z-3.2496 F1200
G01 X9.9744 Y269.3285 Z-3.2389 F1200
G01 X9.8738 Y269.4094 Z-3.2093 F1200
G01 X9.8050 Y269.4875 Z-3.1767 F1200
G01 X9.7390 Y269.5942 Z-3.1360 F1200
G01 X9.7014 Y269.6886 Z-3.1089 F1200
G01 X9.6761 Y269.8088 Z-3.0913 F1200
G01 X9.6733 Y269.9087 Z-3.0925 F1200
G01 X9.6907 Y270.0287 Z-3.1129 F1200
G01 X9.7224 Y270.1227 Z-3.1414 F1200
G01 X9.7802 Y270.2290 Z-3.1826 F1200
G01 X9.8429 Y270.3065 Z-3.2144 F1200
G01 X9.9347 Y270.3868 Z-3.2417 F1200
G01 X10.0214 Y270.4387 Z-3.2500 F1200
G01 X10.1371 Y270.4835 Z-3.2404 F1200
G01 X10.2386 Y270.5035 Z-3.2182 F1200
G01 X10.3657 Y270.5069 Z-3.1799 F1200
G01 X10.4710 Y270.4916 Z-3.1459 F1200
G01 X10.5959 Y270.4519 Z-3.1110 F1200
G01 X10.6936 Y270.4018 Z-3.0938 F1200
G01 X10.8027 Y270.3216 Z-3.0918 F1200
G01 X10.8823 Y270.2408 Z-3.1059 F1200
G01 X10.9634 Y270.1269 Z-3.1385 F1200
G01 X11.0158 Y270.0222 Z-3.1720 F1200
G01 X11.0597 Y269.8850 Z-3.2117 F1200
G01 X11.0788 Y269.7661 Z-3.2364 F1200
G01 X11.0797 Y269.6180 Z-3.2498 F1200
G01 X11.0624 Y269.4960 Z-3.2449 F1200
G01 X11.0188 Y269.3510 Z-3.2207 F1200
G01 X10.9657 Y269.2371 Z-3.1903 F1200
G01 X10.8807 Y269.1089 Z-3.1489 F1200
G01 X10.7960 Y269.0139 Z-3.1187 F1200
G01 X10.6764 Y268.9144 Z-3.0949 F1200
G01 X10.5673 Y268.8471 Z-3.0902 F1200
G01 X10.4237 Y268.7857 Z-3.1041 F1200
G01 X10.2999 Y268.7523 Z-3.1290 F1200
G01 X10.1450 Y268.7344 Z-3.1688 F1200
G01 X10.0176 Y268.7378 Z-3.2023 F1200
G01 X9.8653 Y268.7648 Z-3.2345 F1200
G01 X9.7457 Y268.8042 Z-3.2484 F1200
G01 X9.6097 Y268.8729 Z-3.2459 F1200
G01 X9.5085 Y268.9441 Z-3.2285 F1200
G01 X9.4006 Y269.0475 Z-3.1934 F1200
G01 X9.3267 Y269.1430 Z-3.1594 F1200
G01 X9.2561 Y269.2705 Z-3.1211 F1200
G01 X9.2153 Y269.3807 Z-3.0992 F1200
G00 Z6.0000 F480


;No. 4: Hole 6
G00 X209.7111 Y269.6023 Z6.0000 F1500
G00 X210.4940 Y269.4643 Z0.5107 F480
G01 X210.4581 Y269.3304 Z0.5223 F180
G01 X210.3996 Y269.2048 Z0.5447 F180
G01 X210.3201 Y269.0913 Z0.5670 F180
G01 X210.2221 Y268.9933 Z0.5786 F180
G01 X210.1086 Y268.9138 Z0.5717 F180
G01 X209.9830 Y268.8553 Z0.5433 F180
G01 X209.8491 Y268.8194 Z0.4963 F180
G01 X209.7111 Y268.8073 Z0.4387 F180
G01 X209.5730 Y268.8194 Z0.3810 F180
G01 X209.4392 Y268.8553 Z0.3341 F180
G01 X209.3136 Y268.9138 Z0.3057 F180
G01 X209.2001 Y268.9933 Z0.2987 F180
G01 X209.1021 Y269.0913 Z0.3103 F180
G01 X209.0226 Y269.2048 Z0.3327 F180
G01 X208.9640 Y269.3304 Z0.3550 F180
G01 X208.9281 Y269.4643 Z0.3666 F180
G01 X208.9161 Y269.6023 Z0.3597 F180
G01 X208.9281 Y269.7404 Z0.3313 F180
G01 X208.9640 Y269.8742 Z0.2843 F180
G01 X209.0226 Y269.9998 Z0.2267 F180
G01 X209.1021 Y270.1133 Z0.1690 F180
G01 X209.2001 Y270.2113 Z0.1221 F180
G01 X209.3136 Y270.2908 Z0.0937 F180
G01 X209.4392 Y270.3494 Z0.0867 F180
G01 X209.5730 Y270.3852 Z0.0983 F180
G01 X209.7111 Y270.3973 Z0.1207 F180
G01 X209.8491 Y270.3852 Z0.1430 F180
G01 X209.9830 Y270.3494 Z0.1546 F180
G01 X210.0219 Y270.3340 Z0.1547 F180
G01 X210.1337 Y270.2771 Z0.1474 F180
G01 X210.2324 Y270.2000 Z0.1190 F180
G01 X210.2681 Y270.1632 Z0.1021 F180
G01 X210.3432 Y270.0627 Z0.0526 F180
G01 X210.3981 Y269.9491 Z-0.0001 F180
G01 X210.4142 Y269.8997 Z-0.0200 F180
G01 X210.4379 Y269.7746 Z-0.0589 F180
G01 X210.4377 Y269.6459 Z-0.0787 F180
G01 X210.4307 Y269.5931 Z-0.0805 F180
G01 X210.3972 Y269.4669 Z-0.0709 F180
G01 X210.3404 Y269.3470 Z-0.0463 F180
G01 X210.3108 Y269.3007 Z-0.0341 F180
G01 X210.2245 Y269.1970 Z-0.0053 F180
G01 X210.1195 Y269.1086 Z0.0133 F180
G01 X210.0719 Y269.0776 Z0.0160 F180
G01 X209.9464 Y269.0162 Z0.0078 F180
G01 X209.8102 Y268.9765 Z-0.0215 F180
G01 X209.7523 Y268.9669 Z-0.0386 F180
G01 X209.6083 Y268.9605 Z-0.0885 F180
G01 X209.4632 Y268.9783 Z-0.1411 F180
G01 X209.4046 Y268.9925 Z-0.1608 F180
G01 X209.2660 Y269.0442 Z-0.1991 F180
G01 X209.1363 Y269.1183 Z-0.2179 F180
G01 X209.0867 Y269.1547 Z-0.2193 F180
G01 X208.9767 Y269.2574 Z-0.2088 F180
G01 X208.8839 Y269.3771 Z-0.1838 F180
G01 X208.8516 Y269.4301 Z-0.1715 F180
G01 X208.7884 Y269.5682 Z-0.1430 F180
G01 X208.7479 Y269.7146 Z-0.1250 F180
G01 X208.7382 Y269.7759 Z-0.1227 F180
G01 X208.7322 Y269.9274 Z-0.1319 F180
G01 X208.7502 Y270.0772 Z-0.1620 F180
G01 X208.7644 Y270.1371 Z-0.1794 F180
G01 X208.8160 Y270.2777 Z-0.2297 F180
G01 X208.8890 Y270.4071 Z-0.2821 F180
G01 X208.9244 Y270.4559 Z-0.3016 F180
G01 X209.0242 Y270.5635 Z-0.3391 F180
G01 X209.1389 Y270.6521 Z-0.3570 F180
G01 X209.1893 Y270.6822 Z-0.3581 F180
G01 X209.3196 Y270.7403 Z-0.3468 F180
G01 X209.4558 Y270.7749 Z-0.3213 F180
G01 X209.5122 Y270.7821 Z-0.3090 F180
G01 X209.6502 Y270.7828 Z-0.2807 F180
G01 X209.7840 Y270.7597 Z-0.2634 F180
G01 X209.8365 Y270.7436 Z-0.2614 F180
G01 X209.9583 Y270.6890 Z-0.2716 F180
G01 X210.0664 Y270.6145 Z-0.3026 F180
G01 X210.1059 Y270.5789 Z-0.3203 F180
G01 X210.1903 Y270.4808 Z-0.3708 F180
G01 X210.2541 Y270.3701 Z-0.4231 F180
G01 X210.2738 Y270.3220 Z-0.4424 F180
G01 X210.3065 Y270.1998 Z-0.4792 F180
G01 X210.3152 Y270.0744 Z-0.4961 F180
G01 X210.3117 Y270.0232 Z-0.4968 F180
G01 X210.2874 Y269.9004 Z-0.4847 F180
G01 X210.2399 Y269.7844 Z-0.4588 F180
G01 X210.2141 Y269.7399 Z-0.4465 F180
G01 X210.1377 Y269.6400 Z-0.4184 F180
G01 X210.0429 Y269.5558 Z-0.4018 F180
G01 X209.9995 Y269.5266 Z-0.4002 F180
G01 X209.8849 Y269.4692 Z-0.4113 F180
G01 X209.7601 Y269.4336 Z-0.4432 F180
G01 X209.7070 Y269.4257 Z-0.4611 F180
G01 X209.5752 Y269.4229 Z-0.5120 F180
G01 X209.4429 Y269.4442 Z-0.5641 F180
G01 X209.3897 Y269.4598 Z-0.5832 F180
G01 X209.2646 Y269.5141 Z-0.6192 F180
G01 X209.1490 Y269.5906 Z-0.6351 F180
G01 X209.1053 Y269.6278 Z-0.6354 F180
G01 X209.0099 Y269.7317 Z-0.6226 F180
G01 X208.9321 Y269.8520 Z-0.5963 F180
G01 X208.9061 Y269.9052 Z-0.5839 F180
G01 X208.8582 Y270.0425 Z-0.5562 F180
G01 X208.8332 Y270.1876 Z-0.5403 F180
G01 X208.8298 Y270.2482 Z-0.5390 F180
G01 X208.8392 Y270.3967 Z-0.5511 F180
G01 X208.8727 Y270.5431 Z-0.5838 F180
G01 X208.8932 Y270.6013 Z-0.6020 F180
G01 X208.9598 Y270.7370 Z-0.6531 F180
G01 X209.0474 Y270.8608 Z-0.7050 F180
G01 X209.0887 Y270.9072 Z-0.7239 F180
G01 X209.2025 Y271.0080 Z-0.7591 F180
G01 X209.3306 Y271.0893 Z-0.7741 F180
G01 X209.3863 Y271.1165 F180
G01 X209.5291 Y271.1662 Z-0.7604 F180
G01 X209.6772 Y271.1924 Z-0.7338 F180
G01 X209.7382 Y271.1961 Z-0.7214 F180
G01 X209.8871 Y271.1876 Z-0.6940 F180
G01 X210.0310 Y271.1554 Z-0.6788 F180
G01 X210.0875 Y271.1357 Z-0.6779 F180
G01 X210.2183 Y271.0716 Z-0.6909 F180
G01 X210.3351 Y270.9879 Z-0.7245 F180
G01 X210.3780 Y270.9486 Z-0.7429 F180
G01 X210.4699 Y270.8413 Z-0.7943 F180
G01 X210.5411 Y270.7217 Z-0.8460 F180
G01 X210.5637 Y270.6702 Z-0.8646 F180
G01 X210.6028 Y270.5393 Z-0.8990 F180
G01 X210.6180 Y270.4058 Z-0.9131 F180
G01 Y270.3706 Z-0.9132 F180
G01 X210.6030 Y270.2391 Z-0.9013 F180
G01 X210.5649 Y270.1145 Z-0.8755 F180
G01 X210.5511 Y270.0831 Z-0.8676 F180
G01 X210.4862 Y269.9719 Z-0.8387 F180
G01 X210.4026 Y269.8760 Z-0.8197 F180
G01 X210.3777 Y269.8535 Z-0.8175 F180
G01 X210.2748 Y269.7803 Z-0.8221 F180
G01 X210.1606 Y269.7284 Z-0.8481 F180
G01 X210.1289 Y269.7184 Z-0.8581 F180
G01 X210.0059 Y269.6949 Z-0.9049 F180
G01 X209.8806 Y269.6954 Z-0.9579 F180
G01 X209.8475 Y269.6996 Z-0.9715 F180
G01 X209.7253 Y269.7296 Z-1.0165 F180
G01 X209.6102 Y269.7828 Z-1.0448 F180
G01 X209.5815 Y269.8005 Z-1.0487 F180
G01 X209.4809 Y269.8797 Z-1.0502 F180
G01 X209.3958 Y269.9775 Z-1.0329 F180
G01 X209.3762 Y270.0061 Z-1.0261 F180
G01 X209.3148 Y270.1222 Z-0.9966 F180
G01 X209.2749 Y270.2495 Z-0.9698 F180
G01 X209.2681 Y270.2846 Z-0.9645 F180
G01 X209.2573 Y270.4197 Z-0.9554 F180
G01 X209.2706 Y270.5569 Z-0.9670 F180
G01 X209.2782 Y270.5930 Z-0.9737 F180
G01 X209.3217 Y270.7260 Z-1.0107 F180
G01 X209.3883 Y270.8517 Z-1.0607 F180
G01 X209.4095 Y270.8832 Z-1.0748 F180
G01 X209.5026 Y270.9933 Z-1.1262 F180
G01 X209.6141 Y271.0878 Z-1.1666 F180
G01 X209.6463 Y271.1098 Z-1.1743 F180
G01 X209.7766 Y271.1795 Z-1.1903 F180
G01 X209.9178 Y271.2277 Z-1.1852 F180
G01 X209.9566 Y271.2367 Z-1.1807 F180
G01 X210.1058 Y271.2548 Z-1.1558 F180
G01 X210.2569 Y271.2487 Z-1.1260 F180
G01 X210.2967 Y271.2431 Z-1.1187 F180
G01 X210.4438 Y271.2060 Z-1.0984 F180
G01 X210.5834 Y271.1460 Z-1.0956 F180
G01 X210.6186 Y271.1265 Z-1.0984 F180
G01 X210.7427 Y271.0392 Z-1.1225 F180
G01 X210.8511 Y270.9336 Z-1.1647 F180
G01 X210.8767 Y270.9030 Z-1.1779 F180
G01 X210.9605 Y270.7780 Z-1.2308 F180
G01 X211.0228 Y270.6422 Z-1.2797 F180
G01 X211.0354 Y270.6050 Z-1.2906 F180
G01 X211.0677 Y270.4606 Z-1.3206 F180
G01 X211.0759 Y270.3145 Z-1.3297 F180
G01 X211.0741 Y270.2762 Z-1.3285 F180
G01 X211.0515 Y270.1334 Z-1.3126 F180
G01 X211.0061 Y269.9985 Z-1.2850 F180
G01 X210.9905 Y269.9646 Z-1.2769 F180
G01 X210.9182 Y269.8443 Z-1.2494 F180
G01 X210.8278 Y269.7401 Z-1.2341 F180
G01 X210.8012 Y269.7156 Z-1.2330 F180
G01 X210.6918 Y269.6350 Z-1.2427 F180
G01 X210.5718 Y269.5762 Z-1.2733 F180
G01 X210.5388 Y269.5645 Z-1.2843 F180
G01 X210.4105 Y269.5346 Z-1.3335 F180
G01 X210.2809 Y269.5289 Z-1.3863 F180
G01 X210.2469 Y269.5314 Z-1.3995 F180
G01 X210.1209 Y269.5554 Z-1.4412 F180
G01 X210.0030 Y269.6022 Z-1.4647 F180
G01 X209.9736 Y269.6181 Z-1.4674 F180
G01 X209.8706 Y269.6906 Z-1.4640 F180
G01 X209.7838 Y269.7811 Z-1.4433 F180
G01 X209.7639 Y269.8076 Z-1.4360 F180
G01 X209.7009 Y269.9158 Z-1.4061 F180
G01 X209.6597 Y270.0344 Z-1.3815 F180
G01 X209.6526 Y270.0670 Z-1.3772 F180
G01 X209.6403 Y270.1925 Z-1.3726 F180
G01 X209.6522 Y270.3191 Z-1.3892 F180
G01 X209.6593 Y270.3523 Z-1.3971 F180
G01 X209.7006 Y270.4739 Z-1.4379 F180
G01 X209.7646 Y270.5874 Z-1.4895 F180
G01 X209.7851 Y270.6155 Z-1.5036 F180
G01 X209.8744 Y270.7127 Z-1.5533 F180
G01 X209.9815 Y270.7936 Z-1.5899 F180
G01 X210.0124 Y270.8119 Z-1.5964 F180
G01 X210.1367 Y270.8679 Z-1.6073 F180
G01 X210.2710 Y270.9019 Z-1.5977 F180
G01 X210.3078 Y270.9070 Z-1.5923 F180
G01 X210.4414 Y270.9369 Z-1.5653 F180
G01 X210.5758 Y270.9426 Z-1.5359 F180
G01 X210.6110 Y270.9401 Z-1.5292 F180
G01 X210.7398 Y270.9154 Z-1.5123 F180
G01 X210.8602 Y270.8681 Z-1.5144 F180
G01 X210.8901 Y270.8520 Z-1.5185 F180
G01 X210.9935 Y270.7785 Z-1.5473 F180
G01 X211.0804 Y270.6874 Z-1.5927 F180
G01 X211.1003 Y270.6607 Z-1.6063 F180
G01 X211.1616 Y270.5515 Z-1.6593 F180
G01 X211.2008 Y270.4324 Z-1.7058 F180
G01 X211.2073 Y270.3998 Z-1.7157 F180
G01 X211.2161 Y270.2735 Z-1.7411 F180
G01 X211.2007 Y270.1466 Z-1.7451 F180
G01 X211.1927 Y270.1135 Z-1.7427 F180
G01 X211.1465 Y269.9913 Z-1.7233 F180
G01 X211.0779 Y269.8779 Z-1.6943 F180
G01 X211.0561 Y269.8499 Z-1.6864 F180
G01 X210.9611 Y269.7523 Z-1.6608 F180
G01 X210.8486 Y269.6715 Z-1.6495 F180
G01 X210.8163 Y269.6533 Z-1.6497 F180
G01 X210.6857 Y269.5970 Z-1.6644 F180
G01 X210.5454 Y269.5629 Z-1.6993 F180
G01 X210.5072 Y269.5577 Z-1.7113 F180
G01 X210.3599 Y269.5528 Z-1.7623 F180
G01 X210.2122 Y269.5721 Z-1.8143 F180
G01 X210.1735 Y269.5812 Z-1.8268 F180
G01 X210.0308 Y269.6299 Z-1.8649 F180
G01 X209.8970 Y269.7010 Z-1.8835 F180
G01 X209.8635 Y269.7234 Z-1.8848 F180
G01 X209.7459 Y269.8194 Z-1.8769 F180
G01 X209.6451 Y269.9328 Z-1.8533 F180
G01 X209.6216 Y269.9652 Z-1.8456 F180
G01 X209.5455 Y270.0951 Z-1.8160 F180
G01 X209.4917 Y270.2344 Z-1.7940 F180
G01 X209.4813 Y270.2724 Z-1.7908 F180
G01 X209.4570 Y270.4171 Z-1.7909 F180
G01 X209.4567 Y270.5621 Z-1.8125 F180
G01 X209.4607 Y270.5999 Z-1.8216 F180
G01 X209.4900 Y270.7383 Z-1.8657 F180
G01 X209.5417 Y270.8675 Z-1.9183 F180
G01 X209.5589 Y270.8997 Z-1.9322 F180
G01 X209.6357 Y271.0113 Z-1.9797 F180
G01 X209.7295 Y271.1058 Z-2.0121 F180
G01 X209.7568 Y271.1276 Z-2.0173 F180
G01 X209.8673 Y271.1959 Z-2.0232 F180
G01 X209.9870 Y271.2419 Z-2.0094 F180
G01 X210.0197 Y271.2502 Z-2.0032 F180
G01 X210.1450 Y271.2655 Z-1.9746 F180
G01 X210.2702 Y271.2566 Z-1.9463 F180
G01 X210.3027 Y271.2503 Z-1.9403 F180
G01 X210.4216 Y271.2107 Z-1.9273 F180
G01 X210.5311 Y271.1489 Z-1.9343 F180
G01 X210.5580 Y271.1290 Z-1.9398 F180
G01 X210.6501 Y271.0412 Z-1.9731 F180
G01 X210.7250 Y270.9364 Z-2.0211 F180
G01 X210.7416 Y270.9063 Z-2.0351 F180
G01 X210.7909 Y270.7840 Z-2.0875 F180
G01 X210.8177 Y270.6527 Z-2.1310 F180
G01 X210.8209 Y270.6170 Z-2.1398 F180
G01 X210.8176 Y270.4793 Z-2.1604 F180
G01 X210.7902 Y270.3420 Z-2.1595 F180
G01 X210.7789 Y270.3063 Z-2.1560 F180
G01 X210.7217 Y270.1746 Z-2.1334 F180
G01 X210.6423 Y270.0526 Z-2.1037 F180
G01 X210.6178 Y270.0224 Z-2.0961 F180
G01 X210.5133 Y269.9169 Z-2.0730 F180
G01 X210.3922 Y269.8288 Z-2.0660 F180
G01 X210.3577 Y269.8088 Z-2.0676 F180
G01 X210.2202 Y269.7456 Z-2.0873 F180
G01 X210.0739 Y269.7050 Z-2.1262 F180
G01 X210.0343 Y269.6982 Z-2.1388 F180
G01 X209.8829 Y269.6868 Z-2.1911 F180
G01 X209.7321 Y269.6996 Z-2.2418 F180
G01 X209.6928 Y269.7069 Z-2.2535 F180
G01 X209.5490 Y269.7487 Z-2.2875 F180
G01 X209.4149 Y269.8125 Z-2.3012 F180
G01 X209.3816 Y269.8328 Z-2.3011 F180
G01 X209.2655 Y269.9207 Z-2.2889 F180
G01 X209.1669 Y270.0252 Z-2.2629 F180
G01 X209.1442 Y270.0552 Z-2.2550 F180
G01 X209.0718 Y270.1750 Z-2.2262 F180
G01 X209.0220 Y270.3034 Z-2.2075 F180
G01 X209.0128 Y270.3383 Z-2.2053 F180
G01 X208.9935 Y270.4708 Z-2.2104 F180
G01 X208.9984 Y270.6026 Z-2.2368 F180
G01 X209.0072 Y270.6552 Z-2.2530 F180
G01 X209.0454 Y270.7779 Z-2.3015 F180
G01 X209.1054 Y270.8900 Z-2.3544 F180
G01 X209.1356 Y270.9319 Z-2.3747 F180
G01 X209.2228 Y271.0223 Z-2.4153 F180
G01 X209.3254 Y271.0941 Z-2.4373 F180
G01 X209.3710 Y271.1175 Z-2.4400 F180
G01 X209.4899 Y271.1585 Z-2.4323 F180
G01 X209.6154 Y271.1763 Z-2.4088 F180
G01 X209.6677 Y271.1767 Z-2.3968 F180
G01 X209.7959 Y271.1599 Z-2.3676 F180
G01 X209.9206 Y271.1191 Z-2.3474 F180
G01 X209.9697 Y271.0958 Z-2.3439 F180
G01 X210.0832 Y271.0226 Z-2.3499 F180
G01 X210.1837 Y270.9290 Z-2.3772 F180
G01 X210.2203 Y270.8854 Z-2.3937 F180
G01 X210.2977 Y270.7669 Z-2.4426 F180
G01 X210.3549 Y270.6352 Z-2.4955 F180
G01 X210.3720 Y270.5783 Z-2.5156 F180
G01 X210.3982 Y270.4335 Z-2.5555 F180
G01 X210.4006 Y270.2848 Z-2.5765 F180
G01 X210.3946 Y270.2238 Z-2.5789 F180
G01 X210.3638 Y270.0762 Z-2.5703 F180
G01 X210.3096 Y269.9347 Z-2.5464 F180
G01 X210.2810 Y269.8795 Z-2.5343 F180
G01 X210.1972 Y269.7528 Z-2.5052 F180
G01 X210.0946 Y269.6412 Z-2.4857 F180
G01 X210.0479 Y269.6007 Z-2.4825 F180
G01 X209.9245 Y269.5151 Z-2.4895 F180
G01 X209.7902 Y269.4509 Z-2.5177 F180
G01 X209.7329 Y269.4313 Z-2.5344 F180
G01 X209.5905 Y269.3996 Z-2.5838 F180
G01 X209.4469 Y269.3921 Z-2.6365 F180
G01 X209.3887 Y269.3959 Z-2.6565 F180
G01 X209.2512 Y269.4216 Z-2.6957 F180
G01 X209.1223 Y269.4698 Z-2.7158 F180
G01 X209.0730 Y269.4956 Z-2.7177 F180
G01 X208.9635 Y269.5721 Z-2.7083 F180
G01 X208.8711 Y269.6656 Z-2.6839 F180
G01 X208.8390 Y269.7080 Z-2.6717 F180
G01 X208.7760 Y269.8197 Z-2.6429 F180
G01 X208.7357 Y269.9400 Z-2.6240 F180
G01 X208.7259 Y269.9907 Z-2.6212 F180
G01 X208.7200 Y270.1160 Z-2.6291 F180
G01 X208.7382 Y270.2399 Z-2.6581 F180
G01 X208.7525 Y270.2892 Z-2.6752 F180
G01 X208.8044 Y270.4040 Z-2.7249 F180
G01 X208.8777 Y270.5076 Z-2.7776 F180
G01 X208.9133 Y270.5460 Z-2.7973 F180
G01 X209.0137 Y270.6280 Z-2.8358 F180
G01 X209.1292 Y270.6912 Z-2.8550 F180
G01 X209.1799 Y270.7110 Z-2.8565 F180
G01 X209.3114 Y270.7438 Z-2.8463 F180
G01 X209.4489 Y270.7531 Z-2.8214 F180
G01 X209.5059 Y270.7500 Z-2.8092 F180
G01 X209.6457 Y270.7255 Z-2.7806 F180
G01 X209.7814 Y270.6771 Z-2.7623 F180
G01 X209.8348 Y270.6507 Z-2.7599 F180
G01 X209.9588 Y270.5710 Z-2.7688 F180
G01 X210.0694 Y270.4711 Z-2.7987 F180
G01 X210.1099 Y270.4251 Z-2.8160 F180
G01 X210.1970 Y270.3017 Z-2.8661 F180
G01 X210.2636 Y270.1655 Z-2.9186 F180
G01 X210.2845 Y270.1069 Z-2.9382 F180
G01 X210.3200 Y269.9593 Z-2.9759 F180
G01 X210.3316 Y269.8082 Z-2.9941 F180
G01 X210.3294 Y269.7465 Z-2.9953 F180
G01 X210.3080 Y269.5981 Z-2.9843 F180
G01 X210.2633 Y269.4563 Z-2.9589 F180
G01 X210.2387 Y269.4012 Z-2.9466 F180
G01 X210.1648 Y269.2759 Z-2.9183 F180
G01 X210.0724 Y269.1660 Z-2.9007 F180
G01 X210.0300 Y269.1263 Z-2.8986 F180
G01 X209.9176 Y269.0438 Z-2.9085 F180
G01 X209.7947 Y268.9829 Z-2.9392 F180
G01 X209.7423 Y268.9647 Z-2.9568 F180
G01 X209.6120 Y268.9374 Z-3.0072 F180
G01 X209.4810 Y268.9342 Z-3.0596 F180
G01 X209.4282 Y268.9398 Z-3.0790 F180
G01 X209.3040 Y268.9705 Z-3.1160 F180
G01 X209.1890 Y269.0236 Z-3.1332 F180
G01 X209.1455 Y269.0513 Z-3.1340 F180
G01 X209.0504 Y269.1329 Z-3.1222 F180
G01 X208.9728 Y269.2312 Z-3.0964 F180
G01 X208.9467 Y269.2755 Z-3.0841 F180
G01 X208.8988 Y269.3921 Z-3.0560 F180
G01 X208.8736 Y269.5168 Z-3.0391 F180
G01 X208.8701 Y269.5692 Z-3.0374 F180
G01 X208.8792 Y269.6989 Z-3.0482 F180
G01 X208.9124 Y269.8266 Z-3.0798 F180
G01 X208.9328 Y269.8773 Z-3.0976 F180
G01 X208.9991 Y269.9960 Z-3.1484 F180
G01 X209.0866 Y270.1031 Z-3.2006 F180
G01 X209.1279 Y270.1426 Z-3.2197 F180
G01 X209.2167 Y270.2466 Z-3.2444 F1200
G01 X209.3006 Y270.3176 Z-3.2499 F1200
G01 X209.4140 Y270.3856 Z-3.2370 F1200
G01 X209.5131 Y270.4244 Z-3.2128 F1200
G01 X209.6386 Y270.4509 Z-3.1732 F1200
G01 X209.7420 Y270.4546 Z-3.1396 F1200
G01 X209.8657 Y270.4381 Z-3.1067 F1200
G01 X209.9621 Y270.4073 Z-3.0921 F1200
G01 X210.0707 Y270.3508 Z-3.0935 F1200
G01 X210.1494 Y270.2896 Z-3.1101 F1200
G01 X210.2308 Y270.2000 Z-3.1447 F1200
G01 X210.2832 Y270.1156 Z-3.1786 F1200
G01 X210.3285 Y270.0033 Z-3.2172 F1200
G01 X210.3485 Y269.9055 Z-3.2398 F1200
G01 X210.3523 Y269.7833 Z-3.2500 F1200
G01 X210.3372 Y269.6828 Z-3.2422 F1200
G01 X210.2983 Y269.5644 Z-3.2154 F1200
G01 X210.2491 Y269.4728 Z-3.1838 F1200
G01 X210.1708 Y269.3717 Z-3.1426 F1200
G01 X210.0919 Y269.2993 Z-3.1137 F1200
G01 X209.9814 Y269.2271 Z-3.0928 F1200
G01 X209.8802 Y269.1825 Z-3.0911 F1200
G01 X209.7483 Y269.1482 Z-3.1081 F1200
G01 X209.6346 Y269.1372 Z-3.1348 F1200
G01 X209.4941 Y269.1458 Z-3.1755 F1200
G01 X209.3790 Y269.1710 Z-3.2082 F1200
G01 X209.2439 Y269.2233 Z-3.2382 F1200
G01 X209.1387 Y269.2834 Z-3.2494 F1200
G01 X209.0223 Y269.3760 Z-3.2435 F1200
G01 X208.9376 Y269.4664 Z-3.2237 F1200
G01 X208.8515 Y269.5916 Z-3.1869 F1200
G01 X208.7957 Y269.7046 Z-3.1528 F1200
G01 X208.7488 Y269.8516 Z-3.1160 F1200
G01 X208.7276 Y269.9774 Z-3.0963 F1200
G01 X208.7248 Y270.1331 Z-3.0906 F1200
G01 X208.7405 Y270.2604 Z-3.1019 F1200
G01 X208.7823 Y270.4109 Z-3.1320 F1200
G01 X208.8336 Y270.5283 Z-3.1648 F1200
G01 X208.9164 Y270.6602 Z-3.2054 F1200
G01 X208.9986 Y270.7573 Z-3.2321 F1200
G01 X209.1146 Y270.8590 Z-3.2490 F1200
G01 X209.2199 Y270.9274 Z-3.2471 F1200
G01 X209.3581 Y270.9901 Z-3.2260 F1200
G01 X209.4764 Y271.0243 Z-3.1972 F1200
G01 X209.6239 Y271.0434 Z-3.1559 F1200
G01 X209.7441 Y271.0411 Z-3.1244 F1200
G01 X209.8868 Y271.0161 Z-3.0976 F1200
G01 X209.9974 Y270.9788 Z-3.0900 F1200
G01 X210.1221 Y270.9136 Z-3.1003 F1200
G01 X210.2130 Y270.8462 Z-3.1230 F1200
G01 X210.3081 Y270.7487 Z-3.1617 F1200
G01 X210.3709 Y270.6590 Z-3.1956 F1200
G01 X210.4281 Y270.5402 Z-3.2301 F1200
G01 X210.4576 Y270.4382 Z-3.2466 F1200
G01 X210.4723 Y270.3112 Z-3.2479 F1200
G01 X210.4664 Y270.2081 Z-3.2331 F1200
G01 X210.4385 Y270.0867 Z-3.2001 F1200
G01 X210.3989 Y269.9939 Z-3.1665 F1200
G01 X210.3325 Y269.8913 Z-3.1270 F1200
G01 X210.2642 Y269.8187 Z-3.1028 F1200
G01 X210.1674 Y269.7461 Z-3.0901 F1200
G01 X210.0785 Y269.7018 Z-3.0957 F1200
G01 X209.9624 Y269.6673 Z-3.1205 F1200
G01 X209.8629 Y269.6566 Z-3.1512 F1200
G01 X209.7407 Y269.6643 Z-3.1926 F1200
G01 X209.6420 Y269.6887 Z-3.2225 F1200
G01 X209.5274 Y269.7386 Z-3.2456 F1200
G01 X209.4405 Y269.7962 Z-3.2496 F1200
G01 X209.3468 Y269.8839 Z-3.2350 F1200
G01 X209.2817 Y269.9693 Z-3.2097 F1200
G01 X209.2198 Y270.0863 Z-3.1696 F1200
G01 X209.1845 Y270.1915 Z-3.1363 F1200
G01 X209.1622 Y270.3264 Z-3.1046 F1200
G01 X209.1615 Y270.4410 Z-3.0913 F1200
G01 X209.1828 Y270.5806 Z-3.0946 F1200
G01 X209.2182 Y270.6933 Z-3.1126 F1200
G01 X209.2826 Y270.8236 Z-3.1481 F1200
G01 X209.3519 Y270.9232 Z-3.1822 F1200
G01 X209.4547 Y271.0313 Z-3.2201 F1200
G01 X209.5524 Y271.1078 Z-3.2415 F1200
G01 X209.6850 Y271.1826 Z-3.2499 F1200
G01 X209.8027 Y271.2283 Z-3.2406 F1200
G01 X209.9534 Y271.2622 Z-3.2124 F1200
G01 X210.0806 Y271.2722 Z-3.1803 F1200
G01 X210.2361 Y271.2614 Z-3.1392 F1200
G01 X210.3615 Y271.2346 Z-3.1113 F1200
G01 X210.5078 Y271.1797 Z-3.0920 F1200
G01 X210.6202 Y271.1183 Z-3.0917 F1200
G01 X210.7443 Y271.0243 Z-3.1104 F1200
G01 X210.8337 Y270.9341 Z-3.1381 F1200
G01 X210.9246 Y270.8097 Z-3.1790 F1200
G01 X210.9834 Y270.6991 Z-3.2113 F1200
G01 X211.0336 Y270.5560 Z-3.2400 F1200
G01 X211.0571 Y270.4354 Z-3.2498 F1200
G01 X211.0630 Y270.2872 Z-3.2421 F1200
G01 X211.0501 Y270.1681 Z-3.2210 F1200
G01 X211.0126 Y270.0286 Z-3.1834 F1200
G01 X210.9656 Y269.9220 Z-3.1493 F1200
G01 X210.8897 Y269.8041 Z-3.1134 F1200
G01 X210.8146 Y269.7200 Z-3.0950 F1200
G01 X210.7092 Y269.6344 Z-3.0911 F1200
G01 X210.6144 Y269.5802 Z-3.1039 F1200
G01 X210.4913 Y269.5342 Z-3.1352 F1200
G01 X210.3873 Y269.5144 Z-3.1684 F1200
G01 X210.2599 Y269.5114 Z-3.2086 F1200
G01 X210.1581 Y269.5269 Z-3.2343 F1200
G01 X210.0401 Y269.5659 Z-3.2495 F1200
G01 X209.9515 Y269.6139 Z-3.2460 F1200
G01 X209.8557 Y269.6896 Z-3.2234 F1200
G01 X209.7899 Y269.7643 Z-3.1938 F1200
G01 X209.7267 Y269.8675 Z-3.1524 F1200
G01 X209.6911 Y269.9602 Z-3.1215 F1200
G01 X209.6676 Y270.0791 Z-3.0962 F1200
G01 X209.6662 Y270.1792 Z-3.0900 F1200
G01 X209.6855 Y270.3004 Z-3.1021 F1200
G01 X209.7190 Y270.3967 Z-3.1260 F1200
G01 X209.7795 Y270.5063 Z-3.1652 F1200
G01 X209.8451 Y270.5877 Z-3.1989 F1200
G01 X209.9413 Y270.6732 Z-3.2324 F1200
G01 X210.0327 Y270.7303 Z-3.2476 F1200
G01 X210.1552 Y270.7815 Z-3.2470 F1200
G01 X210.2635 Y270.8072 Z-3.2309 F1200
G01 X210.4004 Y270.8172 Z-3.1968 F1200
G01 X210.5149 Y270.8075 Z-3.1629 F1200
G01 X210.6524 Y270.7737 Z-3.1240 F1200
G01 X210.7618 Y270.7282 Z-3.1009 F1200
G01 X210.8862 Y270.6522 Z-3.0900 F1200
G01 X210.9795 Y270.5741 Z-3.0971 F1200
G01 X211.0783 Y270.4619 Z-3.1234 F1200
G01 X211.1460 Y270.3577 Z-3.1547 F1200
G01 X211.2090 Y270.2188 Z-3.1960 F1200
G01 X211.2442 Y270.0974 Z-3.2251 F1200
G01 X211.2647 Y269.9441 Z-3.2467 F1200
G01 X211.2635 Y269.8163 Z-3.2492 F1200
G01 X211.2391 Y269.6623 Z-3.2329 F1200
G01 X211.2014 Y269.5397 Z-3.2065 F1200
G01 X211.1339 Y269.3988 Z-3.1661 F1200
G01 X211.0629 Y269.2923 Z-3.1331 F1200
G01 X210.9585 Y269.1771 Z-3.1026 F1200
G01 X210.8608 Y269.0960 Z-3.0908 F1200
G01 X210.7291 Y269.0165 Z-3.0959 F1200
G01 X210.6139 Y268.9678 Z-3.1151 F1200
G01 X210.4673 Y268.9305 Z-3.1516 F1200
G01 X210.3454 Y268.9178 Z-3.1857 F1200
G01 X210.1976 Y268.9250 Z-3.2228 F1200
G01 X210.0804 Y268.9485 Z-3.2430 F1200
G01 X209.9452 Y268.9981 Z-3.2496 F1200
G01 X209.8436 Y269.0543 Z-3.2389 F1200
G01 X209.7333 Y269.1402 Z-3.2093 F1200
G01 X209.6566 Y269.2224 Z-3.1767 F1200
G01 X209.5812 Y269.3347 Z-3.1360 F1200
G01 X209.5360 Y269.4338 Z-3.1089 F1200
G01 X209.5017 Y269.5602 Z-3.0913 F1200
G01 X209.4915 Y269.6652 Z-3.0925 F1200
G01 X209.5004 Y269.7921 Z-3.1129 F1200
G01 X209.5251 Y269.8917 Z-3.1414 F1200
G01 X209.5749 Y270.0053 Z-3.1826 F1200
G01 X209.6309 Y270.0889 Z-3.2144 F1200
G01 X209.7151 Y270.1771 Z-3.2417 F1200
G01 X209.7956 Y270.2355 Z-3.2500 F1200
G01 X209.9043 Y270.2886 Z-3.2404 F1200
G01 X210.0000 Y270.3154 Z-3.2182 F1200
G01 X210.1206 Y270.3276 Z-3.1799 F1200
G01 X210.2206 Y270.3195 Z-3.1459 F1200
G01 X210.3396 Y270.2890 Z-3.1110 F1200
G01 X210.4326 Y270.2465 Z-3.0938 F1200
G01 X210.5363 Y270.1759 Z-3.0918 F1200
G01 X210.6116 Y270.1028 Z-3.1059 F1200
G01 X210.6881 Y269.9989 Z-3.1385 F1200
G01 X210.7367 Y269.9023 Z-3.1720 F1200
G01 X210.7766 Y269.7752 Z-3.2117 F1200
G01 X210.7924 Y269.6647 Z-3.2364 F1200
G01 X210.7900 Y269.5270 Z-3.2498 F1200
G01 X210.7700 Y269.4135 Z-3.2449 F1200
G01 X210.7238 Y269.2792 Z-3.2207 F1200
G01 X210.6686 Y269.1740 Z-3.1903 F1200
G01 X210.5816 Y269.0565 Z-3.1489 F1200
G01 X210.4953 Y268.9703 Z-3.1187 F1200
G01 X210.3745 Y268.8817 Z-3.0949 F1200
G01 X210.2645 Y268.8233 Z-3.0902 F1200
G01 X210.1203 Y268.7727 Z-3.1041 F1200
G01 X209.9961 Y268.7483 Z-3.1290 F1200
G01 X209.8415 Y268.7413 Z-3.1688 F1200
G01 X209.7142 Y268.7537 Z-3.2023 F1200
G01 X209.5629 Y268.7915 Z-3.2345 F1200
G01 X209.4440 Y268.8399 Z-3.2484 F1200
G01 X209.3096 Y268.9194 Z-3.2459 F1200
G01 X209.2098 Y268.9994 Z-3.2285 F1200
G01 X209.1043 Y269.1135 Z-3.1934 F1200
G01 X209.0322 Y269.2178 Z-3.1594 F1200
G01 X208.9647 Y269.3558 Z-3.1211 F1200
G01 X208.9264 Y269.4746 Z-3.0992 F1200
G00 Z6.0000 F480


;No. 5: Hole 5
G00 X209.5911 Y149.7227 Z6.0000 F1500
G00 X210.3740 Y149.5847 Z0.5107 F480
G01 X210.3381 Y149.4508 Z0.5223 F180
G01 X210.2795 Y149.3252 Z0.5447 F180
G01 X210.2001 Y149.2117 Z0.5670 F180
G01 X210.1021 Y149.1137 Z0.5786 F180
G01 X209.9886 Y149.0342 Z0.5717 F180
G01 X209.8630 Y148.9757 Z0.5433 F180
G01 X209.7291 Y148.9398 Z0.4963 F180
G01 X209.5911 Y148.9277 Z0.4387 F180
G01 X209.4530 Y148.9398 Z0.3810 F180
G01 X209.3191 Y148.9757 Z0.3341 F180
G01 X209.1936 Y149.0342 Z0.3057 F180
G01 X209.0800 Y149.1137 Z0.2987 F180
G01 X208.9820 Y149.2117 Z0.3103 F180
G01 X208.9026 Y149.3252 Z0.3327 F180
G01 X208.8440 Y149.4508 Z0.3550 F180
G01 X208.8081 Y149.5847 Z0.3666 F180
G01 X208.7961 Y149.7227 Z0.3597 F180
G01 X208.8081 Y149.8608 Z0.3313 F180
G01 X208.8440 Y149.9946 Z0.2843 F180
G01 X208.9026 Y150.1202 Z0.2267 F180
G01 X208.9820 Y150.2337 Z0.1690 F180
G01 X209.0800 Y150.3317 Z0.1221 F180
G01 X209.1936 Y150.4112 Z0.0937 F180
G01 X209.3191 Y150.4698 Z0.0867 F180
G01 X209.4530 Y150.5057 Z0.0983 F180
G01 X209.5911 Y150.5177 Z0.1207 F180
G01 X209.7291 Y150.5057 Z0.1430 F180
G01 X209.8630 Y150.4698 Z0.1546 F180
G01 X209.9019 Y150.4544 Z0.1547 F180
G01 X210.0171 Y150.4006 Z0.1474 F180
G01 X210.1192 Y150.3266 Z0.1190 F180
G01 X210.1574 Y150.2899 Z0.1016 F180
G01 X210.2359 Y150.1921 Z0.0520 F180
G01 X210.2941 Y150.0812 Z-0.0007 F180
G01 X210.3120 Y150.0315 Z-0.0211 F180
G01 X210.3389 Y149.9089 Z-0.0597 F180
G01 X210.3419 Y149.7827 Z-0.0789 F180
G01 X210.3360 Y149.7295 Z-0.0805 F180
G01 X210.3055 Y149.6058 Z-0.0702 F180
G01 X210.2519 Y149.4886 Z-0.0452 F180
G01 X210.2226 Y149.4421 Z-0.0326 F180
G01 X210.1395 Y149.3412 Z-0.0041 F180
G01 X210.0377 Y149.2557 Z0.0138 F180
G01 X209.9900 Y149.2251 Z0.0162 F180
G01 X209.8680 Y149.1669 Z0.0066 F180
G01 X209.7355 Y149.1304 Z-0.0239 F180
G01 X209.6774 Y149.1219 Z-0.0420 F180
G01 X209.5375 Y149.1188 Z-0.0924 F180
G01 X209.3969 Y149.1400 Z-0.1448 F180
G01 X209.3385 Y149.1560 Z-0.1647 F180
G01 X209.2049 Y149.2110 Z-0.2015 F180
G01 X209.0806 Y149.2883 Z-0.2185 F180
G01 X209.0319 Y149.3270 Z-0.2191 F180
G01 X208.9280 Y149.4326 Z-0.2069 F180
G01 X208.8416 Y149.5547 Z-0.1809 F180
G01 X208.8111 Y149.6103 Z-0.1682 F180
G01 X208.7549 Y149.7502 Z-0.1403 F180
G01 X208.7216 Y149.8980 Z-0.1240 F180
G01 X208.7146 Y149.9616 Z-0.1226 F180
G01 X208.7162 Y150.1135 Z-0.1345 F180
G01 X208.7418 Y150.2632 Z-0.1670 F180
G01 X208.7596 Y150.3246 Z-0.1857 F180
G01 X208.8188 Y150.4640 Z-0.2369 F180
G01 X208.8991 Y150.5916 Z-0.2888 F180
G01 X208.9387 Y150.6410 Z-0.3082 F180
G01 X209.0455 Y150.7457 Z-0.3431 F180
G01 X209.1667 Y150.8310 Z-0.3578 F180
G01 X209.2212 Y150.8606 Z-0.3575 F180
G01 X209.3573 Y150.9144 Z-0.3434 F180
G01 X209.4986 Y150.9447 Z-0.3165 F180
G01 X209.5586 Y150.9502 Z-0.3038 F180
G01 X209.7008 Y150.9458 Z-0.2767 F180
G01 X209.8379 Y150.9179 Z-0.2621 F180
G01 X209.8932 Y150.8993 Z-0.2617 F180
G01 X210.0172 Y150.8398 Z-0.2758 F180
G01 X210.1269 Y150.7607 Z-0.3103 F180
G01 X210.1680 Y150.7222 Z-0.3296 F180
G01 X210.2529 Y150.6199 Z-0.3814 F180
G01 X210.3168 Y150.5057 Z-0.4327 F180
G01 X210.3370 Y150.4550 Z-0.4515 F180
G01 X210.3689 Y150.3301 Z-0.4845 F180
G01 X210.3768 Y150.2029 Z-0.4969 F180
G01 X210.3729 Y150.1497 Z-0.4957 F180
G01 X210.3475 Y150.0260 Z-0.4798 F180
G01 X210.2992 Y149.9102 Z-0.4521 F180
G01 X210.2724 Y149.8646 Z-0.4394 F180
G01 X210.1954 Y149.7659 Z-0.4132 F180
G01 X210.1008 Y149.6836 Z-0.4005 F180
G01 X210.0564 Y149.6546 Z-0.4009 F180
G01 X209.9428 Y149.5999 Z-0.4174 F180
G01 X209.8198 Y149.5675 Z-0.4537 F180
G01 X209.7662 Y149.5608 Z-0.4735 F180
G01 X209.6376 Y149.5614 Z-0.5258 F180
G01 X209.5096 Y149.5863 Z-0.5764 F180
G01 X209.4569 Y149.6038 Z-0.5947 F180
G01 X209.3375 Y149.6613 Z-0.6256 F180
G01 X209.2286 Y149.7406 Z-0.6357 F180
G01 X209.1867 Y149.7800 Z-0.6336 F180
G01 X209.0994 Y149.8856 Z-0.6161 F180
G01 X209.0305 Y150.0068 Z-0.5877 F180
G01 X209.0076 Y150.0617 Z-0.5751 F180
G01 X208.9694 Y150.1983 Z-0.5498 F180
G01 X208.9545 Y150.3415 Z-0.5390 F180
G01 X208.9554 Y150.4028 Z-0.5404 F180
G01 X208.9752 Y150.5475 Z-0.5592 F180
G01 X209.0188 Y150.6888 Z-0.5973 F180
G01 X209.0441 Y150.7462 Z-0.6176 F180
G01 X209.1203 Y150.8747 Z-0.6702 F180
G01 X209.2168 Y150.9902 Z-0.7201 F180
G01 X209.2630 Y151.0341 Z-0.7376 F180
G01 X209.3843 Y151.1247 Z-0.7665 F180
G01 X209.5188 Y151.1951 Z-0.7743 F180
G01 X209.5785 Y151.2182 Z-0.7714 F180
G01 X209.7257 Y151.2558 Z-0.7522 F180
G01 X209.8767 Y151.2696 Z-0.7233 F180
G01 X209.9404 Y151.2681 Z-0.7108 F180
G01 X210.0898 Y151.2468 Z-0.6867 F180
G01 X210.2329 Y151.2022 Z-0.6778 F180
G01 X210.2903 Y151.1767 Z-0.6802 F180
G01 X210.4178 Y151.1008 Z-0.7012 F180
G01 X210.5300 Y151.0061 Z-0.7410 F180
G01 X210.5720 Y150.9613 Z-0.7618 F180
G01 X210.6575 Y150.8445 Z-0.8147 F180
G01 X210.7213 Y150.7169 Z-0.8635 F180
G01 X210.7414 Y150.6608 Z-0.8804 F180
G01 X210.7721 Y150.5239 Z-0.9072 F180
G01 X210.7787 Y150.3861 Z-0.9127 F180
G01 X210.7766 Y150.3519 Z-0.9108 F180
G01 X210.7533 Y150.2180 Z-0.8927 F180
G01 X210.7075 Y150.0924 Z-0.8641 F180
G01 X210.6926 Y150.0628 Z-0.8565 F180
G01 X210.6210 Y149.9522 Z-0.8301 F180
G01 X210.5316 Y149.8581 Z-0.8170 F180
G01 X210.5068 Y149.8374 Z-0.8167 F180
G01 X210.3997 Y149.7669 Z-0.8289 F180
G01 X210.2824 Y149.7183 Z-0.8617 F180
G01 X210.2519 Y149.7098 Z-0.8726 F180
G01 X210.1275 Y149.6898 Z-0.9227 F180
G01 X210.0022 Y149.6939 Z-0.9752 F180
G01 X209.9712 Y149.6987 Z-0.9875 F180
G01 X209.8504 Y149.7319 Z-1.0278 F180
G01 X209.7381 Y149.7877 Z-1.0494 F180
G01 X209.7117 Y149.8050 Z-1.0515 F180
G01 X209.6149 Y149.8857 Z-1.0465 F180
G01 X209.5345 Y149.9842 Z-1.0248 F180
G01 X209.5173 Y150.0112 Z-1.0178 F180
G01 X209.4611 Y150.1266 Z-0.9879 F180
G01 X209.4268 Y150.2521 Z-0.9640 F180
G01 X209.4218 Y150.2847 Z-0.9601 F180
G01 X209.4166 Y150.4164 Z-0.9565 F180
G01 X209.4355 Y150.5491 Z-0.9742 F180
G01 X209.4440 Y150.5820 Z-0.9819 F180
G01 X209.4923 Y150.7091 Z-1.0232 F180
G01 X209.5633 Y150.8279 Z-1.0750 F180
G01 X209.5844 Y150.8559 Z-1.0883 F180
G01 X209.6807 Y150.9582 Z-1.1379 F180
G01 X209.7947 Y151.0440 Z-1.1740 F180
G01 X209.8257 Y151.0626 Z-1.1801 F180
G01 X209.9569 Y151.1233 Z-1.1909 F180
G01 X210.0982 Y151.1621 Z-1.1812 F180
G01 X210.1347 Y151.1682 Z-1.1761 F180
G01 X210.2825 Y151.1769 Z-1.1491 F180
G01 X210.4313 Y151.1616 Z-1.1197 F180
G01 X210.4682 Y151.1540 Z-1.1133 F180
G01 X210.6116 Y151.1082 Z-1.0961 F180
G01 X210.7466 Y151.0397 Z-1.0977 F180
G01 X210.7786 Y151.0193 Z-1.1015 F180
G01 X210.8972 Y150.9245 Z-1.1296 F180
G01 X210.9994 Y150.8121 Z-1.1745 F180
G01 X211.0221 Y150.7815 Z-1.1874 F180
G01 X211.0992 Y150.6509 Z-1.2403 F180
G01 X211.1544 Y150.5102 Z-1.2874 F180
G01 X211.1646 Y150.4738 Z-1.2970 F180
G01 X211.1898 Y150.3256 Z-1.3237 F180
G01 X211.1908 Y150.1765 Z-1.3291 F180
G01 X211.1873 Y150.1395 Z-1.3272 F180
G01 X211.1579 Y149.9947 Z-1.3089 F180
G01 X211.1058 Y149.8583 Z-1.2803 F180
G01 X211.0894 Y149.8259 Z-1.2727 F180
G01 X211.0109 Y149.7049 Z-1.2463 F180
G01 X210.9148 Y149.6003 Z-1.2333 F180
G01 X210.8883 Y149.5771 Z-1.2331 F180
G01 X210.7737 Y149.4966 Z-1.2455 F180
G01 X210.6490 Y149.4381 Z-1.2784 F180
G01 X210.6167 Y149.4270 Z-1.2893 F180
G01 X210.4844 Y149.3975 Z-1.3395 F180
G01 X210.3511 Y149.3922 Z-1.3920 F180
G01 X210.3181 Y149.3946 Z-1.4042 F180
G01 X210.1889 Y149.4188 Z-1.4444 F180
G01 X210.0681 Y149.4656 Z-1.4659 F180
G01 X210.0396 Y149.4807 Z-1.4679 F180
G01 X209.9338 Y149.5529 Z-1.4628 F180
G01 X209.8445 Y149.6429 Z-1.4410 F180
G01 X209.8251 Y149.6678 Z-1.4339 F180
G01 X209.7595 Y149.7753 Z-1.4041 F180
G01 X209.7158 Y149.8928 Z-1.3803 F180
G01 X209.7085 Y149.9233 Z-1.3764 F180
G01 X209.6934 Y150.0476 Z-1.3729 F180
G01 X209.7024 Y150.1728 Z-1.3908 F180
G01 X209.7085 Y150.2038 Z-1.3985 F180
G01 X209.7465 Y150.3241 Z-1.4400 F180
G01 X209.8072 Y150.4360 Z-1.4917 F180
G01 X209.8257 Y150.4622 Z-1.5051 F180
G01 X209.9113 Y150.5582 Z-1.5546 F180
G01 X210.0145 Y150.6378 Z-1.5906 F180
G01 X210.0428 Y150.6548 Z-1.5967 F180
G01 X210.1629 Y150.7098 Z-1.6073 F180
G01 X210.2931 Y150.7429 Z-1.5974 F180
G01 X210.3268 Y150.7476 Z-1.5923 F180
G01 X210.4647 Y150.7780 Z-1.5653 F180
G01 X210.6035 Y150.7843 Z-1.5359 F180
G01 X210.6379 Y150.7821 Z-1.5295 F180
G01 X210.7711 Y150.7586 Z-1.5124 F180
G01 X210.8958 Y150.7125 Z-1.5142 F180
G01 X210.9253 Y150.6976 Z-1.5180 F180
G01 X211.0334 Y150.6257 Z-1.5463 F180
G01 X211.1250 Y150.5361 Z-1.5912 F180
G01 X211.1450 Y150.5113 Z-1.6041 F180
G01 X211.2114 Y150.4039 Z-1.6571 F180
G01 X211.2558 Y150.2866 Z-1.7041 F180
G01 X211.2633 Y150.2561 Z-1.7137 F180
G01 X211.2775 Y150.1316 Z-1.7402 F180
G01 X211.2676 Y150.0062 Z-1.7454 F180
G01 X211.2613 Y149.9752 Z-1.7435 F180
G01 X211.2208 Y149.8545 Z-1.7251 F180
G01 X211.1576 Y149.7422 Z-1.6964 F180
G01 X211.1385 Y149.7159 Z-1.6889 F180
G01 X211.0489 Y149.6192 Z-1.6626 F180
G01 X210.9416 Y149.5390 Z-1.6497 F180
G01 X210.9123 Y149.5218 Z-1.6495 F180
G01 X210.7866 Y149.4658 Z-1.6620 F180
G01 X210.6509 Y149.4317 Z-1.6951 F180
G01 X210.6158 Y149.4268 Z-1.7061 F180
G01 X210.4723 Y149.4218 Z-1.7563 F180
G01 X210.3281 Y149.4409 Z-1.8087 F180
G01 X210.2923 Y149.4495 Z-1.8209 F180
G01 X210.1521 Y149.4980 Z-1.8611 F180
G01 X210.0204 Y149.5692 Z-1.8824 F180
G01 X209.9892 Y149.5904 Z-1.8843 F180
G01 X209.8726 Y149.6868 Z-1.8791 F180
G01 X209.7725 Y149.8009 Z-1.8572 F180
G01 X209.7504 Y149.8319 Z-1.8501 F180
G01 X209.6741 Y149.9632 Z-1.8203 F180
G01 X209.6198 Y150.1045 Z-1.7965 F180
G01 X209.6098 Y150.1410 Z-1.7927 F180
G01 X209.5843 Y150.2888 Z-1.7894 F180
G01 X209.5828 Y150.4374 Z-1.8074 F180
G01 X209.5863 Y150.4742 Z-1.8151 F180
G01 X209.6140 Y150.6175 Z-1.8567 F180
G01 X209.6644 Y150.7522 Z-1.9085 F180
G01 X209.6804 Y150.7842 Z-1.9219 F180
G01 X209.7559 Y150.9025 Z-1.9713 F180
G01 X209.8491 Y151.0044 Z-2.0072 F180
G01 X209.8748 Y151.0270 Z-2.0132 F180
G01 X209.9851 Y151.1037 Z-2.0237 F180
G01 X210.1054 Y151.1585 Z-2.0137 F180
G01 X210.1366 Y151.1686 Z-2.0085 F180
G01 X210.2634 Y151.1933 Z-1.9814 F180
G01 X210.3909 Y151.1940 Z-1.9521 F180
G01 X210.4225 Y151.1903 Z-1.9457 F180
G01 X210.5448 Y151.1605 Z-1.9288 F180
G01 X210.6586 Y151.1080 Z-1.9307 F180
G01 X210.6853 Y151.0915 Z-1.9345 F180
G01 X210.7829 Y151.0127 Z-1.9629 F180
G01 X210.8639 Y150.9162 Z-2.0080 F180
G01 X210.8813 Y150.8896 Z-2.0209 F180
G01 X210.9375 Y150.7747 Z-2.0739 F180
G01 X210.9717 Y150.6498 Z-2.1207 F180
G01 X210.9766 Y150.6174 Z-2.1303 F180
G01 X210.9811 Y150.4849 Z-2.1567 F180
G01 X210.9614 Y150.3515 Z-2.1618 F180
G01 X210.9528 Y150.3185 Z-2.1598 F180
G01 X210.9030 Y150.1892 Z-2.1413 F180
G01 X210.8307 Y150.0684 Z-2.1126 F180
G01 X210.8092 Y150.0399 Z-2.1051 F180
G01 X210.7110 Y149.9342 Z-2.0788 F180
G01 X210.5951 Y149.8449 Z-2.0661 F180
G01 X210.5636 Y149.8255 Z-2.0659 F180
G01 X210.4299 Y149.7600 Z-2.0786 F180
G01 X210.2862 Y149.7164 Z-2.1118 F180
G01 X210.2491 Y149.7092 Z-2.1228 F180
G01 X210.0983 Y149.6942 Z-2.1730 F180
G01 X209.9467 Y149.7034 Z-2.2255 F180
G01 X209.9091 Y149.7095 Z-2.2377 F180
G01 X209.7623 Y149.7476 Z-2.2777 F180
G01 X209.6239 Y149.8084 Z-2.2988 F180
G01 X209.5910 Y149.8270 Z-2.3008 F180
G01 X209.4685 Y149.9126 Z-2.2954 F180
G01 X209.3625 Y150.0159 Z-2.2734 F180
G01 X209.3389 Y150.0442 Z-2.2663 F180
G01 X209.2574 Y150.1643 Z-2.2365 F180
G01 X209.1979 Y150.2944 Z-2.2128 F180
G01 X209.1866 Y150.3281 Z-2.2090 F180
G01 X209.1565 Y150.4642 Z-2.2058 F180
G01 X209.1506 Y150.6012 Z-2.2240 F180
G01 X209.1553 Y150.6581 Z-2.2378 F180
G01 X209.1833 Y150.7882 Z-2.2818 F180
G01 X209.2336 Y150.9092 Z-2.3344 F180
G01 X209.2610 Y150.9564 Z-2.3564 F180
G01 X209.3398 Y151.0572 Z-2.4022 F180
G01 X209.4352 Y151.1404 Z-2.4316 F180
G01 X209.4796 Y151.1695 Z-2.4378 F180
G01 X209.5931 Y151.2226 Z-2.4372 F180
G01 X209.7146 Y151.2529 Z-2.4185 F180
G01 X209.7672 Y151.2586 Z-2.4070 F180
G01 X209.8933 Y151.2541 Z-2.3772 F180
G01 X210.0174 Y151.2255 Z-2.3527 F180
G01 X210.0680 Y151.2064 Z-2.3465 F180
G01 X210.1824 Y151.1442 Z-2.3455 F180
G01 X210.2850 Y151.0609 Z-2.3659 F180
G01 X210.3238 Y151.0201 Z-2.3805 F180
G01 X210.4043 Y150.9102 Z-2.4260 F180
G01 X210.4653 Y150.7859 Z-2.4788 F180
G01 X210.4847 Y150.7301 Z-2.5006 F180
G01 X210.5150 Y150.5908 Z-2.5450 F180
G01 X210.5217 Y150.4463 Z-2.5723 F180
G01 X210.5174 Y150.3849 Z-2.5775 F180
G01 X210.4903 Y150.2394 Z-2.5748 F180
G01 X210.4396 Y150.0988 Z-2.5546 F180
G01 X210.4114 Y150.0421 Z-2.5427 F180
G01 X210.3299 Y149.9147 Z-2.5129 F180
G01 X210.2288 Y149.8015 Z-2.4897 F180
G01 X210.1810 Y149.7588 Z-2.4843 F180
G01 X210.0576 Y149.6705 Z-2.4855 F180
G01 X209.9222 Y149.6031 Z-2.5081 F180
G01 X209.8624 Y149.5814 Z-2.5235 F180
G01 X209.7172 Y149.5460 Z-2.5702 F180
G01 X209.5695 Y149.5347 Z-2.6232 F180
G01 X209.5077 Y149.5372 Z-2.6447 F180
G01 X209.3646 Y149.5593 Z-2.6876 F180
G01 X209.2292 Y149.6044 Z-2.7128 F180
G01 X209.1754 Y149.6298 Z-2.7170 F180
G01 X209.0582 Y149.7039 Z-2.7122 F180
G01 X208.9574 Y149.7956 Z-2.6905 F180
G01 X208.9205 Y149.8388 Z-2.6784 F180
G01 X208.8485 Y149.9498 Z-2.6488 F180
G01 X208.7987 Y150.0702 Z-2.6268 F180
G01 X208.7848 Y150.1228 Z-2.6222 F180
G01 X208.7694 Y150.2492 Z-2.6256 F180
G01 X208.7782 Y150.3752 Z-2.6505 F180
G01 X208.7891 Y150.4271 Z-2.6666 F180
G01 X208.8320 Y150.5447 Z-2.7145 F180
G01 X208.8968 Y150.6520 Z-2.7675 F180
G01 X208.9301 Y150.6932 Z-2.7886 F180
G01 X209.0228 Y150.7793 Z-2.8300 F180
G01 X209.1312 Y150.8469 Z-2.8530 F180
G01 X209.1808 Y150.8693 Z-2.8563 F180
G01 X209.3062 Y150.9065 Z-2.8494 F180
G01 X209.4384 Y150.9205 Z-2.8264 F180
G01 X209.4951 Y150.9192 Z-2.8140 F180
G01 X209.6305 Y150.8988 Z-2.7847 F180
G01 X209.7626 Y150.8544 Z-2.7642 F180
G01 X209.8162 Y150.8288 Z-2.7604 F180
G01 X209.9372 Y150.7521 Z-2.7661 F180
G01 X210.0454 Y150.6549 Z-2.7930 F180
G01 X210.0863 Y150.6085 Z-2.8100 F180
G01 X210.1714 Y150.4868 Z-2.8589 F180
G01 X210.2363 Y150.3517 Z-2.9117 F180
G01 X210.2571 Y150.2917 Z-2.9325 F180
G01 X210.2910 Y150.1441 Z-2.9722 F180
G01 X210.3010 Y149.9925 Z-2.9930 F180
G01 X210.2980 Y149.9286 Z-2.9953 F180
