;Project case-top
;Created by Estlcam version 11 build 11.245
;Machining time about 00:08:10 hours

G90
M03 S10000
G00 X0.0000 Y0.0000 Z0.0000 F1500
G00 Z6.0000 F480


;No. 1: Part 1
G00 X-0.1408 Y-1.0150 F1500
G00 X0.6422 Y-1.1531 Z0.5107 F480
G01 X0.6063 Y-1.2869 Z0.5223 F180 S10000
G01 X0.5477 Y-1.4125 Z0.5447 F180
G01 X0.4682 Y-1.5260 Z0.5670 F180
G01 X0.3702 Y-1.6240 Z0.5786 F180
G01 X0.2567 Y-1.7035 Z0.5717 F180
G01 X0.1311 Y-1.7621 Z0.5433 F180
G01 X-0.0027 Y-1.7980 Z0.4963 F180
G01 X-0.1408 Y-1.8100 Z0.4387 F180
G01 X-0.2788 Y-1.7980 Z0.3810 F180
G01 X-0.4127 Y-1.7621 Z0.3341 F180
G01 X-0.5383 Y-1.7035 Z0.3057 F180
G01 X-0.6518 Y-1.6240 Z0.2987 F180
G01 X-0.7498 Y-1.5260 Z0.3103 F180
G01 X-0.8293 Y-1.4125 Z0.3327 F180
G01 X-0.8878 Y-1.2869 Z0.3550 F180
G01 X-0.9237 Y-1.1531 Z0.3666 F180
G01 X-0.9358 Y-1.0150 Z0.3597 F180
G01 X-0.9237 Y-0.8770 Z0.3313 F180
G01 X-0.8878 Y-0.7431 Z0.2843 F180
G01 X-0.8293 Y-0.6175 Z0.2267 F180
G01 X-0.7498 Y-0.5040 Z0.1690 F180
G01 X-0.6518 Y-0.4060 Z0.1221 F180
G01 X-0.5383 Y-0.3265 Z0.0937 F180
G01 X-0.4127 Y-0.2680 Z0.0867 F180
G01 X-0.2788 Y-0.2321 Z0.0983 F180
G01 X-0.1408 Y-0.2200 Z0.1207 F180
G01 X-0.0027 Y-0.2321 Z0.1430 F180
G01 X0.1311 Y-0.2680 Z0.1546 F180
G01 X0.1701 Y-0.2833 Z0.1547 F180
G01 X0.3030 Y-0.3566 Z0.1474 F180
G01 X0.4228 Y-0.4500 Z0.1190 F180
G01 X0.5261 Y-0.5612 Z0.0739 F180
G01 X0.6101 Y-0.6868 Z0.0211 F180
G01 X0.6726 Y-0.8235 Z-0.0282 F180
G01 X0.7119 Y-0.9671 Z-0.0641 F180
G01 X0.7273 Y-1.1137 Z-0.0800 F180
G01 X0.7186 Y-1.2591 Z-0.0747 F180
G01 X0.6863 Y-1.3990 Z-0.0527 F180
G01 X0.6318 Y-1.5295 Z-0.0231 F180
G01 X0.5571 Y-1.6467 Z0.0032 F180
G01 X0.4647 Y-1.7476 Z0.0159 F180
G01 X0.3577 Y-1.8291 Z0.0086 F180
G01 X0.2398 Y-1.8891 Z-0.0198 F180
G01 X0.1149 Y-1.9260 Z-0.0649 F180
G01 X-0.0130 Y-1.9389 Z-0.1177 F180
G01 X-0.1397 Y-1.9277 Z-0.1670 F180
G01 X-0.2608 Y-1.8929 Z-0.2029 F180
G01 X-0.3726 Y-1.8359 Z-0.2188 F180
G01 X-0.4711 Y-1.7587 Z-0.2135 F180
G01 X-0.5532 Y-1.6638 Z-0.1915 F180
G01 X-0.6160 Y-1.5544 Z-0.1619 F180
G01 X-0.6573 Y-1.4340 Z-0.1356 F180
G01 X-0.6755 Y-1.3066 Z-0.1229 F180
G01 X-0.6697 Y-1.1762 Z-0.1302 F180
G01 X-0.6397 Y-1.0471 Z-0.1586 F180
G01 X-0.5863 Y-0.9234 Z-0.2037 F180
G01 X-0.5106 Y-0.8092 Z-0.2565 F180
G01 X-0.4146 Y-0.7082 Z-0.3058 F180
G01 X-0.3010 Y-0.6236 Z-0.3417 F180
G01 X-0.1728 Y-0.5583 Z-0.3576 F180
G01 X-0.0337 Y-0.5146 Z-0.3523 F180
G01 X0.1124 Y-0.4939 Z-0.3303 F180
G01 X0.2615 Y-0.4972 Z-0.3007 F180
G01 X0.4093 Y-0.5247 Z-0.2744 F180
G01 X0.4270 Y-0.5297 Z-0.2720 F180
G01 X0.5690 Y-0.5827 Z-0.2614 F180
G01 X0.7011 Y-0.6577 Z-0.2713 F180
G01 X0.8196 Y-0.7527 Z-0.3022 F180
G01 X0.9212 Y-0.8649 Z-0.3487 F180
G01 X1.0033 Y-0.9914 Z-0.4017 F180
G01 X1.0636 Y-1.1283 Z-0.4499 F180
G01 X1.1006 Y-1.2718 Z-0.4836 F180
G01 X1.1136 Y-1.4177 Z-0.4968 F180
G01 X1.1025 Y-1.5618 Z-0.4891 F180
G01 X1.0680 Y-1.7000 Z-0.4657 F180
G01 X1.0115 Y-1.8282 Z-0.4359 F180
G01 X0.9350 Y-1.9429 Z-0.4108 F180
G01 X0.8412 Y-2.0407 Z-0.4002 F180
G01 X0.7333 Y-2.1189 Z-0.4101 F180
G01 X0.6149 Y-2.1754 Z-0.4410 F180
G01 X0.4899 Y-2.2086 Z-0.4875 F180
G01 X0.3625 Y-2.2178 Z-0.5405 F180
G01 X0.2369 Y-2.2029 Z-0.5887 F180
G01 X0.1172 Y-2.1646 Z-0.6224 F180
G01 X0.0074 Y-2.1043 Z-0.6356 F180
G01 X-0.0888 Y-2.0240 Z-0.6279 F180
G01 X-0.1681 Y-1.9263 Z-0.6045 F180
G01 X-0.2278 Y-1.8146 Z-0.5747 F180
G01 X-0.2658 Y-1.6924 Z-0.5496 F180
G01 X-0.2805 Y-1.5636 Z-0.5390 F180
G01 X-0.2712 Y-1.4323 Z-0.5489 F180
G01 X-0.2378 Y-1.3029 Z-0.5798 F180
G01 X-0.1810 Y-1.1794 Z-0.6263 F180
G01 X-0.1022 Y-1.0658 Z-0.6793 F180
G01 X-0.0034 Y-0.9658 Z-0.7275 F180
G01 X0.1127 Y-0.8827 Z-0.7612 F180
G01 X0.2430 Y-0.8191 Z-0.7744 F180
G01 X0.3837 Y-0.7773 Z-0.7668 F180
G01 X0.5310 Y-0.7588 Z-0.7433 F180
G01 X0.6807 Y-0.7642 Z-0.7135 F180
G01 X0.6989 Y-0.7666 Z-0.7100 F180
G01 X0.8468 Y-0.7982 Z-0.6862 F180
G01 X0.9883 Y-0.8532 Z-0.6779 F180
G01 X1.1194 Y-0.9299 Z-0.6904 F180
G01 X1.2365 Y-1.0263 Z-0.7235 F180
G01 X1.3364 Y-1.1397 Z-0.7715 F180
G01 X1.4164 Y-1.2668 Z-0.8244 F180
G01 X1.4745 Y-1.4039 Z-0.8714 F180
G01 X1.5091 Y-1.5470 Z-0.9028 F180
G01 X1.5197 Y-1.6921 Z-0.9134 F180
G01 X1.5062 Y-1.8349 Z-0.9034 F180
G01 X1.4694 Y-1.9713 Z-0.8786 F180
G01 X1.4109 Y-2.0973 Z-0.8488 F180
G01 X1.3326 Y-2.2092 Z-0.8250 F180
G01 X1.2374 Y-2.3040 Z-0.8167 F180
G01 X1.1285 Y-2.3789 Z-0.8292 F180
G01 X1.0096 Y-2.4317 Z-0.8624 F180
G01 X0.8846 Y-2.4613 Z-0.9103 F180
G01 X0.7577 Y-2.4667 Z-0.9632 F180
G01 X0.6330 Y-2.4481 Z-1.0102 F180
G01 X0.5148 Y-2.4062 Z-1.0416 F180
G01 X0.4070 Y-2.3425 Z-1.0522 F180
G01 X0.3132 Y-2.2591 Z-1.0422 F180
G01 X0.2367 Y-2.1587 Z-1.0174 F180
G01 X0.1800 Y-2.0447 Z-0.9876 F180
G01 X0.1453 Y-1.9206 Z-0.9638 F180
G01 X0.1339 Y-1.7905 Z-0.9555 F180
G01 X0.1467 Y-1.6584 Z-0.9680 F180
G01 X0.1834 Y-1.5287 Z-1.0012 F180
G01 X0.2435 Y-1.4053 Z-1.0491 F180
G01 X0.3254 Y-1.2924 Z-1.1020 F180
G01 X0.4270 Y-1.1934 Z-1.1490 F180
G01 X0.5455 Y-1.1117 Z-1.1804 F180
G01 X0.6777 Y-1.0499 Z-1.1910 F180
G01 X0.8199 Y-1.0100 Z-1.1810 F180
G01 X0.9682 Y-0.9936 Z-1.1562 F180
G01 X0.9865 Y-0.9932 Z-1.1526 F180
G01 X1.1371 Y-1.0029 Z-1.1230 F180
G01 X1.2849 Y-1.0366 Z-1.1006 F180
G01 X1.4258 Y-1.0934 Z-1.0947 F180
G01 X1.5558 Y-1.1718 Z-1.1098 F180
G01 X1.6714 Y-1.2696 Z-1.1452 F180
G01 X1.7695 Y-1.3840 Z-1.1943 F180
G01 X1.8474 Y-1.5116 Z-1.2471 F180
G01 X1.9030 Y-1.6488 Z-1.2926 F180
G01 X1.9352 Y-1.7916 Z-1.3216 F180
G01 X1.9433 Y-1.9358 Z-1.3296 F180
G01 X1.9274 Y-2.0771 Z-1.3174 F180
G01 X1.8883 Y-2.2116 Z-1.2915 F180
G01 X1.8276 Y-2.3352 Z-1.2618 F180
G01 X1.7476 Y-2.4444 Z-1.2394 F180
G01 X1.6510 Y-2.5360 Z-1.2335 F180
G01 X1.5411 Y-2.6074 Z-1.2486 F180
G01 X1.4217 Y-2.6567 Z-1.2840 F180
G01 X1.2967 Y-2.6824 Z-1.3331 F180
G01 X1.1702 Y-2.6841 Z-1.3859 F180
G01 X1.0466 Y-2.6617 Z-1.4314 F180
G01 X0.9299 Y-2.6162 Z-1.4604 F180
G01 X0.8241 Y-2.5491 Z-1.4684 F180
G01 X0.7326 Y-2.4627 Z-1.4562 F180
G01 X0.6588 Y-2.3596 Z-1.4303 F180
G01 X0.6051 Y-2.2433 Z-1.4006 F180
G01 X0.5736 Y-2.1174 Z-1.3782 F180
G01 X0.5656 Y-1.9860 Z-1.3723 F180
G01 X0.5817 Y-1.8531 Z-1.3874 F180
G01 X0.6218 Y-1.7231 Z-1.4228 F180
G01 X0.6851 Y-1.5999 Z-1.4719 F180
G01 X0.7699 Y-1.4877 Z-1.5247 F180
G01 X0.8741 Y-1.3898 Z-1.5702 F180
G01 X0.9949 Y-1.3095 Z-1.5992 F180
G01 X1.1290 Y-1.2494 Z-1.6072 F180
G01 X1.2726 Y-1.2115 Z-1.5950 F180
G01 X1.2906 Y-1.2084 Z-1.5924 F180
G01 X1.4160 Y-1.1856 Z-1.5654 F180
G01 X1.5423 Y-1.1869 Z-1.5361 F180
G01 X1.6653 Y-1.2121 Z-1.5153 F180
G01 X1.7809 Y-1.2604 Z-1.5118 F180
G01 X1.8851 Y-1.3299 Z-1.5295 F180
G01 X1.9746 Y-1.4186 Z-1.5670 F180
G01 X2.0461 Y-1.5234 Z-1.6171 F180
G01 X2.0972 Y-1.6411 Z-1.6696 F180
G01 X2.1259 Y-1.7679 Z-1.7135 F180
G01 X2.1310 Y-1.8997 Z-1.7402 F180
G01 X2.1119 Y-2.0324 Z-1.7455 F180
G01 X2.0689 Y-2.1619 Z-1.7312 F180
G01 X2.0030 Y-2.2839 Z-1.7042 F180
G01 X1.9156 Y-2.3946 Z-1.6749 F180
G01 X1.8093 Y-2.4905 Z-1.6541 F180
G01 X1.6867 Y-2.5684 Z-1.6506 F180
G01 X1.5512 Y-2.6260 Z-1.6684 F180
G01 X1.4067 Y-2.6611 Z-1.7058 F180
G01 X1.2571 Y-2.6726 Z-1.7559 F180
G01 X1.1066 Y-2.6600 Z-1.8084 F180
G01 X0.9594 Y-2.6234 Z-1.8523 F180
G01 X0.8196 Y-2.5639 Z-1.8790 F180
G01 X0.6912 Y-2.4830 Z-1.8843 F180
G01 X0.5775 Y-2.3830 Z-1.8700 F180
G01 X0.4818 Y-2.2669 Z-1.8430 F180
G01 X0.4065 Y-2.1378 Z-1.8137 F180
G01 X0.3537 Y-1.9997 Z-1.7929 F180
G01 X0.3244 Y-1.8566 Z-1.7894 F180
G01 X0.3193 Y-1.7125 Z-1.8072 F180
G01 X0.3381 Y-1.5718 Z-1.8446 F180
G01 X0.3798 Y-1.4384 Z-1.8947 F180
G01 X0.4430 Y-1.3164 Z-1.9472 F180
G01 X0.5252 Y-1.2092 Z-1.9911 F180
G01 X0.6236 Y-1.1199 Z-2.0178 F180
G01 X0.7348 Y-1.0511 Z-2.0231 F180
G01 X0.7491 Y-1.0442 Z-2.0223 F180
G01 X0.8707 Y-0.9997 Z-2.0060 F180
G01 X0.9969 Y-0.9789 Z-1.9782 F180
G01 X1.1234 Y-0.9823 Z-1.9493 F180
G01 X1.2462 Y-1.0095 Z-1.9302 F180
G01 X1.3610 Y-1.0596 Z-1.9292 F180
G01 X1.4641 Y-1.1308 Z-1.9496 F180
G01 X1.5520 Y-1.2207 Z-1.9890 F180
G01 X1.6216 Y-1.3264 Z-2.0400 F180
G01 X1.6705 Y-1.4445 Z-2.0920 F180
G01 X1.6968 Y-1.5713 Z-2.1342 F180
G01 X1.6994 Y-1.7026 Z-2.1584 F180
G01 X1.6779 Y-1.8343 Z-2.1612 F180
G01 X1.6325 Y-1.9622 Z-2.1449 F180
G01 X1.5642 Y-2.0822 Z-2.1170 F180
G01 X1.4749 Y-2.1904 Z-2.0881 F180
G01 X1.3668 Y-2.2835 Z-2.0690 F180
G01 X1.2429 Y-2.3582 Z-2.0680 F180
G01 X1.1066 Y-2.4122 Z-2.0884 F180
G01 X0.9617 Y-2.4437 Z-2.1278 F180
G01 X0.8122 Y-2.4514 Z-2.1788 F180
G01 X0.6623 Y-2.4350 Z-2.2308 F180
G01 X0.5162 Y-2.3947 Z-2.2730 F180
G01 X0.3781 Y-2.3316 Z-2.2972 F180
G01 X0.2516 Y-2.2474 Z-2.3000 F180
G01 X0.1405 Y-2.1445 Z-2.2837 F180
G01 X0.0476 Y-2.0257 Z-2.2558 F180
G01 X-0.0246 Y-1.8946 Z-2.2269 F180
G01 X-0.0743 Y-1.7548 Z-2.2078 F180
G01 X-0.1002 Y-1.6104 Z-2.2068 F180
G01 X-0.1019 Y-1.4657 Z-2.2272 F180
G01 X-0.0798 Y-1.3247 Z-2.2666 F180
G01 X-0.0349 Y-1.1917 Z-2.3176 F180
G01 X0.0311 Y-1.0705 Z-2.3696 F180
G01 X0.1159 Y-0.9644 Z-2.4118 F180
G01 X0.2165 Y-0.8766 Z-2.4360 F180
G01 X0.2296 Y-0.8673 Z-2.4375 F180
G01 X0.3444 Y-0.8021 Z-2.4377 F180
G01 X0.4673 Y-0.7596 Z-2.4195 F180
G01 X0.5942 Y-0.7410 Z-2.3909 F180
G01 X0.7211 Y-0.7465 Z-2.3626 F180
G01 X0.8436 Y-0.7757 Z-2.3454 F180
G01 X0.9577 Y-0.8276 Z-2.3469 F180
G01 X1.0596 Y-0.9004 Z-2.3698 F180
G01 X1.1459 Y-0.9916 Z-2.4112 F180
G01 X1.2136 Y-1.0982 Z-2.4629 F180
G01 X1.2603 Y-1.2168 Z-2.5143 F180
G01 X1.2843 Y-1.3435 Z-2.5547 F180
G01 X1.2845 Y-1.4742 Z-2.5763 F180
G01 X1.2605 Y-1.6049 Z-2.5765 F180
G01 X1.2127 Y-1.7312 Z-2.5583 F180
G01 X1.1423 Y-1.8491 Z-2.5297 F180
G01 X1.0511 Y-1.9549 Z-2.5014 F180
G01 X0.9414 Y-2.0450 Z-2.4842 F180
G01 X0.8163 Y-2.1165 Z-2.4857 F180
G01 X0.6792 Y-2.1671 Z-2.5087 F180
G01 X0.5340 Y-2.1949 Z-2.5500 F180
G01 X0.3848 Y-2.1989 Z-2.6017 F180
G01 X0.2356 Y-2.1787 Z-2.6531 F180
G01 X0.0908 Y-2.1348 Z-2.6935 F180
G01 X-0.0456 Y-2.0682 Z-2.7151 F180
G01 X-0.1699 Y-1.9807 Z-2.7153 F180
G01 X-0.2785 Y-1.8749 Z-2.6971 F180
G01 X-0.3685 Y-1.7536 Z-2.6685 F180
G01 X-0.4375 Y-1.6203 Z-2.6403 F180
G01 X-0.4838 Y-1.4790 Z-2.6230 F180
G01 X-0.5063 Y-1.3335 Z-2.6245 F180
G01 X-0.5046 Y-1.1882 Z-2.6475 F180
G01 X-0.4792 Y-1.0472 Z-2.6888 F180
G01 X-0.4311 Y-0.9146 Z-2.7405 F180
G01 X-0.3622 Y-0.7942 Z-2.7919 F180
G01 X-0.2748 Y-0.6894 Z-2.8323 F180
G01 X-0.2631 Y-0.6778 Z-2.8360 F180
G01 X-0.1581 Y-0.5933 Z-2.8551 F180
G01 X-0.0416 Y-0.5300 Z-2.8527 F180
G01 X0.0826 Y-0.4896 Z-2.8328 F180
G01 X0.2103 Y-0.4731 Z-2.8036 F180
G01 X0.3374 Y-0.4807 Z-2.7762 F180
G01 X0.4596 Y-0.5120 Z-2.7609 F180
G01 X0.5730 Y-0.5658 Z-2.7650 F180
G01 X0.6738 Y-0.6401 Z-2.7904 F180
G01 X0.7585 Y-0.7326 Z-2.8335 F180
G01 X0.8244 Y-0.8400 Z-2.8858 F180
G01 X0.8690 Y-0.9590 Z-2.9364 F180
G01 X0.8906 Y-1.0857 Z-2.9748 F180
G01 X0.8884 Y-1.2159 Z-2.9939 F180
G01 X0.8621 Y-1.3454 Z-2.9916 F180
G01 X0.8121 Y-1.4702 Z-2.9716 F180
G01 X0.7396 Y-1.5860 Z-2.9424 F180
G01 X0.6465 Y-1.6893 Z-2.9150 F180
G01 X0.5353 Y-1.7765 Z-2.8997 F180
G01 X0.4091 Y-1.8448 Z-2.9038 F180
G01 X0.2714 Y-1.8919 Z-2.9292 F180
G01 X0.1261 Y-1.9160 Z-2.9723 F180
G01 X-0.0229 Y-1.9163 Z-3.0246 F180
G01 X-0.1711 Y-1.8924 Z-3.0752 F180
G01 X-0.3146 Y-1.8449 Z-3.1136 F180
G01 X-0.4492 Y-1.7749 Z-3.1327 F180
G01 X-0.5711 Y-1.6843 Z-3.1304 F180
G01 X-0.6771 Y-1.5756 Z-3.1104 F180
G01 X-0.7641 Y-1.4519 Z-3.0812 F180
G01 X-0.8299 Y-1.3166 Z-3.0538 F180
G01 X-0.8728 Y-1.1738 Z-3.0385 F180
G01 X-0.8918 Y-1.0273 Z-3.0426 F180
G01 X-0.8866 Y-0.8815 Z-3.0680 F180
G01 X-0.8578 Y-0.7405 Z-3.1111 F180
G01 X-0.8065 Y-0.6084 Z-3.1634 F180
G01 X-0.7347 Y-0.4890 Z-3.2140 F180
G01 X-0.7246 Y-0.4755 Z-3.2195 F180
G01 X-0.6081 Y-0.3931 Z-3.2443 F1200
G01 X-0.4770 Y-0.3300 Z-3.2492 F1200
G01 X-0.3348 Y-0.2884 Z-3.2328 F1200
G01 X-0.1854 Y-0.2698 Z-3.1997 F1200
G01 X-0.0330 Y-0.2752 Z-3.1586 F1200
G01 X0.1182 Y-0.3047 Z-3.1205 F1200
G01 X0.2642 Y-0.3578 Z-3.0957 F1200
G01 X0.4008 Y-0.4332 Z-3.0908 F1200
G01 X0.5243 Y-0.5288 Z-3.1072 F1200
G01 X0.6314 Y-0.6422 Z-3.1403 F1200
G01 X0.7193 Y-0.7703 Z-3.1814 F1200
G01 X0.7857 Y-0.9094 Z-3.2195 F1200
G01 X0.8291 Y-1.0557 Z-3.2443 F1200
G01 X0.8485 Y-1.2050 Z-3.2492 F1200
G01 X0.8438 Y-1.3531 Z-3.2328 F1200
G01 X0.8155 Y-1.4960 Z-3.1997 F1200
G01 X0.7649 Y-1.6295 Z-3.1586 F1200
G01 X0.6940 Y-1.7499 Z-3.1205 F1200
G01 X0.6054 Y-1.8539 Z-3.0957 F1200
G01 X0.5022 Y-1.9388 Z-3.0908 F1200
G01 X0.3951 Y-1.9989 Z-3.1056 F1200
G01 X0.2745 Y-2.0398 Z-3.1380 F1200
G01 X0.1506 Y-2.0568 Z-3.1789 F1200
G01 X0.0277 Y-2.0496 Z-3.2175 F1200
G01 X-0.0902 Y-2.0188 Z-3.2433 F1200
G01 X-0.1990 Y-1.9656 Z-3.2495 F1200
G01 X-0.2950 Y-1.8920 Z-3.2344 F1200
G01 X-0.3747 Y-1.8005 Z-3.2020 F1200
G01 X-0.4354 Y-1.6941 Z-3.1611 F1200
G01 X-0.4747 Y-1.5765 Z-3.1225 F1200
G01 X-0.4910 Y-1.4514 Z-3.0967 F1200
G01 X-0.4834 Y-1.3231 Z-3.0905 F1200
G01 X-0.4516 Y-1.1956 Z-3.1056 F1200
G01 X-0.3963 Y-1.0732 Z-3.1380 F1200
G01 X-0.3185 Y-0.9600 Z-3.1789 F1200
G01 X-0.2204 Y-0.8595 Z-3.2175 F1200
G01 X-0.1043 Y-0.7753 Z-3.2433 F1200
G01 X0.0267 Y-0.7101 Z-3.2495 F1200
G01 X0.1689 Y-0.6663 Z-3.2344 F1200
G01 X0.3185 Y-0.6455 Z-3.2020 F1200
G01 X0.4715 Y-0.6486 Z-3.1611 F1200
G01 X0.6144 Y-0.6735 Z-3.1246 F1200
G01 X0.7623 Y-0.7222 Z-3.0977 F1200
G01 X0.9014 Y-0.7932 Z-3.0903 F1200
G01 X1.0278 Y-0.8849 Z-3.1041 F1200
G01 X1.1382 Y-0.9947 Z-3.1357 F1200
G01 X1.2298 Y-1.1195 Z-3.1764 F1200
G01 X1.3000 Y-1.2558 Z-3.2154 F1200
G01 X1.3474 Y-1.3998 Z-3.2423 F1200
G01 X1.3709 Y-1.5473 Z-3.2497 F1200
G01 X1.3702 Y-1.6942 Z-3.2359 F1200
G01 X1.3459 Y-1.8362 Z-3.2043 F1200
G01 X1.2991 Y-1.9694 Z-3.1636 F1200
G01 X1.2317 Y-2.0900 Z-3.1246 F1200
G01 X1.1462 Y-2.1945 Z-3.0977 F1200
G01 X1.0457 Y-2.2802 Z-3.0903 F1200
G01 X0.9336 Y-2.3446 Z-3.1041 F1200
G01 X0.8140 Y-2.3860 Z-3.1357 F1200
G01 X0.6907 Y-2.4036 Z-3.1764 F1200
G01 X0.5681 Y-2.3971 Z-3.2154 F1200
G01 X0.4504 Y-2.3669 Z-3.2423 F1200
G01 X0.3414 Y-2.3142 Z-3.2497 F1200
G01 X0.2506 Y-2.2459 Z-3.2373 F1200
G01 X0.1698 Y-2.1547 Z-3.2066 F1200
G01 X0.1077 Y-2.0483 Z-3.1662 F1200
G01 X0.0667 Y-1.9301 Z-3.1267 F1200
G01 X0.0486 Y-1.8040 Z-3.0989 F1200
G01 X0.0543 Y-1.6741 Z-3.0901 F1200
G01 X0.0842 Y-1.5446 Z-3.1027 F1200
G01 X0.1378 Y-1.4197 Z-3.1334 F1200
G01 X0.2139 Y-1.3033 Z-3.1738 F1200
G01 X0.3108 Y-1.1994 Z-3.2133 F1200
G01 X0.4259 Y-1.1114 Z-3.2411 F1200
G01 X0.5563 Y-1.0420 Z-3.2499 F1200
G01 X0.6984 Y-0.9938 Z-3.2373 F1200
G01 X0.8483 Y-0.9684 Z-3.2066 F1200
G01 X1.0022 Y-0.9669 Z-3.1662 F1200
G01 X1.1556 Y-0.9895 Z-3.1267 F1200
G01 X1.3044 Y-1.0359 Z-3.0989 F1200
G01 X1.4446 Y-1.1048 Z-3.0901 F1200
G01 X1.5724 Y-1.1944 Z-3.1027 F1200
G01 X1.6844 Y-1.3023 Z-3.1334 F1200
G01 X1.7777 Y-1.4254 Z-3.1738 F1200
G01 X1.8460 Y-1.5518 Z-3.2111 F1200
G01 X1.8972 Y-1.6933 Z-3.2399 F1200
G01 X1.9246 Y-1.8388 Z-3.2500 F1200
G01 X1.9278 Y-1.9842 Z-3.2386 F1200
G01 X1.9072 Y-2.1253 Z-3.2089 F1200
G01 X1.8640 Y-2.2580 Z-3.1687 F1200
G01 X1.7999 Y-2.3785 Z-3.1289 F1200
G01 X1.7174 Y-2.4834 Z-3.1001 F1200
G01 X1.6195 Y-2.5697 Z-3.0900 F1200
G01 X1.5096 Y-2.6351 Z-3.1014 F1200
G01 X1.3916 Y-2.6776 Z-3.1311 F1200
G01 X1.2695 Y-2.6964 Z-3.1713 F1200
G01 X1.1475 Y-2.6910 Z-3.2111 F1200
G01 X1.0299 Y-2.6618 Z-3.2399 F1200
G01 X0.9207 Y-2.6100 Z-3.2500 F1200
G01 X0.8236 Y-2.5374 Z-3.2386 F1200
G01 X0.7422 Y-2.4463 Z-3.2089 F1200
G01 X0.6793 Y-2.3398 Z-3.1687 F1200
G01 X0.6375 Y-2.2213 Z-3.1289 F1200
G01 X0.6184 Y-2.0947 Z-3.1001 F1200
G01 X0.6231 Y-1.9640 Z-3.0900 F1200
G01 X0.6495 Y-1.8413 Z-3.1001 F1200
G01 X0.7011 Y-1.7138 Z-3.1289 F1200
G01 X0.7754 Y-1.5944 Z-3.1688 F1200
G01 X0.8707 Y-1.4870 Z-3.2089 F1200
G01 X0.9846 Y-1.3950 Z-3.2386 F1200
G01 X1.1141 Y-1.3215 Z-3.2500 F1200
G01 X1.2558 Y-1.2687 Z-3.2399 F1200
G01 X1.4059 Y-1.2387 Z-3.2111 F1200
G01 X1.5603 Y-1.2324 Z-3.1712 F1200
G01 X1.7149 Y-1.2503 Z-3.1311 F1200
G01 X1.8653 Y-1.2920 Z-3.1014 F1200
G01 X2.0076 Y-1.3564 Z-3.0900 F1200
G01 X2.1380 Y-1.4418 Z-3.1001 F1200
G01 X2.2529 Y-1.5458 Z-3.1289 F1200
G01 X2.3494 Y-1.6654 Z-3.1688 F1200
G01 X2.4251 Y-1.7972 Z-3.2089 F1200
G01 X2.4780 Y-1.9374 Z-3.2386 F1200
G01 X2.5073 Y-2.0819 Z-3.2500 F1200
G01 X2.5123 Y-2.2265 Z-3.2399 F1200
G01 X2.4936 Y-2.3671 Z-3.2111 F1200
G01 X2.4521 Y-2.4995 Z-3.1712 F1200
G01 X2.3940 Y-2.6130 Z-3.1333 F1200
G01 X2.3143 Y-2.7181 Z-3.1027 F1200
G01 X2.2188 Y-2.8049 Z-3.0901 F1200
G01 X2.1109 Y-2.8711 Z-3.0989 F1200
G01 X1.9944 Y-2.9146 Z-3.1268 F1200
G01 X1.8734 Y-2.9344 Z-3.1662 F1200
G01 X1.7519 Y-2.9301 Z-3.2067 F1200
G01 X1.6343 Y-2.9020 Z-3.2373 F1200
G01 X1.5245 Y-2.8510 Z-3.2499 F1200
G01 X1.4265 Y-2.7788 Z-3.2411 F1200
G01 X1.3438 Y-2.6880 Z-3.2132 F1200
G01 X1.2793 Y-2.5813 Z-3.1738 F1200
G01 X1.2355 Y-2.4622 Z-3.1333 F1200
G01 X1.2143 Y-2.3345 Z-3.1027 F1200
G01 X1.2168 Y-2.2023 Z-3.0901 F1200
G01 X1.2434 Y-2.0696 Z-3.0989 F1200
G01 X1.2939 Y-1.9408 Z-3.1268 F1200
G01 X1.3673 Y-1.8198 Z-3.1662 F1200
G01 X1.4617 Y-1.7107 Z-3.2067 F1200
G01 X1.5749 Y-1.6167 Z-3.2373 F1200
G01 X1.7039 Y-1.5410 Z-3.2499 F1200
G01 X1.8365 Y-1.4887 Z-3.2422 F1200
G01 X1.9864 Y-1.4540 Z-3.2154 F1200
G01 X2.1411 Y-1.4429 Z-3.1763 F1200
G01 X2.2965 Y-1.4559 Z-3.1356 F1200
G01 X2.4483 Y-1.4928 Z-3.1041 F1200
G01 X2.5924 Y-1.5527 Z-3.0903 F1200
G01 X2.7251 Y-1.6337 Z-3.0978 F1200
G01 X2.8427 Y-1.7337 Z-3.1246 F1200
G01 X2.9422 Y-1.8497 Z-3.1637 F1200
G01 X3.0211 Y-1.9783 Z-3.2044 F1200
G01 X3.0775 Y-2.1158 Z-3.2359 F1200
G01 X3.1103 Y-2.2581 Z-3.2497 F1200
G01 X3.1189 Y-2.4010 Z-3.2422 F1200
G01 X3.1037 Y-2.5404 Z-3.2154 F1200
G01 X3.0655 Y-2.6721 Z-3.1763 F1200
G01 X3.0061 Y-2.7923 Z-3.1356 F1200
G01 X2.9278 Y-2.8974 Z-3.1041 F1200
G01 X2.8335 Y-2.9845 Z-3.0903 F1200
G01 X2.7265 Y-3.0510 Z-3.0978 F1200
G01 X2.6107 Y-3.0950 Z-3.1246 F1200
G01 X2.4901 Y-3.1153 Z-3.1637 F1200
G01 X2.3761 Y-3.1124 Z-3.2021 F1200
G01 X2.2583 Y-3.0852 Z-3.2344 F1200
G01 X2.1479 Y-3.0349 Z-3.2495 F1200
G01 X2.0489 Y-2.9633 Z-3.2433 F1200
G01 X1.9646 Y-2.8727 Z-3.2174 F1200
G01 X1.8982 Y-2.7658 Z-3.1789 F1200
G01 X1.8524 Y-2.6461 Z-3.1379 F1200
G01 X1.8288 Y-2.5173 Z-3.1056 F1200
G01 X1.8290 Y-2.3835 Z-3.0905 F1200
G01 X1.8532 Y-2.2487 Z-3.0967 F1200
G01 X1.9014 Y-2.1172 Z-3.1226 F1200
G01 X1.9725 Y-1.9932 Z-3.1611 F1200
G01 X2.0650 Y-1.8805 Z-3.2021 F1200
G01 X2.1766 Y-1.7825 Z-3.2344 F1200
G01 X2.3044 Y-1.7025 Z-3.2495 F1200
G01 X2.4450 Y-1.6430 Z-3.2433 F1200
G01 X2.5948 Y-1.6058 Z-3.2174 F1200
G01 X2.7496 Y-1.5923 Z-3.1789 F1200
G01 X2.9053 Y-1.6029 Z-3.1379 F1200
G01 X3.0576 Y-1.6374 Z-3.1056 F1200
G01 X3.2026 Y-1.6949 Z-3.0905 F1200
G01 X3.3285 Y-1.7684 Z-3.0957 F1200
G01 X3.4485 Y-1.8643 Z-3.1205 F1200
G01 X3.5508 Y-1.9765 Z-3.1586 F1200
G01 X3.6328 Y-2.1019 Z-3.1997 F1200
G01 X3.6924 Y-2.2365 Z-3.2329 F1200
G01 X3.7285 Y-2.3765 Z-3.2492 F1200
G01 X3.7405 Y-2.5176 Z-3.2443 F1200
G01 X3.7285 Y-2.6557 Z-3.2195 F1200
G01 X3.6935 Y-2.7865 Z-3.1814 F1200
G01 X3.6370 Y-2.9064 Z-3.1403 F1200
G01 X3.5612 Y-3.0116 Z-3.1071 F1200
G01 X3.4691 Y-3.0990 Z-3.0908 F1200
G01 X3.3639 Y-3.1662 Z-3.0957 F1200
G01 X3.2494 Y-3.2110 Z-3.1205 F1200
G01 X3.1295 Y-3.2323 Z-3.1586 F1200
G01 X3.0085 Y-3.2295 Z-3.1997 F1200
G01 X2.8906 Y-3.2027 Z-3.2329 F1200
G01 X2.7798 Y-3.1528 Z-3.2492 F1200
G01 X2.6801 Y-3.0815 Z-3.2443 F1200
G01 X2.5950 Y-2.9909 Z-3.2195 F1200
G01 X2.5277 Y-2.8839 Z-3.1814 F1200
G01 X2.4829 Y-2.7715 Z-3.1427 F1200
G01 X2.4569 Y-2.6417 Z-3.1087 F1200
G01 X2.4544 Y-2.5062 Z-3.0912 F1200
G01 X2.4760 Y-2.3693 Z-3.0948 F1200
G01 X2.5216 Y-2.2353 Z-3.1186 F1200
G01 X2.5903 Y-2.1081 Z-3.1561 F1200
G01 X2.6806 Y-1.9918 Z-3.1973 F1200
G01 X2.7903 Y-1.8900 Z-3.2313 F1200
G01 X2.9166 Y-1.8057 Z-3.2488 F1200
G01 X3.0562 Y-1.7415 Z-3.2452 F1200
G01 X3.2053 Y-1.6996 Z-3.2214 F1200
G01 X3.3600 Y-1.6812 Z-3.1839 F1200
G01 X3.5161 Y-1.6868 Z-3.1427 F1200
G01 X3.6694 Y-1.7165 Z-3.1087 F1200
G01 X3.8158 Y-1.7693 Z-3.0912 F1200
G01 X3.9514 Y-1.8437 Z-3.0948 F1200
G01 X4.0725 Y-1.9375 Z-3.1186 F1200
G01 X4.1760 Y-2.0478 Z-3.1561 F1200
G01 X4.2594 Y-2.1715 Z-3.1973 F1200
G01 X4.3206 Y-2.3046 Z-3.2313 F1200
G01 X4.3583 Y-2.4434 Z-3.2488 F1200
G01 X4.3717 Y-2.5751 Z-3.2460 F1200
G01 X4.3628 Y-2.7118 Z-3.2234 F1200
G01 X4.3307 Y-2.8418 Z-3.1864 F1200
G01 X4.2768 Y-2.9611 Z-3.1451 F1200
G01 X4.2035 Y-3.0663 Z-3.1104 F1200
G01 X4.1134 Y-3.1540 Z-3.0917 F1200
G01 X4.0097 Y-3.2218 Z-3.0940 F1200
G01 X3.8963 Y-3.2674 Z-3.1166 F1200
G01 X3.7771 Y-3.2896 Z-3.1536 F1200
G01 X3.6562 Y-3.2877 Z-3.1949 F1200
G01 X3.5378 Y-3.2618 Z-3.2296 F1200
G01 X3.4262 Y-3.2127 Z-3.2483 F1200
G01 X3.3251 Y-3.1419 Z-3.2460 F1200
G01 X3.2383 Y-3.0515 Z-3.2234 F1200
G01 X3.1688 Y-2.9444 Z-3.1864 F1200
G01 X3.1194 Y-2.8238 Z-3.1451 F1200
G01 X3.0920 Y-2.6934 Z-3.1104 F1200
G01 X3.0881 Y-2.5571 Z-3.0917 F1200
G01 X3.1084 Y-2.4192 Z-3.0940 F1200
G01 X3.1526 Y-2.2839 Z-3.1166 F1200
G01 X3.2200 Y-2.1552 Z-3.1536 F1200
G01 X3.3031 Y-2.0440 Z-3.1925 F1200
G01 X3.4107 Y-1.9385 Z-3.2279 F1200
G01 X3.5352 Y-1.8502 Z-3.2477 F1200
G01 X3.6734 Y-1.7819 Z-3.2468 F1200
G01 X3.8217 Y-1.7355 Z-3.2252 F1200
G01 X3.9760 Y-1.7125 Z-3.1889 F1200
G01 X4.1323 Y-1.7136 Z-3.1475 F1200
G01 X4.2862 Y-1.7387 Z-3.1121 F1200
G01 X4.4337 Y-1.7871 Z-3.0923 F1200
G01 X4.5709 Y-1.8573 Z-3.0932 F1200
G01 X4.6940 Y-1.9472 Z-3.1148 F1200
G01 X4.7999 Y-2.0541 Z-3.1511 F1200
G01 X4.8859 Y-2.1746 Z-3.1925 F1200
G01 X4.9500 Y-2.3052 Z-3.2279 F1200
G01 X4.9906 Y-2.4419 Z-3.2477 F1200
G01 X5.0072 Y-2.5804 Z-3.2468 F1200
G01 X4.9998 Y-2.7167 Z-3.2252 F1200
G01 X4.9690 Y-2.8466 Z-3.1889 F1200
G01 X4.9165 Y-2.9660 Z-3.1475 F1200
G01 X4.8442 Y-3.0715 Z-3.1121 F1200
G01 X4.7551 Y-3.1598 Z-3.0923 F1200
G01 X4.6522 Y-3.2281 Z-3.0932 F1200
G01 X4.5393 Y-3.2745 Z-3.1148 F1200
G01 X4.4203 Y-3.2975 Z-3.1511 F1200
G01 X4.2994 Y-3.2964 Z-3.1925 F1200
G01 X4.1808 Y-3.2713 Z-3.2279 F1200
G01 X4.0686 Y-3.2229 Z-3.2477 F1200
G01 X3.9668 Y-3.1527 Z-3.2468 F1200
G01 X3.8790 Y-3.0628 Z-3.2252 F1200
G01 X3.8084 Y-2.9559 Z-3.1889 F1200
G01 X3.7577 Y-2.8354 Z-3.1475 F1200
G01 X3.7290 Y-2.7048 Z-3.1121 F1200
G01 X3.7237 Y-2.5681 Z-3.0923 F1200
G01 X3.7424 Y-2.4296 Z-3.0932 F1200
G01 X3.7852 Y-2.2933 Z-3.1148 F1200
G01 X3.8513 Y-2.1634 Z-3.1511 F1200
G01 X3.9391 Y-2.0440 Z-3.1925 F1200
G01 X4.0467 Y-1.9385 Z-3.2279 F1200
G01 X4.1712 Y-1.8502 Z-3.2477 F1200
G01 X4.3094 Y-1.7819 Z-3.2468 F1200
G01 X4.4577 Y-1.7355 Z-3.2252 F1200
G01 X4.6120 Y-1.7125 Z-3.1889 F1200
G01 X4.7683 Y-1.7136 Z-3.1475 F1200
G01 X4.9222 Y-1.7387 Z-3.1121 F1200
G01 X5.0697 Y-1.7871 Z-3.0923 F1200
G01 X5.2069 Y-1.8573 Z-3.0932 F1200
G01 X5.3300 Y-1.9472 Z-3.1148 F1200
G01 X5.4359 Y-2.0541 Z-3.1511 F1200
G01 X5.5219 Y-2.1746 Z-3.1925 F1200
G01 X5.5860 Y-2.3052 Z-3.2279 F1200
G01 X5.6266 Y-2.4419 Z-3.2477 F1200
G01 X5.6432 Y-2.5804 Z-3.2468 F1200
G01 X5.6358 Y-2.7167 Z-3.2252 F1200
G01 X5.6050 Y-2.8466 Z-3.1889 F1200
G01 X5.5525 Y-2.9660 Z-3.1475 F1200
G01 X5.4802 Y-3.0715 Z-3.1121 F1200
G01 X5.3911 Y-3.1598 Z-3.0923 F1200
G01 X5.2882 Y-3.2281 Z-3.0932 F1200
G01 X5.1753 Y-3.2745 Z-3.1148 F1200
G01 X5.0563 Y-3.2975 Z-3.1511 F1200
G01 X4.9354 Y-3.2964 Z-3.1925 F1200
G01 X4.8168 Y-3.2713 Z-3.2279 F1200
G01 X4.7046 Y-3.2229 Z-3.2477 F1200
G01 X4.6028 Y-3.1527 Z-3.2468 F1200
G01 X4.5150 Y-3.0628 Z-3.2252 F1200
G01 X4.4444 Y-2.9559 Z-3.1889 F1200
G01 X4.3937 Y-2.8354 Z-3.1475 F1200
G01 X4.3650 Y-2.7048 Z-3.1121 F1200
G01 X4.3597 Y-2.5681 Z-3.0923 F1200
G01 X4.3784 Y-2.4296 Z-3.0932 F1200
G01 X4.4212 Y-2.2933 Z-3.1148 F1200
G01 X4.4873 Y-2.1634 Z-3.1511 F1200
G01 X4.5751 Y-2.0440 Z-3.1925 F1200
G01 X4.6827 Y-1.9385 Z-3.2279 F1200
G01 X4.8072 Y-1.8502 Z-3.2477 F1200
G01 X4.9454 Y-1.7819 Z-3.2468 F1200
G01 X5.0937 Y-1.7355 Z-3.2252 F1200
G01 X5.2480 Y-1.7125 Z-3.1889 F1200
G01 X5.4043 Y-1.7136 Z-3.1475 F1200
G01 X5.5582 Y-1.7387 Z-3.1121 F1200
G01 X5.7057 Y-1.7871 Z-3.0923 F1200
G01 X5.8429 Y-1.8573 Z-3.0932 F1200
G01 X5.9660 Y-1.9472 Z-3.1148 F1200
G01 X6.0719 Y-2.0541 Z-3.1511 F1200
G01 X6.1579 Y-2.1746 Z-3.1925 F1200
G01 X6.2220 Y-2.3052 Z-3.2279 F1200
G01 X6.2626 Y-2.4419 Z-3.2477 F1200
G01 X6.2792 Y-2.5804 Z-3.2468 F1200
G01 X6.2718 Y-2.7167 Z-3.2252 F1200
G01 X6.2410 Y-2.8466 Z-3.1889 F1200
G01 X6.1885 Y-2.9660 Z-3.1475 F1200
G01 X6.1162 Y-3.0715 Z-3.1121 F1200
G01 X6.0271 Y-3.1598 Z-3.0923 F1200
G01 X5.9242 Y-3.2281 Z-3.0932 F1200
G01 X5.8113 Y-3.2745 Z-3.1148 F1200
G01 X5.6923 Y-3.2975 Z-3.1511 F1200
G01 X5.5714 Y-3.2964 Z-3.1925 F1200
G01 X5.4528 Y-3.2713 Z-3.2279 F1200
G01 X5.3406 Y-3.2229 Z-3.2477 F1200
G01 X5.2388 Y-3.1527 Z-3.2468 F1200
G01 X5.1510 Y-3.0628 Z-3.2252 F1200
G01 X5.0804 Y-2.9559 Z-3.1889 F1200
G01 X5.0297 Y-2.8354 Z-3.1475 F1200
G01 X5.0010 Y-2.7048 Z-3.1121 F1200
G01 X4.9957 Y-2.5681 Z-3.0923 F1200
G01 X5.0144 Y-2.4296 Z-3.0932 F1200
G01 X5.0572 Y-2.2933 Z-3.1148 F1200
G01 X5.1233 Y-2.1634 Z-3.1511 F1200
G01 X5.2111 Y-2.0440 Z-3.1925 F1200
G01 X5.3187 Y-1.9385 Z-3.2279 F1200
G01 X5.4432 Y-1.8502 Z-3.2477 F1200
G01 X5.5814 Y-1.7819 Z-3.2468 F1200
G01 X5.7297 Y-1.7355 Z-3.2252 F1200
G01 X5.8840 Y-1.7125 Z-3.1889 F1200
G01 X6.0403 Y-1.7136 Z-3.1475 F1200
G01 X6.1942 Y-1.7387 Z-3.1121 F1200
G01 X6.3417 Y-1.7871 Z-3.0923 F1200
G01 X6.4789 Y-1.8573 Z-3.0932 F1200
G01 X6.6020 Y-1.9472 Z-3.1148 F1200
G01 X6.7079 Y-2.0541 Z-3.1511 F1200
G01 X6.7939 Y-2.1746 Z-3.1925 F1200
G01 X6.8580 Y-2.3052 Z-3.2279 F1200
G01 X6.8986 Y-2.4419 Z-3.2477 F1200
G01 X6.9152 Y-2.5804 Z-3.2468 F1200
G01 X6.9078 Y-2.7167 Z-3.2252 F1200
G01 X6.8770 Y-2.8466 Z-3.1889 F1200
G01 X6.8245 Y-2.9660 Z-3.1475 F1200
G01 X6.7522 Y-3.0715 Z-3.1121 F1200
G01 X6.6631 Y-3.1598 Z-3.0923 F1200
G01 X6.5602 Y-3.2281 Z-3.0932 F1200
G01 X6.4473 Y-3.2745 Z-3.1148 F1200
G01 X6.3283 Y-3.2975 Z-3.1511 F1200
G01 X6.2074 Y-3.2964 Z-3.1925 F1200
G01 X6.0888 Y-3.2713 Z-3.2279 F1200
G01 X5.9766 Y-3.2229 Z-3.2477 F1200
G01 X5.8748 Y-3.1527 Z-3.2468 F1200
G01 X5.7870 Y-3.0628 Z-3.2252 F1200
G01 X5.7164 Y-2.9559 Z-3.1889 F1200
G01 X5.6657 Y-2.8354 Z-3.1475 F1200
G01 X5.6370 Y-2.7048 Z-3.1121 F1200
G01 X5.6317 Y-2.5681 Z-3.0923 F1200
G01 X5.6504 Y-2.4296 Z-3.0932 F1200
G01 X5.6932 Y-2.2933 Z-3.1148 F1200
G01 X5.7593 Y-2.1634 Z-3.1511 F1200
G01 X5.8471 Y-2.0440 Z-3.1925 F1200
G01 X5.9547 Y-1.9385 Z-3.2279 F1200
G01 X6.0792 Y-1.8502 Z-3.2477 F1200
G01 X6.2174 Y-1.7819 Z-3.2468 F1200
G01 X6.3657 Y-1.7355 Z-3.2252 F1200
G01 X6.5200 Y-1.7125 Z-3.1889 F1200
G01 X6.6763 Y-1.7136 Z-3.1475 F1200
G01 X6.8302 Y-1.7387 Z-3.1121 F1200
G01 X6.9777 Y-1.7871 Z-3.0923 F1200
G01 X7.1149 Y-1.8573 Z-3.0932 F1200
G01 X7.2380 Y-1.9472 Z-3.1148 F1200
G01 X7.3439 Y-2.0541 Z-3.1511 F1200
G01 X7.4299 Y-2.1746 Z-3.1925 F1200
G01 X7.4940 Y-2.3052 Z-3.2279 F1200
G01 X7.5346 Y-2.4419 Z-3.2477 F1200
G01 X7.5512 Y-2.5804 Z-3.2468 F1200
G01 X7.5438 Y-2.7167 Z-3.2252 F1200
G01 X7.5130 Y-2.8466 Z-3.1889 F1200
G01 X7.4605 Y-2.9660 Z-3.1475 F1200
G01 X7.3882 Y-3.0715 Z-3.1121 F1200
G01 X7.2991 Y-3.1598 Z-3.0923 F1200
G01 X7.1962 Y-3.2281 Z-3.0932 F1200
G01 X7.0833 Y-3.2745 Z-3.1148 F1200
G01 X6.9643 Y-3.2975 Z-3.1511 F1200
G01 X6.8434 Y-3.2964 Z-3.1925 F1200
G01 X6.7248 Y-3.2713 Z-3.2279 F1200
G01 X6.6126 Y-3.2229 Z-3.2477 F1200
G01 X6.5108 Y-3.1527 Z-3.2468 F1200
G01 X6.4230 Y-3.0628 Z-3.2252 F1200
G01 X6.3524 Y-2.9559 Z-3.1889 F1200
G01 X6.3017 Y-2.8354 Z-3.1475 F1200
G01 X6.2730 Y-2.7048 Z-3.1121 F1200
G01 X6.2677 Y-2.5681 Z-3.0923 F1200
G01 X6.2864 Y-2.4296 Z-3.0932 F1200
G01 X6.3292 Y-2.2933 Z-3.1148 F1200
G01 X6.3953 Y-2.1634 Z-3.1511 F1200
G01 X6.4831 Y-2.0440 Z-3.1925 F1200
G01 X6.5907 Y-1.9385 Z-3.2279 F1200
G01 X6.7152 Y-1.8502 Z-3.2477 F1200
G01 X6.8534 Y-1.7819 Z-3.2468 F1200
G01 X7.0017 Y-1.7355 Z-3.2252 F1200
G01 X7.1560 Y-1.7125 Z-3.1889 F1200
G01 X7.3123 Y-1.7136 Z-3.1475 F1200
G01 X7.4662 Y-1.7387 Z-3.1121 F1200
G01 X7.6137 Y-1.7871 Z-3.0923 F1200
G01 X7.7509 Y-1.8573 Z-3.0932 F1200
G01 X7.8740 Y-1.9472 Z-3.1148 F1200
G01 X7.9799 Y-2.0541 Z-3.1511 F1200
G01 X8.0659 Y-2.1746 Z-3.1925 F1200
G01 X8.1300 Y-2.3052 Z-3.2279 F1200
G01 X8.1706 Y-2.4419 Z-3.2477 F1200
G01 X8.1872 Y-2.5804 Z-3.2468 F1200
G01 X8.1798 Y-2.7167 Z-3.2252 F1200
G01 X8.1490 Y-2.8466 Z-3.1889 F1200
G01 X8.0965 Y-2.9660 Z-3.1475 F1200
G01 X8.0242 Y-3.0715 Z-3.1121 F1200
G01 X7.9351 Y-3.1598 Z-3.0923 F1200
G01 X7.8322 Y-3.2281 Z-3.0932 F1200
G01 X7.7193 Y-3.2745 Z-3.1148 F1200
G01 X7.6003 Y-3.2975 Z-3.1511 F1200
G01 X7.4794 Y-3.2964 Z-3.1925 F1200
G01 X7.3608 Y-3.2713 Z-3.2279 F1200
G01 X7.2486 Y-3.2229 Z-3.2477 F1200
G01 X7.1468 Y-3.1527 Z-3.2468 F1200
G01 X7.0590 Y-3.0628 Z-3.2252 F1200
G01 X6.9884 Y-2.9559 Z-3.1889 F1200
G01 X6.9377 Y-2.8354 Z-3.1475 F1200
G01 X6.9090 Y-2.7048 Z-3.1121 F1200
G01 X6.9037 Y-2.5681 Z-3.0923 F1200
G01 X6.9224 Y-2.4296 Z-3.0932 F1200
G01 X6.9652 Y-2.2933 Z-3.1148 F1200
G01 X7.0313 Y-2.1634 Z-3.1511 F1200
G01 X7.1191 Y-2.0440 Z-3.1925 F1200
G01 X7.2267 Y-1.9385 Z-3.2279 F1200
G01 X7.3512 Y-1.8502 Z-3.2477 F1200
G01 X7.4894 Y-1.7819 Z-3.2468 F1200
G01 X7.6377 Y-1.7355 Z-3.2252 F1200
G01 X7.7920 Y-1.7125 Z-3.1889 F1200
G01 X7.9483 Y-1.7136 Z-3.1475 F1200
G01 X8.1022 Y-1.7387 Z-3.1121 F1200
G01 X8.2497 Y-1.7871 Z-3.0923 F1200
G01 X8.3869 Y-1.8573 Z-3.0932 F1200
G01 X8.5100 Y-1.9472 Z-3.1148 F1200
G01 X8.6159 Y-2.0541 Z-3.1511 F1200
G01 X8.7019 Y-2.1746 Z-3.1925 F1200
G01 X8.7660 Y-2.3052 Z-3.2279 F1200
G01 X8.8066 Y-2.4419 Z-3.2477 F1200
G01 X8.8232 Y-2.5804 Z-3.2468 F1200
G01 X8.8158 Y-2.7167 Z-3.2252 F1200
G01 X8.7850 Y-2.8466 Z-3.1889 F1200
G01 X8.7325 Y-2.9660 Z-3.1475 F1200
G01 X8.6602 Y-3.0715 Z-3.1121 F1200
G01 X8.5711 Y-3.1598 Z-3.0923 F1200
G01 X8.4682 Y-3.2281 Z-3.0932 F1200
G01 X8.3553 Y-3.2745 Z-3.1148 F1200
G01 X8.2363 Y-3.2975 Z-3.1511 F1200
G01 X8.1154 Y-3.2964 Z-3.1925 F1200
G01 X7.9968 Y-3.2713 Z-3.2279 F1200
G01 X7.8846 Y-3.2229 Z-3.2477 F1200
G01 X7.7828 Y-3.1527 Z-3.2468 F1200
G01 X7.6950 Y-3.0628 Z-3.2252 F1200
G01 X7.6244 Y-2.9559 Z-3.1889 F1200
G01 X7.5737 Y-2.8354 Z-3.1475 F1200
G01 X7.5450 Y-2.7048 Z-3.1121 F1200
G01 X7.5397 Y-2.5681 Z-3.0923 F1200
G01 X7.5584 Y-2.4296 Z-3.0932 F1200
G01 X7.6012 Y-2.2933 Z-3.1148 F1200
G01 X7.6673 Y-2.1634 Z-3.1511 F1200
G01 X7.7551 Y-2.0440 Z-3.1925 F1200
G01 X7.8627 Y-1.9385 Z-3.2279 F1200
G01 X7.9872 Y-1.8502 Z-3.2477 F1200
G01 X8.1254 Y-1.7819 Z-3.2468 F1200
G01 X8.2737 Y-1.7355 Z-3.2252 F1200
G01 X8.4280 Y-1.7125 Z-3.1889 F1200
G01 X8.5843 Y-1.7136 Z-3.1475 F1200
G01 X8.7382 Y-1.7387 Z-3.1121 F1200
G01 X8.8857 Y-1.7871 Z-3.0923 F1200
G01 X9.0229 Y-1.8573 Z-3.0932 F1200
G01 X9.1460 Y-1.9472 Z-3.1148 F1200
G01 X9.2519 Y-2.0541 Z-3.1511 F1200
G01 X9.3379 Y-2.1746 Z-3.1925 F1200
G01 X9.4020 Y-2.3052 Z-3.2279 F1200
G01 X9.4426 Y-2.4419 Z-3.2477 F1200
G01 X9.4592 Y-2.5804 Z-3.2468 F1200
G01 X9.4518 Y-2.7167 Z-3.2252 F1200
G01 X9.4210 Y-2.8466 Z-3.1889 F1200
G01 X9.3685 Y-2.9660 Z-3.1475 F1200
G01 X9.2962 Y-3.0715 Z-3.1121 F1200
G01 X9.2071 Y-3.1598 Z-3.0923 F1200
G01 X9.1042 Y-3.2281 Z-3.0932 F1200
G01 X8.9913 Y-3.2745 Z-3.1148 F1200
G01 X8.8723 Y-3.2975 Z-3.1511 F1200
G01 X8.7514 Y-3.2964 Z-3.1925 F1200
G01 X8.6328 Y-3.2713 Z-3.2279 F1200
G01 X8.5206 Y-3.2229 Z-3.2477 F1200
G01 X8.4188 Y-3.1527 Z-3.2468 F1200
G01 X8.3310 Y-3.0628 Z-3.2252 F1200
G01 X8.2604 Y-2.9559 Z-3.1889 F1200
G01 X8.2097 Y-2.8354 Z-3.1475 F1200
G01 X8.1810 Y-2.7048 Z-3.1121 F1200
G01 X8.1757 Y-2.5681 Z-3.0923 F1200
G01 X8.1944 Y-2.4296 Z-3.0932 F1200
G01 X8.2372 Y-2.2933 Z-3.1148 F1200
G01 X8.3033 Y-2.1634 Z-3.1511 F1200
G01 X8.3911 Y-2.0440 Z-3.1925 F1200
G01 X8.4987 Y-1.9385 Z-3.2279 F1200
G01 X8.6232 Y-1.8502 Z-3.2477 F1200
G01 X8.7614 Y-1.7819 Z-3.2468 F1200
G01 X8.9097 Y-1.7355 Z-3.2252 F1200
G01 X9.0640 Y-1.7125 Z-3.1889 F1200
G01 X9.2203 Y-1.7136 Z-3.1475 F1200
G01 X9.3742 Y-1.7387 Z-3.1121 F1200
G01 X9.5217 Y-1.7871 Z-3.0923 F1200
G01 X9.6589 Y-1.8573 Z-3.0932 F1200
G01 X9.7820 Y-1.9472 Z-3.1148 F1200
G01 X9.8879 Y-2.0541 Z-3.1511 F1200
G01 X9.9739 Y-2.1746 Z-3.1925 F1200
G01 X10.0380 Y-2.3052 Z-3.2279 F1200
G01 X10.0786 Y-2.4419 Z-3.2477 F1200
G01 X10.0952 Y-2.5804 Z-3.2468 F1200
G01 X10.0878 Y-2.7167 Z-3.2252 F1200
G01 X10.0570 Y-2.8466 Z-3.1889 F1200
G01 X10.0045 Y-2.9660 Z-3.1475 F1200
G01 X9.9322 Y-3.0715 Z-3.1121 F1200
G01 X9.8431 Y-3.1598 Z-3.0923 F1200
G01 X9.7402 Y-3.2281 Z-3.0932 F1200
G01 X9.6273 Y-3.2745 Z-3.1148 F1200
G01 X9.5083 Y-3.2975 Z-3.1511 F1200
G01 X9.3874 Y-3.2964 Z-3.1925 F1200
G01 X9.2688 Y-3.2713 Z-3.2279 F1200
G01 X9.1566 Y-3.2229 Z-3.2477 F1200
G01 X9.0548 Y-3.1527 Z-3.2468 F1200
G01 X8.9670 Y-3.0628 Z-3.2252 F1200
G01 X8.8964 Y-2.9559 Z-3.1889 F1200
G01 X8.8457 Y-2.8354 Z-3.1475 F1200
G01 X8.8170 Y-2.7048 Z-3.1121 F1200
G01 X8.8117 Y-2.5681 Z-3.0923 F1200
G01 X8.8304 Y-2.4296 Z-3.0932 F1200
G01 X8.8732 Y-2.2933 Z-3.1148 F1200
G01 X8.9393 Y-2.1634 Z-3.1511 F1200
G01 X9.0271 Y-2.0440 Z-3.1925 F1200
G01 X9.1347 Y-1.9385 Z-3.2279 F1200
G01 X9.2592 Y-1.8502 Z-3.2477 F1200
G01 X9.3974 Y-1.7819 Z-3.2468 F1200
G01 X9.5457 Y-1.7355 Z-3.2252 F1200
G01 X9.7000 Y-1.7125 Z-3.1889 F1200
G01 X9.8563 Y-1.7136 Z-3.1475 F1200
G01 X10.0102 Y-1.7387 Z-3.1121 F1200
G01 X10.1577 Y-1.7871 Z-3.0923 F1200
G01 X10.2949 Y-1.8573 Z-3.0932 F1200
G01 X10.4180 Y-1.9472 Z-3.1148 F1200
G01 X10.5239 Y-2.0541 Z-3.1511 F1200
G01 X10.6099 Y-2.1746 Z-3.1925 F1200
G01 X10.6740 Y-2.3052 Z-3.2279 F1200
G01 X10.7146 Y-2.4419 Z-3.2477 F1200
G01 X10.7312 Y-2.5804 Z-3.2468 F1200
G01 X10.7238 Y-2.7167 Z-3.2252 F1200
G01 X10.6930 Y-2.8466 Z-3.1889 F1200
G01 X10.6405 Y-2.9660 Z-3.1475 F1200
G01 X10.5682 Y-3.0715 Z-3.1121 F1200
G01 X10.4791 Y-3.1598 Z-3.0923 F1200
G01 X10.3762 Y-3.2281 Z-3.0932 F1200
G01 X10.2633 Y-3.2745 Z-3.1148 F1200
G01 X10.1443 Y-3.2975 Z-3.1511 F1200
G01 X10.0234 Y-3.2964 Z-3.1925 F1200
G01 X9.9048 Y-3.2713 Z-3.2279 F1200
G01 X9.7926 Y-3.2229 Z-3.2477 F1200
G01 X9.6908 Y-3.1527 Z-3.2468 F1200
G01 X9.6030 Y-3.0628 Z-3.2252 F1200
G01 X9.5324 Y-2.9559 Z-3.1889 F1200
G01 X9.4817 Y-2.8354 Z-3.1475 F1200
G01 X9.4530 Y-2.7048 Z-3.1121 F1200
G01 X9.4477 Y-2.5681 Z-3.0923 F1200
G01 X9.4664 Y-2.4296 Z-3.0932 F1200
G01 X9.5092 Y-2.2933 Z-3.1148 F1200
G01 X9.5753 Y-2.1634 Z-3.1511 F1200
G01 X9.6631 Y-2.0440 Z-3.1925 F1200
G01 X9.7707 Y-1.9385 Z-3.2279 F1200
G01 X9.8952 Y-1.8502 Z-3.2477 F1200
G01 X10.0334 Y-1.7819 Z-3.2468 F1200
G01 X10.1817 Y-1.7355 Z-3.2252 F1200
G01 X10.3360 Y-1.7125 Z-3.1889 F1200
G01 X10.4923 Y-1.7136 Z-3.1475 F1200
G01 X10.6462 Y-1.7387 Z-3.1121 F1200
G01 X10.7937 Y-1.7871 Z-3.0923 F1200
G01 X10.9309 Y-1.8573 Z-3.0932 F1200
G01 X11.0540 Y-1.9472 Z-3.1148 F1200
G01 X11.1599 Y-2.0541 Z-3.1511 F1200
G01 X11.2459 Y-2.1746 Z-3.1925 F1200
G01 X11.3100 Y-2.3052 Z-3.2279 F1200
G01 X11.3506 Y-2.4419 Z-3.2477 F1200
G01 X11.3672 Y-2.5804 Z-3.2468 F1200
G01 X11.3598 Y-2.7167 Z-3.2252 F1200
G01 X11.3290 Y-2.8466 Z-3.1889 F1200
G01 X11.2765 Y-2.9660 Z-3.1475 F1200
G01 X11.2042 Y-3.0715 Z-3.1121 F1200
G01 X11.1151 Y-3.1598 Z-3.0923 F1200
G01 X11.0122 Y-3.2281 Z-3.0932 F1200
G01 X10.8993 Y-3.2745 Z-3.1148 F1200
G01 X10.7803 Y-3.2975 Z-3.1511 F1200
G01 X10.6594 Y-3.2964 Z-3.1925 F1200
G01 X10.5408 Y-3.2713 Z-3.2279 F1200
G01 X10.4286 Y-3.2229 Z-3.2477 F1200
G01 X10.3268 Y-3.1527 Z-3.2468 F1200
G01 X10.2390 Y-3.0628 Z-3.2252 F1200
G01 X10.1684 Y-2.9559 Z-3.1889 F1200
G01 X10.1177 Y-2.8354 Z-3.1475 F1200
G01 X10.0890 Y-2.7048 Z-3.1121 F1200
G01 X10.0837 Y-2.5681 Z-3.0923 F1200
G01 X10.1024 Y-2.4296 Z-3.0932 F1200
G01 X10.1452 Y-2.2933 Z-3.1148 F1200
G01 X10.2113 Y-2.1634 Z-3.1511 F1200
G01 X10.2991 Y-2.0440 Z-3.1925 F1200
G01 X10.4067 Y-1.9385 Z-3.2279 F1200
G01 X10.5312 Y-1.8502 Z-3.2477 F1200
G01 X10.6694 Y-1.7819 Z-3.2468 F1200
G01 X10.8177 Y-1.7355 Z-3.2252 F1200
G01 X10.9720 Y-1.7125 Z-3.1889 F1200
G01 X11.1283 Y-1.7136 Z-3.1475 F1200
G01 X11.2822 Y-1.7387 Z-3.1121 F1200
G01 X11.4297 Y-1.7871 Z-3.0923 F1200
G01 X11.5669 Y-1.8573 Z-3.0932 F1200
G01 X11.6900 Y-1.9472 Z-3.1148 F1200
G01 X11.7959 Y-2.0541 Z-3.1511 F1200
G01 X11.8819 Y-2.1746 Z-3.1925 F1200
G01 X11.9460 Y-2.3052 Z-3.2279 F1200
G01 X11.9866 Y-2.4419 Z-3.2477 F1200
G01 X12.0032 Y-2.5804 Z-3.2468 F1200
G01 X11.9958 Y-2.7167 Z-3.2252 F1200
G01 X11.9650 Y-2.8466 Z-3.1889 F1200
G01 X11.9125 Y-2.9660 Z-3.1475 F1200
G01 X11.8402 Y-3.0715 Z-3.1121 F1200
G01 X11.7511 Y-3.1598 Z-3.0923 F1200
G01 X11.6482 Y-3.2281 Z-3.0932 F1200
G01 X11.5353 Y-3.2745 Z-3.1148 F1200
G01 X11.4163 Y-3.2975 Z-3.1511 F1200
G01 X11.2954 Y-3.2964 Z-3.1925 F1200
G01 X11.1768 Y-3.2713 Z-3.2279 F1200
G01 X11.0646 Y-3.2229 Z-3.2477 F1200
G01 X10.9628 Y-3.1527 Z-3.2468 F1200
G01 X10.8750 Y-3.0628 Z-3.2252 F1200
G01 X10.8044 Y-2.9559 Z-3.1889 F1200
G01 X10.7537 Y-2.8354 Z-3.1475 F1200
G01 X10.7250 Y-2.7048 Z-3.1121 F1200
G01 X10.7197 Y-2.5681 Z-3.0923 F1200
G01 X10.7384 Y-2.4296 Z-3.0932 F1200
G01 X10.7812 Y-2.2933 Z-3.1148 F1200
G01 X10.8473 Y-2.1634 Z-3.1511 F1200
G01 X10.9351 Y-2.0440 Z-3.1925 F1200
G01 X11.0427 Y-1.9385 Z-3.2279 F1200
G01 X11.1672 Y-1.8502 Z-3.2477 F1200
G01 X11.3054 Y-1.7819 Z-3.2468 F1200
G01 X11.4537 Y-1.7355 Z-3.2252 F1200
G01 X11.6080 Y-1.7125 Z-3.1889 F1200
G01 X11.7643 Y-1.7136 Z-3.1475 F1200
G01 X11.9182 Y-1.7387 Z-3.1121 F1200
G01 X12.0657 Y-1.7871 Z-3.0923 F1200
G01 X12.2029 Y-1.8573 Z-3.0932 F1200
G01 X12.3260 Y-1.9472 Z-3.1148 F1200
G01 X12.4319 Y-2.0541 Z-3.1511 F1200
G01 X12.5179 Y-2.1746 Z-3.1925 F1200
G01 X12.5820 Y-2.3052 Z-3.2279 F1200
G01 X12.6226 Y-2.4419 Z-3.2477 F1200
G01 X12.6392 Y-2.5804 Z-3.2468 F1200
G01 X12.6318 Y-2.7167 Z-3.2252 F1200
G01 X12.6010 Y-2.8466 Z-3.1889 F1200
G01 X12.5485 Y-2.9660 Z-3.1475 F1200
G01 X12.4762 Y-3.0715 Z-3.1121 F1200
G01 X12.3871 Y-3.1598 Z-3.0923 F1200
G01 X12.2842 Y-3.2281 Z-3.0932 F1200
G01 X12.1713 Y-3.2745 Z-3.1148 F1200
G01 X12.0523 Y-3.2975 Z-3.1511 F1200
G01 X11.9314 Y-3.2964 Z-3.1925 F1200
G01 X11.8128 Y-3.2713 Z-3.2279 F1200
G01 X11.7006 Y-3.2229 Z-3.2477 F1200
G01 X11.5988 Y-3.1527 Z-3.2468 F1200
G01 X11.5110 Y-3.0628 Z-3.2252 F1200
G01 X11.4404 Y-2.9559 Z-3.1889 F1200
G01 X11.3897 Y-2.8354 Z-3.1475 F1200
G01 X11.3610 Y-2.7048 Z-3.1121 F1200
G01 X11.3557 Y-2.5681 Z-3.0923 F1200
G01 X11.3744 Y-2.4296 Z-3.0932 F1200
G01 X11.4172 Y-2.2933 Z-3.1148 F1200
G01 X11.4833 Y-2.1634 Z-3.1511 F1200
G01 X11.5711 Y-2.0440 Z-3.1925 F1200
G01 X11.6787 Y-1.9385 Z-3.2279 F1200
G01 X11.8032 Y-1.8502 Z-3.2477 F1200
G01 X11.9414 Y-1.7819 Z-3.2468 F1200
G01 X12.0897 Y-1.7355 Z-3.2252 F1200
G01 X12.2440 Y-1.7125 Z-3.1889 F1200
G01 X12.4003 Y-1.7136 Z-3.1475 F1200
G01 X12.5542 Y-1.7387 Z-3.1121 F1200
G01 X12.7017 Y-1.7871 Z-3.0923 F1200
G01 X12.8389 Y-1.8573 Z-3.0932 F1200
G01 X12.9620 Y-1.9472 Z-3.1148 F1200
G01 X13.0679 Y-2.0541 Z-3.1511 F1200
G01 X13.1539 Y-2.1746 Z-3.1925 F1200
G01 X13.2180 Y-2.3052 Z-3.2279 F1200
G01 X13.2586 Y-2.4419 Z-3.2477 F1200
G01 X13.2752 Y-2.5804 Z-3.2468 F1200
G01 X13.2678 Y-2.7167 Z-3.2252 F1200
G01 X13.2370 Y-2.8466 Z-3.1889 F1200
G01 X13.1845 Y-2.9660 Z-3.1475 F1200
G01 X13.1122 Y-3.0715 Z-3.1121 F1200
G01 X13.0231 Y-3.1598 Z-3.0923 F1200
G01 X12.9202 Y-3.2281 Z-3.0932 F1200
G01 X12.8073 Y-3.2745 Z-3.1148 F1200
G01 X12.6883 Y-3.2975 Z-3.1511 F1200
G01 X12.5674 Y-3.2964 Z-3.1925 F1200
G01 X12.4488 Y-3.2713 Z-3.2279 F1200
G01 X12.3366 Y-3.2229 Z-3.2477 F1200
G01 X12.2348 Y-3.1527 Z-3.2468 F1200
G01 X12.1470 Y-3.0628 Z-3.2252 F1200
G01 X12.0764 Y-2.9559 Z-3.1889 F1200
G01 X12.0257 Y-2.8354 Z-3.1475 F1200
G01 X11.9970 Y-2.7048 Z-3.1121 F1200
G01 X11.9917 Y-2.5681 Z-3.0923 F1200
G01 X12.0104 Y-2.4296 Z-3.0932 F1200
G01 X12.0532 Y-2.2933 Z-3.1148 F1200
G01 X12.1193 Y-2.1634 Z-3.1511 F1200
G01 X12.2071 Y-2.0440 Z-3.1925 F1200
G01 X12.3147 Y-1.9385 Z-3.2279 F1200
G01 X12.4392 Y-1.8502 Z-3.2477 F1200
G01 X12.5774 Y-1.7819 Z-3.2468 F1200
G01 X12.7257 Y-1.7355 Z-3.2252 F1200
G01 X12.8800 Y-1.7125 Z-3.1889 F1200
G01 X13.0363 Y-1.7136 Z-3.1475 F1200
G01 X13.1902 Y-1.7387 Z-3.1121 F1200
G01 X13.3377 Y-1.7871 Z-3.0923 F1200
G01 X13.4749 Y-1.8573 Z-3.0932 F1200
G01 X13.5980 Y-1.9472 Z-3.1148 F1200
G01 X13.7039 Y-2.0541 Z-3.1511 F1200
G01 X13.7899 Y-2.1746 Z-3.1925 F1200
G01 X13.8540 Y-2.3052 Z-3.2279 F1200
G01 X13.8946 Y-2.4419 Z-3.2477 F1200
G01 X13.9112 Y-2.5804 Z-3.2468 F1200
G01 X13.9038 Y-2.7167 Z-3.2252 F1200
G01 X13.8730 Y-2.8466 Z-3.1889 F1200
G01 X13.8205 Y-2.9660 Z-3.1475 F1200
G01 X13.7482 Y-3.0715 Z-3.1121 F1200
G01 X13.6591 Y-3.1598 Z-3.0923 F1200
G01 X13.5562 Y-3.2281 Z-3.0932 F1200
G01 X13.4433 Y-3.2745 Z-3.1148 F1200
G01 X13.3243 Y-3.2975 Z-3.1511 F1200
G01 X13.2034 Y-3.2964 Z-3.1925 F1200
G01 X13.0848 Y-3.2713 Z-3.2279 F1200
G01 X12.9726 Y-3.2229 Z-3.2477 F1200
G01 X12.8708 Y-3.1527 Z-3.2468 F1200
G01 X12.7830 Y-3.0628 Z-3.2252 F1200
G01 X12.7124 Y-2.9559 Z-3.1889 F1200
G01 X12.6617 Y-2.8354 Z-3.1475 F1200
G01 X12.6330 Y-2.7048 Z-3.1121 F1200
G01 X12.6277 Y-2.5681 Z-3.0923 F1200
G01 X12.6464 Y-2.4296 Z-3.0932 F1200
G01 X12.6892 Y-2.2933 Z-3.1148 F1200
G01 X12.7553 Y-2.1634 Z-3.1511 F1200
G01 X12.8431 Y-2.0440 Z-3.1925 F1200
G01 X12.9507 Y-1.9385 Z-3.2279 F1200
G01 X13.0752 Y-1.8502 Z-3.2477 F1200
G01 X13.2134 Y-1.7819 Z-3.2468 F1200
G01 X13.3617 Y-1.7355 Z-3.2252 F1200
G01 X13.5160 Y-1.7125 Z-3.1889 F1200
G01 X13.6723 Y-1.7136 Z-3.1475 F1200
G01 X13.8262 Y-1.7387 Z-3.1121 F1200
G01 X13.9737 Y-1.7871 Z-3.0923 F1200
G01 X14.1109 Y-1.8573 Z-3.0932 F1200
G01 X14.2340 Y-1.9472 Z-3.1148 F1200
G01 X14.3399 Y-2.0541 Z-3.1511 F1200
G01 X14.4259 Y-2.1746 Z-3.1925 F1200
G01 X14.4900 Y-2.3052 Z-3.2279 F1200
G01 X14.5306 Y-2.4419 Z-3.2477 F1200
G01 X14.5472 Y-2.5804 Z-3.2468 F1200
G01 X14.5398 Y-2.7167 Z-3.2252 F1200
G01 X14.5090 Y-2.8466 Z-3.1889 F1200
G01 X14.4565 Y-2.9660 Z-3.1475 F1200
G01 X14.3842 Y-3.0715 Z-3.1121 F1200
G01 X14.2951 Y-3.1598 Z-3.0923 F1200
G01 X14.1922 Y-3.2281 Z-3.0932 F1200
G01 X14.0793 Y-3.2745 Z-3.1148 F1200
G01 X13.9603 Y-3.2975 Z-3.1511 F1200
G01 X13.8394 Y-3.2964 Z-3.1925 F1200
G01 X13.7208 Y-3.2713 Z-3.2279 F1200
G01 X13.6086 Y-3.2229 Z-3.2477 F1200
G01 X13.5068 Y-3.1527 Z-3.2468 F1200
G01 X13.4190 Y-3.0628 Z-3.2252 F1200
G01 X13.3484 Y-2.9559 Z-3.1889 F1200
G01 X13.2977 Y-2.8354 Z-3.1475 F1200
G01 X13.2690 Y-2.7048 Z-3.1121 F1200
G01 X13.2637 Y-2.5681 Z-3.0923 F1200
G01 X13.2824 Y-2.4296 Z-3.0932 F1200
G01 X13.3252 Y-2.2933 Z-3.1148 F1200
G01 X13.3913 Y-2.1634 Z-3.1511 F1200
G01 X13.4791 Y-2.0440 Z-3.1925 F1200
G01 X13.5867 Y-1.9385 Z-3.2279 F1200
G01 X13.7112 Y-1.8502 Z-3.2477 F1200
G01 X13.8494 Y-1.7819 Z-3.2468 F1200
G01 X13.9977 Y-1.7355 Z-3.2252 F1200
G01 X14.1520 Y-1.7125 Z-3.1889 F1200
G01 X14.3083 Y-1.7136 Z-3.1475 F1200
G01 X14.4622 Y-1.7387 Z-3.1121 F1200
G01 X14.6097 Y-1.7871 Z-3.0923 F1200
G01 X14.7469 Y-1.8573 Z-3.0932 F1200
G01 X14.8700 Y-1.9472 Z-3.1148 F1200
G01 X14.9759 Y-2.0541 Z-3.1511 F1200
G01 X15.0619 Y-2.1746 Z-3.1925 F1200
G01 X15.1260 Y-2.3052 Z-3.2279 F1200
G01 X15.1666 Y-2.4419 Z-3.2477 F1200
G01 X15.1832 Y-2.5804 Z-3.2468 F1200
G01 X15.1758 Y-2.7167 Z-3.2252 F1200
G01 X15.1450 Y-2.8466 Z-3.1889 F1200
G01 X15.0925 Y-2.9660 Z-3.1475 F1200
G01 X15.0202 Y-3.0715 Z-3.1121 F1200
G01 X14.9311 Y-3.1598 Z-3.0923 F1200
G01 X14.8282 Y-3.2281 Z-3.0932 F1200
G01 X14.7153 Y-3.2745 Z-3.1148 F1200
G01 X14.5963 Y-3.2975 Z-3.1511 F1200
G01 X14.4754 Y-3.2964 Z-3.1925 F1200
G01 X14.3568 Y-3.2713 Z-3.2279 F1200
G01 X14.2446 Y-3.2229 Z-3.2477 F1200
G01 X14.1428 Y-3.1527 Z-3.2468 F1200
G01 X14.0550 Y-3.0628 Z-3.2252 F1200
G01 X13.9844 Y-2.9559 Z-3.1889 F1200
G01 X13.9337 Y-2.8354 Z-3.1475 F1200
G01 X13.9050 Y-2.7048 Z-3.1121 F1200
G01 X13.8997 Y-2.5681 Z-3.0923 F1200
G01 X13.9184 Y-2.4296 Z-3.0932 F1200
G01 X13.9612 Y-2.2933 Z-3.1148 F1200
G01 X14.0273 Y-2.1634 Z-3.1511 F1200
G01 X14.1151 Y-2.0440 Z-3.1925 F1200
G01 X14.2227 Y-1.9385 Z-3.2279 F1200
G01 X14.3472 Y-1.8502 Z-3.2477 F1200
G01 X14.4854 Y-1.7819 Z-3.2468 F1200
G01 X14.6337 Y-1.7355 Z-3.2252 F1200
G01 X14.7880 Y-1.7125 Z-3.1889 F1200
G01 X14.9443 Y-1.7136 Z-3.1475 F1200
G01 X15.0982 Y-1.7387 Z-3.1121 F1200
G01 X15.2457 Y-1.7871 Z-3.0923 F1200
G01 X15.3829 Y-1.8573 Z-3.0932 F1200
G01 X15.5060 Y-1.9472 Z-3.1148 F1200
G01 X15.6119 Y-2.0541 Z-3.1511 F1200
G01 X15.6979 Y-2.1746 Z-3.1925 F1200
G01 X15.7620 Y-2.3052 Z-3.2279 F1200
G01 X15.8026 Y-2.4419 Z-3.2477 F1200
G01 X15.8192 Y-2.5804 Z-3.2468 F1200
G01 X15.8118 Y-2.7167 Z-3.2252 F1200
G01 X15.7810 Y-2.8466 Z-3.1889 F1200
G01 X15.7285 Y-2.9660 Z-3.1475 F1200
G01 X15.6562 Y-3.0715 Z-3.1121 F1200
G01 X15.5671 Y-3.1598 Z-3.0923 F1200
G01 X15.4642 Y-3.2281 Z-3.0932 F1200
G01 X15.3513 Y-3.2745 Z-3.1148 F1200
G01 X15.2323 Y-3.2975 Z-3.1511 F1200
G01 X15.1114 Y-3.2964 Z-3.1925 F1200
G01 X14.9928 Y-3.2713 Z-3.2279 F1200
G01 X14.8806 Y-3.2229 Z-3.2477 F1200
G01 X14.7788 Y-3.1527 Z-3.2468 F1200
G01 X14.6910 Y-3.0628 Z-3.2252 F1200
G01 X14.6204 Y-2.9559 Z-3.1889 F1200
G01 X14.5697 Y-2.8354 Z-3.1475 F1200
G01 X14.5410 Y-2.7048 Z-3.1121 F1200
G01 X14.5357 Y-2.5681 Z-3.0923 F1200
G01 X14.5544 Y-2.4296 Z-3.0932 F1200
G01 X14.5972 Y-2.2933 Z-3.1148 F1200
G01 X14.6633 Y-2.1634 Z-3.1511 F1200
G01 X14.7511 Y-2.0440 Z-3.1925 F1200
G01 X14.8587 Y-1.9385 Z-3.2279 F1200
G01 X14.9832 Y-1.8502 Z-3.2477 F1200
G01 X15.1214 Y-1.7819 Z-3.2468 F1200
G01 X15.2697 Y-1.7355 Z-3.2252 F1200
G01 X15.4240 Y-1.7125 Z-3.1889 F1200
G01 X15.5803 Y-1.7136 Z-3.1475 F1200
G01 X15.7342 Y-1.7387 Z-3.1121 F1200
G01 X15.8817 Y-1.7871 Z-3.0923 F1200
G01 X16.0189 Y-1.8573 Z-3.0932 F1200
G01 X16.1420 Y-1.9472 Z-3.1148 F1200
G01 X16.2479 Y-2.0541 Z-3.1511 F1200
G01 X16.3339 Y-2.1746 Z-3.1925 F1200
G01 X16.3980 Y-2.3052 Z-3.2279 F1200
G01 X16.4386 Y-2.4419 Z-3.2477 F1200
G01 X16.4552 Y-2.5804 Z-3.2468 F1200
G01 X16.4478 Y-2.7167 Z-3.2252 F1200
G01 X16.4170 Y-2.8466 Z-3.1889 F1200
G01 X16.3645 Y-2.9660 Z-3.1475 F1200
G01 X16.2922 Y-3.0715 Z-3.1121 F1200
G01 X16.2031 Y-3.1598 Z-3.0923 F1200
G01 X16.1002 Y-3.2281 Z-3.0932 F1200
G01 X15.9873 Y-3.2745 Z-3.1148 F1200
G01 X15.8683 Y-3.2975 Z-3.1511 F1200
G01 X15.7474 Y-3.2964 Z-3.1925 F1200
G01 X15.6288 Y-3.2713 Z-3.2279 F1200
G01 X15.5166 Y-3.2229 Z-3.2477 F1200
G01 X15.4148 Y-3.1527 Z-3.2468 F1200
G01 X15.3270 Y-3.0628 Z-3.2252 F1200
G01 X15.2564 Y-2.9559 Z-3.1889 F1200
G01 X15.2057 Y-2.8354 Z-3.1475 F1200
G01 X15.1770 Y-2.7048 Z-3.1121 F1200
G01 X15.1717 Y-2.5681 Z-3.0923 F1200
G01 X15.1904 Y-2.4296 Z-3.0932 F1200
G01 X15.2332 Y-2.2933 Z-3.1148 F1200
G01 X15.2993 Y-2.1634 Z-3.1511 F1200
G01 X15.3871 Y-2.0440 Z-3.1925 F1200
G01 X15.4947 Y-1.9385 Z-3.2279 F1200
G01 X15.6192 Y-1.8502 Z-3.2477 F1200
G01 X15.7574 Y-1.7819 Z-3.2468 F1200
G01 X15.9057 Y-1.7355 Z-3.2252 F1200
G01 X16.0600 Y-1.7125 Z-3.1889 F1200
G01 X16.2163 Y-1.7136 Z-3.1475 F1200
G01 X16.3702 Y-1.7387 Z-3.1121 F1200
G01 X16.5177 Y-1.7871 Z-3.0923 F1200
G01 X16.6549 Y-1.8573 Z-3.0932 F1200
G01 X16.7780 Y-1.9472 Z-3.1148 F1200
G01 X16.8839 Y-2.0541 Z-3.1511 F1200
G01 X16.9699 Y-2.1746 Z-3.1925 F1200
G01 X17.0340 Y-2.3052 Z-3.2279 F1200
G01 X17.0746 Y-2.4419 Z-3.2477 F1200
G01 X17.0912 Y-2.5804 Z-3.2468 F1200
G01 X17.0838 Y-2.7167 Z-3.2252 F1200
G01 X17.0530 Y-2.8466 Z-3.1889 F1200
G01 X17.0005 Y-2.9660 Z-3.1475 F1200
G01 X16.9282 Y-3.0715 Z-3.1121 F1200
G01 X16.8391 Y-3.1598 Z-3.0923 F1200
G01 X16.7362 Y-3.2281 Z-3.0932 F1200
G01 X16.6233 Y-3.2745 Z-3.1148 F1200
G01 X16.5043 Y-3.2975 Z-3.1511 F1200
G01 X16.3834 Y-3.2964 Z-3.1925 F1200
G01 X16.2648 Y-3.2713 Z-3.2279 F1200
G01 X16.1526 Y-3.2229 Z-3.2477 F1200
G01 X16.0508 Y-3.1527 Z-3.2468 F1200
G01 X15.9630 Y-3.0628 Z-3.2252 F1200
G01 X15.8924 Y-2.9559 Z-3.1889 F1200
G01 X15.8417 Y-2.8354 Z-3.1475 F1200
G01 X15.8130 Y-2.7048 Z-3.1121 F1200
G01 X15.8077 Y-2.5681 Z-3.0923 F1200
G01 X15.8264 Y-2.4296 Z-3.0932 F1200
G01 X15.8692 Y-2.2933 Z-3.1148 F1200
G01 X15.9353 Y-2.1634 Z-3.1511 F1200
G01 X16.0231 Y-2.0440 Z-3.1925 F1200
G01 X16.1307 Y-1.9385 Z-3.2279 F1200
G01 X16.2552 Y-1.8502 Z-3.2477 F1200
G01 X16.3934 Y-1.7819 Z-3.2468 F1200
G01 X16.5417 Y-1.7355 Z-3.2252 F1200
G01 X16.6960 Y-1.7125 Z-3.1889 F1200
G01 X16.8523 Y-1.7136 Z-3.1475 F1200
G01 X17.0062 Y-1.7387 Z-3.1121 F1200
G01 X17.1537 Y-1.7871 Z-3.0923 F1200
G01 X17.2909 Y-1.8573 Z-3.0932 F1200
G01 X17.4140 Y-1.9472 Z-3.1148 F1200
G01 X17.5199 Y-2.0541 Z-3.1511 F1200
G01 X17.6059 Y-2.1746 Z-3.1925 F1200
G01 X17.6700 Y-2.3052 Z-3.2279 F1200
G01 X17.7106 Y-2.4419 Z-3.2477 F1200
G01 X17.7272 Y-2.5804 Z-3.2468 F1200
G01 X17.7198 Y-2.7167 Z-3.2252 F1200
G01 X17.6890 Y-2.8466 Z-3.1889 F1200
G01 X17.6365 Y-2.9660 Z-3.1475 F1200
G01 X17.5642 Y-3.0715 Z-3.1121 F1200
G01 X17.4751 Y-3.1598 Z-3.0923 F1200
G01 X17.3722 Y-3.2281 Z-3.0932 F1200
G01 X17.2593 Y-3.2745 Z-3.1148 F1200
G01 X17.1403 Y-3.2975 Z-3.1511 F1200
G01 X17.0194 Y-3.2964 Z-3.1925 F1200
G01 X16.9008 Y-3.2713 Z-3.2279 F1200
G01 X16.7886 Y-3.2229 Z-3.2477 F1200
G01 X16.6868 Y-3.1527 Z-3.2468 F1200
G01 X16.5990 Y-3.0628 Z-3.2252 F1200
G01 X16.5284 Y-2.9559 Z-3.1889 F1200
G01 X16.4777 Y-2.8354 Z-3.1475 F1200
G01 X16.4490 Y-2.7048 Z-3.1121 F1200
G01 X16.4437 Y-2.5681 Z-3.0923 F1200
G01 X16.4624 Y-2.4296 Z-3.0932 F1200
G01 X16.5052 Y-2.2933 Z-3.1148 F1200
G01 X16.5713 Y-2.1634 Z-3.1511 F1200
G01 X16.6591 Y-2.0440 Z-3.1925 F1200
G01 X16.7667 Y-1.9385 Z-3.2279 F1200
G01 X16.8912 Y-1.8502 Z-3.2477 F1200
G01 X17.0294 Y-1.7819 Z-3.2468 F1200
G01 X17.1777 Y-1.7355 Z-3.2252 F1200
G01 X17.3320 Y-1.7125 Z-3.1889 F1200
G01 X17.4883 Y-1.7136 Z-3.1475 F1200
G01 X17.6422 Y-1.7387 Z-3.1121 F1200
G01 X17.7897 Y-1.7871 Z-3.0923 F1200
G01 X17.9269 Y-1.8573 Z-3.0932 F1200
G01 X18.0500 Y-1.9472 Z-3.1148 F1200
G01 X18.1559 Y-2.0541 Z-3.1511 F1200
G01 X18.2419 Y-2.1746 Z-3.1925 F1200
G01 X18.3060 Y-2.3052 Z-3.2279 F1200
G01 X18.3466 Y-2.4419 Z-3.2477 F1200
G01 X18.3632 Y-2.5804 Z-3.2468 F1200
G01 X18.3558 Y-2.7167 Z-3.2252 F1200
G01 X18.3250 Y-2.8466 Z-3.1889 F1200
G01 X18.2725 Y-2.9660 Z-3.1475 F1200
G01 X18.2002 Y-3.0715 Z-3.1121 F1200
G01 X18.1111 Y-3.1598 Z-3.0923 F1200
G01 X18.0082 Y-3.2281 Z-3.0932 F1200
G01 X17.8953 Y-3.2745 Z-3.1148 F1200
G01 X17.7763 Y-3.2975 Z-3.1511 F1200
G01 X17.6554 Y-3.2964 Z-3.1925 F1200
G01 X17.5368 Y-3.2713 Z-3.2279 F1200
G01 X17.4246 Y-3.2229 Z-3.2477 F1200
G01 X17.3228 Y-3.1527 Z-3.2468 F1200
G01 X17.2350 Y-3.0628 Z-3.2252 F1200
G01 X17.1644 Y-2.9559 Z-3.1889 F1200
G01 X17.1137 Y-2.8354 Z-3.1475 F1200
G01 X17.0850 Y-2.7048 Z-3.1121 F1200
G01 X17.0797 Y-2.5681 Z-3.0923 F1200
G01 X17.0984 Y-2.4296 Z-3.0932 F1200
G01 X17.1412 Y-2.2933 Z-3.1148 F1200
G01 X17.2073 Y-2.1634 Z-3.1511 F1200
G01 X17.2951 Y-2.0440 Z-3.1925 F1200
G01 X17.4027 Y-1.9385 Z-3.2279 F1200
G01 X17.5272 Y-1.8502 Z-3.2477 F1200
G01 X17.6654 Y-1.7819 Z-3.2468 F1200
G01 X17.8137 Y-1.7355 Z-3.2252 F1200
G01 X17.9680 Y-1.7125 Z-3.1889 F1200
G01 X18.1243 Y-1.7136 Z-3.1475 F1200
G01 X18.2782 Y-1.7387 Z-3.1121 F1200
G01 X18.4257 Y-1.7871 Z-3.0923 F1200
G01 X18.5629 Y-1.8573 Z-3.0932 F1200
G01 X18.6860 Y-1.9472 Z-3.1148 F1200
G01 X18.7919 Y-2.0541 Z-3.1511 F1200
G01 X18.8779 Y-2.1746 Z-3.1925 F1200
G01 X18.9420 Y-2.3052 Z-3.2279 F1200
G01 X18.9826 Y-2.4419 Z-3.2477 F1200
G01 X18.9992 Y-2.5804 Z-3.2468 F1200
G01 X18.9918 Y-2.7167 Z-3.2252 F1200
G01 X18.9610 Y-2.8466 Z-3.1889 F1200
G01 X18.9085 Y-2.9660 Z-3.1475 F1200
G01 X18.8362 Y-3.0715 Z-3.1121 F1200
G01 X18.7471 Y-3.1598 Z-3.0923 F1200
G01 X18.6442 Y-3.2281 Z-3.0932 F1200
G01 X18.5313 Y-3.2745 Z-3.1148 F1200
G01 X18.4123 Y-3.2975 Z-3.1511 F1200
G01 X18.2914 Y-3.2964 Z-3.1925 F1200
G01 X18.1728 Y-3.2713 Z-3.2279 F1200
G01 X18.0606 Y-3.2229 Z-3.2477 F1200
G01 X17.9588 Y-3.1527 Z-3.2468 F1200
G01 X17.8710 Y-3.0628 Z-3.2252 F1200
G01 X17.8004 Y-2.9559 Z-3.1889 F1200
G01 X17.7497 Y-2.8354 Z-3.1475 F1200
G01 X17.7210 Y-2.7048 Z-3.1121 F1200
G01 X17.7157 Y-2.5681 Z-3.0923 F1200
G01 X17.7344 Y-2.4296 Z-3.0932 F1200
G01 X17.7772 Y-2.2933 Z-3.1148 F1200
G01 X17.8433 Y-2.1634 Z-3.1511 F1200
G01 X17.9311 Y-2.0440 Z-3.1925 F1200
G01 X18.0387 Y-1.9385 Z-3.2279 F1200
G01 X18.1632 Y-1.8502 Z-3.2477 F1200
G01 X18.3014 Y-1.7819 Z-3.2468 F1200
G01 X18.4497 Y-1.7355 Z-3.2252 F1200
G01 X18.6040 Y-1.7125 Z-3.1889 F1200
G01 X18.7603 Y-1.7136 Z-3.1475 F1200
G01 X18.9142 Y-1.7387 Z-3.1121 F1200
G01 X19.0617 Y-1.7871 Z-3.0923 F1200
G01 X19.1989 Y-1.8573 Z-3.0932 F1200
G01 X19.3220 Y-1.9472 Z-3.1148 F1200
G01 X19.4279 Y-2.0541 Z-3.1511 F1200
G01 X19.5139 Y-2.1746 Z-3.1925 F1200
G01 X19.5780 Y-2.3052 Z-3.2279 F1200
G01 X19.6186 Y-2.4419 Z-3.2477 F1200
G01 X19.6352 Y-2.5804 Z-3.2468 F1200
G01 X19.6278 Y-2.7167 Z-3.2252 F1200
G01 X19.5970 Y-2.8466 Z-3.1889 F1200
G01 X19.5445 Y-2.9660 Z-3.1475 F1200
G01 X19.4722 Y-3.0715 Z-3.1121 F1200
G01 X19.3831 Y-3.1598 Z-3.0923 F1200
G01 X19.2802 Y-3.2281 Z-3.0932 F1200
G01 X19.1673 Y-3.2745 Z-3.1148 F1200
G01 X19.0483 Y-3.2975 Z-3.1511 F1200
G01 X18.9274 Y-3.2964 Z-3.1925 F1200
G01 X18.8088 Y-3.2713 Z-3.2279 F1200
G01 X18.6966 Y-3.2229 Z-3.2477 F1200
G01 X18.5948 Y-3.1527 Z-3.2468 F1200
G01 X18.5070 Y-3.0628 Z-3.2252 F1200
G01 X18.4364 Y-2.9559 Z-3.1889 F1200
G01 X18.3857 Y-2.8354 Z-3.1475 F1200
G01 X18.3570 Y-2.7048 Z-3.1121 F1200
G01 X18.3517 Y-2.5681 Z-3.0923 F1200
G01 X18.3704 Y-2.4296 Z-3.0932 F1200
G01 X18.4132 Y-2.2933 Z-3.1148 F1200
G01 X18.4793 Y-2.1634 Z-3.1511 F1200
G01 X18.5671 Y-2.0440 Z-3.1925 F1200
G01 X18.6747 Y-1.9385 Z-3.2279 F1200
G01 X18.7992 Y-1.8502 Z-3.2477 F1200
G01 X18.9374 Y-1.7819 Z-3.2468 F1200
G01 X19.0857 Y-1.7355 Z-3.2252 F1200
G01 X19.2400 Y-1.7125 Z-3.1889 F1200
G01 X19.3963 Y-1.7136 Z-3.1475 F1200
G01 X19.5502 Y-1.7387 Z-3.1121 F1200
G01 X19.6977 Y-1.7871 Z-3.0923 F1200
G01 X19.8349 Y-1.8573 Z-3.0932 F1200
G01 X19.9580 Y-1.9472 Z-3.1148 F1200
G01 X20.0639 Y-2.0541 Z-3.1511 F1200
G01 X20.1499 Y-2.1746 Z-3.1925 F1200
G01 X20.2140 Y-2.3052 Z-3.2279 F1200
G01 X20.2546 Y-2.4419 Z-3.2477 F1200
G01 X20.2712 Y-2.5804 Z-3.2468 F1200
G01 X20.2638 Y-2.7167 Z-3.2252 F1200
G01 X20.2330 Y-2.8466 Z-3.1889 F1200
G01 X20.1805 Y-2.9660 Z-3.1475 F1200
G01 X20.1082 Y-3.0715 Z-3.1121 F1200
G01 X20.0191 Y-3.1598 Z-3.0923 F1200
G01 X19.9162 Y-3.2281 Z-3.0932 F1200
G01 X19.8033 Y-3.2745 Z-3.1148 F1200
G01 X19.6843 Y-3.2975 Z-3.1511 F1200
G01 X19.5634 Y-3.2964 Z-3.1925 F1200
G01 X19.4448 Y-3.2713 Z-3.2279 F1200
G01 X19.3326 Y-3.2229 Z-3.2477 F1200
G01 X19.2308 Y-3.1527 Z-3.2468 F1200
G01 X19.1430 Y-3.0628 Z-3.2252 F1200
G01 X19.0724 Y-2.9559 Z-3.1889 F1200
G01 X19.0217 Y-2.8354 Z-3.1475 F1200
G01 X18.9930 Y-2.7048 Z-3.1121 F1200
G01 X18.9877 Y-2.5681 Z-3.0923 F1200
G01 X19.0064 Y-2.4296 Z-3.0932 F1200
G01 X19.0492 Y-2.2933 Z-3.1148 F1200
G01 X19.1153 Y-2.1634 Z-3.1511 F1200
G01 X19.2031 Y-2.0440 Z-3.1925 F1200
G01 X19.3107 Y-1.9385 Z-3.2279 F1200
G01 X19.4352 Y-1.8502 Z-3.2477 F1200
G01 X19.5734 Y-1.7819 Z-3.2468 F1200
G01 X19.7217 Y-1.7355 Z-3.2252 F1200
G01 X19.8760 Y-1.7125 Z-3.1889 F1200
G01 X20.0323 Y-1.7136 Z-3.1475 F1200
G01 X20.1862 Y-1.7387 Z-3.1121 F1200
G01 X20.3337 Y-1.7871 Z-3.0923 F1200
G01 X20.4709 Y-1.8573 Z-3.0932 F1200
G01 X20.5940 Y-1.9472 Z-3.1148 F1200
G01 X20.6999 Y-2.0541 Z-3.1511 F1200
G01 X20.7859 Y-2.1746 Z-3.1925 F1200
G01 X20.8500 Y-2.3052 Z-3.2279 F1200
G01 X20.8906 Y-2.4419 Z-3.2477 F1200
G01 X20.9072 Y-2.5804 Z-3.2468 F1200
G01 X20.8998 Y-2.7167 Z-3.2252 F1200
G01 X20.8690 Y-2.8466 Z-3.1889 F1200
G01 X20.8165 Y-2.9660 Z-3.1475 F1200
G01 X20.7442 Y-3.0715 Z-3.1121 F1200
G01 X20.6551 Y-3.1598 Z-3.0923 F1200
G01 X20.5522 Y-3.2281 Z-3.0932 F1200
G01 X20.4393 Y-3.2745 Z-3.1148 F1200
G01 X20.3203 Y-3.2975 Z-3.1511 F1200
G01 X20.1994 Y-3.2964 Z-3.1925 F1200
G01 X20.0808 Y-3.2713 Z-3.2279 F1200
G01 X19.9686 Y-3.2229 Z-3.2477 F1200
G01 X19.8668 Y-3.1527 Z-3.2468 F1200
G01 X19.7790 Y-3.0628 Z-3.2252 F1200
G01 X19.7084 Y-2.9559 Z-3.1889 F1200
G01 X19.6577 Y-2.8354 Z-3.1475 F1200
G01 X19.6290 Y-2.7048 Z-3.1121 F1200
G01 X19.6237 Y-2.5681 Z-3.0923 F1200
G01 X19.6424 Y-2.4296 Z-3.0932 F1200
G01 X19.6852 Y-2.2933 Z-3.1148 F1200
G01 X19.7513 Y-2.1634 Z-3.1511 F1200
G01 X19.8391 Y-2.0440 Z-3.1925 F1200
G01 X19.9467 Y-1.9385 Z-3.2279 F1200
G01 X20.0712 Y-1.8502 Z-3.2477 F1200
G01 X20.2094 Y-1.7819 Z-3.2468 F1200
G01 X20.3577 Y-1.7355 Z-3.2252 F1200
G01 X20.5120 Y-1.7125 Z-3.1889 F1200
G01 X20.6683 Y-1.7136 Z-3.1475 F1200
G01 X20.8222 Y-1.7387 Z-3.1121 F1200
G01 X20.9697 Y-1.7871 Z-3.0923 F1200
G01 X21.1069 Y-1.8573 Z-3.0932 F1200
G01 X21.2300 Y-1.9472 Z-3.1148 F1200
G01 X21.3359 Y-2.0541 Z-3.1511 F1200
G01 X21.4219 Y-2.1746 Z-3.1925 F1200
G01 X21.4860 Y-2.3052 Z-3.2279 F1200
G01 X21.5266 Y-2.4419 Z-3.2477 F1200
G01 X21.5432 Y-2.5804 Z-3.2468 F1200
G01 X21.5358 Y-2.7167 Z-3.2252 F1200
G01 X21.5050 Y-2.8466 Z-3.1889 F1200
G01 X21.4525 Y-2.9660 Z-3.1475 F1200
G01 X21.3802 Y-3.0715 Z-3.1121 F1200
G01 X21.2911 Y-3.1598 Z-3.0923 F1200
G01 X21.1882 Y-3.2281 Z-3.0932 F1200
G01 X21.0753 Y-3.2745 Z-3.1148 F1200
G01 X20.9563 Y-3.2975 Z-3.1511 F1200
G01 X20.8354 Y-3.2964 Z-3.1925 F1200
G01 X20.7168 Y-3.2713 Z-3.2279 F1200
G01 X20.6046 Y-3.2229 Z-3.2477 F1200
G01 X20.5028 Y-3.1527 Z-3.2468 F1200
G01 X20.4150 Y-3.0628 Z-3.2252 F1200
G01 X20.3444 Y-2.9559 Z-3.1889 F1200
G01 X20.2937 Y-2.8354 Z-3.1475 F1200
G01 X20.2650 Y-2.7048 Z-3.1121 F1200
G01 X20.2597 Y-2.5681 Z-3.0923 F1200
G01 X20.2784 Y-2.4296 Z-3.0932 F1200
G01 X20.3212 Y-2.2933 Z-3.1148 F1200
G01 X20.3873 Y-2.1634 Z-3.1511 F1200
G01 X20.4751 Y-2.0440 Z-3.1925 F1200
G01 X20.5827 Y-1.9385 Z-3.2279 F1200
G01 X20.7072 Y-1.8502 Z-3.2477 F1200
G01 X20.8454 Y-1.7819 Z-3.2468 F1200
G01 X20.9937 Y-1.7355 Z-3.2252 F1200
G01 X21.1480 Y-1.7125 Z-3.1889 F1200
G01 X21.3043 Y-1.7136 Z-3.1475 F1200
G01 X21.4582 Y-1.7387 Z-3.1121 F1200
G01 X21.6057 Y-1.7871 Z-3.0923 F1200
G01 X21.7429 Y-1.8573 Z-3.0932 F1200
G01 X21.8660 Y-1.9472 Z-3.1148 F1200
G01 X21.9719 Y-2.0541 Z-3.1511 F1200
G01 X22.0579 Y-2.1746 Z-3.1925 F1200
G01 X22.1220 Y-2.3052 Z-3.2279 F1200
G01 X22.1626 Y-2.4419 Z-3.2477 F1200
G01 X22.1792 Y-2.5804 Z-3.2468 F1200
G01 X22.1718 Y-2.7167 Z-3.2252 F1200
G01 X22.1410 Y-2.8466 Z-3.1889 F1200
G01 X22.0885 Y-2.9660 Z-3.1475 F1200
G01 X22.0162 Y-3.0715 Z-3.1121 F1200
G01 X21.9271 Y-3.1598 Z-3.0923 F1200
G01 X21.8242 Y-3.2281 Z-3.0932 F1200
G01 X21.7113 Y-3.2745 Z-3.1148 F1200
G01 X21.5923 Y-3.2975 Z-3.1511 F1200
G01 X21.4714 Y-3.2964 Z-3.1925 F1200
G01 X21.3528 Y-3.2713 Z-3.2279 F1200
G01 X21.2406 Y-3.2229 Z-3.2477 F1200
G01 X21.1388 Y-3.1527 Z-3.2468 F1200
G01 X21.0510 Y-3.0628 Z-3.2252 F1200
G01 X20.9804 Y-2.9559 Z-3.1889 F1200
G01 X20.9297 Y-2.8354 Z-3.1475 F1200
G01 X20.9010 Y-2.7048 Z-3.1121 F1200
G01 X20.8957 Y-2.5681 Z-3.0923 F1200
G01 X20.9144 Y-2.4296 Z-3.0932 F1200
G01 X20.9572 Y-2.2933 Z-3.1148 F1200
G01 X21.0233 Y-2.1634 Z-3.1511 F1200
G01 X21.1111 Y-2.0440 Z-3.1925 F1200
G01 X21.2187 Y-1.9385 Z-3.2279 F1200
G01 X21.3432 Y-1.8502 Z-3.2477 F1200
G01 X21.4814 Y-1.7819 Z-3.2468 F1200
G01 X21.6297 Y-1.7355 Z-3.2252 F1200
G01 X21.7840 Y-1.7125 Z-3.1889 F1200
G01 X21.9403 Y-1.7136 Z-3.1475 F1200
G01 X22.0942 Y-1.7387 Z-3.1121 F1200
G01 X22.2417 Y-1.7871 Z-3.0923 F1200
G01 X22.3789 Y-1.8573 Z-3.0932 F1200
G01 X22.5020 Y-1.9472 Z-3.1148 F1200
G01 X22.6079 Y-2.0541 Z-3.1511 F1200
G01 X22.6939 Y-2.1746 Z-3.1925 F1200
G01 X22.7580 Y-2.3052 Z-3.2279 F1200
G01 X22.7986 Y-2.4419 Z-3.2477 F1200
G01 X22.8152 Y-2.5804 Z-3.2468 F1200
G01 X22.8078 Y-2.7167 Z-3.2252 F1200
G01 X22.7770 Y-2.8466 Z-3.1889 F1200
G01 X22.7245 Y-2.9660 Z-3.1475 F1200
G01 X22.6522 Y-3.0715 Z-3.1121 F1200
G01 X22.5631 Y-3.1598 Z-3.0923 F1200
G01 X22.4602 Y-3.2281 Z-3.0932 F1200
G01 X22.3473 Y-3.2745 Z-3.1148 F1200
G01 X22.2283 Y-3.2975 Z-3.1511 F1200
G01 X22.1074 Y-3.2964 Z-3.1925 F1200
G01 X21.9888 Y-3.2713 Z-3.2279 F1200
G01 X21.8766 Y-3.2229 Z-3.2477 F1200
G01 X21.7748 Y-3.1527 Z-3.2468 F1200
G01 X21.6870 Y-3.0628 Z-3.2252 F1200
G01 X21.6164 Y-2.9559 Z-3.1889 F1200
G01 X21.5657 Y-2.8354 Z-3.1475 F1200
G01 X21.5370 Y-2.7048 Z-3.1121 F1200
G01 X21.5317 Y-2.5681 Z-3.0923 F1200
G01 X21.5504 Y-2.4296 Z-3.0932 F1200
G01 X21.5932 Y-2.2933 Z-3.1148 F1200
G01 X21.6593 Y-2.1634 Z-3.1511 F1200
G01 X21.7471 Y-2.0440 Z-3.1925 F1200
G01 X21.8547 Y-1.9385 Z-3.2279 F1200
G01 X21.9792 Y-1.8502 Z-3.2477 F1200
G01 X22.1174 Y-1.7819 Z-3.2468 F1200
G01 X22.2657 Y-1.7355 Z-3.2252 F1200
G01 X22.4200 Y-1.7125 Z-3.1889 F1200
G01 X22.5763 Y-1.7136 Z-3.1475 F1200
G01 X22.7302 Y-1.7387 Z-3.1121 F1200
G01 X22.8777 Y-1.7871 Z-3.0923 F1200
G01 X23.0149 Y-1.8573 Z-3.0932 F1200
G01 X23.1380 Y-1.9472 Z-3.1148 F1200
G01 X23.2439 Y-2.0541 Z-3.1511 F1200
G01 X23.3299 Y-2.1746 Z-3.1925 F1200
G01 X23.3940 Y-2.3052 Z-3.2279 F1200
G01 X23.4346 Y-2.4419 Z-3.2477 F1200
G01 X23.4512 Y-2.5804 Z-3.2468 F1200
G01 X23.4438 Y-2.7167 Z-3.2252 F1200
G01 X23.4130 Y-2.8466 Z-3.1889 F1200
G01 X23.3605 Y-2.9660 Z-3.1475 F1200
G01 X23.2882 Y-3.0715 Z-3.1121 F1200
G01 X23.1991 Y-3.1598 Z-3.0923 F1200
G01 X23.0962 Y-3.2281 Z-3.0932 F1200
G01 X22.9833 Y-3.2745 Z-3.1148 F1200
G01 X22.8643 Y-3.2975 Z-3.1511 F1200
G01 X22.7434 Y-3.2964 Z-3.1925 F1200
G01 X22.6248 Y-3.2713 Z-3.2279 F1200
G01 X22.5126 Y-3.2229 Z-3.2477 F1200
G01 X22.4108 Y-3.1527 Z-3.2468 F1200
G01 X22.3230 Y-3.0628 Z-3.2252 F1200
G01 X22.2524 Y-2.9559 Z-3.1889 F1200
G01 X22.2017 Y-2.8354 Z-3.1475 F1200
G01 X22.1730 Y-2.7048 Z-3.1121 F1200
G01 X22.1677 Y-2.5681 Z-3.0923 F1200
G01 X22.1864 Y-2.4296 Z-3.0932 F1200
G01 X22.2292 Y-2.2933 Z-3.1148 F1200
G01 X22.2953 Y-2.1634 Z-3.1511 F1200
G01 X22.3831 Y-2.0440 Z-3.1925 F1200
G01 X22.4907 Y-1.9385 Z-3.2279 F1200
G01 X22.6152 Y-1.8502 Z-3.2477 F1200
G01 X22.7534 Y-1.7819 Z-3.2468 F1200
G01 X22.9017 Y-1.7355 Z-3.2252 F1200
G01 X23.0560 Y-1.7125 Z-3.1889 F1200
G01 X23.2123 Y-1.7136 Z-3.1475 F1200
G01 X23.3662 Y-1.7387 Z-3.1121 F1200
G01 X23.5137 Y-1.7871 Z-3.0923 F1200
G01 X23.6509 Y-1.8573 Z-3.0932 F1200
G01 X23.7740 Y-1.9472 Z-3.1148 F1200
G01 X23.8799 Y-2.0541 Z-3.1511 F1200
G01 X23.9659 Y-2.1746 Z-3.1925 F1200
G01 X24.0300 Y-2.3052 Z-3.2279 F1200
G01 X24.0706 Y-2.4419 Z-3.2477 F1200
G01 X24.0872 Y-2.5804 Z-3.2468 F1200
G01 X24.0798 Y-2.7167 Z-3.2252 F1200
G01 X24.0490 Y-2.8466 Z-3.1889 F1200
G01 X23.9965 Y-2.9660 Z-3.1475 F1200
G01 X23.9242 Y-3.0715 Z-3.1121 F1200
G01 X23.8351 Y-3.1598 Z-3.0923 F1200
G01 X23.7322 Y-3.2281 Z-3.0932 F1200
G01 X23.6193 Y-3.2745 Z-3.1148 F1200
G01 X23.5003 Y-3.2975 Z-3.1511 F1200
G01 X23.3794 Y-3.2964 Z-3.1925 F1200
G01 X23.2608 Y-3.2713 Z-3.2279 F1200
G01 X23.1486 Y-3.2229 Z-3.2477 F1200
G01 X23.0468 Y-3.1527 Z-3.2468 F1200
G01 X22.9590 Y-3.0628 Z-3.2252 F1200
G01 X22.8884 Y-2.9559 Z-3.1889 F1200
G01 X22.8377 Y-2.8354 Z-3.1475 F1200
G01 X22.8090 Y-2.7048 Z-3.1121 F1200
G01 X22.8037 Y-2.5681 Z-3.0923 F1200
G01 X22.8224 Y-2.4296 Z-3.0932 F1200
G01 X22.8652 Y-2.2933 Z-3.1148 F1200
G01 X22.9313 Y-2.1634 Z-3.1511 F1200
G01 X23.0191 Y-2.0440 Z-3.1925 F1200
G01 X23.1267 Y-1.9385 Z-3.2279 F1200
G01 X23.2512 Y-1.8502 Z-3.2477 F1200
G01 X23.3894 Y-1.7819 Z-3.2468 F1200
G01 X23.5377 Y-1.7355 Z-3.2252 F1200
G01 X23.6920 Y-1.7125 Z-3.1889 F1200
G01 X23.8483 Y-1.7136 Z-3.1475 F1200
G01 X24.0022 Y-1.7387 Z-3.1121 F1200
G01 X24.1497 Y-1.7871 Z-3.0923 F1200
G01 X24.2869 Y-1.8573 Z-3.0932 F1200
G01 X24.4100 Y-1.9472 Z-3.1148 F1200
G01 X24.5159 Y-2.0541 Z-3.1511 F1200
G01 X24.6019 Y-2.1746 Z-3.1925 F1200
G01 X24.6660 Y-2.3052 Z-3.2279 F1200
G01 X24.7066 Y-2.4419 Z-3.2477 F1200
G01 X24.7232 Y-2.5804 Z-3.2468 F1200
G01 X24.7158 Y-2.7167 Z-3.2252 F1200
G01 X24.6850 Y-2.8466 Z-3.1889 F1200
G01 X24.6325 Y-2.9660 Z-3.1475 F1200
G01 X24.5602 Y-3.0715 Z-3.1121 F1200
G01 X24.4711 Y-3.1598 Z-3.0923 F1200
G01 X24.3682 Y-3.2281 Z-3.0932 F1200
G01 X24.2553 Y-3.2745 Z-3.1148 F1200
G01 X24.1363 Y-3.2975 Z-3.1511 F1200
G01 X24.0154 Y-3.2964 Z-3.1925 F1200
G01 X23.8968 Y-3.2713 Z-3.2279 F1200
G01 X23.7846 Y-3.2229 Z-3.2477 F1200
G01 X23.6828 Y-3.1527 Z-3.2468 F1200
G01 X23.5950 Y-3.0628 Z-3.2252 F1200
G01 X23.5244 Y-2.9559 Z-3.1889 F1200
G01 X23.4737 Y-2.8354 Z-3.1475 F1200
G01 X23.4450 Y-2.7048 Z-3.1121 F1200
G01 X23.4397 Y-2.5681 Z-3.0923 F1200
G01 X23.4584 Y-2.4296 Z-3.0932 F1200
G01 X23.5012 Y-2.2933 Z-3.1148 F1200
G01 X23.5673 Y-2.1634 Z-3.1511 F1200
G01 X23.6551 Y-2.0440 Z-3.1925 F1200
G01 X23.7627 Y-1.9385 Z-3.2279 F1200
G01 X23.8872 Y-1.8502 Z-3.2477 F1200
G01 X24.0254 Y-1.7819 Z-3.2468 F1200
G01 X24.1737 Y-1.7355 Z-3.2252 F1200
G01 X24.3280 Y-1.7125 Z-3.1889 F1200
G01 X24.4843 Y-1.7136 Z-3.1475 F1200
G01 X24.6382 Y-1.7387 Z-3.1121 F1200
G01 X24.7857 Y-1.7871 Z-3.0923 F1200
G01 X24.9229 Y-1.8573 Z-3.0932 F1200
G01 X25.0460 Y-1.9472 Z-3.1148 F1200
G01 X25.1519 Y-2.0541 Z-3.1511 F1200
G01 X25.2379 Y-2.1746 Z-3.1925 F1200
G01 X25.3020 Y-2.3052 Z-3.2279 F1200
G01 X25.3426 Y-2.4419 Z-3.2477 F1200
G01 X25.3592 Y-2.5804 Z-3.2468 F1200
G01 X25.3518 Y-2.7167 Z-3.2252 F1200
G01 X25.3210 Y-2.8466 Z-3.1889 F1200
G01 X25.2685 Y-2.9660 Z-3.1475 F1200
G01 X25.1962 Y-3.0715 Z-3.1121 F1200
G01 X25.1071 Y-3.1598 Z-3.0923 F1200
G01 X25.0042 Y-3.2281 Z-3.0932 F1200
G01 X24.8913 Y-3.2745 Z-3.1148 F1200
G01 X24.7723 Y-3.2975 Z-3.1511 F1200
G01 X24.6514 Y-3.2964 Z-3.1925 F1200
G01 X24.5328 Y-3.2713 Z-3.2279 F1200
G01 X24.4206 Y-3.2229 Z-3.2477 F1200
G01 X24.3188 Y-3.1527 Z-3.2468 F1200
G01 X24.2310 Y-3.0628 Z-3.2252 F1200
G01 X24.1604 Y-2.9559 Z-3.1889 F1200
G01 X24.1097 Y-2.8354 Z-3.1475 F1200
G01 X24.0810 Y-2.7048 Z-3.1121 F1200
G01 X24.0757 Y-2.5681 Z-3.0923 F1200
G01 X24.0944 Y-2.4296 Z-3.0932 F1200
G01 X24.1372 Y-2.2933 Z-3.1148 F1200
G01 X24.2033 Y-2.1634 Z-3.1511 F1200
G01 X24.2911 Y-2.0440 Z-3.1925 F1200
G01 X24.3987 Y-1.9385 Z-3.2279 F1200
G01 X24.5232 Y-1.8502 Z-3.2477 F1200
G01 X24.6614 Y-1.7819 Z-3.2468 F1200
G01 X24.8097 Y-1.7355 Z-3.2252 F1200
G01 X24.9640 Y-1.7125 Z-3.1889 F1200
G01 X25.1203 Y-1.7136 Z-3.1475 F1200
G01 X25.2742 Y-1.7387 Z-3.1121 F1200
G01 X25.4217 Y-1.7871 Z-3.0923 F1200
G01 X25.5589 Y-1.8573 Z-3.0932 F1200
G01 X25.6820 Y-1.9472 Z-3.1148 F1200
G01 X25.7879 Y-2.0541 Z-3.1511 F1200
G01 X25.8739 Y-2.1746 Z-3.1925 F1200
G01 X25.9380 Y-2.3052 Z-3.2279 F1200
G01 X25.9786 Y-2.4419 Z-3.2477 F1200
G01 X25.9952 Y-2.5804 Z-3.2468 F1200
G01 X25.9878 Y-2.7167 Z-3.2252 F1200
G01 X25.9570 Y-2.8466 Z-3.1889 F1200
G01 X25.9045 Y-2.9660 Z-3.1475 F1200
G01 X25.8322 Y-3.0715 Z-3.1121 F1200
G01 X25.7431 Y-3.1598 Z-3.0923 F1200
G01 X25.6402 Y-3.2281 Z-3.0932 F1200
G01 X25.5273 Y-3.2745 Z-3.1148 F1200
G01 X25.4083 Y-3.2975 Z-3.1511 F1200
G01 X25.2874 Y-3.2964 Z-3.1925 F1200
G01 X25.1688 Y-3.2713 Z-3.2279 F1200
G01 X25.0566 Y-3.2229 Z-3.2477 F1200
G01 X24.9548 Y-3.1527 Z-3.2468 F1200
G01 X24.8670 Y-3.0628 Z-3.2252 F1200
G01 X24.7964 Y-2.9559 Z-3.1889 F1200
G01 X24.7457 Y-2.8354 Z-3.1475 F1200
G01 X24.7170 Y-2.7048 Z-3.1121 F1200
G01 X24.7117 Y-2.5681 Z-3.0923 F1200
G01 X24.7304 Y-2.4296 Z-3.0932 F1200
G01 X24.7732 Y-2.2933 Z-3.1148 F1200
G01 X24.8393 Y-2.1634 Z-3.1511 F1200
G01 X24.9271 Y-2.0440 Z-3.1925 F1200
G01 X25.0347 Y-1.9385 Z-3.2279 F1200
G01 X25.1592 Y-1.8502 Z-3.2477 F1200
G01 X25.2974 Y-1.7819 Z-3.2468 F1200
G01 X25.4457 Y-1.7355 Z-3.2252 F1200
G01 X25.6000 Y-1.7125 Z-3.1889 F1200
G01 X25.7563 Y-1.7136 Z-3.1475 F1200
G01 X25.9102 Y-1.7387 Z-3.1121 F1200
G01 X26.0577 Y-1.7871 Z-3.0923 F1200
G01 X26.1949 Y-1.8573 Z-3.0932 F1200
G01 X26.3180 Y-1.9472 Z-3.1148 F1200
G01 X26.4239 Y-2.0541 Z-3.1511 F1200
G01 X26.5099 Y-2.1746 Z-3.1925 F1200
G01 X26.5740 Y-2.3052 Z-3.2279 F1200
G01 X26.6146 Y-2.4419 Z-3.2477 F1200
G01 X26.6312 Y-2.5804 Z-3.2468 F1200
G01 X26.6238 Y-2.7167 Z-3.2252 F1200
G01 X26.5930 Y-2.8466 Z-3.1889 F1200
G01 X26.5405 Y-2.9660 Z-3.1475 F1200
G01 X26.4682 Y-3.0715 Z-3.1121 F1200
G01 X26.3791 Y-3.1598 Z-3.0923 F1200
G01 X26.2762 Y-3.2281 Z-3.0932 F1200
G01 X26.1633 Y-3.2745 Z-3.1148 F1200
G01 X26.0443 Y-3.2975 Z-3.1511 F1200
G01 X25.9234 Y-3.2964 Z-3.1925 F1200
G01 X25.8048 Y-3.2713 Z-3.2279 F1200
G01 X25.6926 Y-3.2229 Z-3.2477 F1200
G01 X25.5908 Y-3.1527 Z-3.2468 F1200
G01 X25.5030 Y-3.0628 Z-3.2252 F1200
G01 X25.4324 Y-2.9559 Z-3.1889 F1200
G01 X25.3817 Y-2.8354 Z-3.1475 F1200
G01 X25.3530 Y-2.7048 Z-3.1121 F1200
G01 X25.3477 Y-2.5681 Z-3.0923 F1200
G01 X25.3664 Y-2.4296 Z-3.0932 F1200
G01 X25.4092 Y-2.2933 Z-3.1148 F1200
G01 X25.4753 Y-2.1634 Z-3.1511 F1200
G01 X25.5631 Y-2.0440 Z-3.1925 F1200
G01 X25.6707 Y-1.9385 Z-3.2279 F1200
G01 X25.7952 Y-1.8502 Z-3.2477 F1200
G01 X25.9334 Y-1.7819 Z-3.2468 F1200
G01 X26.0817 Y-1.7355 Z-3.2252 F1200
G01 X26.2360 Y-1.7125 Z-3.1889 F1200
G01 X26.3923 Y-1.7136 Z-3.1475 F1200
G01 X26.5462 Y-1.7387 Z-3.1121 F1200
G01 X26.6937 Y-1.7871 Z-3.0923 F1200
G01 X26.8309 Y-1.8573 Z-3.0932 F1200
G01 X26.9540 Y-1.9472 Z-3.1148 F1200
G01 X27.0599 Y-2.0541 Z-3.1511 F1200
G01 X27.1459 Y-2.1746 Z-3.1925 F1200
G01 X27.2100 Y-2.3052 Z-3.2279 F1200
G01 X27.2506 Y-2.4419 Z-3.2477 F1200
G01 X27.2672 Y-2.5804 Z-3.2468 F1200
G01 X27.2598 Y-2.7167 Z-3.2252 F1200
G01 X27.2290 Y-2.8466 Z-3.1889 F1200
G01 X27.1765 Y-2.9660 Z-3.1475 F1200
G01 X27.1042 Y-3.0715 Z-3.1121 F1200
G01 X27.0151 Y-3.1598 Z-3.0923 F1200
G01 X26.9122 Y-3.2281 Z-3.0932 F1200
G01 X26.7993 Y-3.2745 Z-3.1148 F1200
G01 X26.6803 Y-3.2975 Z-3.1511 F1200
G01 X26.5594 Y-3.2964 Z-3.1925 F1200
G01 X26.4408 Y-3.2713 Z-3.2279 F1200
G01 X26.3286 Y-3.2229 Z-3.2477 F1200
G01 X26.2268 Y-3.1527 Z-3.2468 F1200
G01 X26.1390 Y-3.0628 Z-3.2252 F1200
G01 X26.0684 Y-2.9559 Z-3.1889 F1200
G01 X26.0177 Y-2.8354 Z-3.1475 F1200
G01 X25.9890 Y-2.7048 Z-3.1121 F1200
G01 X25.9837 Y-2.5681 Z-3.0923 F1200
G01 X26.0024 Y-2.4296 Z-3.0932 F1200
G01 X26.0452 Y-2.2933 Z-3.1148 F1200
G01 X26.1113 Y-2.1634 Z-3.1511 F1200
G01 X26.1991 Y-2.0440 Z-3.1925 F1200
G01 X26.3067 Y-1.9385 Z-3.2279 F1200
G01 X26.4312 Y-1.8502 Z-3.2477 F1200
G01 X26.5694 Y-1.7819 Z-3.2468 F1200
G01 X26.7177 Y-1.7355 Z-3.2252 F1200
G01 X26.8720 Y-1.7125 Z-3.1889 F1200
G01 X27.0283 Y-1.7136 Z-3.1475 F1200
G01 X27.1822 Y-1.7387 Z-3.1121 F1200
G01 X27.3297 Y-1.7871 Z-3.0923 F1200
G01 X27.4669 Y-1.8573 Z-3.0932 F1200
G01 X27.5900 Y-1.9472 Z-3.1148 F1200
G01 X27.6959 Y-2.0541 Z-3.1511 F1200
G01 X27.7819 Y-2.1746 Z-3.1925 F1200
G01 X27.8460 Y-2.3052 Z-3.2279 F1200
G01 X27.8866 Y-2.4419 Z-3.2477 F1200
G01 X27.9032 Y-2.5804 Z-3.2468 F1200
G01 X27.8958 Y-2.7167 Z-3.2252 F1200
G01 X27.8650 Y-2.8466 Z-3.1889 F1200
G01 X27.8125 Y-2.9660 Z-3.1475 F1200
G01 X27.7402 Y-3.0715 Z-3.1121 F1200
G01 X27.6511 Y-3.1598 Z-3.0923 F1200
G01 X27.5482 Y-3.2281 Z-3.0932 F1200
G01 X27.4353 Y-3.2745 Z-3.1148 F1200
G01 X27.3163 Y-3.2975 Z-3.1511 F1200
G01 X27.1954 Y-3.2964 Z-3.1925 F1200
G01 X27.0768 Y-3.2713 Z-3.2279 F1200
G01 X26.9646 Y-3.2229 Z-3.2477 F1200
G01 X26.8628 Y-3.1527 Z-3.2468 F1200
G01 X26.7750 Y-3.0628 Z-3.2252 F1200
G01 X26.7044 Y-2.9559 Z-3.1889 F1200
G01 X26.6537 Y-2.8354 Z-3.1475 F1200
G01 X26.6250 Y-2.7048 Z-3.1121 F1200
G01 X26.6197 Y-2.5681 Z-3.0923 F1200
G01 X26.6384 Y-2.4296 Z-3.0932 F1200
G01 X26.6812 Y-2.2933 Z-3.1148 F1200
G01 X26.7473 Y-2.1634 Z-3.1511 F1200
G01 X26.8351 Y-2.0440 Z-3.1925 F1200
G01 X26.9427 Y-1.9385 Z-3.2279 F1200
G01 X27.0672 Y-1.8502 Z-3.2477 F1200
G01 X27.2054 Y-1.7819 Z-3.2468 F1200
G01 X27.3537 Y-1.7355 Z-3.2252 F1200
G01 X27.5080 Y-1.7125 Z-3.1889 F1200
G01 X27.6643 Y-1.7136 Z-3.1475 F1200
G01 X27.8182 Y-1.7387 Z-3.1121 F1200
G01 X27.9657 Y-1.7871 Z-3.0923 F1200
G01 X28.1029 Y-1.8573 Z-3.0932 F1200
G01 X28.2260 Y-1.9472 Z-3.1148 F1200
G01 X28.3319 Y-2.0541 Z-3.1511 F1200
G01 X28.4179 Y-2.1746 Z-3.1925 F1200
G01 X28.4820 Y-2.3052 Z-3.2279 F1200
G01 X28.5226 Y-2.4419 Z-3.2477 F1200
G01 X28.5392 Y-2.5804 Z-3.2468 F1200
G01 X28.5318 Y-2.7167 Z-3.2252 F1200
G01 X28.5010 Y-2.8466 Z-3.1889 F1200
G01 X28.4485 Y-2.9660 Z-3.1475 F1200
G01 X28.3762 Y-3.0715 Z-3.1121 F1200
G01 X28.2871 Y-3.1598 Z-3.0923 F1200
G01 X28.1842 Y-3.2281 Z-3.0932 F1200
G01 X28.0713 Y-3.2745 Z-3.1148 F1200
G01 X27.9523 Y-3.2975 Z-3.1511 F1200
G01 X27.8314 Y-3.2964 Z-3.1925 F1200
G01 X27.7128 Y-3.2713 Z-3.2279 F1200
G01 X27.6006 Y-3.2229 Z-3.2477 F1200
G01 X27.4988 Y-3.1527 Z-3.2468 F1200
G01 X27.4110 Y-3.0628 Z-3.2252 F1200
G01 X27.3404 Y-2.9559 Z-3.1889 F1200
G01 X27.2897 Y-2.8354 Z-3.1475 F1200
G01 X27.2610 Y-2.7048 Z-3.1121 F1200
G01 X27.2557 Y-2.5681 Z-3.0923 F1200
G01 X27.2744 Y-2.4296 Z-3.0932 F1200
G01 X27.3172 Y-2.2933 Z-3.1148 F1200
G01 X27.3833 Y-2.1634 Z-3.1511 F1200
G01 X27.4711 Y-2.0440 Z-3.1925 F1200
G01 X27.5787 Y-1.9385 Z-3.2279 F1200
G01 X27.7032 Y-1.8502 Z-3.2477 F1200
G01 X27.8414 Y-1.7819 Z-3.2468 F1200
G01 X27.9897 Y-1.7355 Z-3.2252 F1200
G01 X28.1440 Y-1.7125 Z-3.1889 F1200
G01 X28.3003 Y-1.7136 Z-3.1475 F1200
G01 X28.4542 Y-1.7387 Z-3.1121 F1200
G01 X28.6017 Y-1.7871 Z-3.0923 F1200
G01 X28.7389 Y-1.8573 Z-3.0932 F1200
G01 X28.8620 Y-1.9472 Z-3.1148 F1200
G01 X28.9679 Y-2.0541 Z-3.1511 F1200
G01 X29.0539 Y-2.1746 Z-3.1925 F1200
G01 X29.1180 Y-2.3052 Z-3.2279 F1200
G01 X29.1586 Y-2.4419 Z-3.2477 F1200
G01 X29.1752 Y-2.5804 Z-3.2468 F1200
G01 X29.1678 Y-2.7167 Z-3.2252 F1200
G01 X29.1370 Y-2.8466 Z-3.1889 F1200
G01 X29.0845 Y-2.9660 Z-3.1475 F1200
G01 X29.0122 Y-3.0715 Z-3.1121 F1200
G01 X28.9231 Y-3.1598 Z-3.0923 F1200
G01 X28.8202 Y-3.2281 Z-3.0932 F1200
G01 X28.7073 Y-3.2745 Z-3.1148 F1200
G01 X28.5883 Y-3.2975 Z-3.1511 F1200
G01 X28.4674 Y-3.2964 Z-3.1925 F1200
G01 X28.3488 Y-3.2713 Z-3.2279 F1200
G01 X28.2366 Y-3.2229 Z-3.2477 F1200
G01 X28.1348 Y-3.1527 Z-3.2468 F1200
G01 X28.0470 Y-3.0628 Z-3.2252 F1200
G01 X27.9764 Y-2.9559 Z-3.1889 F1200
G01 X27.9257 Y-2.8354 Z-3.1475 F1200
G01 X27.8970 Y-2.7048 Z-3.1121 F1200
G01 X27.8917 Y-2.5681 Z-3.0923 F1200
G01 X27.9104 Y-2.4296 Z-3.0932 F1200
G01 X27.9532 Y-2.2933 Z-3.1148 F1200
G01 X28.0193 Y-2.1634 Z-3.1511 F1200
G01 X28.1071 Y-2.0440 Z-3.1925 F1200
G01 X28.2147 Y-1.9385 Z-3.2279 F1200
G01 X28.3392 Y-1.8502 Z-3.2477 F1200
G01 X28.4774 Y-1.7819 Z-3.2468 F1200
G01 X28.6257 Y-1.7355 Z-3.2252 F1200
G01 X28.7800 Y-1.7125 Z-3.1889 F1200
G01 X28.9363 Y-1.7136 Z-3.1475 F1200
G01 X29.0902 Y-1.7387 Z-3.1121 F1200
G01 X29.2377 Y-1.7871 Z-3.0923 F1200
G01 X29.3749 Y-1.8573 Z-3.0932 F1200
G01 X29.4980 Y-1.9472 Z-3.1148 F1200
G01 X29.6039 Y-2.0541 Z-3.1511 F1200
G01 X29.6899 Y-2.1746 Z-3.1925 F1200
G01 X29.7540 Y-2.3052 Z-3.2279 F1200
G01 X29.7946 Y-2.4419 Z-3.2477 F1200
G01 X29.8112 Y-2.5804 Z-3.2468 F1200
G01 X29.8038 Y-2.7167 Z-3.2252 F1200
G01 X29.7730 Y-2.8466 Z-3.1889 F1200
G01 X29.7205 Y-2.9660 Z-3.1475 F1200
G01 X29.6482 Y-3.0715 Z-3.1121 F1200
G01 X29.5591 Y-3.1598 Z-3.0923 F1200
G01 X29.4562 Y-3.2281 Z-3.0932 F1200
G01 X29.3433 Y-3.2745 Z-3.1148 F1200
G01 X29.2243 Y-3.2975 Z-3.1511 F1200
G01 X29.1034 Y-3.2964 Z-3.1925 F1200
G01 X28.9848 Y-3.2713 Z-3.2279 F1200
G01 X28.8726 Y-3.2229 Z-3.2477 F1200
G01 X28.7708 Y-3.1527 Z-3.2468 F1200
G01 X28.6830 Y-3.0628 Z-3.2252 F1200
G01 X28.6124 Y-2.9559 Z-3.1889 F1200
G01 X28.5617 Y-2.8354 Z-3.1475 F1200
G01 X28.5330 Y-2.7048 Z-3.1121 F1200
G01 X28.5277 Y-2.5681 Z-3.0923 F1200
G01 X28.5464 Y-2.4296 Z-3.0932 F1200
G01 X28.5892 Y-2.2933 Z-3.1148 F1200
G01 X28.6553 Y-2.1634 Z-3.1511 F1200
G01 X28.7431 Y-2.0440 Z-3.1925 F1200
G01 X28.8507 Y-1.9385 Z-3.2279 F1200
G01 X28.9752 Y-1.8502 Z-3.2477 F1200
G01 X29.1134 Y-1.7819 Z-3.2468 F1200
G01 X29.2617 Y-1.7355 Z-3.2252 F1200
G01 X29.4160 Y-1.7125 Z-3.1889 F1200
G01 X29.5723 Y-1.7136 Z-3.1475 F1200
G01 X29.7262 Y-1.7387 Z-3.1121 F1200
G01 X29.8737 Y-1.7871 Z-3.0923 F1200
G01 X30.0109 Y-1.8573 Z-3.0932 F1200
G01 X30.1340 Y-1.9472 Z-3.1148 F1200
G01 X30.2399 Y-2.0541 Z-3.1511 F1200
G01 X30.3259 Y-2.1746 Z-3.1925 F1200
G01 X30.3900 Y-2.3052 Z-3.2279 F1200
G01 X30.4306 Y-2.4419 Z-3.2477 F1200
G01 X30.4472 Y-2.5804 Z-3.2468 F1200
G01 X30.4398 Y-2.7167 Z-3.2252 F1200
G01 X30.4090 Y-2.8466 Z-3.1889 F1200
G01 X30.3565 Y-2.9660 Z-3.1475 F1200
G01 X30.2842 Y-3.0715 Z-3.1121 F1200
G01 X30.1951 Y-3.1598 Z-3.0923 F1200
G01 X30.0922 Y-3.2281 Z-3.0932 F1200
G01 X29.9793 Y-3.2745 Z-3.1148 F1200
G01 X29.8603 Y-3.2975 Z-3.1511 F1200
G01 X29.7394 Y-3.2964 Z-3.1925 F1200
G01 X29.6208 Y-3.2713 Z-3.2279 F1200
G01 X29.5086 Y-3.2229 Z-3.2477 F1200
G01 X29.4068 Y-3.1527 Z-3.2468 F1200
G01 X29.3190 Y-3.0628 Z-3.2252 F1200
G01 X29.2484 Y-2.9559 Z-3.1889 F1200
G01 X29.1977 Y-2.8354 Z-3.1475 F1200
G01 X29.1690 Y-2.7048 Z-3.1121 F1200
G01 X29.1637 Y-2.5681 Z-3.0923 F1200
G01 X29.1824 Y-2.4296 Z-3.0932 F1200
G01 X29.2252 Y-2.2933 Z-3.1148 F1200
G01 X29.2913 Y-2.1634 Z-3.1511 F1200
G01 X29.3791 Y-2.0440 Z-3.1925 F1200
G01 X29.4867 Y-1.9385 Z-3.2279 F1200
G01 X29.6112 Y-1.8502 Z-3.2477 F1200
G01 X29.7494 Y-1.7819 Z-3.2468 F1200
G01 X29.8977 Y-1.7355 Z-3.2252 F1200
G01 X30.0520 Y-1.7125 Z-3.1889 F1200
G01 X30.2083 Y-1.7136 Z-3.1475 F1200
G01 X30.3622 Y-1.7387 Z-3.1121 F1200
G01 X30.5097 Y-1.7871 Z-3.0923 F1200
G01 X30.6469 Y-1.8573 Z-3.0932 F1200
G01 X30.7700 Y-1.9472 Z-3.1148 F1200
G01 X30.8759 Y-2.0541 Z-3.1511 F1200
G01 X30.9619 Y-2.1746 Z-3.1925 F1200
G01 X31.0260 Y-2.3052 Z-3.2279 F1200
G01 X31.0666 Y-2.4419 Z-3.2477 F1200
G01 X31.0832 Y-2.5804 Z-3.2468 F1200
G01 X31.0758 Y-2.7167 Z-3.2252 F1200
G01 X31.0450 Y-2.8466 Z-3.1889 F1200
G01 X30.9925 Y-2.9660 Z-3.1475 F1200
G01 X30.9202 Y-3.0715 Z-3.1121 F1200
G01 X30.8311 Y-3.1598 Z-3.0923 F1200
G01 X30.7282 Y-3.2281 Z-3.0932 F1200
G01 X30.6153 Y-3.2745 Z-3.1148 F1200
G01 X30.4963 Y-3.2975 Z-3.1511 F1200
G01 X30.3754 Y-3.2964 Z-3.1925 F1200
G01 X30.2568 Y-3.2713 Z-3.2279 F1200
G01 X30.1446 Y-3.2229 Z-3.2477 F1200
G01 X30.0428 Y-3.1527 Z-3.2468 F1200
G01 X29.9550 Y-3.0628 Z-3.2252 F1200
G01 X29.8844 Y-2.9559 Z-3.1889 F1200
G01 X29.8337 Y-2.8354 Z-3.1475 F1200
G01 X29.8050 Y-2.7048 Z-3.1121 F1200
G01 X29.7997 Y-2.5681 Z-3.0923 F1200
G01 X29.8184 Y-2.4296 Z-3.0932 F1200
G01 X29.8612 Y-2.2933 Z-3.1148 F1200
G01 X29.9273 Y-2.1634 Z-3.1511 F1200
G01 X30.0151 Y-2.0440 Z-3.1925 F1200
G01 X30.1227 Y-1.9385 Z-3.2279 F1200
G01 X30.2472 Y-1.8502 Z-3.2477 F1200
G01 X30.3854 Y-1.7819 Z-3.2468 F1200
G01 X30.5337 Y-1.7355 Z-3.2252 F1200
G01 X30.6880 Y-1.7125 Z-3.1889 F1200
G01 X30.8443 Y-1.7136 Z-3.1475 F1200
G01 X30.9982 Y-1.7387 Z-3.1121 F1200
G01 X31.1457 Y-1.7871 Z-3.0923 F1200
G01 X31.2829 Y-1.8573 Z-3.0932 F1200
G01 X31.4060 Y-1.9472 Z-3.1148 F1200
G01 X31.5119 Y-2.0541 Z-3.1511 F1200
G01 X31.5979 Y-2.1746 Z-3.1925 F1200
G01 X31.6620 Y-2.3052 Z-3.2279 F1200
G01 X31.7026 Y-2.4419 Z-3.2477 F1200
G01 X31.7192 Y-2.5804 Z-3.2468 F1200
G01 X31.7118 Y-2.7167 Z-3.2252 F1200
G01 X31.6810 Y-2.8466 Z-3.1889 F1200
G01 X31.6285 Y-2.9660 Z-3.1475 F1200
G01 X31.5562 Y-3.0715 Z-3.1121 F1200
G01 X31.4671 Y-3.1598 Z-3.0923 F1200
G01 X31.3642 Y-3.2281 Z-3.0932 F1200
G01 X31.2513 Y-3.2745 Z-3.1148 F1200
G01 X31.1323 Y-3.2975 Z-3.1511 F1200
G01 X31.0114 Y-3.2964 Z-3.1925 F1200
G01 X30.8928 Y-3.2713 Z-3.2279 F1200
G01 X30.7806 Y-3.2229 Z-3.2477 F1200
G01 X30.6788 Y-3.1527 Z-3.2468 F1200
G01 X30.5910 Y-3.0628 Z-3.2252 F1200
G01 X30.5204 Y-2.9559 Z-3.1889 F1200
G01 X30.4697 Y-2.8354 Z-3.1475 F1200
G01 X30.4410 Y-2.7048 Z-3.1121 F1200
G01 X30.4357 Y-2.5681 Z-3.0923 F1200
G01 X30.4544 Y-2.4296 Z-3.0932 F1200
G01 X30.4972 Y-2.2933 Z-3.1148 F1200
G01 X30.5633 Y-2.1634 Z-3.1511 F1200
G01 X30.6511 Y-2.0440 Z-3.1925 F1200
G01 X30.7587 Y-1.9385 Z-3.2279 F1200
G01 X30.8832 Y-1.8502 Z-3.2477 F1200
G01 X31.0214 Y-1.7819 Z-3.2468 F1200
G01 X31.1697 Y-1.7355 Z-3.2252 F1200
G01 X31.3240 Y-1.7125 Z-3.1889 F1200
G01 X31.4803 Y-1.7136 Z-3.1475 F1200
G01 X31.6342 Y-1.7387 Z-3.1121 F1200
G01 X31.7817 Y-1.7871 Z-3.0923 F1200
G01 X31.9189 Y-1.8573 Z-3.0932 F1200
G01 X32.0420 Y-1.9472 Z-3.1148 F1200
G01 X32.1479 Y-2.0541 Z-3.1511 F1200
G01 X32.2339 Y-2.1746 Z-3.1925 F1200
G01 X32.2980 Y-2.3052 Z-3.2279 F1200
G01 X32.3386 Y-2.4419 Z-3.2477 F1200
G01 X32.3552 Y-2.5804 Z-3.2468 F1200
G01 X32.3478 Y-2.7167 Z-3.2252 F1200
G01 X32.3170 Y-2.8466 Z-3.1889 F1200
G01 X32.2645 Y-2.9660 Z-3.1475 F1200
G01 X32.1922 Y-3.0715 Z-3.1121 F1200
G01 X32.1031 Y-3.1598 Z-3.0923 F1200
G01 X32.0002 Y-3.2281 Z-3.0932 F1200
G01 X31.8873 Y-3.2745 Z-3.1148 F1200
G01 X31.7683 Y-3.2975 Z-3.1511 F1200
G01 X31.6474 Y-3.2964 Z-3.1925 F1200
G01 X31.5288 Y-3.2713 Z-3.2279 F1200
G01 X31.4166 Y-3.2229 Z-3.2477 F1200
G01 X31.3148 Y-3.1527 Z-3.2468 F1200
G01 X31.2270 Y-3.0628 Z-3.2252 F1200
G01 X31.1564 Y-2.9559 Z-3.1889 F1200
G01 X31.1057 Y-2.8354 Z-3.1475 F1200
G01 X31.0770 Y-2.7048 Z-3.1121 F1200
G01 X31.0717 Y-2.5681 Z-3.0923 F1200
G01 X31.0904 Y-2.4296 Z-3.0932 F1200
G01 X31.1332 Y-2.2933 Z-3.1148 F1200
G01 X31.1993 Y-2.1634 Z-3.1511 F1200
G01 X31.2871 Y-2.0440 Z-3.1925 F1200
G01 X31.3947 Y-1.9385 Z-3.2279 F1200
G01 X31.5192 Y-1.8502 Z-3.2477 F1200
G01 X31.6574 Y-1.7819 Z-3.2468 F1200
G01 X31.8057 Y-1.7355 Z-3.2252 F1200
G01 X31.9600 Y-1.7125 Z-3.1889 F1200
G01 X32.1163 Y-1.7136 Z-3.1475 F1200
G01 X32.2702 Y-1.7387 Z-3.1121 F1200
G01 X32.4177 Y-1.7871 Z-3.0923 F1200
G01 X32.5549 Y-1.8573 Z-3.0932 F1200
G01 X32.6780 Y-1.9472 Z-3.1148 F1200
G01 X32.7839 Y-2.0541 Z-3.1511 F1200
G01 X32.8699 Y-2.1746 Z-3.1925 F1200
G01 X32.9340 Y-2.3052 Z-3.2279 F1200
G01 X32.9746 Y-2.4419 Z-3.2477 F1200
G01 X32.9912 Y-2.5804 Z-3.2468 F1200
G01 X32.9838 Y-2.7167 Z-3.2252 F1200
G01 X32.9530 Y-2.8466 Z-3.1889 F1200
G01 X32.9005 Y-2.9660 Z-3.1475 F1200
G01 X32.8282 Y-3.0715 Z-3.1121 F1200
G01 X32.7391 Y-3.1598 Z-3.0923 F1200
G01 X32.6362 Y-3.2281 Z-3.0932 F1200
G01 X32.5233 Y-3.2745 Z-3.1148 F1200
G01 X32.4043 Y-3.2975 Z-3.1511 F1200
G01 X32.2834 Y-3.2964 Z-3.1925 F1200
G01 X32.1648 Y-3.2713 Z-3.2279 F1200
G01 X32.0526 Y-3.2229 Z-3.2477 F1200
G01 X31.9508 Y-3.1527 Z-3.2468 F1200
G01 X31.8630 Y-3.0628 Z-3.2252 F1200
G01 X31.7924 Y-2.9559 Z-3.1889 F1200
G01 X31.7417 Y-2.8354 Z-3.1475 F1200
G01 X31.7130 Y-2.7048 Z-3.1121 F1200
G01 X31.7077 Y-2.5681 Z-3.0923 F1200
G01 X31.7264 Y-2.4296 Z-3.0932 F1200
G01 X31.7692 Y-2.2933 Z-3.1148 F1200
G01 X31.8353 Y-2.1634 Z-3.1511 F1200
G01 X31.9231 Y-2.0440 Z-3.1925 F1200
G01 X32.0307 Y-1.9385 Z-3.2279 F1200
G01 X32.1552 Y-1.8502 Z-3.2477 F1200
G01 X32.2934 Y-1.7819 Z-3.2468 F1200
G01 X32.4417 Y-1.7355 Z-3.2252 F1200
G01 X32.5960 Y-1.7125 Z-3.1889 F1200
G01 X32.7523 Y-1.7136 Z-3.1475 F1200
G01 X32.9062 Y-1.7387 Z-3.1121 F1200
G01 X33.0537 Y-1.7871 Z-3.0923 F1200
G01 X33.1909 Y-1.8573 Z-3.0932 F1200
G01 X33.3140 Y-1.9472 Z-3.1148 F1200
G01 X33.4199 Y-2.0541 Z-3.1511 F1200
G01 X33.5059 Y-2.1746 Z-3.1925 F1200
G01 X33.5700 Y-2.3052 Z-3.2279 F1200
G01 X33.6106 Y-2.4419 Z-3.2477 F1200
G01 X33.6272 Y-2.5804 Z-3.2468 F1200
G01 X33.6198 Y-2.7167 Z-3.2252 F1200
G01 X33.5890 Y-2.8466 Z-3.1889 F1200
G01 X33.5365 Y-2.9660 Z-3.1475 F1200
G01 X33.4642 Y-3.0715 Z-3.1121 F1200
G01 X33.3751 Y-3.1598 Z-3.0923 F1200
G01 X33.2722 Y-3.2281 Z-3.0932 F1200
G01 X33.1593 Y-3.2745 Z-3.1148 F1200
G01 X33.0403 Y-3.2975 Z-3.1511 F1200
G01 X32.9194 Y-3.2964 Z-3.1925 F1200
G01 X32.8008 Y-3.2713 Z-3.2279 F1200
G01 X32.6886 Y-3.2229 Z-3.2477 F1200
G01 X32.5868 Y-3.1527 Z-3.2468 F1200
G01 X32.4990 Y-3.0628 Z-3.2252 F1200
G01 X32.4284 Y-2.9559 Z-3.1889 F1200
G01 X32.3777 Y-2.8354 Z-3.1475 F1200
G01 X32.3490 Y-2.7048 Z-3.1121 F1200
G01 X32.3437 Y-2.5681 Z-3.0923 F1200
G01 X32.3624 Y-2.4296 Z-3.0932 F1200
G01 X32.4052 Y-2.2933 Z-3.1148 F1200
G01 X32.4713 Y-2.1634 Z-3.1511 F1200
G01 X32.5591 Y-2.0440 Z-3.1925 F1200
G01 X32.6667 Y-1.9385 Z-3.2279 F1200
G01 X32.7912 Y-1.8502 Z-3.2477 F1200
G01 X32.9294 Y-1.7819 Z-3.2468 F1200
G01 X33.0777 Y-1.7355 Z-3.2252 F1200
G01 X33.2320 Y-1.7125 Z-3.1889 F1200
G01 X33.3883 Y-1.7136 Z-3.1475 F1200
G01 X33.5422 Y-1.7387 Z-3.1121 F1200
G01 X33.6897 Y-1.7871 Z-3.0923 F1200
G01 X33.8269 Y-1.8573 Z-3.0932 F1200
G01 X33.9500 Y-1.9472 Z-3.1148 F1200
G01 X34.0559 Y-2.0541 Z-3.1511 F1200
G01 X34.1419 Y-2.1746 Z-3.1925 F1200
G01 X34.2060 Y-2.3052 Z-3.2279 F1200
G01 X34.2466 Y-2.4419 Z-3.2477 F1200
G01 X34.2632 Y-2.5804 Z-3.2468 F1200
G01 X34.2558 Y-2.7167 Z-3.2252 F1200
G01 X34.2250 Y-2.8466 Z-3.1889 F1200
G01 X34.1725 Y-2.9660 Z-3.1475 F1200
G01 X34.1002 Y-3.0715 Z-3.1121 F1200
G01 X34.0111 Y-3.1598 Z-3.0923 F1200
G01 X33.9082 Y-3.2281 Z-3.0932 F1200
G01 X33.7953 Y-3.2745 Z-3.1148 F1200
G01 X33.6763 Y-3.2975 Z-3.1511 F1200
G01 X33.5554 Y-3.2964 Z-3.1925 F1200
G01 X33.4368 Y-3.2713 Z-3.2279 F1200
G01 X33.3246 Y-3.2229 Z-3.2477 F1200
G01 X33.2228 Y-3.1527 Z-3.2468 F1200
G01 X33.1350 Y-3.0628 Z-3.2252 F1200
G01 X33.0644 Y-2.9559 Z-3.1889 F1200
G01 X33.0137 Y-2.8354 Z-3.1475 F1200
G01 X32.9850 Y-2.7048 Z-3.1121 F1200
G01 X32.9797 Y-2.5681 Z-3.0923 F1200
G01 X32.9984 Y-2.4296 Z-3.0932 F1200
G01 X33.0412 Y-2.2933 Z-3.1148 F1200
G01 X33.1073 Y-2.1634 Z-3.1511 F1200
G01 X33.1951 Y-2.0440 Z-3.1925 F1200
G01 X33.3027 Y-1.9385 Z-3.2279 F1200
G01 X33.4272 Y-1.8502 Z-3.2477 F1200
G01 X33.5654 Y-1.7819 Z-3.2468 F1200
G01 X33.7137 Y-1.7355 Z-3.2252 F1200
G01 X33.8680 Y-1.7125 Z-3.1889 F1200
G01 X34.0243 Y-1.7136 Z-3.1475 F1200
G01 X34.1782 Y-1.7387 Z-3.1121 F1200
G01 X34.3257 Y-1.7871 Z-3.0923 F1200
G01 X34.4629 Y-1.8573 Z-3.0932 F1200
G01 X34.5860 Y-1.9472 Z-3.1148 F1200
G01 X34.6919 Y-2.0541 Z-3.1511 F1200
G01 X34.7779 Y-2.1746 Z-3.1925 F1200
G01 X34.8420 Y-2.3052 Z-3.2279 F1200
G01 X34.8826 Y-2.4419 Z-3.2477 F1200
G01 X34.8992 Y-2.5804 Z-3.2468 F1200
G01 X34.8918 Y-2.7167 Z-3.2252 F1200
G01 X34.8610 Y-2.8466 Z-3.1889 F1200
G01 X34.8085 Y-2.9660 Z-3.1475 F1200
G01 X34.7362 Y-3.0715 Z-3.1121 F1200
G01 X34.6471 Y-3.1598 Z-3.0923 F1200
G01 X34.5442 Y-3.2281 Z-3.0932 F1200
G01 X34.4313 Y-3.2745 Z-3.1148 F1200
G01 X34.3123 Y-3.2975 Z-3.1511 F1200
G01 X34.1914 Y-3.2964 Z-3.1925 F1200
G01 X34.0728 Y-3.2713 Z-3.2279 F1200
G01 X33.9606 Y-3.2229 Z-3.2477 F1200
G01 X33.8588 Y-3.1527 Z-3.2468 F1200
G01 X33.7710 Y-3.0628 Z-3.2252 F1200
G01 X33.7004 Y-2.9559 Z-3.1889 F1200
G01 X33.6497 Y-2.8354 Z-3.1475 F1200
G01 X33.6210 Y-2.7048 Z-3.1121 F1200
G01 X33.6157 Y-2.5681 Z-3.0923 F1200
G01 X33.6344 Y-2.4296 Z-3.0932 F1200
G01 X33.6772 Y-2.2933 Z-3.1148 F1200
G01 X33.7433 Y-2.1634 Z-3.1511 F1200
G01 X33.8311 Y-2.0440 Z-3.1925 F1200
G01 X33.9387 Y-1.9385 Z-3.2279 F1200
G01 X34.0632 Y-1.8502 Z-3.2477 F1200
G01 X34.2014 Y-1.7819 Z-3.2468 F1200
G01 X34.3497 Y-1.7355 Z-3.2252 F1200
G01 X34.5040 Y-1.7125 Z-3.1889 F1200
G01 X34.6603 Y-1.7136 Z-3.1475 F1200
G01 X34.8142 Y-1.7387 Z-3.1121 F1200
G01 X34.9617 Y-1.7871 Z-3.0923 F1200
G01 X35.0989 Y-1.8573 Z-3.0932 F1200
G01 X35.2220 Y-1.9472 Z-3.1148 F1200
G01 X35.3279 Y-2.0541 Z-3.1511 F1200
G01 X35.4139 Y-2.1746 Z-3.1925 F1200
G01 X35.4780 Y-2.3052 Z-3.2279 F1200
G01 X35.5186 Y-2.4419 Z-3.2477 F1200
G01 X35.5352 Y-2.5804 Z-3.2468 F1200
G01 X35.5278 Y-2.7167 Z-3.2252 F1200
G01 X35.4970 Y-2.8466 Z-3.1889 F1200
G01 X35.4445 Y-2.9660 Z-3.1475 F1200
G01 X35.3722 Y-3.0715 Z-3.1121 F1200
G01 X35.2831 Y-3.1598 Z-3.0923 F1200
G01 X35.1802 Y-3.2281 Z-3.0932 F1200
G01 X35.0673 Y-3.2745 Z-3.1148 F1200
G01 X34.9483 Y-3.2975 Z-3.1511 F1200
G01 X34.8274 Y-3.2964 Z-3.1925 F1200
G01 X34.7088 Y-3.2713 Z-3.2279 F1200
G01 X34.5966 Y-3.2229 Z-3.2477 F1200
G01 X34.4948 Y-3.1527 Z-3.2468 F1200
G01 X34.4070 Y-3.0628 Z-3.2252 F1200
G01 X34.3364 Y-2.9559 Z-3.1889 F1200
G01 X34.2857 Y-2.8354 Z-3.1475 F1200
G01 X34.2570 Y-2.7048 Z-3.1121 F1200
G01 X34.2517 Y-2.5681 Z-3.0923 F1200
G01 X34.2704 Y-2.4296 Z-3.0932 F1200
G01 X34.3132 Y-2.2933 Z-3.1148 F1200
G01 X34.3793 Y-2.1634 Z-3.1511 F1200
G01 X34.4671 Y-2.0440 Z-3.1925 F1200
G01 X34.5747 Y-1.9385 Z-3.2279 F1200
G01 X34.6992 Y-1.8502 Z-3.2477 F1200
G01 X34.8374 Y-1.7819 Z-3.2468 F1200
G01 X34.9857 Y-1.7355 Z-3.2252 F1200
G01 X35.1400 Y-1.7125 Z-3.1889 F1200
G01 X35.2963 Y-1.7136 Z-3.1475 F1200
G01 X35.4502 Y-1.7387 Z-3.1121 F1200
G01 X35.5977 Y-1.7871 Z-3.0923 F1200
G01 X35.7349 Y-1.8573 Z-3.0932 F1200
G01 X35.8580 Y-1.9472 Z-3.1148 F1200
G01 X35.9639 Y-2.0541 Z-3.1511 F1200
G01 X36.0499 Y-2.1746 Z-3.1925 F1200
G01 X36.1140 Y-2.3052 Z-3.2279 F1200
G01 X36.1546 Y-2.4419 Z-3.2477 F1200
G01 X36.1712 Y-2.5804 Z-3.2468 F1200
G01 X36.1638 Y-2.7167 Z-3.2252 F1200
G01 X36.1330 Y-2.8466 Z-3.1889 F1200
G01 X36.0805 Y-2.9660 Z-3.1475 F1200
G01 X36.0082 Y-3.0715 Z-3.1121 F1200
G01 X35.9191 Y-3.1598 Z-3.0923 F1200
G01 X35.8162 Y-3.2281 Z-3.0932 F1200
G01 X35.7033 Y-3.2745 Z-3.1148 F1200
G01 X35.5843 Y-3.2975 Z-3.1511 F1200
G01 X35.4634 Y-3.2964 Z-3.1925 F1200
G01 X35.3448 Y-3.2713 Z-3.2279 F1200
G01 X35.2326 Y-3.2229 Z-3.2477 F1200
G01 X35.1308 Y-3.1527 Z-3.2468 F1200
G01 X35.0430 Y-3.0628 Z-3.2252 F1200
G01 X34.9724 Y-2.9559 Z-3.1889 F1200
G01 X34.9217 Y-2.8354 Z-3.1475 F1200
G01 X34.8930 Y-2.7048 Z-3.1121 F1200
G01 X34.8877 Y-2.5681 Z-3.0923 F1200
G01 X34.9064 Y-2.4296 Z-3.0932 F1200
G01 X34.9492 Y-2.2933 Z-3.1148 F1200
G01 X35.0153 Y-2.1634 Z-3.1511 F1200
G01 X35.1031 Y-2.0440 Z-3.1925 F1200
G01 X35.2107 Y-1.9385 Z-3.2279 F1200
G01 X35.3352 Y-1.8502 Z-3.2477 F1200
G01 X35.4734 Y-1.7819 Z-3.2468 F1200
G01 X35.6217 Y-1.7355 Z-3.2252 F1200
G01 X35.7760 Y-1.7125 Z-3.1889 F1200
G01 X35.9323 Y-1.7136 Z-3.1475 F1200
G01 X36.0862 Y-1.7387 Z-3.1121 F1200
G01 X36.2337 Y-1.7871 Z-3.0923 F1200
G01 X36.3709 Y-1.8573 Z-3.0932 F1200
G01 X36.4940 Y-1.9472 Z-3.1148 F1200
G01 X36.5999 Y-2.0541 Z-3.1511 F1200
G01 X36.6859 Y-2.1746 Z-3.1925 F1200
G01 X36.7500 Y-2.3052 Z-3.2279 F1200
G01 X36.7906 Y-2.4419 Z-3.2477 F1200
G01 X36.8072 Y-2.5804 Z-3.2468 F1200
G01 X36.7998 Y-2.7167 Z-3.2252 F1200
G01 X36.7690 Y-2.8466 Z-3.1889 F1200
G01 X36.7165 Y-2.9660 Z-3.1475 F1200
G01 X36.6442 Y-3.0715 Z-3.1121 F1200
G01 X36.5551 Y-3.1598 Z-3.0923 F1200
G01 X36.4522 Y-3.2281 Z-3.0932 F1200
G01 X36.3393 Y-3.2745 Z-3.1148 F1200
G01 X36.2203 Y-3.2975 Z-3.1511 F1200
G01 X36.0994 Y-3.2964 Z-3.1925 F1200
G01 X35.9808 Y-3.2713 Z-3.2279 F1200
G01 X35.8686 Y-3.2229 Z-3.2477 F1200
G01 X35.7668 Y-3.1527 Z-3.2468 F1200
G01 X35.6790 Y-3.0628 Z-3.2252 F1200
G01 X35.6084 Y-2.9559 Z-3.1889 F1200
G01 X35.5577 Y-2.8354 Z-3.1475 F1200
G01 X35.5290 Y-2.7048 Z-3.1121 F1200
G01 X35.5237 Y-2.5681 Z-3.0923 F1200
G01 X35.5424 Y-2.4296 Z-3.0932 F1200
G01 X35.5852 Y-2.2933 Z-3.1148 F1200
G01 X35.6513 Y-2.1634 Z-3.1511 F1200
G01 X35.7391 Y-2.0440 Z-3.1925 F1200
G01 X35.8467 Y-1.9385 Z-3.2279 F1200
G01 X35.9712 Y-1.8502 Z-3.2477 F1200
G01 X36.1094 Y-1.7819 Z-3.2468 F1200
G01 X36.2577 Y-1.7355 Z-3.2252 F1200
G01 X36.4120 Y-1.7125 Z-3.1889 F1200
G01 X36.5683 Y-1.7136 Z-3.1475 F1200
G01 X36.7222 Y-1.7387 Z-3.1121 F1200
G01 X36.8697 Y-1.7871 Z-3.0923 F1200
G01 X37.0069 Y-1.8573 Z-3.0932 F1200
G01 X37.1300 Y-1.9472 Z-3.1148 F1200
G01 X37.2359 Y-2.0541 Z-3.1511 F1200
G01 X37.3219 Y-2.1746 Z-3.1925 F1200
G01 X37.3860 Y-2.3052 Z-3.2279 F1200
G01 X37.4266 Y-2.4419 Z-3.2477 F1200
G01 X37.4432 Y-2.5804 Z-3.2468 F1200
G01 X37.4358 Y-2.7167 Z-3.2252 F1200
G01 X37.4050 Y-2.8466 Z-3.1889 F1200
G01 X37.3525 Y-2.9660 Z-3.1475 F1200
G01 X37.2802 Y-3.0715 Z-3.1121 F1200
G01 X37.1911 Y-3.1598 Z-3.0923 F1200
G01 X37.0882 Y-3.2281 Z-3.0932 F1200
G01 X36.9753 Y-3.2745 Z-3.1148 F1200
G01 X36.8563 Y-3.2975 Z-3.1511 F1200
G01 X36.7354 Y-3.2964 Z-3.1925 F1200
G01 X36.6168 Y-3.2713 Z-3.2279 F1200
G01 X36.5046 Y-3.2229 Z-3.2477 F1200
G01 X36.4028 Y-3.1527 Z-3.2468 F1200
G01 X36.3150 Y-3.0628 Z-3.2252 F1200
G01 X36.2444 Y-2.9559 Z-3.1889 F1200
G01 X36.1937 Y-2.8354 Z-3.1475 F1200
G01 X36.1650 Y-2.7048 Z-3.1121 F1200
G01 X36.1597 Y-2.5681 Z-3.0923 F1200
G01 X36.1784 Y-2.4296 Z-3.0932 F1200
G01 X36.2212 Y-2.2933 Z-3.1148 F1200
G01 X36.2873 Y-2.1634 Z-3.1511 F1200
G01 X36.3751 Y-2.0440 Z-3.1925 F1200
G01 X36.4827 Y-1.9385 Z-3.2279 F1200
G01 X36.6072 Y-1.8502 Z-3.2477 F1200
G01 X36.7454 Y-1.7819 Z-3.2468 F1200
G01 X36.8937 Y-1.7355 Z-3.2252 F1200
G01 X37.0480 Y-1.7125 Z-3.1889 F1200
G01 X37.2043 Y-1.7136 Z-3.1475 F1200
G01 X37.3582 Y-1.7387 Z-3.1121 F1200
G01 X37.5057 Y-1.7871 Z-3.0923 F1200
G01 X37.6429 Y-1.8573 Z-3.0932 F1200
G01 X37.7660 Y-1.9472 Z-3.1148 F1200
G01 X37.8719 Y-2.0541 Z-3.1511 F1200
G01 X37.9579 Y-2.1746 Z-3.1925 F1200
G01 X38.0220 Y-2.3052 Z-3.2279 F1200
G01 X38.0626 Y-2.4419 Z-3.2477 F1200
G01 X38.0792 Y-2.5804 Z-3.2468 F1200
G01 X38.0718 Y-2.7167 Z-3.2252 F1200
G01 X38.0410 Y-2.8466 Z-3.1889 F1200
G01 X37.9885 Y-2.9660 Z-3.1475 F1200
G01 X37.9162 Y-3.0715 Z-3.1121 F1200
G01 X37.8271 Y-3.1598 Z-3.0923 F1200
G01 X37.7242 Y-3.2281 Z-3.0932 F1200
G01 X37.6113 Y-3.2745 Z-3.1148 F1200
G01 X37.4923 Y-3.2975 Z-3.1511 F1200
G01 X37.3714 Y-3.2964 Z-3.1925 F1200
G01 X37.2528 Y-3.2713 Z-3.2279 F1200
G01 X37.1406 Y-3.2229 Z-3.2477 F1200
G01 X37.0388 Y-3.1527 Z-3.2468 F1200
G01 X36.9510 Y-3.0628 Z-3.2252 F1200
G01 X36.8804 Y-2.9559 Z-3.1889 F1200
G01 X36.8297 Y-2.8354 Z-3.1475 F1200
G01 X36.8010 Y-2.7048 Z-3.1121 F1200
G01 X36.7957 Y-2.5681 Z-3.0923 F1200
G01 X36.8144 Y-2.4296 Z-3.0932 F1200
G01 X36.8572 Y-2.2933 Z-3.1148 F1200
G01 X36.9233 Y-2.1634 Z-3.1511 F1200
G01 X37.0111 Y-2.0440 Z-3.1925 F1200
G01 X37.1187 Y-1.9385 Z-3.2279 F1200
G01 X37.2432 Y-1.8502 Z-3.2477 F1200
G01 X37.3814 Y-1.7819 Z-3.2468 F1200
G01 X37.5297 Y-1.7355 Z-3.2252 F1200
G01 X37.6840 Y-1.7125 Z-3.1889 F1200
G01 X37.8403 Y-1.7136 Z-3.1475 F1200
G01 X37.9942 Y-1.7387 Z-3.1121 F1200
G01 X38.1417 Y-1.7871 Z-3.0923 F1200
G01 X38.2789 Y-1.8573 Z-3.0932 F1200
G01 X38.4020 Y-1.9472 Z-3.1148 F1200
G01 X38.5079 Y-2.0541 Z-3.1511 F1200
G01 X38.5939 Y-2.1746 Z-3.1925 F1200
G01 X38.6580 Y-2.3052 Z-3.2279 F1200
G01 X38.6986 Y-2.4419 Z-3.2477 F1200
G01 X38.7152 Y-2.5804 Z-3.2468 F1200
G01 X38.7078 Y-2.7167 Z-3.2252 F1200
G01 X38.6770 Y-2.8466 Z-3.1889 F1200
G01 X38.6245 Y-2.9660 Z-3.1475 F1200
G01 X38.5522 Y-3.0715 Z-3.1121 F1200
G01 X38.4631 Y-3.1598 Z-3.0923 F1200
G01 X38.3602 Y-3.2281 Z-3.0932 F1200
G01 X38.2473 Y-3.2745 Z-3.1148 F1200
G01 X38.1283 Y-3.2975 Z-3.1511 F1200
G01 X38.0074 Y-3.2964 Z-3.1925 F1200
G01 X37.8888 Y-3.2713 Z-3.2279 F1200
G01 X37.7766 Y-3.2229 Z-3.2477 F1200
G01 X37.6748 Y-3.1527 Z-3.2468 F1200
G01 X37.5870 Y-3.0628 Z-3.2252 F1200
G01 X37.5164 Y-2.9559 Z-3.1889 F1200
G01 X37.4657 Y-2.8354 Z-3.1475 F1200
G01 X37.4370 Y-2.7048 Z-3.1121 F1200
G01 X37.4317 Y-2.5681 Z-3.0923 F1200
G01 X37.4504 Y-2.4296 Z-3.0932 F1200
G01 X37.4932 Y-2.2933 Z-3.1148 F1200
G01 X37.5593 Y-2.1634 Z-3.1511 F1200
G01 X37.6471 Y-2.0440 Z-3.1925 F1200
G01 X37.7547 Y-1.9385 Z-3.2279 F1200
G01 X37.8792 Y-1.8502 Z-3.2477 F1200
G01 X38.0174 Y-1.7819 Z-3.2468 F1200
G01 X38.1657 Y-1.7355 Z-3.2252 F1200
G01 X38.3200 Y-1.7125 Z-3.1889 F1200
G01 X38.4763 Y-1.7136 Z-3.1475 F1200
G01 X38.6302 Y-1.7387 Z-3.1121 F1200
G01 X38.7777 Y-1.7871 Z-3.0923 F1200
G01 X38.9149 Y-1.8573 Z-3.0932 F1200
G01 X39.0380 Y-1.9472 Z-3.1148 F1200
G01 X39.1439 Y-2.0541 Z-3.1511 F1200
G01 X39.2299 Y-2.1746 Z-3.1925 F1200
G01 X39.2940 Y-2.3052 Z-3.2279 F1200
G01 X39.3346 Y-2.4419 Z-3.2477 F1200
G01 X39.3512 Y-2.5804 Z-3.2468 F1200
G01 X39.3438 Y-2.7167 Z-3.2252 F1200
G01 X39.3130 Y-2.8466 Z-3.1889 F1200
G01 X39.2605 Y-2.9660 Z-3.1475 F1200
G01 X39.1882 Y-3.0715 Z-3.1121 F1200
G01 X39.0991 Y-3.1598 Z-3.0923 F1200
G01 X38.9962 Y-3.2281 Z-3.0932 F1200
G01 X38.8833 Y-3.2745 Z-3.1148 F1200
G01 X38.7643 Y-3.2975 Z-3.1511 F1200
G01 X38.6434 Y-3.2964 Z-3.1925 F1200
G01 X38.5248 Y-3.2713 Z-3.2279 F1200
G01 X38.4126 Y-3.2229 Z-3.2477 F1200
G01 X38.3108 Y-3.1527 Z-3.2468 F1200
G01 X38.2230 Y-3.0628 Z-3.2252 F1200
G01 X38.1524 Y-2.9559 Z-3.1889 F1200
G01 X38.1017 Y-2.8354 Z-3.1475 F1200
G01 X38.0730 Y-2.7048 Z-3.1121 F1200
G01 X38.0677 Y-2.5681 Z-3.0923 F1200
G01 X38.0864 Y-2.4296 Z-3.0932 F1200
G01 X38.1292 Y-2.2933 Z-3.1148 F1200
G01 X38.1953 Y-2.1634 Z-3.1511 F1200
G01 X38.2831 Y-2.0440 Z-3.1925 F1200
G01 X38.3907 Y-1.9385 Z-3.2279 F1200
G01 X38.5152 Y-1.8502 Z-3.2477 F1200
G01 X38.6534 Y-1.7819 Z-3.2468 F1200
G01 X38.8017 Y-1.7355 Z-3.2252 F1200
G01 X38.9560 Y-1.7125 Z-3.1889 F1200
G01 X39.1123 Y-1.7136 Z-3.1475 F1200
G01 X39.2662 Y-1.7387 Z-3.1121 F1200
G01 X39.4137 Y-1.7871 Z-3.0923 F1200
G01 X39.5509 Y-1.8573 Z-3.0932 F1200
G01 X39.6740 Y-1.9472 Z-3.1148 F1200
G01 X39.7799 Y-2.0541 Z-3.1511 F1200
G01 X39.8659 Y-2.1746 Z-3.1925 F1200
G01 X39.9300 Y-2.3052 Z-3.2279 F1200
G01 X39.9706 Y-2.4419 Z-3.2477 F1200
G01 X39.9872 Y-2.5804 Z-3.2468 F1200
G01 X39.9798 Y-2.7167 Z-3.2252 F1200
G01 X39.9490 Y-2.8466 Z-3.1889 F1200
G01 X39.8965 Y-2.9660 Z-3.1475 F1200
G01 X39.8242 Y-3.0715 Z-3.1121 F1200
G01 X39.7351 Y-3.1598 Z-3.0923 F1200
G01 X39.6322 Y-3.2281 Z-3.0932 F1200
G01 X39.5193 Y-3.2745 Z-3.1148 F1200
G01 X39.4003 Y-3.2975 Z-3.1511 F1200
G01 X39.2794 Y-3.2964 Z-3.1925 F1200
G01 X39.1608 Y-3.2713 Z-3.2279 F1200
G01 X39.0486 Y-3.2229 Z-3.2477 F1200
G01 X38.9468 Y-3.1527 Z-3.2468 F1200
G01 X38.8590 Y-3.0628 Z-3.2252 F1200
G01 X38.7884 Y-2.9559 Z-3.1889 F1200
G01 X38.7377 Y-2.8354 Z-3.1475 F1200
G01 X38.7090 Y-2.7048 Z-3.1121 F1200
G01 X38.7037 Y-2.5681 Z-3.0923 F1200
G01 X38.7224 Y-2.4296 Z-3.0932 F1200
G01 X38.7652 Y-2.2933 Z-3.1148 F1200
G01 X38.8313 Y-2.1634 Z-3.1511 F1200
G01 X38.9191 Y-2.0440 Z-3.1925 F1200
G01 X39.0267 Y-1.9385 Z-3.2279 F1200
G01 X39.1512 Y-1.8502 Z-3.2477 F1200
G01 X39.2894 Y-1.7819 Z-3.2468 F1200
G01 X39.4377 Y-1.7355 Z-3.2252 F1200
G01 X39.5920 Y-1.7125 Z-3.1889 F1200
G01 X39.7483 Y-1.7136 Z-3.1475 F1200
G01 X39.9022 Y-1.7387 Z-3.1121 F1200
G01 X40.0497 Y-1.7871 Z-3.0923 F1200
G01 X40.1869 Y-1.8573 Z-3.0932 F1200
G01 X40.3100 Y-1.9472 Z-3.1148 F1200
G01 X40.4159 Y-2.0541 Z-3.1511 F1200
G01 X40.5019 Y-2.1746 Z-3.1925 F1200
G01 X40.5660 Y-2.3052 Z-3.2279 F1200
G01 X40.6066 Y-2.4419 Z-3.2477 F1200
G01 X40.6232 Y-2.5804 Z-3.2468 F1200
G01 X40.6158 Y-2.7167 Z-3.2252 F1200
G01 X40.5850 Y-2.8466 Z-3.1889 F1200
G01 X40.5325 Y-2.9660 Z-3.1475 F1200
G01 X40.4602 Y-3.0715 Z-3.1121 F1200
G01 X40.3711 Y-3.1598 Z-3.0923 F1200
G01 X40.2682 Y-3.2281 Z-3.0932 F1200
G01 X40.1553 Y-3.2745 Z-3.1148 F1200
G01 X40.0363 Y-3.2975 Z-3.1511 F1200
G01 X39.9154 Y-3.2964 Z-3.1925 F1200
G01 X39.7968 Y-3.2713 Z-3.2279 F1200
G01 X39.6846 Y-3.2229 Z-3.2477 F1200
G01 X39.5828 Y-3.1527 Z-3.2468 F1200
G01 X39.4950 Y-3.0628 Z-3.2252 F1200
G01 X39.4244 Y-2.9559 Z-3.1889 F1200
G01 X39.3737 Y-2.8354 Z-3.1475 F1200
G01 X39.3450 Y-2.7048 Z-3.1121 F1200
G01 X39.3397 Y-2.5681 Z-3.0923 F1200
G01 X39.3584 Y-2.4296 Z-3.0932 F1200
G01 X39.4012 Y-2.2933 Z-3.1148 F1200
G01 X39.4673 Y-2.1634 Z-3.1511 F1200
G01 X39.5551 Y-2.0440 Z-3.1925 F1200
G01 X39.6627 Y-1.9385 Z-3.2279 F1200
G01 X39.7872 Y-1.8502 Z-3.2477 F1200
G01 X39.9254 Y-1.7819 Z-3.2468 F1200
G01 X40.0737 Y-1.7355 Z-3.2252 F1200
G01 X40.2280 Y-1.7125 Z-3.1889 F1200
G01 X40.3843 Y-1.7136 Z-3.1475 F1200
G01 X40.5382 Y-1.7387 Z-3.1121 F1200
G01 X40.6857 Y-1.7871 Z-3.0923 F1200
G01 X40.8229 Y-1.8573 Z-3.0932 F1200
G01 X40.9460 Y-1.9472 Z-3.1148 F1200
G01 X41.0519 Y-2.0541 Z-3.1511 F1200
G01 X41.1379 Y-2.1746 Z-3.1925 F1200
G01 X41.2020 Y-2.3052 Z-3.2279 F1200
G01 X41.2426 Y-2.4419 Z-3.2477 F1200
G01 X41.2592 Y-2.5804 Z-3.2468 F1200
G01 X41.2518 Y-2.7167 Z-3.2252 F1200
G01 X41.2210 Y-2.8466 Z-3.1889 F1200
G01 X41.1685 Y-2.9660 Z-3.1475 F1200
G01 X41.0962 Y-3.0715 Z-3.1121 F1200
G01 X41.0071 Y-3.1598 Z-3.0923 F1200
G01 X40.9042 Y-3.2281 Z-3.0932 F1200
G01 X40.7913 Y-3.2745 Z-3.1148 F1200
G01 X40.6723 Y-3.2975 Z-3.1511 F1200
G01 X40.5514 Y-3.2964 Z-3.1925 F1200
G01 X40.4328 Y-3.2713 Z-3.2279 F1200
G01 X40.3206 Y-3.2229 Z-3.2477 F1200
G01 X40.2188 Y-3.1527 Z-3.2468 F1200
G01 X40.1310 Y-3.0628 Z-3.2252 F1200
G01 X40.0604 Y-2.9559 Z-3.1889 F1200
G01 X40.0097 Y-2.8354 Z-3.1475 F1200
G01 X39.9810 Y-2.7048 Z-3.1121 F1200
G01 X39.9757 Y-2.5681 Z-3.0923 F1200
G01 X39.9944 Y-2.4296 Z-3.0932 F1200
G01 X40.0372 Y-2.2933 Z-3.1148 F1200
G01 X40.1033 Y-2.1634 Z-3.1511 F1200
G01 X40.1911 Y-2.0440 Z-3.1925 F1200
G01 X40.2987 Y-1.9385 Z-3.2279 F1200
G01 X40.4232 Y-1.8502 Z-3.2477 F1200
G01 X40.5614 Y-1.7819 Z-3.2468 F1200
G01 X40.7097 Y-1.7355 Z-3.2252 F1200
G01 X40.8640 Y-1.7125 Z-3.1889 F1200
G01 X41.0203 Y-1.7136 Z-3.1475 F1200
G01 X41.1742 Y-1.7387 Z-3.1121 F1200
G01 X41.3217 Y-1.7871 Z-3.0923 F1200
G01 X41.4589 Y-1.8573 Z-3.0932 F1200
G01 X41.5820 Y-1.9472 Z-3.1148 F1200
G01 X41.6879 Y-2.0541 Z-3.1511 F1200
G01 X41.7739 Y-2.1746 Z-3.1925 F1200
G01 X41.8380 Y-2.3052 Z-3.2279 F1200
G01 X41.8786 Y-2.4419 Z-3.2477 F1200
G01 X41.8952 Y-2.5804 Z-3.2468 F1200
G01 X41.8878 Y-2.7167 Z-3.2252 F1200
G01 X41.8570 Y-2.8466 Z-3.1889 F1200
G01 X41.8045 Y-2.9660 Z-3.1475 F1200
G01 X41.7322 Y-3.0715 Z-3.1121 F1200
G01 X41.6431 Y-3.1598 Z-3.0923 F1200
G01 X41.5402 Y-3.2281 Z-3.0932 F1200
G01 X41.4273 Y-3.2745 Z-3.1148 F1200
G01 X41.3083 Y-3.2975 Z-3.1511 F1200
G01 X41.1874 Y-3.2964 Z-3.1925 F1200
G01 X41.0688 Y-3.2713 Z-3.2279 F1200
G01 X40.9566 Y-3.2229 Z-3.2477 F1200
G01 X40.8548 Y-3.1527 Z-3.2468 F1200
G01 X40.7670 Y-3.0628 Z-3.2252 F1200
G01 X40.6964 Y-2.9559 Z-3.1889 F1200
G01 X40.6457 Y-2.8354 Z-3.1475 F1200
G01 X40.6170 Y-2.7048 Z-3.1121 F1200
G01 X40.6117 Y-2.5681 Z-3.0923 F1200
G01 X40.6304 Y-2.4296 Z-3.0932 F1200
G01 X40.6732 Y-2.2933 Z-3.1148 F1200
G01 X40.7393 Y-2.1634 Z-3.1511 F1200
G01 X40.8271 Y-2.0440 Z-3.1925 F1200
G01 X40.9347 Y-1.9385 Z-3.2279 F1200
G01 X41.0592 Y-1.8502 Z-3.2477 F1200
G01 X41.1974 Y-1.7819 Z-3.2468 F1200
G01 X41.3457 Y-1.7355 Z-3.2252 F1200
G01 X41.5000 Y-1.7125 Z-3.1889 F1200
G01 X41.6563 Y-1.7136 Z-3.1475 F1200
G01 X41.8102 Y-1.7387 Z-3.1121 F1200
G01 X41.9577 Y-1.7871 Z-3.0923 F1200
G01 X42.0949 Y-1.8573 Z-3.0932 F1200
G01 X42.2180 Y-1.9472 Z-3.1148 F1200
G01 X42.3239 Y-2.0541 Z-3.1511 F1200
G01 X42.4099 Y-2.1746 Z-3.1925 F1200
G01 X42.4740 Y-2.3052 Z-3.2279 F1200
G01 X42.5146 Y-2.4419 Z-3.2477 F1200
G01 X42.5312 Y-2.5804 Z-3.2468 F1200
G01 X42.5238 Y-2.7167 Z-3.2252 F1200
G01 X42.4930 Y-2.8466 Z-3.1889 F1200
G01 X42.4405 Y-2.9660 Z-3.1475 F1200
G01 X42.3682 Y-3.0715 Z-3.1121 F1200
G01 X42.2791 Y-3.1598 Z-3.0923 F1200
G01 X42.1762 Y-3.2281 Z-3.0932 F1200
G01 X42.0633 Y-3.2745 Z-3.1148 F1200
G01 X41.9443 Y-3.2975 Z-3.1511 F1200
G01 X41.8234 Y-3.2964 Z-3.1925 F1200
G01 X41.7048 Y-3.2713 Z-3.2279 F1200
G01 X41.5926 Y-3.2229 Z-3.2477 F1200
G01 X41.4908 Y-3.1527 Z-3.2468 F1200
G01 X41.4030 Y-3.0628 Z-3.2252 F1200
G01 X41.3324 Y-2.9559 Z-3.1889 F1200
G01 X41.2817 Y-2.8354 Z-3.1475 F1200
G01 X41.2530 Y-2.7048 Z-3.1121 F1200
G01 X41.2477 Y-2.5681 Z-3.0923 F1200
G01 X41.2664 Y-2.4296 Z-3.0932 F1200
G01 X41.3092 Y-2.2933 Z-3.1148 F1200
