;FLAVOR:Marlin
;TIME:7110
;Filament used: 12.3094m
;Layer height: 0.32
;MINX:73.12
;MINY:99.804
;MINZ:0.24
;MAXX:226.88
;MAXY:197.992
;MAXZ:34.48
;Generated with Cura_SteamEngine 5.0.0
M140 S70
M105
M190 S70
M104 S245
M105
M109 S245
M82 ;absolute extrusion mode
; Ender 3 Max Custom Start G-code
G92 E0 ; Reset Extruder
G28 ; Home all axes
G1 Z2.0 F3000 ; Move Z Axis up little to prevent scratching of Heat Bed
G1 X0.1 Y20 Z0.3 F5000.0 ; Move to start position
G1 X0.1 Y200.0 Z0.3 F1500.0 E15 ; Draw the first line
G1 X0.4 Y200.0 Z0.3 F5000.0 ; Move to side a little
G1 X0.4 Y20 Z0.3 F1500.0 E30 ; Draw the second line
G92 E0 ; Reset Extruder
G1 Z2.0 F3000 ; Move Z Axis up little to prevent scratching of Heat Bed
G1 X5 Y20 Z0.3 F5000.0 ; Move over to prevent blob squish
G92 E0
G92 E0
G1 F2100 E-5
;LAYER_COUNT:108
;LAYER:0
M107
G1 F300 Z0.56
G0 F6000 X77.546 Y101.884 Z0.56
G1 F300 Z0.56
G0 F6000 X73.122 Y111.602
;TYPE:SKIRT
G1 F300 Z0.24
G1 F2100 E0
G1 F1800 X73.131 Y110.958 E0.04666
G1 X73.163 Y110.279 E0.0959
G1 X73.198 Y109.841 E0.12773
G1 X73.31 Y108.939 E0.19357
G1 X73.564 Y107.821 E0.27662
G1 X73.641 Y107.552 E0.29689
G1 X73.929 Y106.69 E0.36273
G1 X74.292 Y105.857 E0.42855
G1 X74.747 Y105.027 E0.49712
G1 X74.879 Y104.81 E0.51552
G1 X75.385 Y104.055 E0.58136
G1 X75.955 Y103.347 E0.6472
G1 X76.585 Y102.692 E0.71304
G1 X77.546 Y101.884 E0.80399
G1 X78.296 Y101.371 E0.86981
G1 X79.089 Y100.926 E0.93569
G1 X79.917 Y100.553 E1.00147
G1 X80.776 Y100.254 E1.06736
G1 X81.657 Y100.031 E1.13319
G1 X82.554 Y99.887 E1.199
G1 X83.567 Y99.82 E1.27255
G1 X84.871 Y99.804 E1.36702
G1 X85.352 Y99.813 E1.40187
G1 X86.212 Y99.865 E1.46428
G1 X89.247 Y100.139 E1.68503
G1 X91.733 Y100.289 E1.86545
G1 X94.293 Y100.371 E2.05099
G1 X96.825 Y100.379 E2.23441
G1 X99.378 Y100.317 E2.4194
G1 X101.867 Y100.185 E2.59996
G1 X104.509 Y99.97 E2.79198
G1 X104.981 Y99.923 E2.82634
G1 X105.79 Y99.875 E2.88505
G1 X107.061 Y99.852 E2.97714
G1 X195.677 Y99.849 E9.39653
G1 X196.364 Y99.859 E9.4463
G1 X197.611 Y99.952 E9.53689
G1 X198.506 Y100.107 E9.60269
G1 X199.353 Y100.33 E9.66614
G1 X200.244 Y100.606 E9.73371
G1 X202.693 Y101.326 E9.91862
G1 X205.169 Y101.979 E10.10412
G1 X207.643 Y102.557 E10.28816
G1 X210.127 Y103.063 E10.4718
G1 X212.593 Y103.493 E10.65313
G1 X215.12 Y103.861 E10.83812
G1 X217.744 Y104.169 E11.02951
G1 X218.641 Y104.315 E11.09534
G1 X219.522 Y104.538 E11.16118
G1 X220.379 Y104.839 E11.22698
G1 X221.208 Y105.213 E11.29286
G1 X222 Y105.659 E11.3587
G1 X222.749 Y106.173 E11.42451
G1 X223.451 Y106.75 E11.49034
G1 X224.099 Y107.387 E11.55616
G1 X224.689 Y108.079 E11.62204
G1 X225.215 Y108.82 E11.68786
G1 X225.675 Y109.604 E11.75371
G1 X226.064 Y110.425 E11.81952
G1 X226.379 Y111.278 E11.88539
G1 X226.618 Y112.155 E11.95124
G1 X226.778 Y113.049 E12.01703
G1 X226.867 Y114.139 E12.09625
G1 X226.88 Y114.75 E12.14053
G1 X226.879 Y132.884 E13.45416
G1 X226.868 Y133.594 E13.5056
G1 X226.814 Y134.501 E13.57142
G1 X226.744 Y135.037 E13.61058
G1 X226.586 Y136.034 E13.6837
G1 X226.445 Y136.858 E13.74426
G1 X226.081 Y139.407 E13.93079
G1 X225.798 Y141.887 E14.11161
G1 X225.58 Y144.453 E14.29816
G1 X225.437 Y146.95 E14.47934
G1 X225.364 Y149.511 E14.66493
G1 X225.362 Y152.039 E14.84806
G1 X225.433 Y154.561 E15.03083
G1 X225.577 Y157.117 E15.21628
G1 X225.791 Y159.645 E15.40007
G1 X226.074 Y162.147 E15.58247
G1 X226.431 Y164.66 E15.76634
G1 X226.731 Y166.467 E15.89903
G1 X226.84 Y167.369 E15.96485
G1 X226.875 Y168.183 E16.02387
G1 X226.88 Y186.919 E17.38112
G1 X226.87 Y187.774 E17.44306
G1 X226.819 Y188.681 E17.50887
G1 X226.688 Y189.581 E17.57475
G1 X226.479 Y190.465 E17.64055
G1 X226.193 Y191.328 E17.70641
G1 X225.832 Y192.162 E17.77224
G1 X225.399 Y192.961 E17.83808
G1 X224.897 Y193.719 E17.90394
G1 X224.331 Y194.43 E17.96977
G1 X223.705 Y195.088 E18.03556
G1 X223.023 Y195.689 E18.10141
G1 X222.291 Y196.228 E18.16726
G1 X221.514 Y196.7 E18.23312
G1 X220.699 Y197.102 E18.29895
G1 X219.852 Y197.431 E18.36477
G1 X218.979 Y197.684 E18.43062
G1 X218.087 Y197.86 E18.49648
G1 X216.831 Y197.972 E18.58782
G1 X216.22 Y197.985 E18.6321
G1 X88.641 Y197.986 E27.87399
G1 X87.148 Y197.992 E27.98215
G1 X83.976 Y197.984 E28.21193
G1 X83.315 Y197.974 E28.25982
G1 X82.407 Y197.92 E28.32571
G1 X81.508 Y197.787 E28.39154
G1 X80.625 Y197.575 E28.45733
G1 X79.763 Y197.286 E28.52319
G1 X78.93 Y196.923 E28.58901
G1 X78.132 Y196.488 E28.65485
G1 X77.375 Y195.985 E28.72069
G1 X76.666 Y195.417 E28.7865
G1 X76.009 Y194.788 E28.85239
G1 X75.41 Y194.105 E28.91819
G1 X74.873 Y193.371 E28.98408
G1 X74.403 Y192.593 E29.04992
G1 X74.004 Y191.777 E29.11572
G1 X73.677 Y190.929 E29.18156
G1 X73.426 Y190.056 E29.24736
G1 X73.253 Y189.163 E29.31325
G1 X73.143 Y187.857 E29.4082
G1 X73.12 Y186.623 E29.4976
G1 X73.122 Y112.965 E34.83343
G0 F1620 X73.122 Y111.602
G1 F2100 E29.83343
G1 F300 Z0.56
;MESH:mp3dp-pi-case-bot.stl
G0 F6000 X85.102 Y115.94 Z0.56
;TYPE:WALL-INNER
G1 F300 Z0.24
G1 F2100 E34.83343
G1 F1800 X85.1 Y186.003 E39.07831
G1 X214.9 Y186.005 E46.94246
G1 X214.9 Y177.905 E47.43322
G1 X214.9 Y169.807 E47.92385
G1 X197.724 Y169.804 E48.96448
G1 X197.482 Y169.787 E48.97918
G1 X197.024 Y169.719 E49.00723
G1 X196.747 Y169.653 E49.02449
G1 X196.192 Y169.421 E49.06093
G1 X195.937 Y169.284 E49.07847
G1 X195.459 Y168.916 E49.11502
G1 X195.217 Y168.682 E49.13541
G1 X194.877 Y168.228 E49.16978
G1 X194.711 Y167.95 E49.1894
G1 X194.501 Y167.431 E49.22332
G1 X194.427 Y167.195 E49.2383
G1 X194.344 Y166.643 E49.27212
G1 X194.329 Y166.42 E49.28566
G1 X194.261 Y135.199 E51.17724
G1 X194.277 Y135.017 E51.18831
G1 X194.357 Y134.474 E51.22157
G1 X194.434 Y134.197 E51.23898
G1 X194.652 Y133.684 E51.27276
G1 X194.768 Y133.461 E51.28799
G1 X194.872 Y133.313 E51.29894
G1 X195.171 Y132.933 E51.32824
G1 X195.344 Y132.745 E51.34372
G1 X195.868 Y132.344 E51.3837
G1 X196.086 Y132.207 E51.3993
G1 X196.239 Y132.137 E51.40949
G1 X196.685 Y131.959 E51.43858
G1 X196.968 Y131.875 E51.45647
G1 X197.488 Y131.8 E51.4883
G1 X197.722 Y131.783 E51.50251
G1 X214.9 Y131.781 E52.54327
G1 X214.9 Y116.07 E53.49515
G1 X196.689 Y116.07 E54.59849
G1 X196.413 Y116.036 E54.61534
G1 X196.153 Y115.959 E54.63177
G1 X195.839 Y115.809 E54.65285
G1 X195.589 Y115.652 E54.67074
G1 X195.338 Y115.416 E54.69161
G1 X195.177 Y115.195 E54.70818
G1 X195.017 Y114.844 E54.73155
G1 X194.923 Y114.499 E54.75321
G1 X194.9 Y114.22 E54.77018
G1 X194.9 Y111.828 E54.9151
G1 X107.499 Y111.835 E60.21043
G1 X107.5 Y114.221 E60.35499
G1 X107.471 Y114.532 E60.37392
G1 X107.404 Y114.778 E60.38937
G1 X107.239 Y115.131 E60.41297
G1 X107.079 Y115.385 E60.43116
G1 X106.871 Y115.61 E60.44973
G1 X106.663 Y115.769 E60.46559
G1 X106.426 Y115.896 E60.48188
G1 X106.156 Y115.991 E60.49922
G1 X105.878 Y116.055 E60.5165
G1 X105.65 Y116.07 E60.53035
G1 X86.45 Y116.07 E61.69361
G0 F1620 X85.649 Y116.07
G0 X85.102 Y115.94
G0 F6000 X84.535 Y114.645
G1 F1726.7 X84.457 Y114.394 E61.71021
G1 X84.452 Y114.658 E61.72689
G1 F1757.4 X84.449 Y114.968 E61.74613
G1 F1773.1 X84.445 Y115.278 E61.76519
G1 F1791.9 X84.441 Y115.588 E61.78406
G1 F1800 X84.44 Y186.663 E66.09026
G1 X215.56 Y186.665 E74.03438
G1 X215.56 Y177.905 E74.56512
G1 X215.56 Y169.147 E75.09574
G1 X197.724 Y169.144 E76.17636
G1 X197.121 Y169.066 E76.2132
G1 X196.876 Y168.996 E76.22864
G1 X196.452 Y168.814 E76.25659
G1 X196.231 Y168.683 E76.27216
G1 X195.867 Y168.397 E76.30021
G1 X195.682 Y168.207 E76.31627
G1 X195.408 Y167.836 E76.34422
G1 X195.285 Y167.614 E76.35959
G1 X195.097 Y167.139 E76.39054
G1 X194.998 Y166.552 E76.42661
G1 X194.989 Y166.419 E76.43469
G1 X194.921 Y135.22 E78.32494
G1 X194.931 Y135.111 E78.33157
G1 X195.006 Y134.594 E78.36322
G1 X195.259 Y133.944 E78.40548
G1 X195.39 Y133.721 E78.42115
G1 X195.689 Y133.341 E78.45044
G1 X195.878 Y133.158 E78.46638
G1 X196.261 Y132.874 E78.49527
G1 X196.484 Y132.75 E78.51073
G1 X196.983 Y132.552 E78.54325
G1 X197.579 Y132.454 E78.57985
G1 X197.722 Y132.443 E78.58854
G1 X215.56 Y132.441 E79.66928
G1 X215.56 Y115.41 E80.70113
G1 X196.713 Y115.41 E81.84301
G1 X196.435 Y115.36 E81.86012
G1 X196.138 Y115.221 E81.87999
G1 X195.93 Y115.078 E81.89529
G1 X195.741 Y114.853 E81.91309
G1 X195.607 Y114.524 E81.93461
G1 X195.56 Y114.22 E81.95325
G1 X195.56 Y111.168 E82.13816
G1 X106.839 Y111.175 E87.51347
G1 X106.84 Y114.221 E87.69802
G1 X106.782 Y114.555 E87.71855
G1 X106.651 Y114.832 E87.73712
G1 X106.51 Y115.038 E87.75224
G1 X106.305 Y115.214 E87.76861
G1 X106.072 Y115.325 E87.78425
G1 X105.818 Y115.396 E87.80023
G1 X105.65 Y115.41 E87.81044
G1 X85.649 Y115.41 E89.02224
G1 X85.199 Y115.303 E89.05026
G1 X85.038 Y115.221 E89.06121
G1 F1786.5 X84.787 Y114.933 E89.08453
G1 F1760 X84.535 Y114.645 E89.10824
G1 F2100 E84.10824
G1 F300 Z0.56
G0 F6000 X83.903 Y110.457 Z0.56
;TYPE:WALL-OUTER
G1 F300 Z0.24
G1 F2100 E89.10824
G1 F1800 X83.813 Y110.713 E89.1245
G1 X83.782 Y111.057 E89.1452
G1 X83.781 Y115.587 E89.41668
G1 X83.78 Y187.323 E93.71568
G1 X216.22 Y187.325 E101.65256
G1 X216.22 Y177.905 E102.21708
G1 X216.22 Y168.487 E102.78148
G1 X197.7 Y168.484 E103.89135
G1 X197.218 Y168.413 E103.92055
G1 X196.712 Y168.208 E103.95327
G1 X196.275 Y167.878 E103.98608
G1 X195.939 Y167.444 E104.01898
G1 X195.728 Y166.943 E104.05155
G1 X195.652 Y166.462 E104.08074
G1 X195.649 Y166.417 E104.08344
G1 X195.582 Y135.218 E105.95314
G1 X195.658 Y134.701 E105.98446
G1 X195.865 Y134.204 E106.01672
G1 X195.909 Y134.129 E106.02193
G1 X196.221 Y133.734 E106.0521
G1 X196.654 Y133.404 E106.08472
G1 X196.728 Y133.363 E106.08979
G1 X197.192 Y133.178 E106.11973
G1 X197.669 Y133.108 E106.14862
G1 X197.722 Y133.103 E106.15181
G1 X216.22 Y133.101 E107.26036
G1 X216.22 Y114.75 E108.3601
G1 X196.737 Y114.75 E109.52768
G1 X196.438 Y114.633 E109.54692
G1 X196.273 Y114.44 E109.56214
G1 X196.22 Y114.22 E109.5757
G1 X196.22 Y110.765 E109.78275
G1 X196.171 Y110.526 E109.79737
G1 X195.95 Y110.508 E109.81066
G1 X106.245 Y110.516 E115.18651
G1 X106.18 Y110.744 E115.20072
G1 X106.18 Y114.221 E115.40909
G1 X106.063 Y114.532 E115.429
G1 X105.878 Y114.694 E115.44374
G1 X105.65 Y114.75 E115.45781
G1 X85.649 Y114.75 E116.65643
G1 X85.338 Y114.633 E116.67635
G1 F1802.7 X85.174 Y114.439 E116.69155
G1 X85.12 Y114.22 E116.70504
G1 F1800 X85.12 Y111.063 E116.89424
G1 X85.09 Y110.724 E116.91463
G1 X85.015 Y110.49 E116.92936
G1 X84.77 Y110.46 E116.94415
G1 X84.263 Y110.458 E116.97453
G0 F1620 X83.903 Y110.457
G0 F6000 X83.813 Y110.713
G0 X83.809 Y110.761
G0 X84.45 Y111.128
;TYPE:WALL-INNER
G1 F1747.1 X84.45 Y114.22 E117.16754
G1 F1726.7 X84.457 Y114.394 E117.17854
G1 F2100 E112.17854
G1 F300 Z0.56
G0 F6000 X90.805 Y124.289 Z0.56
;TYPE:SKIN
G1 F300 Z0.24
G1 F2100 E117.17854
G1 F1980 X90.891 Y124.919 E117.21318
G1 X91.14 Y125.513 E117.24827
G1 X91.534 Y126.019 E117.28321
G1 X92.036 Y126.399 E117.31751
G1 X92.618 Y126.641 E117.35185
G1 X93.262 Y126.723 E117.38722
G1 X93.896 Y126.635 E117.42209
G1 X94.486 Y126.387 E117.45696
G1 X94.992 Y125.994 E117.49186
G1 X95.371 Y125.494 E117.52604
G1 X95.616 Y124.893 E117.5614
G1 X95.695 Y124.265 E117.59589
G1 X95.609 Y123.636 E117.63047
G1 X95.36 Y123.043 E117.66551
G1 X94.968 Y122.537 E117.70038
G1 X94.467 Y122.157 E117.73464
G1 X94.171 Y122.037 E117.75204
G1 X93.869 Y121.913 E117.76983
G1 X93.24 Y121.833 E117.80437
G1 X92.605 Y121.92 E117.83929
G1 X92.016 Y122.168 E117.87411
G1 X91.509 Y122.56 E117.90902
G1 X91.179 Y122.995 E117.93877
G0 F1620 X91.129 Y123.062
G0 X90.884 Y123.662
G0 X90.805 Y124.289
G1 F2100 E112.93877
G1 F300 Z0.56
G0 F6000 X92.026 Y179.508 Z0.56
G1 F300 Z0.24
G1 F2100 E117.93877
G1 F1980 X92.618 Y179.753 E117.97367
G1 X92.932 Y179.794 E117.99093
G1 X93.249 Y179.837 E118.00835
G1 X93.881 Y179.753 E118.04309
G1 X94.473 Y179.508 E118.07799
G1 X94.729 Y179.313 E118.09553
G1 X94.979 Y179.119 E118.11277
G1 X95.368 Y178.614 E118.14749
G1 X95.614 Y178.019 E118.18257
G1 X95.697 Y177.39 E118.21714
G1 X95.614 Y176.761 E118.2517
G1 X95.493 Y176.467 E118.26902
G1 X95.368 Y176.167 E118.28673
G1 X95.172 Y175.912 E118.30425
G1 X94.98 Y175.66 E118.32151
G1 X94.474 Y175.272 E118.35625
G1 X93.881 Y175.027 E118.3912
G1 X93.25 Y174.943 E118.42588
G1 X92.619 Y175.027 E118.46056
G1 X92.326 Y175.147 E118.47781
G1 X92.026 Y175.272 E118.49552
G1 X91.52 Y175.66 E118.53026
G1 X91.132 Y176.166 E118.565
G1 X90.886 Y176.761 E118.60007
G1 X90.803 Y177.39 E118.63464
G1 X90.886 Y178.019 E118.6692
G1 X91.098 Y178.532 E118.69944
G0 F1620 X91.132 Y178.614
G0 X91.521 Y179.119
G0 X92.026 Y179.508
G1 F2100 E113.69944
G1 F300 Z0.56
G0 F6000 X208.993 Y176.467 Z0.56
G1 F300 Z0.24
G1 F2100 E118.69944
G1 F1980 X208.868 Y176.167 E118.71715
G1 X208.672 Y175.912 E118.73467
G1 X208.48 Y175.66 E118.75193
G1 X207.974 Y175.272 E118.78667
G1 X207.381 Y175.027 E118.82163
G1 X206.75 Y174.943 E118.85631
G1 X206.119 Y175.027 E118.89099
G1 X205.826 Y175.147 E118.90824
G1 X205.526 Y175.272 E118.92594
G1 X205.02 Y175.66 E118.96068
G1 X204.632 Y176.166 E118.99542
G1 X204.386 Y176.761 E119.0305
G1 X204.303 Y177.39 E119.06506
G1 X204.386 Y178.019 E119.09963
G1 X204.632 Y178.614 E119.1347
G1 X205.021 Y179.119 E119.16943
G1 X205.526 Y179.508 E119.20416
G1 X206.118 Y179.753 E119.23906
G1 X206.749 Y179.837 E119.27374
G1 X207.381 Y179.753 E119.30848
G1 X207.973 Y179.508 E119.34338
G1 X208.229 Y179.313 E119.36092
G1 X208.479 Y179.119 E119.37816
G1 X208.868 Y178.614 E119.41288
G1 X209.114 Y178.019 E119.44796
G1 X209.143 Y177.799 E119.46005
G0 F1620 X209.155 Y177.704
G0 X209.197 Y177.39
G0 X209.114 Y176.761
G0 X208.993 Y176.467
G1 F2100 E114.46005
G1 F300 Z0.56
G0 F6000 X208.86 Y123.043 Z0.56
G1 F300 Z0.24
G1 F2100 E119.46005
G1 F1980 X208.468 Y122.537 E119.49492
G1 X207.967 Y122.157 E119.52918
G1 X207.671 Y122.037 E119.54658
G1 X207.369 Y121.913 E119.56437
G1 X206.74 Y121.833 E119.59891
G1 X206.105 Y121.92 E119.63383
G1 X205.516 Y122.168 E119.66865
G1 X205.009 Y122.56 E119.70356
G1 X204.629 Y123.062 E119.73786
G1 X204.384 Y123.662 E119.77317
G1 X204.305 Y124.289 E119.8076
G1 X204.391 Y124.919 E119.84224
G1 X204.64 Y125.513 E119.87733
G1 X205.034 Y126.019 E119.91227
G1 X205.536 Y126.399 E119.94657
G1 X206.118 Y126.641 E119.98091
G1 X206.762 Y126.723 E120.01628
G1 X207.396 Y126.635 E120.05115
G1 X207.986 Y126.387 E120.08602
G1 X208.492 Y125.994 E120.12092
G1 X208.871 Y125.494 E120.1551
G1 X209.116 Y124.893 E120.19046
G1 X209.155 Y124.577 E120.20781
G1 X209.185 Y124.35 E120.22028
G0 F1620 X209.195 Y124.265
G0 X209.109 Y123.636
G0 X208.86 Y123.043
G1 F2100 E115.22028
G1 F300 Z0.56
G0 F6000 X207.026 Y122.173 Z0.56
;TYPE:SKIN
G1 F300 Z0.24
G1 F2100 E120.22028
G1 F1800 X208.856 Y124.003 E120.36128
G0 F6000 X208.822 Y124.817
G1 F1800 X206.213 Y122.209 E120.56225
G0 F6000 X205.621 Y122.465
G1 F1800 X208.561 Y125.405 E120.78877
G0 F6000 X208.17 Y125.862
G1 F1800 X205.161 Y122.854 E121.02056
G0 F6000 X204.826 Y123.368
G1 F1800 X207.657 Y126.198 E121.23864
G0 F6000 X206.997 Y126.386
G1 F1800 X204.639 Y124.029 E121.42028
G0 F6000 X204.74 Y124.979
G1 F1800 X206.048 Y126.286 E121.52102
G1 F2100 E116.52102
G1 F300 Z0.56
G0 F6000 X206.654 Y175.258 Z0.56
G1 F300 Z0.24
G1 F2100 E121.52102
G1 F1800 X208.881 Y177.485 E121.6926
G0 F6000 X208.723 Y178.176
G1 F1800 X205.962 Y175.415 E121.90533
G0 F6000 X205.425 Y175.727
G1 F1800 X208.411 Y178.713 E122.13539
G0 F6000 X207.975 Y179.125
G1 F1800 X205.011 Y176.161 E122.36375
G0 F6000 X204.725 Y176.723
G1 F1800 X207.414 Y179.412 E122.57093
G0 F6000 X206.677 Y179.524
G1 F1800 X204.614 Y177.461 E122.72988
G1 F2100 E117.72988
G1 F300 Z0.56
G0 F6000 X207.747 Y175.503 Z0.56
G1 F300 Z0.24
G1 F2100 E122.72988
G1 F1800 X208.633 Y176.389 E122.79814
G1 F2100 E117.79814
G1 F300 Z0.56
G0 F6000 X95.358 Y177.665 Z0.56
G1 F300 Z0.24
G1 F2100 E122.79814
G1 F1800 X92.974 Y175.281 E122.98182
G0 F6000 X92.319 Y175.474
G1 F1800 X95.164 Y178.32 E123.20106
G0 F6000 X94.823 Y178.828
G1 F1800 X91.81 Y175.815 E123.4332
G0 F6000 X91.423 Y176.276
G1 F1800 X94.361 Y179.214 E123.65956
G0 F6000 X93.763 Y179.464
G1 F1800 X91.172 Y176.874 E123.85915
G0 F6000 X91.145 Y177.695
G1 F1800 X92.942 Y179.491 E123.99756
G1 F2100 E118.99756
G1 F300 Z0.56
G0 F6000 X95.28 Y176.739 Z0.56
G1 F300 Z0.24
G1 F2100 E123.99756
