;FLAVOR:Marlin
;TIME:295
;Filament used: 0.224958m
;Layer height: 0.32
;MINX:133.32
;MINY:134.771
;MINZ:0.24
;MAXX:166.674
;MAXY:165.225
;MAXZ:10.48
;Generated with Cura_SteamEngine 5.0.0
M140 S70
M105
M190 S70
M104 S245
M105
M109 S245
M82 ;absolute extrusion mode
; Ender 3 Max Custom Start G-code
G92 E0 ; Reset Extruder
G28 ; Home all axes
G1 Z2.0 F3000 ; Move Z Axis up little to prevent scratching of Heat Bed
G1 X0.1 Y20 Z0.3 F5000.0 ; Move to start position
G1 X0.1 Y200.0 Z0.3 F1500.0 E15 ; Draw the first line
G1 X0.4 Y200.0 Z0.3 F5000.0 ; Move to side a little
G1 X0.4 Y20 Z0.3 F1500.0 E30 ; Draw the second line
G92 E0 ; Reset Extruder
G1 Z2.0 F3000 ; Move Z Axis up little to prevent scratching of Heat Bed
G1 X5 Y20 Z0.3 F5000.0 ; Move over to prevent blob squish
G92 E0
G92 E0
G1 F2100 E-5
;LAYER_COUNT:32
;LAYER:0
M107
G1 F300 Z0.56
G0 F6000 X137.107 Y139.507 Z0.56
G1 F300 Z0.56
G0 F6000 X133.32 Y148.346
;TYPE:SKIRT
G1 F300 Z0.24
G1 F2100 E0
G1 F1800 X133.36 Y147.359 E0.07156
G1 X133.48 Y146.378 E0.14315
G1 X133.678 Y145.41 E0.21473
G1 X133.955 Y144.461 E0.28634
G1 X134.307 Y143.538 E0.3579
G1 X134.732 Y142.646 E0.42948
G1 X135.228 Y141.792 E0.50102
G1 X135.792 Y140.98 E0.57264
G1 X136.42 Y140.217 E0.64422
G1 X137.107 Y139.507 E0.71579
G1 X137.849 Y138.854 E0.78739
G1 X138.642 Y138.264 E0.85899
G1 X139.48 Y137.741 E0.93055
G1 X140.357 Y137.286 E1.00212
G1 X141.268 Y136.904 E1.07368
G1 X142.207 Y136.597 E1.14525
G1 X143.168 Y136.367 E1.21683
G1 X144.145 Y136.215 E1.28846
G1 X145.11 Y136.159 E1.35848
G1 X145.61 Y135.935 E1.39817
G1 X146.685 Y135.536 E1.48123
G1 X146.914 Y135.463 E1.49864
G1 X147.661 Y135.251 E1.55489
G1 X147.889 Y135.194 E1.57192
G1 X148.997 Y134.97 E1.65381
G1 X149.225 Y134.935 E1.67052
G1 X149.977 Y134.844 E1.72539
G1 X150.209 Y134.823 E1.74226
G1 X151.21 Y134.773 E1.81487
G1 X151.453 Y134.771 E1.83247
G1 X152.447 Y134.804 E1.90452
G1 X152.665 Y134.82 E1.92035
G1 X153.484 Y134.908 E1.98002
G1 X153.724 Y134.942 E1.99758
G1 X154.787 Y135.141 E2.07592
G1 X155.014 Y135.194 E2.09281
G1 X155.927 Y135.445 E2.1614
G1 X156.151 Y135.516 E2.17842
G1 X156.961 Y135.804 E2.2407
G1 X157.178 Y135.89 E2.25761
G1 X158.06 Y136.28 E2.32747
G1 X158.28 Y136.388 E2.34522
G1 X159.181 Y136.879 E2.41955
G1 X159.371 Y136.993 E2.4356
G1 X160.036 Y137.422 E2.49293
G1 X160.221 Y137.55 E2.50923
G1 X161.125 Y138.24 E2.59161
G1 X161.312 Y138.397 E2.6093
G1 X161.903 Y138.927 E2.66681
G1 X162.066 Y139.083 E2.68315
G1 X162.753 Y139.795 E2.75482
G1 X162.912 Y139.974 E2.77217
G1 X163.545 Y140.749 E2.84465
G1 X163.687 Y140.938 E2.86178
G1 X164.23 Y141.723 E2.93092
G1 X164.359 Y141.926 E2.94835
G1 X164.74 Y142.568 E3.00243
G1 X164.85 Y142.767 E3.0189
G1 X165.343 Y143.764 E3.09947
G1 X165.437 Y143.978 E3.1164
G1 X165.785 Y144.861 E3.18515
G1 X165.865 Y145.09 E3.20273
G1 X166.136 Y145.971 E3.2695
G1 X166.192 Y146.181 E3.28524
G1 X166.402 Y147.113 E3.35445
G1 X166.447 Y147.357 E3.37242
G1 X166.582 Y148.298 E3.44129
G1 X166.606 Y148.527 E3.45797
G1 X166.667 Y149.417 E3.52259
G1 X166.674 Y149.64 E3.53875
G1 X166.666 Y150.611 E3.60909
G1 X166.654 Y150.86 E3.62715
G1 X166.567 Y151.842 E3.69857
G1 X166.539 Y152.058 E3.71435
G1 X166.387 Y152.959 E3.78054
G1 X166.337 Y153.201 E3.79844
G1 X166.106 Y154.133 E3.868
G1 X166.041 Y154.357 E3.88489
G1 X165.754 Y155.223 E3.95098
G1 X165.676 Y155.432 E3.96714
G1 X165.323 Y156.28 E4.03368
G1 X165.221 Y156.501 E4.05131
G1 X164.746 Y157.424 E4.12651
G1 X164.635 Y157.619 E4.14276
G1 X164.145 Y158.409 E4.21011
G1 X164.008 Y158.612 E4.22785
G1 X163.443 Y159.383 E4.29709
G1 X163.303 Y159.559 E4.31338
G1 X162.742 Y160.215 E4.37591
G1 X162.574 Y160.398 E4.39391
G1 X161.84 Y161.132 E4.4691
G1 X161.68 Y161.279 E4.48484
G1 X161.028 Y161.837 E4.54701
G1 X160.836 Y161.99 E4.56479
G1 X160.036 Y162.576 E4.63663
G1 X159.844 Y162.705 E4.65339
G1 X159.087 Y163.175 E4.71793
G1 X158.889 Y163.288 E4.73445
G1 X157.931 Y163.779 E4.81243
G1 X157.711 Y163.88 E4.82997
G1 X156.91 Y164.214 E4.89283
G1 X156.697 Y164.294 E4.90932
G1 X155.827 Y164.584 E4.97575
G1 X155.601 Y164.65 E4.9928
G1 X154.563 Y164.905 E5.07023
G1 X154.327 Y164.952 E5.08766
G1 X153.584 Y165.076 E5.14223
G1 X153.363 Y165.106 E5.15839
G1 X152.323 Y165.202 E5.23405
G1 X152.08 Y165.214 E5.25167
G1 X151.155 Y165.225 E5.31868
G1 X150.928 Y165.219 E5.33513
G1 X149.948 Y165.153 E5.40629
G1 X149.715 Y165.128 E5.42326
G1 X148.887 Y165.011 E5.48384
G1 X148.65 Y164.969 E5.50127
G1 X147.527 Y164.714 E5.5847
G1 X147.31 Y164.654 E5.601
G1 X146.535 Y164.412 E5.65982
G1 X146.309 Y164.333 E5.67716
G1 X145.403 Y163.975 E5.74773
G1 X145.188 Y163.88 E5.76476
G1 X144.284 Y163.435 E5.83775
G1 X144.028 Y163.293 E5.85896
G1 X143.562 Y163.236 E5.89297
G1 X142.594 Y163.038 E5.96454
G1 X141.645 Y162.761 E6.03615
G1 X140.722 Y162.409 E6.10771
G1 X139.83 Y161.984 E6.17929
G1 X138.976 Y161.488 E6.25083
G1 X138.164 Y160.924 E6.32245
G1 X137.401 Y160.296 E6.39404
G1 X136.691 Y159.609 E6.46561
G1 X136.038 Y158.867 E6.53721
G1 X135.448 Y158.074 E6.60881
G1 X134.925 Y157.236 E6.68037
G1 X134.47 Y156.359 E6.75194
G1 X134.088 Y155.448 E6.8235
G1 X133.781 Y154.509 E6.89506
G1 X133.551 Y153.548 E6.96664
G1 X133.399 Y152.571 E7.03827
G1 X133.32 Y151.186 E7.13876
G1 X133.32 Y149.709 E7.24576
G0 F1620 X133.32 Y148.346
G0 F6000 X133.98 Y148.346
G1 F1800 X134.02 Y147.386 E7.31536
G1 X134.14 Y146.432 E7.38501
G1 X134.338 Y145.492 E7.4546
G1 X134.614 Y144.571 E7.52425
G1 X134.966 Y143.677 E7.59385
G1 X135.391 Y142.815 E7.66347
G1 X135.885 Y141.991 E7.73307
G1 X136.447 Y141.211 E7.80271
G1 X137.072 Y140.481 E7.87233
G1 X137.755 Y139.805 E7.94194
G1 X138.492 Y139.188 E8.01157
G1 X139.278 Y138.635 E8.08119
G1 X140.107 Y138.149 E8.1508
G1 X140.973 Y137.733 E8.2204
G1 X141.871 Y137.391 E8.29001
G1 X142.795 Y137.125 E8.35966
G1 X143.737 Y136.936 E8.42926
G1 X144.692 Y136.826 E8.4989
G1 X145.288 Y136.804 E8.5421
G1 X145.869 Y136.542 E8.58827
G1 X146.885 Y136.165 E8.66677
G1 X147.114 Y136.092 E8.68418
G1 X147.821 Y135.891 E8.73743
G1 X148.049 Y135.834 E8.75445
G1 X149.098 Y135.623 E8.83197
G1 X149.326 Y135.588 E8.84868
G1 X150.037 Y135.501 E8.90057
G1 X150.269 Y135.48 E8.91744
G1 X151.215 Y135.433 E8.98605
G1 X151.458 Y135.431 E9.00366
G1 X152.398 Y135.462 E9.07179
G1 X152.616 Y135.478 E9.08762
G1 X153.391 Y135.561 E9.14409
G1 X153.631 Y135.595 E9.16165
G1 X154.637 Y135.783 E9.23578
G1 X154.864 Y135.836 E9.25267
G1 X155.728 Y136.074 E9.31759
G1 X155.952 Y136.145 E9.33461
G1 X156.717 Y136.417 E9.39343
G1 X156.934 Y136.503 E9.41034
G1 X157.769 Y136.873 E9.4765
G1 X157.989 Y136.981 E9.49425
G1 X158.841 Y137.445 E9.56453
G1 X159.031 Y137.559 E9.58058
G1 X159.661 Y137.965 E9.63487
G1 X159.846 Y138.093 E9.65117
G1 X160.701 Y138.745 E9.72906
G1 X160.888 Y138.902 E9.74675
G1 X161.447 Y139.404 E9.80117
G1 X161.61 Y139.56 E9.81752
G1 X162.259 Y140.234 E9.8853
G1 X162.418 Y140.413 E9.90264
G1 X163.017 Y141.145 E9.97116
G1 X163.159 Y141.334 E9.98828
G1 X163.673 Y142.077 E10.05373
G1 X163.802 Y142.28 E10.07116
G1 X164.162 Y142.887 E10.12228
G1 X164.272 Y143.086 E10.13875
G1 X164.739 Y144.029 E10.21498
G1 X164.833 Y144.243 E10.23191
G1 X165.162 Y145.079 E10.29699
G1 X165.242 Y145.308 E10.31456
G1 X165.498 Y146.141 E10.37769
G1 X165.554 Y146.351 E10.39344
G1 X165.752 Y147.232 E10.45885
G1 X165.797 Y147.476 E10.47682
G1 X165.926 Y148.367 E10.54204
G1 X165.95 Y148.596 E10.55872
G1 X166.007 Y149.438 E10.61985
G1 X166.014 Y149.661 E10.63602
G1 X166.007 Y150.579 E10.70252
G1 X165.995 Y150.828 E10.72058
G1 X165.912 Y151.757 E10.78814
G1 X165.884 Y151.973 E10.80392
G1 X165.741 Y152.825 E10.8665
G1 X165.691 Y153.067 E10.8844
G1 X165.472 Y153.949 E10.95024
G1 X165.407 Y154.173 E10.96713
G1 X165.136 Y154.992 E11.02963
G1 X165.058 Y155.201 E11.04579
G1 X164.724 Y156.003 E11.10872
G1 X164.622 Y156.224 E11.12635
G1 X164.173 Y157.098 E11.19753
G1 X164.062 Y157.293 E11.21379
G1 X163.598 Y158.04 E11.27749
G1 X163.461 Y158.243 E11.29523
G1 X162.926 Y158.972 E11.36073
G1 X162.786 Y159.148 E11.37702
G1 X162.255 Y159.769 E11.43621
G1 X162.087 Y159.952 E11.45421
G1 X161.393 Y160.646 E11.52531
G1 X161.233 Y160.793 E11.54105
G1 X160.617 Y161.321 E11.59982
G1 X160.425 Y161.474 E11.6176
G1 X159.668 Y162.028 E11.68556
G1 X159.476 Y162.157 E11.70231
G1 X158.76 Y162.601 E11.76334
G1 X158.562 Y162.714 E11.77986
G1 X157.656 Y163.18 E11.85366
G1 X157.436 Y163.281 E11.8712
G1 X156.678 Y163.597 E11.93069
G1 X156.465 Y163.677 E11.94717
G1 X155.642 Y163.951 E12.01001
G1 X155.416 Y164.017 E12.02706
G1 X154.434 Y164.258 E12.10031
G1 X154.198 Y164.305 E12.11774
G1 X153.496 Y164.422 E12.1693
G1 X153.275 Y164.452 E12.18545
G1 X152.291 Y164.543 E12.25704
G1 X152.048 Y164.555 E12.27466
G1 X151.173 Y164.565 E12.33805
G1 X150.946 Y164.559 E12.3545
G1 X150.019 Y164.497 E12.42181
G1 X149.786 Y164.472 E12.43878
G1 X149.003 Y164.361 E12.49607
G1 X148.766 Y164.319 E12.51351
G1 X147.703 Y164.078 E12.59246
G1 X147.486 Y164.018 E12.60877
G1 X146.753 Y163.789 E12.6644
G1 X146.527 Y163.71 E12.68175
G1 X145.67 Y163.372 E12.74848
G1 X145.455 Y163.277 E12.76551
G1 X144.599 Y162.856 E12.83461
G1 X144.244 Y162.655 E12.86416
G1 X143.616 Y162.576 E12.91002
G1 X142.676 Y162.378 E12.9796
G1 X141.755 Y162.102 E13.04925
G1 X140.861 Y161.75 E13.11885
G1 X139.999 Y161.325 E13.18848
G1 X139.175 Y160.831 E13.25807
G1 X138.395 Y160.269 E13.32771
G1 X137.665 Y159.644 E13.39733
G1 X136.989 Y158.961 E13.46694
G1 X136.372 Y158.224 E13.53657
G1 X135.819 Y157.438 E13.60619
G1 X135.333 Y156.609 E13.6758
G1 X134.917 Y155.743 E13.7454
G1 X134.575 Y154.845 E13.81501
G1 X134.309 Y153.921 E13.88466
G1 X134.12 Y152.979 E13.95426
G1 X134.01 Y152.024 E14.0239
G1 X133.98 Y151.186 E14.08464
G1 X133.98 Y149.709 E14.19164
G0 F1620 X133.98 Y148.346
G0 F6000 X134.64 Y148.346
G1 F1800 X134.68 Y147.414 E14.25921
G1 X134.8 Y146.488 E14.32685
G1 X134.998 Y145.576 E14.39446
G1 X135.274 Y144.685 E14.46203
G1 X135.625 Y143.82 E14.52965
G1 X136.049 Y142.989 E14.59723
G1 X136.542 Y142.197 E14.66481
G1 X137.102 Y141.45 E14.73245
G1 X137.723 Y140.754 E14.80002
G1 X138.402 Y140.113 E14.86766
G1 X139.133 Y139.533 E14.93526
G1 X139.911 Y139.018 E15.00284
G1 X140.73 Y138.571 E15.07043
G1 X141.584 Y138.196 E15.138
G1 X142.468 Y137.895 E15.20565
G1 X143.374 Y137.672 E15.27324
G1 X144.295 Y137.526 E15.34079
G1 X145.441 Y137.46 E15.42394
G1 X146.127 Y137.149 E15.47851
G1 X147.086 Y136.793 E15.55261
G1 X147.315 Y136.72 E15.57002
G1 X147.981 Y136.531 E15.62017
G1 X148.209 Y136.474 E15.63719
G1 X149.198 Y136.275 E15.71027
G1 X149.426 Y136.24 E15.72698
G1 X150.096 Y136.158 E15.77588
G1 X150.328 Y136.137 E15.79276
G1 X151.22 Y136.093 E15.85745
G1 X151.463 Y136.091 E15.87506
G1 X152.35 Y136.12 E15.93934
G1 X152.568 Y136.136 E15.95518
G1 X153.298 Y136.215 E16.00837
G1 X153.538 Y136.249 E16.02593
G1 X154.487 Y136.426 E16.09586
G1 X154.714 Y136.479 E16.11275
G1 X155.528 Y136.703 E16.17391
G1 X155.752 Y136.774 E16.19093
G1 X156.474 Y137.031 E16.24644
G1 X156.691 Y137.117 E16.26335
G1 X157.478 Y137.465 E16.32569
G1 X157.698 Y137.573 E16.34344
G1 X158.502 Y138.011 E16.40977
G1 X158.692 Y138.125 E16.42582
G1 X159.285 Y138.508 E16.47696
G1 X159.47 Y138.636 E16.49325
G1 X160.276 Y139.251 E16.5667
G1 X160.463 Y139.408 E16.58438
G1 X160.991 Y139.881 E16.63573
G1 X161.154 Y140.037 E16.65208
G1 X161.766 Y140.672 E16.71597
G1 X161.925 Y140.851 E16.73331
G1 X162.489 Y141.542 E16.79792
G1 X162.631 Y141.731 E16.81505
G1 X163.116 Y142.431 E16.87674
G1 X163.245 Y142.634 E16.89416
G1 X163.585 Y143.207 E16.94243
G1 X163.695 Y143.406 E16.9589
G1 X164.135 Y144.294 E17.03069
G1 X164.229 Y144.508 E17.04762
G1 X164.539 Y145.296 E17.10896
G1 X164.619 Y145.525 E17.12653
G1 X164.86 Y146.311 E17.18609
G1 X164.916 Y146.521 E17.20183
G1 X165.103 Y147.352 E17.26354
G1 X165.148 Y147.596 E17.28151
G1 X165.27 Y148.436 E17.343
G1 X165.294 Y148.665 E17.35968
G1 X165.348 Y149.458 E17.41726
G1 X165.355 Y149.681 E17.43342
G1 X165.347 Y150.547 E17.49616
G1 X165.335 Y150.796 E17.51421
G1 X165.258 Y151.672 E17.57792
G1 X165.23 Y151.888 E17.5937
G1 X165.095 Y152.691 E17.65268
G1 X165.045 Y152.933 E17.67058
G1 X164.839 Y153.765 E17.73267
G1 X164.774 Y153.989 E17.74957
G1 X164.518 Y154.762 E17.80856
G1 X164.44 Y154.971 E17.82472
G1 X164.125 Y155.727 E17.88405
G1 X164.023 Y155.948 E17.90168
G1 X163.599 Y156.771 E17.96874
G1 X163.488 Y156.966 E17.985
G1 X163.051 Y157.671 E18.04508
G1 X162.914 Y157.874 E18.06282
G1 X162.41 Y158.561 E18.12455
G1 X162.27 Y158.737 E18.14084
G1 X161.769 Y159.323 E18.19669
G1 X161.601 Y159.506 E18.21468
G1 X160.947 Y160.16 E18.28168
G1 X160.787 Y160.307 E18.29742
G1 X160.206 Y160.805 E18.35286
G1 X160.014 Y160.958 E18.37064
G1 X159.3 Y161.48 E18.43471
G1 X159.108 Y161.609 E18.45147
G1 X158.433 Y162.028 E18.50902
G1 X158.235 Y162.141 E18.52554
G1 X157.381 Y162.58 E18.59509
G1 X157.161 Y162.681 E18.61263
G1 X156.446 Y162.979 E18.66874
G1 X156.233 Y163.059 E18.68523
G1 X155.457 Y163.317 E18.74447
G1 X155.231 Y163.383 E18.76152
G1 X154.305 Y163.61 E18.83059
G1 X154.069 Y163.657 E18.84802
G1 X153.407 Y163.768 E18.89664
G1 X153.186 Y163.798 E18.9128
G1 X152.258 Y163.884 E18.98031
G1 X152.015 Y163.896 E18.99794
G1 X151.19 Y163.905 E19.0577
G1 X150.963 Y163.899 E19.07415
G1 X150.089 Y163.841 E19.13761
G1 X149.856 Y163.816 E19.15458
G1 X149.118 Y163.711 E19.20858
G1 X148.881 Y163.669 E19.22602
G1 X147.879 Y163.442 E19.30044
G1 X147.662 Y163.382 E19.31675
G1 X146.971 Y163.166 E19.3692
G1 X146.745 Y163.087 E19.38654
G1 X145.937 Y162.768 E19.44947
G1 X145.722 Y162.673 E19.4665
G1 X144.915 Y162.276 E19.53165
G1 X144.465 Y162.019 E19.56919
G1 X143.672 Y161.916 E19.62711
G1 X142.76 Y161.718 E19.69472
G1 X141.869 Y161.442 E19.76229
G1 X141.004 Y161.091 E19.82991
G1 X140.173 Y160.667 E19.89749
G1 X139.381 Y160.174 E19.96507
G1 X138.634 Y159.614 E20.0327
G1 X137.938 Y158.993 E20.10028
G1 X137.297 Y158.314 E20.16792
G1 X136.717 Y157.583 E20.23552
G1 X136.202 Y156.805 E20.3031
G1 X135.755 Y155.986 E20.37069
G1 X135.38 Y155.132 E20.43826
G1 X135.079 Y154.248 E20.50591
G1 X134.856 Y153.342 E20.5735
G1 X134.71 Y152.421 E20.64105
G1 X134.64 Y151.186 E20.73066
G1 X134.64 Y149.709 E20.83765
G0 F1620 X134.64 Y148.346
G0 F6000 X135.3 Y148.346
G1 F1800 X135.34 Y147.442 E20.9032
G1 X135.46 Y146.546 E20.96869
G1 X135.658 Y145.664 E21.03417
G1 X135.933 Y144.802 E21.09971
G1 X136.284 Y143.968 E21.16526
G1 X136.707 Y143.169 E21.23075
G1 X137.199 Y142.41 E21.29628
G1 X137.755 Y141.697 E21.36177
G1 X138.373 Y141.036 E21.42733
G1 X139.047 Y140.433 E21.49284
G1 X139.771 Y139.891 E21.55835
G1 X140.54 Y139.415 E21.62387
G1 X141.348 Y139.01 E21.68934
G1 X142.189 Y138.677 E21.75487
G1 X143.056 Y138.42 E21.82037
G1 X143.943 Y138.24 E21.88594
G1 X144.842 Y138.139 E21.95147
G1 X145.595 Y138.116 E22.00605
G1 X146.184 Y137.843 E22.05307
G1 X146.386 Y137.757 E22.06898
G1 X147.286 Y137.422 E22.13854
G1 X147.515 Y137.349 E22.15596
G1 X148.141 Y137.171 E22.2031
G1 X148.369 Y137.114 E22.22013
G1 X149.298 Y136.927 E22.28877
G1 X149.526 Y136.892 E22.30548
G1 X150.388 Y136.795 E22.36832
G1 X151.226 Y136.753 E22.4291
G1 X151.469 Y136.751 E22.44671
G1 X152.302 Y136.778 E22.50708
G1 X152.52 Y136.794 E22.52292
G1 X153.206 Y136.868 E22.5729
G1 X153.446 Y136.902 E22.59046
G1 X154.337 Y137.069 E22.65613
G1 X154.564 Y137.122 E22.67301
G1 X155.329 Y137.332 E22.73048
G1 X155.553 Y137.403 E22.7475
G1 X156.231 Y137.645 E22.79965
G1 X156.448 Y137.731 E22.81656
G1 X157.187 Y138.058 E22.8751
G1 X157.407 Y138.166 E22.89285
G1 X158.162 Y138.577 E22.95513
G1 X158.352 Y138.691 E22.97118
G1 X158.91 Y139.05 E23.01924
G1 X159.095 Y139.178 E23.03554
G1 X159.852 Y139.756 E23.10453
G1 X160.039 Y139.913 E23.12222
G1 X160.534 Y140.357 E23.17039
G1 X160.697 Y140.513 E23.18673
G1 X161.272 Y141.11 E23.24678
G1 X161.431 Y141.289 E23.26412
G1 X161.962 Y141.938 E23.32487
G1 X162.104 Y142.127 E23.34199
G1 X162.559 Y142.785 E23.39994
G1 X162.688 Y142.988 E23.41737
G1 X163.117 Y143.725 E23.47914
G1 X163.53 Y144.56 E23.54662
G1 X163.624 Y144.774 E23.56356
G1 X163.916 Y145.514 E23.62118
G1 X163.996 Y145.743 E23.63876
G1 X164.223 Y146.481 E23.69469
G1 X164.279 Y146.691 E23.71043
G1 X164.454 Y147.472 E23.76841
