(Project yz-bowflex-adaptor-12.5mm)
(Created by Estlcam version 11 build 11.245)
(Machining time about 00:07:24 hours)

(Required tools:)
(1/8")
G21
G90
G94
M03 S10000
G00 X0.0000 Y0.0000 Z0.0000
G00 Z8.0000


(No. 1: Drill 1)
G00
G00 Z0.5000
G01 Z-6.0000 F120 S10000
G00 Z0.5000
G00 Z-5.5000
G01 Z-12.0000
G00 Z0.5000
G00 Z-11.5000
G01 Z-12.5000
G00 Z8.0000


(No. 2: Part 2)
G00 X86.4349 Y108.4982 Z8.0000
G00 Z0.5000
G01 Z0.0000 F120
G01 X89.0109 Y106.1821 Z-3.0000
G01 X86.4349 Y108.4982 Z-6.0000
G01 X194.2835 Y11.5335 F1200
G03 X196.9365 Y12.7159 I1.0631 J1.1824
G01 X196.8485 Y138.9002
G01 X155.4215 Y260.5911
G03 X153.9131 Y261.6782 I-1.5084 J-0.5030
G01 X128.9131
G03 X127.3231 Y260.0882 I0.0000 J-1.5900
G01 Y211.6782
G01 X70.5031
G01 Y260.0882
G03 X68.9131 Y261.6782 I-1.5900 J0.0000
G01 X43.9131
G03 X42.3231 Y260.0882 I0.0000 J-1.5900
G01 Y210.3514
G01 X8.3651 Y110.6006
G03 X9.8703 Y108.4982 I1.5052 J-0.5124
G01 X86.4349
G01 X89.0109 Y106.1821 Z-9.0000 F120
G01 X86.4349 Y108.4982 Z-12.0000
G01 X194.2835 Y11.5335 F1200
G03 X196.9365 Y12.7159 I1.0631 J1.1824
G01 X196.8485 Y138.9002
G01 X155.4215 Y260.5911
G03 X153.9131 Y261.6782 I-1.5084 J-0.5030
G01 X128.9131
G03 X127.3231 Y260.0882 I0.0000 J-1.5900
G01 Y211.6782
G01 X70.5031
G01 Y260.0882
G03 X68.9131 Y261.6782 I-1.5900 J0.0000
G01 X43.9131
G03 X42.3231 Y260.0882 I0.0000 J-1.5900
G01 Y210.3514
G01 X8.3651 Y110.6006
G03 X9.8703 Y108.4982 I1.5052 J-0.5124
G01 X86.4349
G01 X86.6495 Y108.3052 Z-12.2500 F120
G01 X86.4349 Y108.4982 Z-12.5000
G01 X194.2835 Y11.5335 F1200
G03 X196.9365 Y12.7159 I1.0631 J1.1824
G01 X196.8485 Y138.9002
G01 X155.4215 Y260.5911
G03 X153.9131 Y261.6782 I-1.5084 J-0.5030
G01 X128.9131
G03 X127.3231 Y260.0882 I0.0000 J-1.5900
G01 Y211.6782
G01 X70.5031
G01 Y260.0882
G03 X68.9131 Y261.6782 I-1.5900 J0.0000
G01 X43.9131
G03 X42.3231 Y260.0882 I0.0000 J-1.5900
G01 Y210.3514
G01 X8.3651 Y110.6006
G03 X9.8703 Y108.4982 I1.5052 J-0.5124
G01 X86.4349
G00 Z8.0000
G00 X0.0000 Y0.0000

M05
M30
