(Project yz-bowflex-adaptor-6.5mm)
(Created by Estlcam version 11 build 11.245)
(Machining time about 00:02:34 hours)

(Required tools:)
(1/8")
G21
G90
G94
M03 S10000
G00 X0.0000 Y0.0000 Z0.0000
G00 Z8.0000


(No. 1: Drill 1)
G00
G00 Z0.5000
G01 Z-6.0000 F120 S10000
G00 Z0.5000
G00 Z-5.5000
G01 Z-6.5000
G00 Z8.0000


(No. 2: Hole 2)
G00 X55.8523 Y134.0735 Z8.0000
G00 Z0.5000
G01 Z0.0000 F120
G02 X55.8147 Y136.0812 Z-2.1029 I0.5608 J1.0147
G02 X56.8120 Y136.1768 Z-3.0000 I0.5984 J-0.9930
G03 X55.8147 Y136.0812 Z-3.8971 I-0.3989 J-1.0886
G03 X55.8523 Y134.0735 Z-6.0000 I0.5984 J-0.9930
G02 X55.8147 Y136.0812 I0.5608 J1.0147 F1200
G02 X57.5723 Y135.1099 I0.5984 J-0.9930
G02 X55.8523 Y134.0735 I-1.1592 J-0.0217
G02 X55.6195 Y134.2430 Z-6.2500 I0.5608 J1.0147 F120
G03 X55.8523 Y134.0735 Z-6.5000 I0.7936 J0.8452
G02 X55.8147 Y136.0812 I0.5608 J1.0147 F1200
G02 X57.5723 Y135.1099 I0.5984 J-0.9930
G02 X55.8523 Y134.0735 I-1.1592 J-0.0217
G00 Z8.0000


(No. 3: Hole 1)
G00 X55.9694 Y184.0171 Z8.0000
G00 Z0.5000
G01 Z0.0000 F120
G02 X55.7073 Y186.0080 Z-2.1029 I0.4437 J1.0711
G02 X56.6876 Y186.2146 Z-3.0000 I0.7058 J-0.9198
G03 X55.7073 Y186.0080 Z-3.8971 I-0.2745 J-1.1264
G03 X55.9694 Y184.0171 Z-6.0000 I0.7058 J-0.9198
G02 X55.7073 Y186.0080 I0.4437 J1.0711 F1200
G02 X57.5626 Y185.2395 I0.7058 J-0.9198
G02 X55.9694 Y184.0171 I-1.1495 J-0.1513
G02 X55.7192 Y184.1594 Z-6.2500 I0.4437 J1.0711 F120
G03 X55.9694 Y184.0171 Z-6.5000 I0.6939 J0.9288
G02 X55.7073 Y186.0080 I0.4437 J1.0711 F1200
G02 X57.5626 Y185.2395 I0.7058 J-0.9198
G02 X55.9694 Y184.0171 I-1.1495 J-0.1513
G00 Z8.0000


(No. 4: Hole 4)
G00 X140.6902 Y184.1818 Z8.0000
G00 Z0.5000
G01 Z0.0000 F120
G02 X140.9895 Y186.1674 Z-2.1029 I0.7229 J0.9064
G02 X141.9887 Y186.0946 Z-3.0000 I0.4236 J-1.0792
G03 X140.9895 Y186.1674 Z-3.8971 I-0.5756 J-1.0064
G03 X140.6902 Y184.1818 Z-6.0000 I0.4236 J-1.0792
G02 X140.9895 Y186.1674 I0.7229 J0.9064 F1200
G02 X142.5595 Y184.9154 I0.4236 J-1.0792
G02 X140.6902 Y184.1818 I-1.1464 J0.1728
G02 X140.4892 Y184.3878 Z-6.2500 I0.7229 J0.9064 F120
G03 X140.6902 Y184.1818 Z-6.5000 I0.9239 J0.7004
G02 X140.9895 Y186.1674 I0.7229 J0.9064 F1200
G02 X142.5595 Y184.9154 I0.4236 J-1.0792
G02 X140.6902 Y184.1818 I-1.1464 J0.1728
G00 Z8.0000


(No. 5: Hole 3)
G00 X140.4676 Y85.5355 Z8.0000
G00 Z0.5000
G01 Z0.0000 F120
G02 X141.3049 Y87.3608 Z-2.1029 I0.9455 J0.6709
G02 X142.2448 Y87.0142 Z-3.0000 I0.1082 J-1.1543
G03 X141.3049 Y87.3608 Z-3.8971 I-0.8317 J-0.8077
G03 X140.4676 Y85.5355 Z-6.0000 I0.1082 J-1.1543
G02 X141.3049 Y87.3608 I0.9455 J0.6709 F1200
G02 X142.4669 Y85.7230 I0.1082 J-1.1543
G02 X140.4676 Y85.5355 I-1.0538 J0.4834
G02 X140.3314 Y85.7892 Z-6.2500 I0.9455 J0.6709 F120
G03 X140.4676 Y85.5355 Z-6.5000 I1.0817 J0.4172
G02 X141.3049 Y87.3608 I0.9455 J0.6709 F1200
G02 X142.4669 Y85.7230 I0.1082 J-1.1543
G02 X140.4676 Y85.5355 I-1.0538 J0.4834
G00 Z8.0000


(No. 6: Hole 5)
G00 X145.5920 Y43.1954 Z8.0000
G00 Z0.5000
G01 Z0.0000 F120
G02 X146.6360 Y44.5977 Z-1.8307 I0.9268 J0.3998
G02 X147.5212 Y43.7128 Z-3.0000 I-0.1172 J-1.0025
G03 X146.6360 Y44.5977 Z-4.1693 I-1.0025 J-0.1176
G03 X145.5920 Y43.1954 Z-6.0000 I-0.1172 J-1.0025
G02 X146.6360 Y44.5977 I0.9268 J0.3998 F1200
G02 X147.3284 Y42.9925 I-0.1172 J-1.0025
G02 X145.5920 Y43.1954 I-0.8096 J0.6027
G02 X145.5169 Y43.4731 Z-6.2500 I0.9268 J0.3998 F120
G03 X145.5920 Y43.1954 Z-6.5000 I1.0019 J0.1221
G02 X146.6360 Y44.5977 I0.9268 J0.3998 F1200
G02 X147.3284 Y42.9925 I-0.1172 J-1.0025
G02 X145.5920 Y43.1954 I-0.8096 J0.6027
G00 Z8.0000


(No. 7: Hole 6)
G00 X154.7248 Y7.4129 Z8.0000
G00 Z0.5000
G01 Z0.0000 F120
G02 X156.0640 Y8.5367 Z-1.8307 I0.9940 J0.1753
G02 X156.7213 Y7.4714 Z-3.0000 I-0.3452 J-0.9485
G03 X156.0640 Y8.5367 Z-4.1693 I-1.0025 J0.1168
G03 X154.7248 Y7.4129 Z-6.0000 I-0.3452 J-0.9485
G02 X156.0640 Y8.5367 I0.9940 J0.1753 F1200
G02 X156.3676 Y6.8150 I-0.3452 J-0.9485
G02 X154.7248 Y7.4129 I-0.6488 J0.7732
G02 X154.7157 Y7.7005 Z-6.2500 I0.9940 J0.1753 F120
G03 X154.7248 Y7.4129 Z-6.5000 I1.0031 J-0.1123
G02 X156.0640 Y8.5367 I0.9940 J0.1753 F1200
G02 X156.3676 Y6.8150 I-0.3452 J-0.9485
G02 X154.7248 Y7.4129 I-0.6488 J0.7732
G00 Z8.0000
G00 X0.0000 Y0.0000

M05
M30
