(Project lr4_strut_plate_cut)
(Created with Estlcam 12.102)
(Machining time about 00:43:23 hours)

(Required tools:)
(1/8" Upcut Slow)
(1/8" Upcut Soft wood)

G21
G90
G94
M03 S10000
G00 Z10.0000 F480

(No. 1 Helical drill machining: Helical drill 1)
G00 X21.5058 Y11.4762 Z10.0000 F2100
G00 Z0.5000 F480
G02 X19.9158 Y10.5582 Z-0.1667 I-1.0600 J0.0000 F90 S10000
G02 Y12.3942 Z-0.8333 I0.5300 J0.9180 F90
G02 X21.5058 Y11.4762 Z-1.5000 I0.5300 J-0.9180 F90
G02 X19.9158 Y10.5582 Z-2.1667 I-1.0600 J0.0000 F90
G02 Y12.3942 Z-2.8333 I0.5300 J0.9180 F90
G02 X21.5058 Y11.4762 Z-3.5000 I0.5300 J-0.9180 F90
G02 X19.9158 Y10.5582 Z-4.1667 I-1.0600 J0.0000 F90
G02 Y12.3942 Z-4.8333 I0.5300 J0.9180 F90
G02 X21.5058 Y11.4762 Z-5.5000 I0.5300 J-0.9180 F90
G02 X20.4458 Y10.4162 Z-6.0000 I-1.0600 J0.0000 F90
G02 X19.3858 Y11.4762 Z-6.5000 I0.0000 J1.0600 F90
G02 X20.9758 Y12.3942 I1.0600 J0.0000 F90
G02 Y10.5582 I-0.5300 J-0.9180 F90
G02 X19.3858 Y11.4762 I-0.5300 J0.9180 F90
G02 X19.9158 Y12.0062 Z-6.3675 I0.5300 J0.0000 F600
G00 Z10.0000 F480

(No. 2 Helical drill machining: Helical drill 2)
G00 X77.5059 Y11.4762 Z10.0000 F2100
G00 Z0.5000 F480
G02 X75.9159 Y10.5583 Z-0.1667 I-1.0600 J0.0000 F90
G02 Y12.3942 Z-0.8333 I0.5300 J0.9180 F90
G02 X77.5059 Y11.4762 Z-1.5000 I0.5300 J-0.9180 F90
G02 X75.9159 Y10.5583 Z-2.1667 I-1.0600 J0.0000 F90
G02 Y12.3942 Z-2.8333 I0.5300 J0.9180 F90
G02 X77.5059 Y11.4762 Z-3.5000 I0.5300 J-0.9180 F90
G02 X75.9159 Y10.5583 Z-4.1667 I-1.0600 J0.0000 F90
G02 Y12.3942 Z-4.8333 I0.5300 J0.9180 F90
G02 X77.5059 Y11.4762 Z-5.5000 I0.5300 J-0.9180 F90
G02 X76.4459 Y10.4163 Z-6.0000 I-1.0600 J0.0000 F90
G02 X75.3859 Y11.4762 Z-6.5000 I0.0000 J1.0600 F90
G02 X76.9759 Y12.3942 I1.0600 J0.0000 F90
G02 Y10.5583 I-0.5300 J-0.9180 F90
G02 X75.3859 Y11.4762 I-0.5300 J0.9180 F90
G02 X75.9159 Y12.0062 Z-6.3675 I0.5300 J0.0000 F600
G00 Z10.0000 F480

(No. 3 Helical drill machining: Helical drill 4)
G00 X77.5058 Y173.5063 Z10.0000 F2100
G00 Z0.5000 F480
G02 X75.9158 Y172.5883 Z-0.1667 I-1.0600 J0.0000 F90
G02 Y174.4242 Z-0.8333 I0.5300 J0.9180 F90
G02 X77.5058 Y173.5063 Z-1.5000 I0.5300 J-0.9180 F90
G02 X75.9158 Y172.5883 Z-2.1667 I-1.0600 J0.0000 F90
G02 Y174.4242 Z-2.8333 I0.5300 J0.9180 F90
G02 X77.5058 Y173.5063 Z-3.5000 I0.5300 J-0.9180 F90
G02 X75.9158 Y172.5883 Z-4.1667 I-1.0600 J0.0000 F90
G02 Y174.4242 Z-4.8333 I0.5300 J0.9180 F90
G02 X77.5058 Y173.5063 Z-5.5000 I0.5300 J-0.9180 F90
G02 X76.4458 Y172.4462 Z-6.0000 I-1.0600 J0.0000 F90
G02 X75.3858 Y173.5063 Z-6.5000 I0.0000 J1.0600 F90
G02 X76.9758 Y174.4242 I1.0600 J0.0000 F90
G02 Y172.5883 I-0.5300 J-0.9180 F90
G02 X75.3858 Y173.5063 I-0.5300 J0.9180 F90
G02 X75.9158 Y174.0363 Z-6.3675 I0.5300 J0.0000 F600
G00 Z10.0000 F480

(No. 4 Helical drill machining: Helical drill 3)
G00 X21.5056 Y173.5061 Z10.0000 F2100
G00 Z0.5000 F480
G02 X19.9158 Y172.5882 Z-0.1667 I-1.0599 J0.0000 F90
G02 Y174.4240 Z-0.8333 I0.5299 J0.9179 F90
G02 X21.5056 Y173.5061 Z-1.5000 I0.5299 J-0.9179 F90
G02 X19.9158 Y172.5882 Z-2.1667 I-1.0599 J0.0000 F90
G02 Y174.4240 Z-2.8333 I0.5299 J0.9179 F90
G02 X21.5056 Y173.5061 Z-3.5000 I0.5299 J-0.9179 F90
G02 X19.9158 Y172.5882 Z-4.1667 I-1.0599 J0.0000 F90
G02 Y174.4240 Z-4.8333 I0.5299 J0.9179 F90
G02 X21.5056 Y173.5061 Z-5.5000 I0.5299 J-0.9179 F90
G02 X20.4457 Y172.4462 Z-6.0000 I-1.0599 J0.0000 F90
G02 X19.3859 Y173.5061 Z-6.5000 I0.0000 J1.0599 F90
G02 X20.9757 Y174.4240 I1.0599 J0.0000 F90
G02 Y172.5882 I-0.5299 J-0.9179 F90
G02 X19.3859 Y173.5061 I-0.5299 J0.9179 F90
G02 X19.9158 Y174.0360 Z-6.3675 I0.5299 J0.0000 F600
G00 Z10.0000 F480

(No. 5 Helical drill machining: Helical drill 5)
G00 X21.5058 Y335.5362 Z10.0000 F2100
G00 Z0.5000 F480
G02 X19.9158 Y334.6182 Z-0.1667 I-1.0600 J0.0000 F90
G02 Y336.4542 Z-0.8333 I0.5300 J0.9180 F90
G02 X21.5058 Y335.5362 Z-1.5000 I0.5300 J-0.9180 F90
G02 X19.9158 Y334.6182 Z-2.1667 I-1.0600 J0.0000 F90
G02 Y336.4542 Z-2.8333 I0.5300 J0.9180 F90
G02 X21.5058 Y335.5362 Z-3.5000 I0.5300 J-0.9180 F90
G02 X19.9158 Y334.6182 Z-4.1667 I-1.0600 J0.0000 F90
G02 Y336.4542 Z-4.8333 I0.5300 J0.9180 F90
G02 X21.5058 Y335.5362 Z-5.5000 I0.5300 J-0.9180 F90
G02 X20.4458 Y334.4762 Z-6.0000 I-1.0600 J0.0000 F90
G02 X19.3858 Y335.5362 Z-6.5000 I0.0000 J1.0600 F90
G02 X20.9758 Y336.4542 I1.0600 J0.0000 F90
G02 Y334.6182 I-0.5300 J-0.9180 F90
G02 X19.3858 Y335.5362 I-0.5300 J0.9180 F90
G02 X19.9158 Y336.0662 Z-6.3675 I0.5300 J0.0000 F600
G00 Z10.0000 F480

(No. 6 Helical drill machining: Helical drill 13)
G00 X31.5019 Y364.5395 Z10.0000 F2100
G00 Z0.5000 F480
G02 X30.8869 Y364.1844 Z-0.1667 I-0.4100 J0.0000 F305
G02 Y364.8945 Z-0.8333 I0.2050 J0.3551 F305
G02 X31.5019 Y364.5395 Z-1.5000 I0.2050 J-0.3551 F305
G02 X30.8869 Y364.1844 Z-2.1667 I-0.4100 J0.0000 F305
G02 Y364.8945 Z-2.8333 I0.2050 J0.3551 F305
G02 X31.5019 Y364.5395 Z-3.5000 I0.2050 J-0.3551 F305
G02 X30.8869 Y364.1844 Z-4.1667 I-0.4100 J0.0000 F305
G02 Y364.8945 Z-4.8333 I0.2050 J0.3551 F305
G02 X31.5019 Y364.5395 Z-5.5000 I0.2050 J-0.3551 F305
G02 X31.0919 Y364.1295 Z-6.0000 I-0.4100 J0.0000 F305
G02 X30.6819 Y364.5395 Z-6.5000 I0.0000 J0.4100 F305
G02 X31.2969 Y364.8945 I0.4100 J0.0000 F305
G02 Y364.1844 I-0.2050 J-0.3551 F305
G02 X30.6819 Y364.5395 I-0.2050 J0.3551 F305
G02 X30.8869 Y364.7445 Z-6.4488 I0.2050 J0.0000 F600
G00 Z10.0000 F480

(No. 7 Helical drill machining: Helical drill 14)
G00 X49.8748 Y364.5492 Z10.0000 F2100
G00 Z0.5000 F480
G02 X49.2598 Y364.1942 Z-0.1667 I-0.4100 J0.0000 F305
G02 Y364.9043 Z-0.8333 I0.2050 J0.3551 F305
G02 X49.8748 Y364.5492 Z-1.5000 I0.2050 J-0.3551 F305
G02 X49.2598 Y364.1942 Z-2.1667 I-0.4100 J0.0000 F305
G02 Y364.9043 Z-2.8333 I0.2050 J0.3551 F305
G02 X49.8748 Y364.5492 Z-3.5000 I0.2050 J-0.3551 F305
G02 X49.2598 Y364.1942 Z-4.1667 I-0.4100 J0.0000 F305
G02 Y364.9043 Z-4.8333 I0.2050 J0.3551 F305
G02 X49.8748 Y364.5492 Z-5.5000 I0.2050 J-0.3551 F305
G02 X49.4648 Y364.1392 Z-6.0000 I-0.4100 J0.0000 F305
G02 X49.0548 Y364.5492 Z-6.5000 I0.0000 J0.4100 F305
G02 X49.6698 Y364.9043 I0.4100 J0.0000 F305
G02 Y364.1942 I-0.2050 J-0.3551 F305
G02 X49.0548 Y364.5492 I-0.2050 J0.3551 F305
G02 X49.2598 Y364.7542 Z-6.4488 I0.2050 J0.0000 F600
G00 Z10.0000 F480

(No. 8 Helical drill machining: Helical drill 6)
G00 X77.5060 Y335.5361 Z10.0000 F2100
G00 Z0.5000 F480
G02 X75.9159 Y334.6180 Z-0.1667 I-1.0601 J0.0000 F90
G02 Y336.4541 Z-0.8333 I0.5300 J0.9180 F90
G02 X77.5060 Y335.5361 Z-1.5000 I0.5300 J-0.9180 F90
G02 X75.9159 Y334.6180 Z-2.1667 I-1.0601 J0.0000 F90
G02 Y336.4541 Z-2.8333 I0.5300 J0.9180 F90
G02 X77.5060 Y335.5361 Z-3.5000 I0.5300 J-0.9180 F90
G02 X75.9159 Y334.6180 Z-4.1667 I-1.0601 J0.0000 F90
G02 Y336.4541 Z-4.8333 I0.5300 J0.9180 F90
G02 X77.5060 Y335.5361 Z-5.5000 I0.5300 J-0.9180 F90
G02 X76.4459 Y334.4760 Z-6.0000 I-1.0601 J0.0000 F90
G02 X75.3859 Y335.5361 Z-6.5000 I0.0000 J1.0601 F90
G02 X76.9760 Y336.4541 I1.0601 J0.0000 F90
G02 Y334.6180 I-0.5300 J-0.9180 F90
G02 X75.3859 Y335.5361 I-0.5300 J0.9180 F90
G02 X75.9159 Y336.0661 Z-6.3675 I0.5300 J0.0000 F600
G00 Z10.0000 F480

(No. 9 Helical drill machining: Helical drill 15)
G00 X41.0267 Y405.8363 Z10.0000 F2100
G00 Z0.5000 F480
G02 X40.4117 Y405.4812 Z-0.1667 I-0.4100 J0.0000 F305
G02 Y406.1913 Z-0.8333 I0.2050 J0.3551 F305
G02 X41.0267 Y405.8363 Z-1.5000 I0.2050 J-0.3551 F305
G02 X40.4117 Y405.4812 Z-2.1667 I-0.4100 J0.0000 F305
G02 Y406.1913 Z-2.8333 I0.2050 J0.3551 F305
G02 X41.0267 Y405.8363 Z-3.5000 I0.2050 J-0.3551 F305
G02 X40.4117 Y405.4812 Z-4.1667 I-0.4100 J0.0000 F305
G02 Y406.1913 Z-4.8333 I0.2050 J0.3551 F305
G02 X41.0267 Y405.8363 Z-5.5000 I0.2050 J-0.3551 F305
G02 X40.6167 Y405.4263 Z-6.0000 I-0.4100 J0.0000 F305
G02 X40.2067 Y405.8363 Z-6.5000 I0.0000 J0.4100 F305
G02 X40.8217 Y406.1913 I0.4100 J0.0000 F305
G02 Y405.4812 I-0.2050 J-0.3551 F305
G02 X40.2067 Y405.8363 I-0.2050 J0.3551 F305
G02 X40.4117 Y406.0413 Z-6.4488 I0.2050 J0.0000 F600
G00 Z10.0000 F480

(No. 10 Helical drill machining: Helical drill 16)
G00 X51.6140 Y416.2913 Z10.0000 F2100
G00 Z0.5000 F480
G02 X50.9990 Y415.9363 Z-0.1667 I-0.4100 J0.0000 F305
G02 Y416.6464 Z-0.8333 I0.2050 J0.3551 F305
G02 X51.6140 Y416.2913 Z-1.5000 I0.2050 J-0.3551 F305
G02 X50.9990 Y415.9363 Z-2.1667 I-0.4100 J0.0000 F305
G02 Y416.6464 Z-2.8333 I0.2050 J0.3551 F305
G02 X51.6140 Y416.2913 Z-3.5000 I0.2050 J-0.3551 F305
G02 X50.9990 Y415.9363 Z-4.1667 I-0.4100 J0.0000 F305
G02 Y416.6464 Z-4.8333 I0.2050 J0.3551 F305
G02 X51.6140 Y416.2913 Z-5.5000 I0.2050 J-0.3551 F305
G02 X51.2040 Y415.8813 Z-6.0000 I-0.4100 J0.0000 F305
G02 X50.7940 Y416.2913 Z-6.5000 I0.0000 J0.4100 F305
G02 X51.4090 Y416.6464 I0.4100 J0.0000 F305
G02 Y415.9363 I-0.2050 J-0.3551 F305
G02 X50.7940 Y416.2913 I-0.2050 J0.3551 F305
G02 X50.9990 Y416.4963 Z-6.4488 I0.2050 J0.0000 F600
G00 Z10.0000 F480

(No. 11 Helical drill machining: Helical drill 18)
G00 X49.8524 Y468.0380 Z10.0000 F2100
G00 Z0.5000 F480
G02 X49.2374 Y467.6829 Z-0.1667 I-0.4100 J0.0000 F305
G02 Y468.3931 Z-0.8333 I0.2050 J0.3551 F305
G02 X49.8524 Y468.0380 Z-1.5000 I0.2050 J-0.3551 F305
G02 X49.2374 Y467.6829 Z-2.1667 I-0.4100 J0.0000 F305
G02 Y468.3931 Z-2.8333 I0.2050 J0.3551 F305
G02 X49.8524 Y468.0380 Z-3.5000 I0.2050 J-0.3551 F305
G02 X49.2374 Y467.6829 Z-4.1667 I-0.4100 J0.0000 F305
G02 Y468.3931 Z-4.8333 I0.2050 J0.3551 F305
G02 X49.8524 Y468.0380 Z-5.5000 I0.2050 J-0.3551 F305
G02 X49.4424 Y467.6280 Z-6.0000 I-0.4100 J0.0000 F305
G02 X49.0324 Y468.0380 Z-6.5000 I0.0000 J0.4100 F305
G02 X49.6474 Y468.3931 I0.4100 J0.0000 F305
G02 Y467.6829 I-0.2050 J-0.3551 F305
G02 X49.0324 Y468.0380 I-0.2050 J0.3551 F305
G02 X49.2374 Y468.2430 Z-6.4488 I0.2050 J0.0000 F600
G00 Z10.0000 F480

(No. 12 Helical drill machining: Helical drill 17)
G00 X31.4604 Y468.0359 Z10.0000 F2100
G00 Z0.5000 F480
G02 X30.8454 Y467.6808 Z-0.1667 I-0.4100 J0.0000 F305
G02 Y468.3909 Z-0.8333 I0.2050 J0.3551 F305
G02 X31.4604 Y468.0359 Z-1.5000 I0.2050 J-0.3551 F305
G02 X30.8454 Y467.6808 Z-2.1667 I-0.4100 J0.0000 F305
G02 Y468.3909 Z-2.8333 I0.2050 J0.3551 F305
G02 X31.4604 Y468.0359 Z-3.5000 I0.2050 J-0.3551 F305
G02 X30.8454 Y467.6808 Z-4.1667 I-0.4100 J0.0000 F305
G02 Y468.3909 Z-4.8333 I0.2050 J0.3551 F305
G02 X31.4604 Y468.0359 Z-5.5000 I0.2050 J-0.3551 F305
G02 X31.0504 Y467.6259 Z-6.0000 I-0.4100 J0.0000 F305
G02 X30.6404 Y468.0359 Z-6.5000 I0.0000 J0.4100 F305
G02 X31.2554 Y468.3909 I0.4100 J0.0000 F305
G02 Y467.6808 I-0.2050 J-0.3551 F305
G02 X30.6404 Y468.0359 I-0.2050 J0.3551 F305
G02 X30.8454 Y468.2409 Z-6.4488 I0.2050 J0.0000 F600
G00 Z10.0000 F480

(No. 13 Helical drill machining: Helical drill 7)
G00 X21.5057 Y497.5664 Z10.0000 F2100
G00 Z0.5000 F480
G02 X19.9158 Y496.6484 Z-0.1667 I-1.0599 J0.0000 F90
G02 Y498.4843 Z-0.8333 I0.5300 J0.9179 F90
G02 X21.5057 Y497.5664 Z-1.5000 I0.5300 J-0.9179 F90
G02 X19.9158 Y496.6484 Z-2.1667 I-1.0599 J0.0000 F90
G02 Y498.4843 Z-2.8333 I0.5300 J0.9179 F90
G02 X21.5057 Y497.5664 Z-3.5000 I0.5300 J-0.9179 F90
G02 X19.9158 Y496.6484 Z-4.1667 I-1.0599 J0.0000 F90
G02 Y498.4843 Z-4.8333 I0.5300 J0.9179 F90
G02 X21.5057 Y497.5664 Z-5.5000 I0.5300 J-0.9179 F90
G02 X20.4458 Y496.5064 Z-6.0000 I-1.0599 J0.0000 F90
G02 X19.3859 Y497.5664 Z-6.5000 I0.0000 J1.0599 F90
G02 X20.9758 Y498.4843 I1.0599 J0.0000 F90
G02 Y496.6484 I-0.5300 J-0.9179 F90
G02 X19.3859 Y497.5664 I-0.5300 J0.9179 F90
G02 X19.9158 Y498.0963 Z-6.3675 I0.5300 J0.0000 F600
G00 Z10.0000 F480

(No. 14 Helical drill machining: Helical drill 8)
G00 X77.5058 Y497.5663 Z10.0000 F2100
G00 Z0.5000 F480
G02 X75.9159 Y496.6483 Z-0.1667 I-1.0600 J0.0000 F90
G02 Y498.4842 Z-0.8333 I0.5300 J0.9180 F90
G02 X77.5058 Y497.5663 Z-1.5000 I0.5300 J-0.9180 F90
G02 X75.9159 Y496.6483 Z-2.1667 I-1.0600 J0.0000 F90
G02 Y498.4842 Z-2.8333 I0.5300 J0.9180 F90
G02 X77.5058 Y497.5663 Z-3.5000 I0.5300 J-0.9180 F90
G02 X75.9159 Y496.6483 Z-4.1667 I-1.0600 J0.0000 F90
G02 Y498.4842 Z-4.8333 I0.5300 J0.9180 F90
G02 X77.5058 Y497.5663 Z-5.5000 I0.5300 J-0.9180 F90
G02 X76.4459 Y496.5063 Z-6.0000 I-1.0600 J0.0000 F90
G02 X75.3859 Y497.5663 Z-6.5000 I0.0000 J1.0600 F90
G02 X76.9759 Y498.4842 I1.0600 J0.0000 F90
G02 Y496.6483 I-0.5300 J-0.9180 F90
G02 X75.3859 Y497.5663 I-0.5300 J0.9180 F90
G02 X75.9159 Y498.0962 Z-6.3675 I0.5300 J0.0000 F600
G00 Z10.0000 F480

(No. 15 Helical drill machining: Helical drill 10)
G00 X77.5058 Y659.5963 Z10.0000 F2100
G00 Z0.5000 F480
G02 X75.9159 Y658.6783 Z-0.1667 I-1.0600 J0.0000 F90
G02 Y660.5142 Z-0.8333 I0.5300 J0.9180 F90
G02 X77.5058 Y659.5963 Z-1.5000 I0.5300 J-0.9180 F90
G02 X75.9159 Y658.6783 Z-2.1667 I-1.0600 J0.0000 F90
G02 Y660.5142 Z-2.8333 I0.5300 J0.9180 F90
G02 X77.5058 Y659.5963 Z-3.5000 I0.5300 J-0.9180 F90
G02 X75.9159 Y658.6783 Z-4.1667 I-1.0600 J0.0000 F90
G02 Y660.5142 Z-4.8333 I0.5300 J0.9180 F90
G02 X77.5058 Y659.5963 Z-5.5000 I0.5300 J-0.9180 F90
G02 X76.4459 Y658.5363 Z-6.0000 I-1.0600 J0.0000 F90
G02 X75.3859 Y659.5963 Z-6.5000 I0.0000 J1.0600 F90
G02 X76.9759 Y660.5142 I1.0600 J0.0000 F90
G02 Y658.6783 I-0.5300 J-0.9180 F90
G02 X75.3859 Y659.5963 I-0.5300 J0.9180 F90
G02 X75.9159 Y660.1262 Z-6.3675 I0.5300 J0.0000 F600
G00 Z10.0000 F480

(No. 16 Helical drill machining: Helical drill 9)
G00 X21.5058 Y659.5959 Z10.0000 F2100
G00 Z0.5000 F480
G02 X19.9159 Y658.6780 Z-0.1667 I-1.0600 J0.0000 F90
G02 Y660.5139 Z-0.8333 I0.5300 J0.9180 F90
G02 X21.5058 Y659.5959 Z-1.5000 I0.5300 J-0.9180 F90
G02 X19.9159 Y658.6780 Z-2.1667 I-1.0600 J0.0000 F90
G02 Y660.5139 Z-2.8333 I0.5300 J0.9180 F90
G02 X21.5058 Y659.5959 Z-3.5000 I0.5300 J-0.9180 F90
G02 X19.9159 Y658.6780 Z-4.1667 I-1.0600 J0.0000 F90
G02 Y660.5139 Z-4.8333 I0.5300 J0.9180 F90
G02 X21.5058 Y659.5959 Z-5.5000 I0.5300 J-0.9180 F90
G02 X20.4458 Y658.5360 Z-6.0000 I-1.0600 J0.0000 F90
G02 X19.3859 Y659.5959 Z-6.5000 I0.0000 J1.0600 F90
G02 X20.9758 Y660.5139 I1.0600 J0.0000 F90
G02 Y658.6780 I-0.5300 J-0.9180 F90
G02 X19.3859 Y659.5959 I-0.5300 J0.9180 F90
G02 X19.9159 Y660.1259 Z-6.3675 I0.5300 J0.0000 F600
G00 Z10.0000 F480

(No. 17 Helical drill machining: Helical drill 11)
G00 X21.5058 Y821.6259 Z10.0000 F2100
G00 Z0.5000 F480
G02 X19.9159 Y820.7080 Z-0.1667 I-1.0600 J0.0000 F90
G02 Y822.5439 Z-0.8333 I0.5300 J0.9180 F90
G02 X21.5058 Y821.6259 Z-1.5000 I0.5300 J-0.9180 F90
G02 X19.9159 Y820.7080 Z-2.1667 I-1.0600 J0.0000 F90
G02 Y822.5439 Z-2.8333 I0.5300 J0.9180 F90
G02 X21.5058 Y821.6259 Z-3.5000 I0.5300 J-0.9180 F90
G02 X19.9159 Y820.7080 Z-4.1667 I-1.0600 J0.0000 F90
G02 Y822.5439 Z-4.8333 I0.5300 J0.9180 F90
G02 X21.5058 Y821.6259 Z-5.5000 I0.5300 J-0.9180 F90
G02 X20.4458 Y820.5660 Z-6.0000 I-1.0600 J0.0000 F90
G02 X19.3859 Y821.6259 Z-6.5000 I0.0000 J1.0600 F90
G02 X20.9758 Y822.5439 I1.0600 J0.0000 F90
G02 Y820.7080 I-0.5300 J-0.9180 F90
G02 X19.3859 Y821.6259 I-0.5300 J0.9180 F90
G02 X19.9159 Y822.1559 Z-6.3675 I0.5300 J0.0000 F600
G00 Z10.0000 F480

(No. 18 Helical drill machining: Helical drill 12)
G00 X77.5060 Y821.6279 Z10.0000 F2100
G00 Z0.5000 F480
G02 X75.9075 Y820.7051 Z-0.1667 I-1.0656 J0.0000 F90
G02 Y822.5508 Z-0.8333 I0.5328 J0.9228 F90
G02 X77.5060 Y821.6279 Z-1.5000 I0.5328 J-0.9228 F90
G02 X75.9075 Y820.7051 Z-2.1667 I-1.0656 J0.0000 F90
G02 Y822.5508 Z-2.8333 I0.5328 J0.9228 F90
G02 X77.5060 Y821.6279 Z-3.5000 I0.5328 J-0.9228 F90
G02 X75.9075 Y820.7051 Z-4.1667 I-1.0656 J0.0000 F90
G02 Y822.5508 Z-4.8333 I0.5328 J0.9228 F90
G02 X77.5060 Y821.6279 Z-5.5000 I0.5328 J-0.9228 F90
G02 X76.4403 Y820.5623 Z-6.0000 I-1.0656 J0.0000 F90
G02 X75.3747 Y821.6279 Z-6.5000 I0.0000 J1.0656 F90
G02 X76.9732 Y822.5508 I1.0656 J0.0000 F90
G02 Y820.7051 I-0.5328 J-0.9228 F90
G02 X75.3747 Y821.6279 I-0.5328 J0.9228 F90
G02 X75.9075 Y822.1607 Z-6.3668 I0.5328 J0.0000 F600
G00 Z10.0000 F480

(No. 19 Part machining: Part 1)
M05
;M06 T2 (1/8" Upcut Soft wood)
M00 (Change tool: 1/8" Upcut Soft wood)
M03 S10000
G00 X70.5408 Y1.1362 Z10.0000 F2100
G00 Z0.5000 F480
G01 Z0.0000 F90
G01 X71.5408 Z-1.0000 F90
G01 X70.5408 Z-2.0000 F90
G01 X82.1958 F900
G03 X83.7858 Y2.7262 I0.0000 J1.5900 F900
G01 Y18.2649 F900
G03 X83.3201 Y19.3892 I-1.5900 J0.0000 F900
G02 X83.5284 Y19.6064 I0.1132 J0.0999 F900
G03 X84.6571 Y19.1362 I1.1287 J1.1199 F900
G01 X93.1958 F900
G03 X94.7858 Y20.7262 I0.0000 J1.5900 F900
G01 Y88.9012 F900
G01 Y96.0812 F900
G01 Y164.2562 F900
G03 X93.1958 Y165.8462 I-1.5900 J0.0000 F900
G01 X84.6571 F900
G03 X83.5308 Y165.3785 I0.0000 J-1.5900 F900
G02 X83.3148 Y165.5877 I-0.0978 J0.1151 F900
G03 X83.7858 Y166.7172 I-1.1190 J1.1296 F900
G01 Y180.2952 F900
G03 X83.3174 Y181.4223 I-1.5900 J0.0000 F900
G02 X83.5275 Y181.6372 I0.1162 J0.0966 F900
G03 X84.6571 Y181.1662 I1.1296 J1.1191 F900
G01 X93.1958 F900
G03 X94.7858 Y182.7562 I0.0000 J1.5900 F900
G01 Y250.9312 F900
G01 Y258.1112 F900
G01 Y326.2862 F900
G03 X93.1958 Y327.8762 I-1.5900 J0.0000 F900
G01 X84.6571 F900
G03 X83.5308 Y327.4085 I0.0000 J-1.5900 F900
G02 X83.3148 Y327.6177 I-0.0978 J0.1151 F900
G03 X83.7858 Y328.7472 I-1.1190 J1.1296 F900
G01 Y342.3252 F900
G03 X83.3174 Y343.4523 I-1.5900 J0.0000 F900
G02 X83.5275 Y343.6672 I0.1162 J0.0966 F900
G03 X84.6571 Y343.1962 I1.1296 J1.1191 F900
G01 X93.1958 F900
G03 X94.7858 Y344.7862 I0.0000 J1.5900 F900
G01 Y362.7257 F900
G01 Y369.9057 F900
G01 Y463.1967 F900
G01 Y470.3767 F900
G01 Y488.3162 F900
G03 X93.1958 Y489.9062 I-1.5900 J0.0000 F900
G01 X84.6571 F900
G03 X83.5308 Y489.4385 I0.0000 J-1.5900 F900
G02 X83.3148 Y489.6477 I-0.0978 J0.1151 F900
G03 X83.7858 Y490.7772 I-1.1190 J1.1296 F900
G01 Y504.3552 F900
G03 X83.3174 Y505.4823 I-1.5900 J0.0000 F900
G02 X83.5275 Y505.6972 I0.1162 J0.0966 F900
G03 X84.6571 Y505.2262 I1.1296 J1.1191 F900
G01 X93.1958 F900
G03 X94.7858 Y506.8162 I0.0000 J1.5900 F900
G01 Y574.9912 F900
G01 Y582.1712 F900
G01 Y650.3462 F900
G03 X93.1958 Y651.9362 I-1.5900 J0.0000 F900
G01 X84.6571 F900
G03 X83.5308 Y651.4685 I0.0000 J-1.5900 F900
G02 X83.3148 Y651.6777 I-0.0978 J0.1151 F900
G03 X83.7858 Y652.8072 I-1.1190 J1.1296 F900
G01 Y666.3852 F900
G03 X83.3174 Y667.5123 I-1.5900 J0.0000 F900
G02 X83.5275 Y667.7272 I0.1162 J0.0966 F900
G03 X84.6571 Y667.2562 I1.1296 J1.1191 F900
G01 X93.1958 F900
G03 X94.7858 Y668.8462 I0.0000 J1.5900 F900
G01 Y737.0212 F900
G01 Y744.2012 F900
G01 Y812.3762 F900
G03 X93.1958 Y813.9662 I-1.5900 J0.0000 F900
G01 X84.6571 F900
G03 X83.5308 Y813.4985 I0.0000 J-1.5900 F900
G02 X83.3148 Y813.7077 I-0.0978 J0.1151 F900
G03 X83.7858 Y814.8372 I-1.1190 J1.1296 F900
G01 Y830.3762 F900
G03 X82.1958 Y831.9662 I-1.5900 J0.0000 F900
G01 X80.3608 F900
G01 X73.1808 F900
G01 X71.3458 F900
G03 X69.7558 Y830.3762 I0.0000 J-1.5900 F900
G01 Y796.9662 F900
G01 X53.8358 F900
G01 Y830.3762 F900
G03 X52.2458 Y831.9662 I-1.5900 J0.0000 F900
G01 X37.0608 F900
G01 X29.8808 F900
G01 X14.6958 F900
G03 X13.1058 Y830.3762 I0.0000 J-1.5900 F900
G01 Y814.8372 F900
G03 X13.5743 Y813.7102 I1.5900 J0.0000 F900
G02 X13.3640 Y813.4953 I-0.1162 J-0.0966 F900
G03 X12.2345 Y813.9662 I-1.1295 J-1.1191 F900
G01 X2.6958 F900
G03 X1.1058 Y812.3762 I0.0000 J-1.5900 F900
G01 Y744.2012 F900
G01 Y737.0212 F900
G01 Y668.8462 F900
G03 X2.6958 Y667.2562 I1.5900 J0.0000 F900
G01 X12.2345 F900
G03 X13.3606 Y667.7238 I0.0000 J1.5900 F900
G02 X13.5768 Y667.5148 I0.0981 J-0.1149 F900
G03 X13.1058 Y666.3852 I1.1190 J-1.1296 F900
G01 Y652.8072 F900
G03 X13.5743 Y651.6802 I1.5900 J0.0000 F900
G02 X13.3640 Y651.4653 I-0.1162 J-0.0966 F900
G03 X12.2345 Y651.9362 I-1.1295 J-1.1191 F900
G01 X2.6958 F900
G03 X1.1058 Y650.3462 I0.0000 J-1.5900 F900
G01 Y582.1712 F900
G01 Y574.9912 F900
G01 Y506.8162 F900
G03 X2.6958 Y505.2262 I1.5900 J0.0000 F900
G01 X12.2345 F900
G03 X13.3606 Y505.6938 I0.0000 J1.5900 F900
G02 X13.5768 Y505.4848 I0.0981 J-0.1149 F900
G03 X13.1058 Y504.3552 I1.1190 J-1.1296 F900
G01 Y490.7772 F900
G03 X13.5743 Y489.6502 I1.5900 J0.0000 F900
G02 X13.3640 Y489.4353 I-0.1162 J-0.0966 F900
G03 X12.2345 Y489.9062 I-1.1295 J-1.1191 F900
G01 X2.6958 F900
G03 X1.1058 Y488.3162 I0.0000 J-1.5900 F900
G01 Y470.3767 F900
G01 Y463.1967 F900
G01 Y369.9057 F900
G01 Y362.7257 F900
G01 Y344.7862 F900
G03 X2.6958 Y343.1962 I1.5900 J0.0000 F900
G01 X12.2345 F900
G03 X13.3606 Y343.6638 I0.0000 J1.5900 F900
G02 X13.5768 Y343.4548 I0.0981 J-0.1149 F900
G03 X13.1058 Y342.3252 I1.1190 J-1.1296 F900
G01 Y328.7472 F900
G03 X13.5743 Y327.6202 I1.5900 J0.0000 F900
G02 X13.3640 Y327.4053 I-0.1162 J-0.0966 F900
G03 X12.2345 Y327.8762 I-1.1295 J-1.1191 F900
G01 X2.6958 F900
G03 X1.1058 Y326.2862 I0.0000 J-1.5900 F900
G01 Y258.1112 F900
G01 Y250.9312 F900
G01 Y182.7562 F900
G03 X2.6958 Y181.1662 I1.5900 J0.0000 F900
G01 X12.2345 F900
G03 X13.3606 Y181.6338 I0.0000 J1.5900 F900
G02 X13.5768 Y181.4248 I0.0981 J-0.1149 F900
G03 X13.1058 Y180.2952 I1.1190 J-1.1296 F900
G01 Y166.7172 F900
G03 X13.5743 Y165.5902 I1.5900 J0.0000 F900
G02 X13.3640 Y165.3753 I-0.1162 J-0.0966 F900
G03 X12.2345 Y165.8462 I-1.1295 J-1.1191 F900
G01 X2.6958 F900
G03 X1.1058 Y164.2562 I0.0000 J-1.5900 F900
G01 Y96.0812 F900
G01 Y88.9012 F900
G01 Y20.7262 F900
G03 X2.6958 Y19.1362 I1.5900 J0.0000 F900
G01 X12.2345 F900
G03 X13.3588 Y19.6019 I0.0000 J1.5900 F900
G02 X13.5759 Y19.3936 I0.0999 J-0.1132 F900
G03 X13.1058 Y18.2649 I1.1200 J-1.1287 F900
G01 Y2.7262 F900
G03 X14.6958 Y1.1362 I1.5900 J0.0000 F900
G01 X23.6108 F900
G01 X30.7908 F900
G01 X39.7058 F900
G03 X41.2958 Y2.7262 I0.0000 J1.5900 F900
G01 Y6.1362 F900
G01 X50.1158 F900
G01 Y2.7262 F900
G03 X51.7058 Y1.1362 I1.5900 J0.0000 F900
G01 X63.3608 F900
G01 X70.5408 F900
G01 X71.5408 Z-3.0000 F90
G01 X70.5408 Z-4.0000 F90
G01 X82.1958 F900
G03 X83.7858 Y2.7262 I0.0000 J1.5900 F900
G01 Y18.2649 F900
G03 X83.3201 Y19.3892 I-1.5900 J0.0000 F900
G02 X83.5284 Y19.6064 I0.1132 J0.0999 F900
G03 X84.6571 Y19.1362 I1.1287 J1.1199 F900
G01 X93.1958 F900
G03 X94.7858 Y20.7262 I0.0000 J1.5900 F900
G01 Y88.9012 F900
G00 Z-3.0000 F480
G01 Y96.0812 F900
G01 Y96.5812 Z-3.5000 F90
G01 Y96.0812 Z-4.0000 F90
G01 Y164.2562 F900
G03 X93.1958 Y165.8462 I-1.5900 J0.0000 F900
G01 X84.6571 F900
G03 X83.5308 Y165.3785 I0.0000 J-1.5900 F900
G02 X83.3148 Y165.5877 I-0.0978 J0.1151 F900
G03 X83.7858 Y166.7172 I-1.1190 J1.1296 F900
G01 Y180.2952 F900
G03 X83.3174 Y181.4223 I-1.5900 J0.0000 F900
G02 X83.5275 Y181.6372 I0.1162 J0.0966 F900
G03 X84.6571 Y181.1662 I1.1296 J1.1191 F900
G01 X93.1958 F900
G03 X94.7858 Y182.7562 I0.0000 J1.5900 F900
G01 Y250.9312 F900
G00 Z-3.0000 F480
G01 Y258.1112 F900
G01 Y258.6112 Z-3.5000 F90
G01 Y258.1112 Z-4.0000 F90
G01 Y326.2862 F900
G03 X93.1958 Y327.8762 I-1.5900 J0.0000 F900
G01 X84.6571 F900
G03 X83.5308 Y327.4085 I0.0000 J-1.5900 F900
G02 X83.3148 Y327.6177 I-0.0978 J0.1151 F900
G03 X83.7858 Y328.7472 I-1.1190 J1.1296 F900
G01 Y342.3252 F900
G03 X83.3174 Y343.4523 I-1.5900 J0.0000 F900
G02 X83.5275 Y343.6672 I0.1162 J0.0966 F900
G03 X84.6571 Y343.1962 I1.1296 J1.1191 F900
G01 X93.1958 F900
G03 X94.7858 Y344.7862 I0.0000 J1.5900 F900
G01 Y362.7257 F900
G00 Z-3.0000 F480
G01 Y369.9057 F900
G01 Y370.4057 Z-3.5000 F90
G01 Y369.9057 Z-4.0000 F90
G01 Y463.1967 F900
G00 Z-3.0000 F480
G01 Y470.3767 F900
G01 Y470.8767 Z-3.5000 F90
G01 Y470.3767 Z-4.0000 F90
G01 Y488.3162 F900
G03 X93.1958 Y489.9062 I-1.5900 J0.0000 F900
G01 X84.6571 F900
G03 X83.5308 Y489.4385 I0.0000 J-1.5900 F900
G02 X83.3148 Y489.6477 I-0.0978 J0.1151 F900
G03 X83.7858 Y490.7772 I-1.1190 J1.1296 F900
G01 Y504.3552 F900
G03 X83.3174 Y505.4823 I-1.5900 J0.0000 F900
G02 X83.5275 Y505.6972 I0.1162 J0.0966 F900
G03 X84.6571 Y505.2262 I1.1296 J1.1191 F900
G01 X93.1958 F900
G03 X94.7858 Y506.8162 I0.0000 J1.5900 F900
G01 Y574.9912 F900
G00 Z-3.0000 F480
G01 Y582.1712 F900
G01 Y582.6712 Z-3.5000 F90
G01 Y582.1712 Z-4.0000 F90
G01 Y650.3462 F900
G03 X93.1958 Y651.9362 I-1.5900 J0.0000 F900
G01 X84.6571 F900
G03 X83.5308 Y651.4685 I0.0000 J-1.5900 F900
G02 X83.3148 Y651.6777 I-0.0978 J0.1151 F900
G03 X83.7858 Y652.8072 I-1.1190 J1.1296 F900
G01 Y666.3852 F900
G03 X83.3174 Y667.5123 I-1.5900 J0.0000 F900
G02 X83.5275 Y667.7272 I0.1162 J0.0966 F900
G03 X84.6571 Y667.2562 I1.1296 J1.1191 F900
G01 X93.1958 F900
G03 X94.7858 Y668.8462 I0.0000 J1.5900 F900
G01 Y737.0212 F900
G00 Z-3.0000 F480
G01 Y744.2012 F900
G01 Y744.7012 Z-3.5000 F90
G01 Y744.2012 Z-4.0000 F90
G01 Y812.3762 F900
G03 X93.1958 Y813.9662 I-1.5900 J0.0000 F900
G01 X84.6571 F900
G03 X83.5308 Y813.4985 I0.0000 J-1.5900 F900
G02 X83.3148 Y813.7077 I-0.0978 J0.1151 F900
G03 X83.7858 Y814.8372 I-1.1190 J1.1296 F900
G01 Y830.3762 F900
G03 X82.1958 Y831.9662 I-1.5900 J0.0000 F900
G01 X80.3608 F900
G00 Z-3.0000 F480
G01 X73.1808 F900
G01 X72.6808 Z-3.5000 F90
G01 X73.1808 Z-4.0000 F90
G01 X71.3458 F900
G03 X69.7558 Y830.3762 I0.0000 J-1.5900 F900
G01 Y796.9662 F900
G01 X53.8358 F900
G01 Y830.3762 F900
G03 X52.2458 Y831.9662 I-1.5900 J0.0000 F900
G01 X37.0608 F900
G00 Z-3.0000 F480
G01 X29.8808 F900
G01 X29.3808 Z-3.5000 F90
G01 X29.8808 Z-4.0000 F90
G01 X14.6958 F900
G03 X13.1058 Y830.3762 I0.0000 J-1.5900 F900
G01 Y814.8372 F900
G03 X13.5743 Y813.7102 I1.5900 J0.0000 F900
G02 X13.3640 Y813.4953 I-0.1162 J-0.0966 F900
G03 X12.2345 Y813.9662 I-1.1295 J-1.1191 F900
G01 X2.6958 F900
G03 X1.1058 Y812.3762 I0.0000 J-1.5900 F900
G01 Y744.2012 F900
G00 Z-3.0000 F480
G01 Y737.0212 F900
G01 Y736.5212 Z-3.5000 F90
G01 Y737.0212 Z-4.0000 F90
G01 Y668.8462 F900
G03 X2.6958 Y667.2562 I1.5900 J0.0000 F900
G01 X12.2345 F900
G03 X13.3606 Y667.7238 I0.0000 J1.5900 F900
G02 X13.5768 Y667.5148 I0.0981 J-0.1149 F900
G03 X13.1058 Y666.3852 I1.1190 J-1.1296 F900
G01 Y652.8072 F900
G03 X13.5743 Y651.6802 I1.5900 J0.0000 F900
G02 X13.3640 Y651.4653 I-0.1162 J-0.0966 F900
G03 X12.2345 Y651.9362 I-1.1295 J-1.1191 F900
G01 X2.6958 F900
G03 X1.1058 Y650.3462 I0.0000 J-1.5900 F900
G01 Y582.1712 F900
G00 Z-3.0000 F480
G01 Y574.9912 F900
G01 Y574.4912 Z-3.5000 F90
G01 Y574.9912 Z-4.0000 F90
G01 Y506.8162 F900
G03 X2.6958 Y505.2262 I1.5900 J0.0000 F900
G01 X12.2345 F900
G03 X13.3606 Y505.6938 I0.0000 J1.5900 F900
G02 X13.5768 Y505.4848 I0.0981 J-0.1149 F900
G03 X13.1058 Y504.3552 I1.1190 J-1.1296 F900
G01 Y490.7772 F900
G03 X13.5743 Y489.6502 I1.5900 J0.0000 F900
G02 X13.3640 Y489.4353 I-0.1162 J-0.0966 F900
G03 X12.2345 Y489.9062 I-1.1295 J-1.1191 F900
G01 X2.6958 F900
G03 X1.1058 Y488.3162 I0.0000 J-1.5900 F900
G01 Y470.3767 F900
G00 Z-3.0000 F480
G01 Y463.1967 F900
G01 Y462.6967 Z-3.5000 F90
G01 Y463.1967 Z-4.0000 F90
G01 Y369.9057 F900
G00 Z-3.0000 F480
G01 Y362.7257 F900
G01 Y362.2257 Z-3.5000 F90
G01 Y362.7257 Z-4.0000 F90
G01 Y344.7862 F900
G03 X2.6958 Y343.1962 I1.5900 J0.0000 F900
G01 X12.2345 F900
G03 X13.3606 Y343.6638 I0.0000 J1.5900 F900
G02 X13.5768 Y343.4548 I0.0981 J-0.1149 F900
G03 X13.1058 Y342.3252 I1.1190 J-1.1296 F900
G01 Y328.7472 F900
G03 X13.5743 Y327.6202 I1.5900 J0.0000 F900
G02 X13.3640 Y327.4053 I-0.1162 J-0.0966 F900
G03 X12.2345 Y327.8762 I-1.1295 J-1.1191 F900
G01 X2.6958 F900
G03 X1.1058 Y326.2862 I0.0000 J-1.5900 F900
G01 Y258.1112 F900
G00 Z-3.0000 F480
G01 Y250.9312 F900
G01 Y250.4312 Z-3.5000 F90
G01 Y250.9312 Z-4.0000 F90
G01 Y182.7562 F900
G03 X2.6958 Y181.1662 I1.5900 J0.0000 F900
G01 X12.2345 F900
G03 X13.3606 Y181.6338 I0.0000 J1.5900 F900
G02 X13.5768 Y181.4248 I0.0981 J-0.1149 F900
G03 X13.1058 Y180.2952 I1.1190 J-1.1296 F900
G01 Y166.7172 F900
G03 X13.5743 Y165.5902 I1.5900 J0.0000 F900
G02 X13.3640 Y165.3753 I-0.1162 J-0.0966 F900
G03 X12.2345 Y165.8462 I-1.1295 J-1.1191 F900
G01 X2.6958 F900
G03 X1.1058 Y164.2562 I0.0000 J-1.5900 F900
G01 Y96.0812 F900
G00 Z-3.0000 F480
G01 Y88.9012 F900
G01 Y88.4012 Z-3.5000 F90
G01 Y88.9012 Z-4.0000 F90
G01 Y20.7262 F900
G03 X2.6958 Y19.1362 I1.5900 J0.0000 F900
G01 X12.2345 F900
G03 X13.3588 Y19.6019 I0.0000 J1.5900 F900
G02 X13.5759 Y19.3936 I0.0999 J-0.1132 F900
G03 X13.1058 Y18.2649 I1.1200 J-1.1287 F900
G01 Y2.7262 F900
G03 X14.6958 Y1.1362 I1.5900 J0.0000 F900
G01 X23.6108 F900
G00 Z-3.0000 F480
G01 X30.7908 F900
G01 X31.2908 Z-3.5000 F90
G01 X30.7908 Z-4.0000 F90
G01 X39.7058 F900
G03 X41.2958 Y2.7262 I0.0000 J1.5900 F900
G01 Y6.1362 F900
G01 X50.1158 F900
G01 Y2.7262 F900
G03 X51.7058 Y1.1362 I1.5900 J0.0000 F900
G01 X63.3608 F900
G00 Z-3.0000 F480
G01 X70.5408 F900
G00 Z-3.5000 F480
G01 Z-4.0000 F90
G01 X71.5408 Z-5.0000 F90
G01 X70.5408 Z-6.0000 F90
G01 X82.1958 F900
G03 X83.7858 Y2.7262 I0.0000 J1.5900 F900
G01 Y18.2649 F900
G03 X83.3201 Y19.3892 I-1.5900 J0.0000 F900
G02 X83.5284 Y19.6064 I0.1132 J0.0999 F900
G03 X84.6571 Y19.1362 I1.1287 J1.1199 F900
G01 X93.1958 F900
G03 X94.7858 Y20.7262 I0.0000 J1.5900 F900
G01 Y88.9012 F900
G00 Z-3.0000 F480
G01 Y96.0812 F900
G00 Z-3.5000 F480
G01 Z-4.0000 F90
G01 Y97.0812 Z-5.0000 F90
G01 Y96.0812 Z-6.0000 F90
G01 Y164.2562 F900
G03 X93.1958 Y165.8462 I-1.5900 J0.0000 F900
G01 X84.6571 F900
G03 X83.5308 Y165.3785 I0.0000 J-1.5900 F900
G02 X83.3148 Y165.5877 I-0.0978 J0.1151 F900
G03 X83.7858 Y166.7172 I-1.1190 J1.1296 F900
G01 Y180.2952 F900
G03 X83.3174 Y181.4223 I-1.5900 J0.0000 F900
G02 X83.5275 Y181.6372 I0.1162 J0.0966 F900
G03 X84.6571 Y181.1662 I1.1296 J1.1191 F900
G01 X93.1958 F900
G03 X94.7858 Y182.7562 I0.0000 J1.5900 F900
G01 Y250.9312 F900
G00 Z-3.0000 F480
G01 Y258.1112 F900
G00 Z-3.5000 F480
G01 Z-4.0000 F90
G01 Y259.1112 Z-5.0000 F90
G01 Y258.1112 Z-6.0000 F90
G01 Y326.2862 F900
G03 X93.1958 Y327.8762 I-1.5900 J0.0000 F900
G01 X84.6571 F900
G03 X83.5308 Y327.4085 I0.0000 J-1.5900 F900
G02 X83.3148 Y327.6177 I-0.0978 J0.1151 F900
G03 X83.7858 Y328.7472 I-1.1190 J1.1296 F900
G01 Y342.3252 F900
G03 X83.3174 Y343.4523 I-1.5900 J0.0000 F900
G02 X83.5275 Y343.6672 I0.1162 J0.0966 F900
G03 X84.6571 Y343.1962 I1.1296 J1.1191 F900
G01 X93.1958 F900
G03 X94.7858 Y344.7862 I0.0000 J1.5900 F900
G01 Y362.7257 F900
G00 Z-3.0000 F480
G01 Y369.9057 F900
G00 Z-3.5000 F480
G01 Z-4.0000 F90
G01 Y370.9057 Z-5.0000 F90
G01 Y369.9057 Z-6.0000 F90
G01 Y463.1967 F900
G00 Z-3.0000 F480
G01 Y470.3767 F900
G00 Z-3.5000 F480
G01 Z-4.0000 F90
G01 Y471.3767 Z-5.0000 F90
G01 Y470.3767 Z-6.0000 F90
G01 Y488.3162 F900
G03 X93.1958 Y489.9062 I-1.5900 J0.0000 F900
G01 X84.6571 F900
G03 X83.5308 Y489.4385 I0.0000 J-1.5900 F900
G02 X83.3148 Y489.6477 I-0.0978 J0.1151 F900
G03 X83.7858 Y490.7772 I-1.1190 J1.1296 F900
G01 Y504.3552 F900
G03 X83.3174 Y505.4823 I-1.5900 J0.0000 F900
G02 X83.5275 Y505.6972 I0.1162 J0.0966 F900
G03 X84.6571 Y505.2262 I1.1296 J1.1191 F900
G01 X93.1958 F900
G03 X94.7858 Y506.8162 I0.0000 J1.5900 F900
G01 Y574.9912 F900
G00 Z-3.0000 F480
G01 Y582.1712 F900
G00 Z-3.5000 F480
G01 Z-4.0000 F90
G01 Y583.1712 Z-5.0000 F90
G01 Y582.1712 Z-6.0000 F90
G01 Y650.3462 F900
G03 X93.1958 Y651.9362 I-1.5900 J0.0000 F900
G01 X84.6571 F900
G03 X83.5308 Y651.4685 I0.0000 J-1.5900 F900
G02 X83.3148 Y651.6777 I-0.0978 J0.1151 F900
G03 X83.7858 Y652.8072 I-1.1190 J1.1296 F900
G01 Y666.3852 F900
G03 X83.3174 Y667.5123 I-1.5900 J0.0000 F900
G02 X83.5275 Y667.7272 I0.1162 J0.0966 F900
G03 X84.6571 Y667.2562 I1.1296 J1.1191 F900
G01 X93.1958 F900
G03 X94.7858 Y668.8462 I0.0000 J1.5900 F900
G01 Y737.0212 F900
G00 Z-3.0000 F480
G01 Y744.2012 F900
G00 Z-3.5000 F480
G01 Z-4.0000 F90
G01 Y745.2012 Z-5.0000 F90
G01 Y744.2012 Z-6.0000 F90
G01 Y812.3762 F900
G03 X93.1958 Y813.9662 I-1.5900 J0.0000 F900
G01 X84.6571 F900
G03 X83.5308 Y813.4985 I0.0000 J-1.5900 F900
G02 X83.3148 Y813.7077 I-0.0978 J0.1151 F900
G03 X83.7858 Y814.8372 I-1.1190 J1.1296 F900
G01 Y830.3762 F900
G03 X82.1958 Y831.9662 I-1.5900 J0.0000 F900
G01 X80.3608 F900
G00 Z-3.0000 F480
G01 X73.1808 F900
G00 Z-3.5000 F480
G01 Z-4.0000 F90
G01 X72.1808 Z-5.0000 F90
G01 X73.1808 Z-6.0000 F90
G01 X71.3458 F900
G03 X69.7558 Y830.3762 I0.0000 J-1.5900 F900
G01 Y796.9662 F900
G01 X53.8358 F900
G01 Y830.3762 F900
G03 X52.2458 Y831.9662 I-1.5900 J0.0000 F900
G01 X37.0608 F900
G00 Z-3.0000 F480
G01 X29.8808 F900
G00 Z-3.5000 F480
G01 Z-4.0000 F90
G01 X28.8808 Z-5.0000 F90
G01 X29.8808 Z-6.0000 F90
G01 X14.6958 F900
G03 X13.1058 Y830.3762 I0.0000 J-1.5900 F900
G01 Y814.8372 F900
G03 X13.5743 Y813.7102 I1.5900 J0.0000 F900
G02 X13.3640 Y813.4953 I-0.1162 J-0.0966 F900
G03 X12.2345 Y813.9662 I-1.1295 J-1.1191 F900
G01 X2.6958 F900
G03 X1.1058 Y812.3762 I0.0000 J-1.5900 F900
G01 Y744.2012 F900
G00 Z-3.0000 F480
G01 Y737.0212 F900
G00 Z-3.5000 F480
G01 Z-4.0000 F90
G01 Y736.0212 Z-5.0000 F90
G01 Y737.0212 Z-6.0000 F90
G01 Y668.8462 F900
G03 X2.6958 Y667.2562 I1.5900 J0.0000 F900
G01 X12.2345 F900
G03 X13.3606 Y667.7238 I0.0000 J1.5900 F900
G02 X13.5768 Y667.5148 I0.0981 J-0.1149 F900
G03 X13.1058 Y666.3852 I1.1190 J-1.1296 F900
G01 Y652.8072 F900
G03 X13.5743 Y651.6802 I1.5900 J0.0000 F900
G02 X13.3640 Y651.4653 I-0.1162 J-0.0966 F900
G03 X12.2345 Y651.9362 I-1.1295 J-1.1191 F900
G01 X2.6958 F900
G03 X1.1058 Y650.3462 I0.0000 J-1.5900 F900
G01 Y582.1712 F900
G00 Z-3.0000 F480
G01 Y574.9912 F900
G00 Z-3.5000 F480
G01 Z-4.0000 F90
G01 Y573.9912 Z-5.0000 F90
G01 Y574.9912 Z-6.0000 F90
G01 Y506.8162 F900
G03 X2.6958 Y505.2262 I1.5900 J0.0000 F900
G01 X12.2345 F900
G03 X13.3606 Y505.6938 I0.0000 J1.5900 F900
G02 X13.5768 Y505.4848 I0.0981 J-0.1149 F900
G03 X13.1058 Y504.3552 I1.1190 J-1.1296 F900
G01 Y490.7772 F900
G03 X13.5743 Y489.6502 I1.5900 J0.0000 F900
G02 X13.3640 Y489.4353 I-0.1162 J-0.0966 F900
G03 X12.2345 Y489.9062 I-1.1295 J-1.1191 F900
G01 X2.6958 F900
G03 X1.1058 Y488.3162 I0.0000 J-1.5900 F900
G01 Y470.3767 F900
G00 Z-3.0000 F480
G01 Y463.1967 F900
G00 Z-3.5000 F480
G01 Z-4.0000 F90
G01 Y462.1967 Z-5.0000 F90
G01 Y463.1967 Z-6.0000 F90
G01 Y369.9057 F900
G00 Z-3.0000 F480
G01 Y362.7257 F900
G00 Z-3.5000 F480
G01 Z-4.0000 F90
G01 Y361.7257 Z-5.0000 F90
G01 Y362.7257 Z-6.0000 F90
G01 Y344.7862 F900
G03 X2.6958 Y343.1962 I1.5900 J0.0000 F900
G01 X12.2345 F900
G03 X13.3606 Y343.6638 I0.0000 J1.5900 F900
G02 X13.5768 Y343.4548 I0.0981 J-0.1149 F900
G03 X13.1058 Y342.3252 I1.1190 J-1.1296 F900
G01 Y328.7472 F900
G03 X13.5743 Y327.6202 I1.5900 J0.0000 F900
G02 X13.3640 Y327.4053 I-0.1162 J-0.0966 F900
G03 X12.2345 Y327.8762 I-1.1295 J-1.1191 F900
G01 X2.6958 F900
G03 X1.1058 Y326.2862 I0.0000 J-1.5900 F900
G01 Y258.1112 F900
G00 Z-3.0000 F480
G01 Y250.9312 F900
G00 Z-3.5000 F480
G01 Z-4.0000 F90
G01 Y249.9312 Z-5.0000 F90
G01 Y250.9312 Z-6.0000 F90
G01 Y182.7562 F900
G03 X2.6958 Y181.1662 I1.5900 J0.0000 F900
G01 X12.2345 F900
G03 X13.3606 Y181.6338 I0.0000 J1.5900 F900
G02 X13.5768 Y181.4248 I0.0981 J-0.1149 F900
G03 X13.1058 Y180.2952 I1.1190 J-1.1296 F900
G01 Y166.7172 F900
G03 X13.5743 Y165.5902 I1.5900 J0.0000 F900
G02 X13.3640 Y165.3753 I-0.1162 J-0.0966 F900
G03 X12.2345 Y165.8462 I-1.1295 J-1.1191 F900
G01 X2.6958 F900
G03 X1.1058 Y164.2562 I0.0000 J-1.5900 F900
G01 Y96.0812 F900
G00 Z-3.0000 F480
G01 Y88.9012 F900
G00 Z-3.5000 F480
G01 Z-4.0000 F90
G01 Y87.9012 Z-5.0000 F90
G01 Y88.9012 Z-6.0000 F90
G01 Y20.7262 F900
G03 X2.6958 Y19.1362 I1.5900 J0.0000 F900
G01 X12.2345 F900
G03 X13.3588 Y19.6019 I0.0000 J1.5900 F900
G02 X13.5759 Y19.3936 I0.0999 J-0.1132 F900
G03 X13.1058 Y18.2649 I1.1200 J-1.1287 F900
G01 Y2.7262 F900
G03 X14.6958 Y1.1362 I1.5900 J0.0000 F900
G01 X23.6108 F900
G00 Z-3.0000 F480
G01 X30.7908 F900
G00 Z-3.5000 F480
G01 Z-4.0000 F90
G01 X31.7908 Z-5.0000 F90
G01 X30.7908 Z-6.0000 F90
G01 X39.7058 F900
G03 X41.2958 Y2.7262 I0.0000 J1.5900 F900
G01 Y6.1362 F900
G01 X50.1158 F900
G01 Y2.7262 F900
G03 X51.7058 Y1.1362 I1.5900 J0.0000 F900
G01 X63.3608 F900
G00 Z-3.0000 F480
G01 X70.5408 F900
G00 Z-5.5000 F480
G01 Z-6.0000 F90
G01 X70.7908 Z-6.2500 F90
G01 X70.5408 Z-6.5000 F90
G01 X82.1958 F900
G03 X83.7858 Y2.7262 I0.0000 J1.5900 F900
G01 Y18.2649 F900
G03 X83.3201 Y19.3892 I-1.5900 J0.0000 F900
G02 X83.5284 Y19.6064 I0.1132 J0.0999 F900
G03 X84.6571 Y19.1362 I1.1287 J1.1199 F900
G01 X93.1958 F900
G03 X94.7858 Y20.7262 I0.0000 J1.5900 F900
G01 Y88.9012 F900
G00 Z-3.0000 F480
G01 Y96.0812 F900
G00 Z-5.5000 F480
G01 Z-6.0000 F90
G01 Y96.3312 Z-6.2500 F90
G01 Y96.0812 Z-6.5000 F90
G01 Y164.2562 F900
G03 X93.1958 Y165.8462 I-1.5900 J0.0000 F900
G01 X84.6571 F900
G03 X83.5308 Y165.3785 I0.0000 J-1.5900 F900
G02 X83.3148 Y165.5877 I-0.0978 J0.1151 F900
G03 X83.7858 Y166.7172 I-1.1190 J1.1296 F900
G01 Y180.2952 F900
G03 X83.3174 Y181.4223 I-1.5900 J0.0000 F900
G02 X83.5275 Y181.6372 I0.1162 J0.0966 F900
G03 X84.6571 Y181.1662 I1.1296 J1.1191 F900
G01 X93.1958 F900
G03 X94.7858 Y182.7562 I0.0000 J1.5900 F900
G01 Y250.9312 F900
G00 Z-3.0000 F480
G01 Y258.1112 F900
G00 Z-5.5000 F480
G01 Z-6.0000 F90
G01 Y258.3612 Z-6.2500 F90
G01 Y258.1112 Z-6.5000 F90
G01 Y326.2862 F900
G03 X93.1958 Y327.8762 I-1.5900 J0.0000 F900
G01 X84.6571 F900
G03 X83.5308 Y327.4085 I0.0000 J-1.5900 F900
G02 X83.3148 Y327.6177 I-0.0978 J0.1151 F900
G03 X83.7858 Y328.7472 I-1.1190 J1.1296 F900
G01 Y342.3252 F900
G03 X83.3174 Y343.4523 I-1.5900 J0.0000 F900
G02 X83.5275 Y343.6672 I0.1162 J0.0966 F900
G03 X84.6571 Y343.1962 I1.1296 J1.1191 F900
G01 X93.1958 F900
G03 X94.7858 Y344.7862 I0.0000 J1.5900 F900
G01 Y362.7257 F900
G00 Z-3.0000 F480
G01 Y369.9057 F900
G00 Z-5.5000 F480
G01 Z-6.0000 F90
G01 Y370.1557 Z-6.2500 F90
G01 Y369.9057 Z-6.5000 F90
G01 Y463.1967 F900
G00 Z-3.0000 F480
G01 Y470.3767 F900
G00 Z-5.5000 F480
G01 Z-6.0000 F90
G01 Y470.6267 Z-6.2500 F90
G01 Y470.3767 Z-6.5000 F90
G01 Y488.3162 F900
G03 X93.1958 Y489.9062 I-1.5900 J0.0000 F900
G01 X84.6571 F900
G03 X83.5308 Y489.4385 I0.0000 J-1.5900 F900
G02 X83.3148 Y489.6477 I-0.0978 J0.1151 F900
G03 X83.7858 Y490.7772 I-1.1190 J1.1296 F900
G01 Y504.3552 F900
G03 X83.3174 Y505.4823 I-1.5900 J0.0000 F900
G02 X83.5275 Y505.6972 I0.1162 J0.0966 F900
G03 X84.6571 Y505.2262 I1.1296 J1.1191 F900
G01 X93.1958 F900
G03 X94.7858 Y506.8162 I0.0000 J1.5900 F900
G01 Y574.9912 F900
G00 Z-3.0000 F480
G01 Y582.1712 F900
G00 Z-5.5000 F480
G01 Z-6.0000 F90
G01 Y582.4212 Z-6.2500 F90
G01 Y582.1712 Z-6.5000 F90
G01 Y650.3462 F900
G03 X93.1958 Y651.9362 I-1.5900 J0.0000 F900
G01 X84.6571 F900
G03 X83.5308 Y651.4685 I0.0000 J-1.5900 F900
G02 X83.3148 Y651.6777 I-0.0978 J0.1151 F900
G03 X83.7858 Y652.8072 I-1.1190 J1.1296 F900
G01 Y666.3852 F900
G03 X83.3174 Y667.5123 I-1.5900 J0.0000 F900
G02 X83.5275 Y667.7272 I0.1162 J0.0966 F900
G03 X84.6571 Y667.2562 I1.1296 J1.1191 F900
G01 X93.1958 F900
G03 X94.7858 Y668.8462 I0.0000 J1.5900 F900
G01 Y737.0212 F900
G00 Z-3.0000 F480
G01 Y744.2012 F900
G00 Z-5.5000 F480
G01 Z-6.0000 F90
G01 Y744.4512 Z-6.2500 F90
G01 Y744.2012 Z-6.5000 F90
G01 Y812.3762 F900
G03 X93.1958 Y813.9662 I-1.5900 J0.0000 F900
G01 X84.6571 F900
G03 X83.5308 Y813.4985 I0.0000 J-1.5900 F900
G02 X83.3148 Y813.7077 I-0.0978 J0.1151 F900
G03 X83.7858 Y814.8372 I-1.1190 J1.1296 F900
G01 Y830.3762 F900
G03 X82.1958 Y831.9662 I-1.5900 J0.0000 F900
G01 X80.3608 F900
G00 Z-3.0000 F480
G01 X73.1808 F900
G00 Z-5.5000 F480
G01 Z-6.0000 F90
G01 X72.9308 Z-6.2500 F90
G01 X73.1808 Z-6.5000 F90
G01 X71.3458 F900
G03 X69.7558 Y830.3762 I0.0000 J-1.5900 F900
G01 Y796.9662 F900
G01 X53.8358 F900
G01 Y830.3762 F900
G03 X52.2458 Y831.9662 I-1.5900 J0.0000 F900
G01 X37.0608 F900
G00 Z-3.0000 F480
G01 X29.8808 F900
G00 Z-5.5000 F480
G01 Z-6.0000 F90
G01 X29.6308 Z-6.2500 F90
G01 X29.8808 Z-6.5000 F90
G01 X14.6958 F900
G03 X13.1058 Y830.3762 I0.0000 J-1.5900 F900
G01 Y814.8372 F900
G03 X13.5743 Y813.7102 I1.5900 J0.0000 F900
G02 X13.3640 Y813.4953 I-0.1162 J-0.0966 F900
G03 X12.2345 Y813.9662 I-1.1295 J-1.1191 F900
G01 X2.6958 F900
G03 X1.1058 Y812.3762 I0.0000 J-1.5900 F900
G01 Y744.2012 F900
G00 Z-3.0000 F480
G01 Y737.0212 F900
G00 Z-5.5000 F480
G01 Z-6.0000 F90
G01 Y736.7712 Z-6.2500 F90
G01 Y737.0212 Z-6.5000 F90
G01 Y668.8462 F900
G03 X2.6958 Y667.2562 I1.5900 J0.0000 F900
G01 X12.2345 F900
G03 X13.3606 Y667.7238 I0.0000 J1.5900 F900
G02 X13.5768 Y667.5148 I0.0981 J-0.1149 F900
G03 X13.1058 Y666.3852 I1.1190 J-1.1296 F900
G01 Y652.8072 F900
G03 X13.5743 Y651.6802 I1.5900 J0.0000 F900
G02 X13.3640 Y651.4653 I-0.1162 J-0.0966 F900
G03 X12.2345 Y651.9362 I-1.1295 J-1.1191 F900
G01 X2.6958 F900
G03 X1.1058 Y650.3462 I0.0000 J-1.5900 F900
G01 Y582.1712 F900
G00 Z-3.0000 F480
G01 Y574.9912 F900
G00 Z-5.5000 F480
G01 Z-6.0000 F90
G01 Y574.7412 Z-6.2500 F90
G01 Y574.9912 Z-6.5000 F90
G01 Y506.8162 F900
G03 X2.6958 Y505.2262 I1.5900 J0.0000 F900
G01 X12.2345 F900
G03 X13.3606 Y505.6938 I0.0000 J1.5900 F900
G02 X13.5768 Y505.4848 I0.0981 J-0.1149 F900
G03 X13.1058 Y504.3552 I1.1190 J-1.1296 F900
G01 Y490.7772 F900
G03 X13.5743 Y489.6502 I1.5900 J0.0000 F900
G02 X13.3640 Y489.4353 I-0.1162 J-0.0966 F900
G03 X12.2345 Y489.9062 I-1.1295 J-1.1191 F900
G01 X2.6958 F900
G03 X1.1058 Y488.3162 I0.0000 J-1.5900 F900
G01 Y470.3767 F900
G00 Z-3.0000 F480
G01 Y463.1967 F900
G00 Z-5.5000 F480
G01 Z-6.0000 F90
G01 Y462.9467 Z-6.2500 F90
G01 Y463.1967 Z-6.5000 F90
G01 Y369.9057 F900
G00 Z-3.0000 F480
G01 Y362.7257 F900
G00 Z-5.5000 F480
G01 Z-6.0000 F90
G01 Y362.4757 Z-6.2500 F90
G01 Y362.7257 Z-6.5000 F90
G01 Y344.7862 F900
G03 X2.6958 Y343.1962 I1.5900 J0.0000 F900
G01 X12.2345 F900
G03 X13.3606 Y343.6638 I0.0000 J1.5900 F900
G02 X13.5768 Y343.4548 I0.0981 J-0.1149 F900
G03 X13.1058 Y342.3252 I1.1190 J-1.1296 F900
G01 Y328.7472 F900
G03 X13.5743 Y327.6202 I1.5900 J0.0000 F900
G02 X13.3640 Y327.4053 I-0.1162 J-0.0966 F900
G03 X12.2345 Y327.8762 I-1.1295 J-1.1191 F900
G01 X2.6958 F900
G03 X1.1058 Y326.2862 I0.0000 J-1.5900 F900
G01 Y258.1112 F900
G00 Z-3.0000 F480
G01 Y250.9312 F900
G00 Z-5.5000 F480
G01 Z-6.0000 F90
G01 Y250.6812 Z-6.2500 F90
G01 Y250.9312 Z-6.5000 F90
G01 Y182.7562 F900
G03 X2.6958 Y181.1662 I1.5900 J0.0000 F900
G01 X12.2345 F900
G03 X13.3606 Y181.6338 I0.0000 J1.5900 F900
G02 X13.5768 Y181.4248 I0.0981 J-0.1149 F900
G03 X13.1058 Y180.2952 I1.1190 J-1.1296 F900
G01 Y166.7172 F900
G03 X13.5743 Y165.5902 I1.5900 J0.0000 F900
G02 X13.3640 Y165.3753 I-0.1162 J-0.0966 F900
G03 X12.2345 Y165.8462 I-1.1295 J-1.1191 F900
G01 X2.6958 F900
G03 X1.1058 Y164.2562 I0.0000 J-1.5900 F900
G01 Y96.0812 F900
G00 Z-3.0000 F480
G01 Y88.9012 F900
G00 Z-5.5000 F480
G01 Z-6.0000 F90
G01 Y88.6512 Z-6.2500 F90
G01 Y88.9012 Z-6.5000 F90
G01 Y20.7262 F900
G03 X2.6958 Y19.1362 I1.5900 J0.0000 F900
G01 X12.2345 F900
G03 X13.3588 Y19.6019 I0.0000 J1.5900 F900
G02 X13.5759 Y19.3936 I0.0999 J-0.1132 F900
G03 X13.1058 Y18.2649 I1.1200 J-1.1287 F900
G01 Y2.7262 F900
G03 X14.6958 Y1.1362 I1.5900 J0.0000 F900
G01 X23.6108 F900
G00 Z-3.0000 F480
G01 X30.7908 F900
G00 Z-5.5000 F480
G01 Z-6.0000 F90
G01 X31.0408 Z-6.2500 F90
G01 X30.7908 Z-6.5000 F90
G01 X39.7058 F900
G03 X41.2958 Y2.7262 I0.0000 J1.5900 F900
G01 Y6.1362 F900
G01 X50.1158 F900
G01 Y2.7262 F900
G03 X51.7058 Y1.1362 I1.5900 J0.0000 F900
G01 X63.3608 F900
G00 Z-3.0000 F480
G01 X70.5408 F900
G00 Z10.0000 F480
G00 X0.0000 Y0.0000 F2100


M05
M30
