(Project lr4_strut.2)
(Created with Estlcam 12.102)
(Machining time about 00:26:31 hours)

(Required tools:)
(90deg engraver)

G21
G90
G94
M03 S10000
G00 Z10.0000 F480

(No. 1 Carve collection roughing and finishing: Multiple)
G00 X68.1300 Y13.4749 F2100
G00 Z0.6500 F480
G01 Z-0.3296 F600 S10000
G01 X68.8616 Y12.8500 Z-1.2887 F600
G01 X68.9176 Y12.7160 Z-1.4128 F600
G01 X68.8193 Y12.6009 Z-1.4009 F600
G01 X68.6972 Y12.5030 Z-1.3597 F600
G01 X68.7615 Y12.5496 Z-1.3843 F600
G01 X68.8251 Y12.6077 Z-1.4016 F600
G01 X68.9229 Y12.7222 Z-1.4134 F600
G01 X68.9728 Y12.7784 Z-1.4179 F600
G01 X87.5270 Y31.3400 Z-1.4128 F600
G01 X87.6254 Y31.4551 Z-1.4009 F600
G01 X87.7475 Y31.5529 Z-1.3597 F600
G01 X87.6832 Y31.5064 Z-1.3843 F600
G00 Z10.0000 F480
G00 Y41.0314 F2100
G00 Z0.6500 F480
G01 Z-1.3843 F600
G01 X87.7475 Y41.0779 Z-1.3597 F600
G01 X87.6254 Y40.9801 Z-1.4009 F600
G01 X87.5270 Y40.8650 Z-1.4128 F600
G01 X59.4474 Y12.7780 Z-1.4179 F600
G01 X59.3976 Y12.7218 Z-1.4134 F600
G01 X59.2999 Y12.6074 Z-1.4016 F600
G01 X59.2365 Y12.5496 Z-1.3843 F600
G01 X59.1722 Y12.5030 Z-1.3597 F600
G01 X59.2943 Y12.6009 Z-1.4009 F600
G01 X59.3926 Y12.7160 Z-1.4128 F600
G01 X59.3366 Y12.8500 Z-1.2887 F600
G01 X58.6050 Y13.4749 Z-0.3296 F600
G00 Z10.0000 F480
G00 X57.8115 Y20.6496 F2100
G00 Z0.6500 F480
G01 Z-1.3843 F600
G01 X57.7472 Y20.6030 Z-1.3597 F600
G01 X57.8693 Y20.7009 Z-1.4009 F600
G01 X57.9676 Y20.8160 Z-1.4128 F600
G01 X87.4724 Y50.3281 Z-1.4179 F600
G01 X87.5222 Y50.3843 Z-1.4134 F600
G01 X87.6199 Y50.4986 Z-1.4016 F600
G01 X87.6832 Y50.5564 Z-1.3843 F600
G01 X87.7475 Y50.6029 Z-1.3597 F600
G01 X87.6254 Y50.5051 Z-1.4009 F600
G01 X87.5270 Y50.3900 Z-1.4128 F600
G01 X87.5831 Y50.2559 Z-1.2886 F600
G01 X88.3147 Y49.6311 Z-0.3295 F600
G00 Z10.0000 F480
G00 Y59.1561 F2100
G00 Z0.6500 F480
G01 Z-0.3295 F600
G01 X87.5831 Y59.7809 Z-1.2886 F600
G01 X87.5270 Y59.9150 Z-1.4128 F600
G01 X87.6254 Y60.0301 Z-1.4009 F600
G01 X87.7475 Y60.1279 Z-1.3597 F600
G01 X87.6832 Y60.0814 Z-1.3843 F600
G01 X87.6199 Y60.0236 Z-1.4016 F600
G01 X87.5222 Y59.9093 Z-1.4134 F600
G01 X87.4724 Y59.8531 Z-1.4179 F600
G01 X57.9676 Y30.3410 Z-1.4128 F600
G01 X57.8693 Y30.2259 Z-1.4009 F600
G01 X57.7472 Y30.1280 Z-1.3597 F600
G01 X57.8115 Y30.1746 Z-1.3843 F600
G00 Z10.0000 F480
G00 Y39.6996 F2100
G00 Z0.6500 F480
G01 Z-1.3843 F600
G01 X57.7472 Y39.6530 Z-1.3597 F600
G01 X57.8693 Y39.7509 Z-1.4009 F600
G01 X57.9676 Y39.8660 Z-1.4128 F600
G01 X87.4724 Y69.3781 Z-1.4179 F600
G01 X87.5222 Y69.4343 Z-1.4134 F600
G01 X87.6199 Y69.5486 Z-1.4016 F600
G01 X87.6832 Y69.6064 Z-1.3843 F600
G01 X87.7475 Y69.6529 Z-1.3597 F600
G01 X87.6254 Y69.5551 Z-1.4009 F600
G01 X87.5270 Y69.4400 Z-1.4128 F600
G01 X87.5831 Y69.3059 Z-1.2886 F600
G01 X88.3147 Y68.6811 Z-0.3295 F600
G00 Z10.0000 F480
G00 Y78.2061 F2100
G00 Z0.6500 F480
G01 Z-0.3295 F600
G01 X87.5831 Y78.8309 Z-1.2886 F600
G01 X87.5270 Y78.9650 Z-1.4128 F600
G01 X87.6254 Y79.0801 Z-1.4009 F600
G01 X87.7475 Y79.1779 Z-1.3597 F600
G01 X87.6832 Y79.1314 Z-1.3843 F600
G01 X87.6199 Y79.0736 Z-1.4016 F600
G01 X87.5222 Y78.9593 Z-1.4134 F600
G01 X87.4724 Y78.9031 Z-1.4179 F600
G01 X57.9676 Y49.3910 Z-1.4128 F600
G01 X57.8693 Y49.2759 Z-1.4009 F600
G01 X57.7472 Y49.1780 Z-1.3597 F600
G01 X57.8115 Y49.2246 Z-1.3843 F600
G00 Z10.0000 F480
G00 X79.7879 Y83.7537 F2100
G00 Z0.6500 F480
G01 Z-0.5192 F600
G01 X79.7718 Y83.6969 Z-0.5228 F600
G01 X79.5402 Y83.0877 Z-0.5395 F600
G01 X79.4933 Y82.9902 Z-0.5460 F600
G01 X79.4489 Y82.9283 Z-0.5473 F600
G01 X79.1279 Y82.5022 Z-0.5692 F600
G01 X79.0606 Y82.4166 Z-0.5721 F600
G01 X79.0067 Y82.3668 Z-0.5690 F600
G01 X78.9504 Y82.3199 Z-0.5696 F600
G01 X78.4846 Y81.9623 Z-0.5979 F600
G01 X78.4414 Y81.9330 Z-0.5974 F600
G01 X78.3773 Y81.8947 Z-0.5928 F600
G01 X78.3118 Y81.8590 Z-0.5913 F600
G01 X78.2446 Y81.8267 Z-0.5934 F600
G01 X77.7024 Y81.5775 Z-0.6213 F600
G01 X77.6267 Y81.5466 Z-0.6215 F600
G01 X77.5578 Y81.5222 Z-0.6184 F600
G01 X77.4885 Y81.4990 Z-0.6165 F600
G01 X77.4182 Y81.4791 Z-0.6181 F600
G01 X76.7121 Y81.2898 Z-0.6440 F600
G01 X76.6078 Y81.2658 F600
G01 X76.5355 Y81.2518 Z-0.6414 F600
G01 X76.4629 Y81.2399 Z-0.6409 F600
G01 X75.5148 Y81.1110 Z-0.6607 F600
G01 X75.3821 Y81.0967 Z-0.6597 F600
G01 X75.3072 Y81.0924 Z-0.6588 F600
G01 X74.0294 Y81.0426 Z-0.6672 F600
G01 X72.7298 Y81.0912 Z-0.6593 F600
G01 X72.6534 Y81.0953 Z-0.6600 F600
G01 X72.5141 Y81.1097 Z-0.6611 F600
G01 X71.5550 Y81.2355 Z-0.6425 F600
G01 X71.4815 Y81.2470 Z-0.6429 F600
G01 X71.4083 Y81.2608 Z-0.6456 F600
G01 X71.3011 Y81.2848 Z-0.6459 F600
G01 X70.5943 Y81.4695 Z-0.6217 F600
G01 X70.5240 Y81.4890 Z-0.6202 F600
G01 X70.4545 Y81.5116 Z-0.6222 F600
G01 X70.3855 Y81.5357 Z-0.6257 F600
G01 X70.3134 Y81.5647 Z-0.6258 F600
G01 X69.7788 Y81.8084 Z-0.6005 F600
G01 X69.7125 Y81.8397 Z-0.5984 F600
G01 X69.6477 Y81.8741 Z-0.5997 F600
G01 X69.5844 Y81.9116 Z-0.6043 F600
G01 X69.5463 Y81.9384 Z-0.6046 F600
G01 X69.1154 Y82.2755 Z-0.5802 F600
G01 X69.0542 Y82.3242 Z-0.5774 F600
G01 X68.9754 Y82.3975 Z-0.5780 F600
G01 X68.9297 Y82.4589 Z-0.5740 F600
G01 X68.5710 Y82.9551 Z-0.5501 F600
G01 X68.5511 Y82.9886 Z-0.5473 F600
G01 X68.5202 Y83.0568 Z-0.5395 F600
G01 X68.4932 Y83.1263 Z-0.5357 F600
G01 X68.2918 Y83.6869 Z-0.5213 F600
G01 X68.2713 Y83.7590 Z-0.5157 F600
G01 X68.2581 Y83.8351 Z-0.5096 F600
G01 X68.2492 Y83.9115 Z-0.5080 F600
G01 X68.1790 Y84.6008 Z-0.5031 F600
G01 X68.1787 Y84.7023 Z-0.5029 F600
G01 X68.2496 Y85.3738 Z-0.5078 F600
G01 X68.2583 Y85.4483 Z-0.5091 F600
G01 X68.2708 Y85.5225 Z-0.5143 F600
G01 X68.2888 Y85.5862 Z-0.5187 F600
G01 X68.4930 Y86.1344 Z-0.5339 F600
G01 X68.5192 Y86.2027 Z-0.5366 F600
G01 X68.5669 Y86.3005 Z-0.5447 F600
G01 X68.6116 Y86.3619 Z-0.5469 F600
G01 X68.9301 Y86.7878 Z-0.5697 F600
G01 X68.9917 Y86.8669 Z-0.5734 F600
G01 X69.0454 Y86.9156 Z-0.5708 F600
G01 X69.1013 Y86.9614 Z-0.5717 F600
G01 X69.5626 Y87.3120 Z-0.6006 F600
G01 X69.5995 Y87.3366 Z-0.6002 F600
G01 X69.6632 Y87.3740 Z-0.5956 F600
G01 X69.7282 Y87.4087 Z-0.5939 F600
G01 X69.7949 Y87.4402 Z-0.5959 F600
G01 X70.3339 Y87.6811 Z-0.6243 F600
G01 X70.4089 Y87.7106 Z-0.6246 F600
G01 X70.4779 Y87.7343 Z-0.6216 F600
G01 X70.5473 Y87.7569 Z-0.6197 F600
G01 X70.6177 Y87.7763 Z-0.6212 F600
G01 X71.3244 Y87.9590 Z-0.6476 F600
G01 X71.4311 Y87.9827 Z-0.6477 F600
G01 X71.5039 Y87.9962 Z-0.6452 F600
G01 X71.5769 Y88.0077 Z-0.6448 F600
G01 X72.5306 Y88.1321 Z-0.6648 F600
G01 X72.6675 Y88.1462 Z-0.6639 F600
G01 X72.7431 Y88.1502 Z-0.6632 F600
G01 X74.0310 Y88.1984 Z-0.6717 F600
G01 X75.2997 Y88.1475 Z-0.6631 F600
G01 X75.3742 Y88.1427 Z-0.6645 F600
G01 X75.5035 Y88.1285 Z-0.6654 F600
G01 X76.4489 Y87.9970 Z-0.6451 F600
G01 X76.5212 Y87.9841 Z-0.6463 F600
G01 X76.5933 Y87.9700 Z-0.6488 F600
G01 X76.6950 Y87.9462 Z-0.6487 F600
G01 X77.4012 Y87.7539 Z-0.6213 F600
G01 X77.4713 Y87.7330 Z-0.6203 F600
G01 X77.5405 Y87.7090 Z-0.6225 F600
G01 X77.6094 Y87.6844 Z-0.6254 F600
G01 X77.6843 Y87.6536 Z-0.6248 F600
G01 X78.2297 Y87.4011 Z-0.5940 F600
G01 X78.2970 Y87.3678 Z-0.5922 F600
G01 X78.3624 Y87.3311 Z-0.5942 F600
G01 X78.4268 Y87.2924 Z-0.5984 F600
G01 X78.4727 Y87.2613 Z-0.5986 F600
G01 X78.8850 Y86.9460 Z-0.5700 F600
G01 X78.9435 Y86.9005 Z-0.5665 F600
G01 X78.9999 Y86.8524 Z-0.5664 F600
G01 X79.0537 Y86.8014 Z-0.5701 F600
G01 X79.0781 Y86.7730 Z-0.5705 F600
G01 X79.4501 Y86.2835 Z-0.5415 F600
G01 X79.4939 Y86.2204 Z-0.5412 F600
G01 X79.5133 Y86.1856 Z-0.5405 F600
G01 X79.5411 Y86.1183 Z-0.5365 F600
G01 X79.7501 Y85.5750 Z-0.5194 F600
G01 X79.7757 Y85.5069 Z-0.5179 F600
G01 X79.7910 Y85.4481 Z-0.5155 F600
G01 X79.8018 Y85.3752 Z-0.5122 F600
G01 X79.8748 Y84.7169 Z-0.5063 F600
G01 X79.8818 Y84.6436 Z-0.5067 F600
G01 X79.8807 Y84.5570 Z-0.5079 F600
G01 X79.8091 Y83.8993 Z-0.5128 F600
G01 X79.8004 Y83.8263 Z-0.5141 F600
G01 X79.7879 Y83.7537 Z-0.5192 F600
G01 X80.1386 Y83.6443 Z-0.1593 F600
G00 Z10.0000 F480
G00 X85.2757 Y84.4848 F2100
G00 Z0.6500 F480
G01 Z-0.5818 F600
G01 X85.2004 Y84.5030 Z-0.5758 F600
G01 X85.0863 Y84.4018 Z-0.4444 F600
G01 X85.0410 Y84.4644 Z-0.4445 F600
G01 X85.0409 Y84.5417 Z-0.4444 F600
G01 X85.0863 Y84.6042 F600
G01 X84.7925 Y85.0087 Z0.0311 F600
G01 X85.2004 Y84.5030 Z-0.5758 F600
G01 X85.2723 Y84.5425 Z-0.5605 F600
G01 X85.3473 Y84.5030 Z-0.6000 F600
G01 X90.9723 F600
G01 X91.0440 Y84.5212 Z-0.5818 F600
G01 X91.1193 Y84.5030 Z-0.5758 F600
G01 X91.2333 Y84.6042 Z-0.4444 F600
G01 X91.2786 Y84.5416 Z-0.4445 F600
G01 X91.2787 Y84.4643 Z-0.4444 F600
G01 X91.2333 Y84.4018 F600
G01 X91.5272 Y83.9973 Z0.0311 F600
G01 X91.1193 Y84.5030 Z-0.5758 F600
G01 X91.0440 Y84.4848 Z-0.5818 F600
G01 X91.1212 Y83.9969 Z-0.0939 F600
G00 Z10.0000 F480
G00 X85.1984 Y135.0088 F2100
G00 Z0.6500 F480
G01 Z-0.0942 F600
G01 X85.2757 Y134.5203 Z-0.5827 F600
G01 X85.2001 Y134.5030 Z-0.5758 F600
G01 X84.7924 Y135.0089 Z0.0312 F600
G01 X85.0860 Y134.6046 Z-0.4439 F600
G01 X85.0409 Y134.5419 Z-0.4444 F600
G01 X85.0415 Y134.4643 Z-0.4450 F600
G01 X85.0860 Y134.4014 Z-0.4439 F600
G01 X85.2001 Y134.5030 Z-0.5758 F600
G01 X85.2757 Y134.4856 Z-0.5827 F600
G01 X85.3473 Y134.5030 Z-0.6000 F600
G01 X90.9723 F600
G01 X91.0473 Y134.4644 Z-0.5614 F600
G01 X91.1195 Y134.5030 Z-0.5758 F600
G01 X91.5273 Y133.9970 Z0.0312 F600
G01 X91.2337 Y134.4014 Z-0.4439 F600
G01 X91.2787 Y134.4641 Z-0.4444 F600
G01 X91.2781 Y134.5417 Z-0.4450 F600
G01 X91.2337 Y134.6046 Z-0.4439 F600
G01 X91.1195 Y134.5030 Z-0.5758 F600
G01 X91.0440 Y134.5203 Z-0.5827 F600
G01 X90.9723 Y134.5030 Z-0.6000 F600
G01 X85.3473 F600
G01 X85.2723 Y134.5416 Z-0.5614 F600
G01 X85.2001 Y134.5030 Z-0.5758 F600
G01 X84.7924 Y135.0089 Z0.0312 F600
G00 Z10.0000 F480
G00 X48.1726 Y156.4583 F2100
G00 Z0.6500 F480
G01 Z-0.4723 F600
G01 X48.0976 Y156.4568 Z-0.4708 F600
G01 X30.4674 Y156.4595 Z-0.4735 F600
G01 X30.3924 Y156.4562 Z-0.4702 F600
G01 X30.3174 Y156.4568 Z-0.4708 F600
G01 X30.2423 Y156.4583 Z-0.4723 F600
G01 X30.1945 Y156.4597 Z-0.4729 F600
G01 X30.0429 Y156.4631 Z-0.4699 F600
G01 X29.9765 Y156.4683 Z-0.4666 F600
G01 X29.8932 Y156.4800 Z-0.4672 F600
G01 X29.7536 Y156.5137 Z-0.4713 F600
G01 X29.6908 Y156.5316 Z-0.4706 F600
G01 X29.6121 Y156.5551 Z-0.4698 F600
G01 X29.5513 Y156.5777 Z-0.4691 F600
G01 X29.4747 Y156.6072 Z-0.4684 F600
G01 X29.4163 Y156.6343 Z-0.4678 F600
G01 X29.3424 Y156.6696 Z-0.4673 F600
G01 X29.2863 Y156.7013 Z-0.4668 F600
G01 X29.2187 Y156.7403 Z-0.4666 F600
G01 X29.1655 Y156.7761 Z-0.4659 F600
G01 X29.0977 Y156.8229 Z-0.4654 F600
G01 X29.0471 Y156.8628 Z-0.4648 F600
G01 X28.9824 Y156.9150 Z-0.4643 F600
G01 X28.9355 Y156.9585 Z-0.4641 F600
G01 X28.8773 Y157.0137 F600
G01 X28.8337 Y157.0609 Z-0.4639 F600
G01 X28.7776 Y157.1231 F600
G01 X28.7377 Y157.1734 Z-0.4638 F600
G01 X28.6890 Y157.2362 Z-0.4639 F600
G01 X28.6531 Y157.2898 F600
G01 X28.6075 Y157.3598 Z-0.4642 F600
G01 X28.5757 Y157.4162 Z-0.4644 F600
G01 X28.5362 Y157.4883 Z-0.4648 F600
G01 X28.5090 Y157.5471 Z-0.4652 F600
G01 X28.4751 Y157.6223 Z-0.4658 F600
G01 X28.4524 Y157.6831 Z-0.4660 F600
G01 X28.4249 Y157.7591 Z-0.4665 F600
G01 X28.4068 Y157.8225 Z-0.4668 F600
G01 X28.3850 Y157.9022 Z-0.4673 F600
G01 X28.3682 Y157.9665 Z-0.4638 F600
G01 X28.3492 Y158.0488 Z-0.4609 F600
G01 X28.3405 Y158.1151 Z-0.4604 F600
G01 X28.3314 Y158.6285 Z-0.4673 F600
G01 X28.7079 Y158.5535 Z-0.0908 F600
G01 X28.9487 Y158.5160 Z0.1500 F600
G01 X28.3305 Y158.5559 Z-0.4665 F600
G01 X28.3299 Y158.5237 Z-0.4658 F600
G01 X28.3301 Y158.4914 Z-0.4660 F600
G01 X28.3308 Y158.4509 Z-0.4668 F600
G01 X28.3314 Y158.4005 Z-0.4673 F600
G01 X28.3319 Y158.3335 Z-0.4668 F600
G01 X28.3346 Y158.1995 Z-0.4641 F600
G01 X28.3374 Y158.1500 Z-0.4616 F600
G01 X28.3402 Y158.1181 Z-0.4604 F600
G01 X28.3438 Y158.0864 Z-0.4602 F600
G01 X28.3483 Y158.0547 Z-0.4607 F600
G01 X28.3542 Y158.0233 Z-0.4614 F600
G01 X28.3616 Y157.9921 Z-0.4624 F600
G01 X28.3712 Y157.9558 Z-0.4646 F600
G01 X28.3860 Y157.9271 Z-0.4613 F600
G01 X28.5420 Y157.9763 Z-0.2988 F600
G01 X28.6621 Y158.0168 Z-0.1731 F600
G01 X28.7249 Y158.0393 Z-0.1072 F600
G01 X28.7792 Y158.0601 Z-0.0499 F600
G01 X28.8034 Y158.0698 Z-0.0243 F600
G01 X28.8288 Y158.0805 Z0.0027 F600
G01 X28.8570 Y158.0930 Z0.0327 F600
G01 X28.8825 Y158.1053 Z0.0602 F600
G01 X28.9063 Y158.1181 Z0.0860 F600
G01 X28.9281 Y158.1316 Z0.1099 F600
G01 X28.9478 Y158.1472 Z0.1312 F600
G01 X28.9645 Y158.1660 Z0.1500 F600
G01 X28.3968 Y157.8581 Z-0.4670 F600
G01 X28.4150 Y157.7935 Z-0.4666 F600
G01 X28.4410 Y157.7137 Z-0.4662 F600
G01 X28.4638 Y157.6525 Z-0.4658 F600
G01 X28.4934 Y157.5809 Z-0.4654 F600
G01 X28.5209 Y157.5211 Z-0.4649 F600
G01 X28.5582 Y157.4474 Z-0.4646 F600
G01 X28.5899 Y157.3909 Z-0.4642 F600
G01 X28.6311 Y157.3229 Z-0.4641 F600
G01 X28.6669 Y157.2691 Z-0.4638 F600
G01 X28.7162 Y157.2006 F600
G01 X28.7557 Y157.1506 F600
G01 X28.8053 Y157.0919 Z-0.4639 F600
G01 X28.8486 Y157.0446 F600
G01 X28.9032 Y156.9888 Z-0.4642 F600
G01 X28.9500 Y156.9449 Z-0.4641 F600
G01 X29.0155 Y156.8879 Z-0.4646 F600
G01 X29.0653 Y156.8483 Z-0.4649 F600
G01 X29.1263 Y156.8028 Z-0.4657 F600
G01 X29.1794 Y156.7666 Z-0.4660 F600
G01 X29.2465 Y156.7240 Z-0.4668 F600
G01 X29.3027 Y156.6919 Z-0.4669 F600
G01 X29.3766 Y156.6530 Z-0.4676 F600
G01 X29.4353 Y156.6254 Z-0.4679 F600
G01 X29.5113 Y156.5928 Z-0.4688 F600
G01 X29.5725 Y156.5697 Z-0.4693 F600
G01 X29.6495 Y156.5436 Z-0.4702 F600
G01 X29.7130 Y156.5252 Z-0.4707 F600
G01 X29.7965 Y156.5045 Z-0.4716 F600
G01 X29.8859 Y156.7911 Z-0.1733 F600
G01 X29.9581 Y156.9893 Z0.0350 F600
G01 X29.9964 Y157.0652 Z0.1165 F600
G01 X30.0247 Y157.0950 Z0.1500 F600
G01 X29.8230 Y156.4971 Z-0.4697 F600
G01 X29.8544 Y156.4889 Z-0.4680 F600
G01 X29.8859 Y156.4816 Z-0.4672 F600
G01 X29.9177 Y156.4757 Z-0.4666 F600
G01 X29.9496 Y156.4713 Z-0.4663 F600
G01 X29.9817 Y156.4677 Z-0.4668 F600
G01 X30.0193 Y156.4646 Z-0.4684 F600
G01 X30.0536 Y156.4627 Z-0.4703 F600
G01 X30.1688 Y156.4604 Z-0.4726 F600
G01 X30.2013 Y156.4595 Z-0.4729 F600
G01 X30.3603 Y156.4560 Z-0.4700 F600
G01 X30.3928 Y156.4562 Z-0.4702 F600
G01 X30.4253 Y156.4572 Z-0.4712 F600
G01 X30.4633 Y156.4595 Z-0.4735 F600
G01 X30.4591 Y156.5202 Z-0.4128 F600
G01 X30.4430 Y156.7051 Z-0.2278 F600
G01 X30.4296 Y156.8314 Z-0.1016 F600
G01 X30.4203 Y156.9033 Z-0.0297 F600
G01 X30.4160 Y156.9325 Z-0.0005 F600
G01 X30.4113 Y156.9615 Z0.0285 F600
G01 X30.4066 Y156.9873 Z0.0543 F600
G01 X30.4009 Y157.0141 Z0.0811 F600
G01 X30.3946 Y157.0384 Z0.1054 F600
G01 X30.3860 Y157.0627 Z0.1297 F600
G01 X30.3709 Y157.0830 Z0.1500 F600
G01 X30.3860 Y157.0627 Z0.1297 F600
G01 X30.3946 Y157.0384 Z0.1054 F600
G01 X30.4009 Y157.0141 Z0.0811 F600
G01 X30.4066 Y156.9873 Z0.0543 F600
G01 X30.4113 Y156.9615 Z0.0285 F600
G01 X30.4160 Y156.9325 Z-0.0005 F600
G01 X30.4203 Y156.9033 Z-0.0297 F600
G01 X30.4296 Y156.8314 Z-0.1016 F600
G01 X30.4430 Y156.7051 Z-0.2278 F600
G01 X30.4591 Y156.5202 Z-0.4128 F600
G01 X30.4633 Y156.4595 Z-0.4735 F600
G01 X30.4253 Y156.4572 Z-0.4712 F600
G01 X30.3928 Y156.4562 Z-0.4702 F600
G01 X30.3603 Y156.4560 Z-0.4700 F600
G01 X30.2013 Y156.4595 Z-0.4729 F600
G01 X30.1688 Y156.4604 Z-0.4726 F600
G01 X30.0536 Y156.4627 Z-0.4703 F600
G01 X30.0193 Y156.4646 Z-0.4684 F600
G01 X29.9817 Y156.4677 Z-0.4668 F600
G01 X29.9496 Y156.4713 Z-0.4663 F600
G01 X29.9177 Y156.4757 Z-0.4666 F600
G01 X29.8859 Y156.4816 Z-0.4672 F600
G01 X29.8544 Y156.4889 Z-0.4680 F600
G01 X29.8230 Y156.4971 Z-0.4697 F600
G01 X30.0247 Y157.0950 Z0.1500 F600
G01 X29.9964 Y157.0652 Z0.1165 F600
G01 X29.9581 Y156.9893 Z0.0350 F600
G01 X29.8859 Y156.7911 Z-0.1733 F600
G01 X29.7965 Y156.5045 Z-0.4716 F600
G01 X29.7130 Y156.5252 Z-0.4707 F600
G01 X29.6495 Y156.5436 Z-0.4702 F600
G01 X29.5725 Y156.5697 Z-0.4693 F600
G01 X29.5113 Y156.5928 Z-0.4688 F600
G01 X29.4353 Y156.6254 Z-0.4679 F600
G01 X29.3766 Y156.6530 Z-0.4676 F600
G01 X29.3027 Y156.6919 Z-0.4669 F600
G01 X29.2465 Y156.7240 Z-0.4668 F600
G01 X29.1794 Y156.7666 Z-0.4660 F600
G01 X29.1263 Y156.8028 Z-0.4657 F600
G01 X29.0653 Y156.8483 Z-0.4649 F600
G01 X29.0155 Y156.8879 Z-0.4646 F600
G01 X28.9500 Y156.9449 Z-0.4641 F600
G01 X28.9032 Y156.9888 Z-0.4642 F600
G01 X28.8486 Y157.0446 Z-0.4639 F600
G01 X28.8053 Y157.0919 F600
G01 X28.7557 Y157.1506 Z-0.4638 F600
G01 X28.7162 Y157.2006 F600
G01 X28.6669 Y157.2691 F600
G01 X28.6311 Y157.3229 Z-0.4641 F600
G01 X28.5899 Y157.3909 Z-0.4642 F600
G01 X28.5582 Y157.4474 Z-0.4646 F600
G01 X28.5209 Y157.5211 Z-0.4649 F600
G01 X28.4934 Y157.5809 Z-0.4654 F600
G01 X28.4638 Y157.6525 Z-0.4658 F600
G01 X28.4410 Y157.7137 Z-0.4662 F600
G01 X28.4150 Y157.7935 Z-0.4666 F600
G01 X28.3968 Y157.8581 Z-0.4670 F600
G01 X28.9645 Y158.1660 Z0.1500 F600
G01 X28.9478 Y158.1472 Z0.1312 F600
G01 X28.9281 Y158.1316 Z0.1099 F600
G01 X28.9063 Y158.1181 Z0.0860 F600
G01 X28.8825 Y158.1053 Z0.0602 F600
G01 X28.8570 Y158.0930 Z0.0327 F600
G01 X28.8288 Y158.0805 Z0.0027 F600
G01 X28.8034 Y158.0698 Z-0.0243 F600
G01 X28.7792 Y158.0601 Z-0.0499 F600
G01 X28.7249 Y158.0393 Z-0.1072 F600
G01 X28.6621 Y158.0168 Z-0.1731 F600
G01 X28.5420 Y157.9763 Z-0.2988 F600
G01 X28.3860 Y157.9271 Z-0.4613 F600
G01 X28.3712 Y157.9558 Z-0.4646 F600
G01 X28.3616 Y157.9921 Z-0.4624 F600
G01 X28.3542 Y158.0233 Z-0.4614 F600
G01 X28.3483 Y158.0547 Z-0.4607 F600
G01 X28.3438 Y158.0864 Z-0.4602 F600
G01 X28.3402 Y158.1181 Z-0.4604 F600
G01 X28.3374 Y158.1500 Z-0.4616 F600
G01 X28.3346 Y158.1995 Z-0.4641 F600
G01 X28.3319 Y158.3335 Z-0.4668 F600
G01 X28.3314 Y158.4005 Z-0.4673 F600
G01 X28.3308 Y158.4509 Z-0.4668 F600
G01 X28.3301 Y158.4914 Z-0.4660 F600
G01 X28.3299 Y158.5237 Z-0.4658 F600
G01 X28.3305 Y158.5559 Z-0.4665 F600
G01 X28.9487 Y158.5160 Z0.1500 F600
G01 X28.7079 Y158.5535 Z-0.0908 F600
G01 X28.3314 Y158.6285 Z-0.4673 F600
G01 X28.3346 Y158.1994 Z-0.4641 F600
G01 X28.3314 Y193.4664 Z-0.4673 F600
G01 X28.3152 Y193.5414 Z-0.4512 F600
G01 X28.2638 Y193.6913 Z-0.3998 F600
G01 X27.9472 Y194.5908 Z-0.0831 F600
G01 X27.7140 Y195.2280 Z0.1500 F600
G01 X27.8243 Y194.9292 Z0.0397 F600
G01 X28.0617 Y194.2689 Z-0.1977 F600
G01 X28.3185 Y193.5320 Z-0.4544 F600
G01 X28.3423 Y193.4981 Z-0.4565 F600
G01 X28.9172 Y193.6933 Z0.1184 F600
G01 X28.3958 Y193.5164 Z-0.4029 F600
G00 Z10.0000 F480
G00 X35.1645 Y190.3994 F2100
G00 Z0.6500 F480
G01 Z-1.8205 F600
G01 X35.2553 Y190.2795 Z-1.8449 F600
G01 X35.3289 Y190.1818 Z-1.8659 F600
G01 X35.4213 Y190.0619 Z-1.8952 F600
G01 X35.5151 Y189.9428 Z-1.9261 F600
G01 X35.6106 Y189.8244 Z-1.9589 F600
G01 X35.6618 Y189.6841 Z-1.9423 F600
G01 X35.6967 Y189.5357 Z-1.9074 F600
G01 X35.9153 Y188.5544 Z-1.6887 F600
G01 X36.0949 Y187.6994 Z-1.5091 F600
G01 X36.2642 Y186.8463 Z-1.3399 F600
G01 X36.4224 Y185.9965 Z-1.1816 F600
G01 X36.4485 Y185.8474 Z-1.1555 F600
G01 X36.4726 Y185.6977 Z-1.1274 F600
G01 X36.4981 Y185.5484 Z-1.1006 F600
G01 X36.5268 Y185.4003 Z-1.0772 F600
G01 X36.5529 Y185.2512 Z-1.0512 F600
G01 X36.5729 Y185.1495 Z-1.0366 F600
G01 X36.5897 Y185.0764 Z-1.0292 F600
G01 X36.6087 Y185.0040 Z-1.0243 F600
G01 X36.6300 Y184.9324 Z-1.0217 F600
G01 X36.6535 Y184.8615 Z-1.0215 F600
G01 X36.6787 Y184.7911 Z-1.0230 F600
G01 X36.7019 Y184.7202 Z-1.0225 F600
G01 X36.7268 Y184.6497 Z-1.0237 F600
G01 X36.7523 Y184.5795 Z-1.0256 F600
G01 X36.7796 Y184.5099 Z-1.0294 F600
G01 X36.8075 Y184.4405 Z-1.0338 F600
G01 X36.8473 Y184.3472 Z-1.0430 F600
G01 X36.8770 Y184.2787 Z-1.0511 F600
G01 X36.9086 Y184.2107 Z-1.0611 F600
G01 X36.9410 Y184.1430 Z-1.0719 F600
G01 X36.9746 Y184.0757 Z-1.0841 F600
G01 X37.0095 Y184.0088 Z-1.0976 F600
G01 X36.6427 Y183.5063 Z-0.5983 F600
G01 X37.0002 Y183.9916 Z-1.0836 F600
G01 X37.1497 Y183.9423 Z-1.0344 F600
G01 X37.2993 Y183.8793 Z-0.9713 F600
G01 X37.4488 Y183.8222 Z-0.9142 F600
G01 X37.5984 Y183.7713 Z-0.8633 F600
G01 X37.6731 Y183.7481 Z-0.8401 F600
G01 X37.7479 Y183.7261 Z-0.8181 F600
G01 X37.8227 Y183.7060 Z-0.7980 F600
G01 X37.8974 Y183.6870 Z-0.7790 F600
G01 X37.9722 Y183.6702 Z-0.7622 F600
G01 X38.0470 Y183.6543 Z-0.7463 F600
G01 X38.1218 Y183.6403 Z-0.7323 F600
G01 X38.2713 Y183.6147 Z-0.7067 F600
G01 X38.3461 Y183.6012 Z-0.6932 F600
G01 X38.4208 Y183.5912 Z-0.6832 F600
G01 X38.4956 Y183.5846 Z-0.6766 F600
G01 X38.5704 Y183.5813 Z-0.6733 F600
G01 X38.7199 Y183.5810 Z-0.6730 F600
G01 X38.7947 Y183.5803 Z-0.6723 F600
G01 X38.9442 Y183.5775 Z-0.6695 F600
G01 X39.0190 Y183.5790 Z-0.6710 F600
G01 X39.0938 Y183.5810 Z-0.6730 F600
G01 X39.3181 F600
G01 X39.3929 Y183.5789 Z-0.6709 F600
G01 X39.4676 Y183.5775 Z-0.6695 F600
G01 X39.6172 Y183.5803 Z-0.6723 F600
G01 X39.6920 Y183.5810 Z-0.6730 F600
G01 X39.8415 Y183.5813 Z-0.6734 F600
G01 X39.9163 Y183.5846 Z-0.6766 F600
G01 X39.9910 Y183.5913 Z-0.6833 F600
G01 X40.0658 Y183.6013 Z-0.6933 F600
G01 X40.1406 Y183.6147 Z-0.7068 F600
G01 X40.2901 Y183.6404 Z-0.7324 F600
G01 X40.3649 Y183.6544 Z-0.7464 F600
G01 X40.4397 Y183.6703 Z-0.7623 F600
G01 X40.5144 Y183.6871 Z-0.7791 F600
G01 X40.5892 Y183.7061 Z-0.7981 F600
G01 X40.6640 Y183.7263 Z-0.8183 F600
G01 X40.7388 Y183.7482 Z-0.8402 F600
G01 X40.8135 Y183.7714 Z-0.8634 F600
G01 X40.8883 Y183.7963 Z-0.8883 F600
G01 X40.9631 Y183.8223 Z-0.9143 F600
G01 X41.0378 Y183.8500 Z-0.9420 F600
G01 X41.1126 Y183.8795 Z-0.9715 F600
G01 X41.1874 Y183.9099 Z-1.0020 F600
G01 X41.2622 Y183.9425 Z-1.0345 F600
G01 X41.3369 Y183.9758 Z-1.0678 F600
G01 X41.4117 Y183.9911 Z-1.0831 F600
G01 X41.7856 Y183.4837 Z-0.5757 F600
G01 X41.4014 Y184.0077 Z-1.0979 F600
G01 X41.4701 Y184.1423 Z-1.0721 F600
G01 X41.5026 Y184.2101 Z-1.0612 F600
G01 X41.5343 Y184.2783 Z-1.0511 F600
G01 X41.5640 Y184.3469 Z-1.0431 F600
G01 X41.6040 Y184.4406 Z-1.0338 F600
G01 X41.6319 Y184.5100 Z-1.0294 F600
G01 X41.6593 Y184.5796 Z-1.0256 F600
G01 X41.6847 Y184.6499 Z-1.0237 F600
G01 X41.7096 Y184.7203 Z-1.0225 F600
G01 X41.7329 Y184.7913 Z-1.0230 F600
G01 X41.7580 Y184.8616 Z-1.0215 F600
G01 X41.7816 Y184.9325 Z-1.0217 F600
G01 X41.8029 Y185.0041 Z-1.0243 F600
G01 X41.8219 Y185.0765 Z-1.0293 F600
G01 X41.8387 Y185.1497 Z-1.0366 F600
G01 X41.8586 Y185.2514 Z-1.0512 F600
G01 X41.8848 Y185.4004 Z-1.0773 F600
G01 X41.9135 Y185.5485 Z-1.1006 F600
G01 X41.9273 Y185.6228 Z-1.1129 F600
G01 X41.9390 Y185.6978 Z-1.1274 F600
G01 X41.9500 Y185.7731 Z-1.1426 F600
G01 X42.0083 Y186.1019 Z-1.2008 F600
G01 X42.1686 Y186.9557 Z-1.3612 F600
G01 X42.3399 Y187.8133 Z-1.5325 F600
G01 X42.5219 Y188.6716 Z-1.7144 F600
G01 X42.7153 Y189.5361 Z-1.9079 F600
G01 X42.7502 Y189.6846 Z-1.9428 F600
G01 X42.8021 Y189.8246 Z-1.9588 F600
G01 X42.8976 Y189.9429 Z-1.9260 F600
G01 X42.9917 Y190.0619 Z-1.8947 F600
G01 X43.0841 Y190.1817 Z-1.8654 F600
G01 X43.1578 Y190.2795 Z-1.8444 F600
G01 X43.2485 Y190.3993 Z-1.8200 F600
G01 X43.4236 Y190.6425 Z-1.7784 F600
G01 X43.5918 Y190.8893 Z-1.7446 F600
G01 X43.6567 Y190.9878 Z-1.7345 F600
G01 X43.7386 Y191.1120 Z-1.7234 F600
G01 X43.8183 Y191.2375 Z-1.7147 F600
G01 X43.8964 Y191.3638 Z-1.7079 F600
G01 X43.9728 Y191.4910 Z-1.7030 F600
G01 X44.0476 Y191.6192 Z-1.7000 F600
G01 X44.1064 Y191.7205 Z-1.6992 F600
G01 X44.2511 Y191.9793 Z-1.7055 F600
G01 X44.3891 Y192.2421 Z-1.7196 F600
G01 X44.5074 Y192.4800 Z-1.7394 F600
G01 X44.5722 Y192.6144 Z-1.7550 F600
G01 X44.6360 Y192.7493 Z-1.7716 F600
G01 X44.6977 Y192.8856 Z-1.7908 F600
G01 X44.7581 Y193.0226 Z-1.8115 F600
G01 X44.8167 Y193.1608 Z-1.8343 F600
G01 X44.8632 Y193.2732 Z-1.8552 F600
G01 X44.9211 Y193.4126 Z-1.8826 F600
G01 X45.0310 Y193.6950 Z-1.9445 F600
G01 X45.0991 Y193.8277 Z-1.9597 F600
G01 X45.2095 Y193.9328 Z-1.9245 F600
G01 X45.9452 Y194.6174 Z-1.7038 F600
G01 X46.5922 Y195.2050 Z-1.5222 F600
G01 X47.2416 Y195.7812 Z-1.3516 F600
G01 X47.8942 Y196.3470 Z-1.1917 F600
G01 X48.1251 Y196.5416 Z-1.1383 F600
G01 X48.2421 Y196.6376 Z-1.1094 F600
G01 X48.3549 Y196.7371 Z-1.0861 F600
G01 X48.4696 Y196.8349 Z-1.0603 F600
G01 X48.5474 Y196.9020 Z-1.0443 F600
G01 X48.6026 Y196.9526 Z-1.0358 F600
G01 X48.6561 Y197.0048 Z-1.0297 F600
G01 X48.7077 Y197.0585 Z-1.0258 F600
G01 X48.7576 Y197.1137 Z-1.0244 F600
G01 X48.8057 Y197.1705 Z-1.0253 F600
G01 X48.8546 Y197.2265 Z-1.0250 F600
G01 X48.9030 Y197.2831 Z-1.0256 F600
G01 X48.9507 Y197.3401 Z-1.0269 F600
G01 X48.9974 Y197.3981 Z-1.0298 F600
G01 X49.0431 Y197.4570 Z-1.0339 F600
G01 X49.1052 Y197.5390 Z-1.0420 F600
G01 X49.1491 Y197.5989 Z-1.0498 F600
G01 X49.1923 Y197.6594 Z-1.0586 F600
G01 X49.2342 Y197.7211 Z-1.0693 F600
G01 X49.2756 Y197.7832 Z-1.0804 F600
G01 X49.3157 Y197.8466 Z-1.0935 F600
G01 X49.6755 Y197.8185 Z-0.8086 F600
G01 X49.9250 Y197.7910 Z-0.6056 F600
G01 X49.3939 Y197.8495 Z-1.0377 F600
G01 X49.3197 Y197.8935 Z-1.0802 F600
G01 X49.3040 Y198.0571 Z-1.0127 F600
G01 X49.2830 Y198.2178 Z-0.9512 F600
G01 X49.2569 Y198.3755 Z-0.8956 F600
G01 X49.2421 Y198.4534 Z-0.8698 F600
G01 X49.2255 Y198.5303 Z-0.8460 F600
G01 X49.2081 Y198.6066 Z-0.8233 F600
G01 X49.1889 Y198.6820 Z-0.8025 F600
G01 X49.1688 Y198.7568 Z-0.7828 F600
G01 X49.1471 Y198.8308 Z-0.7650 F600
G01 X49.1243 Y198.9040 Z-0.7484 F600
G01 X49.1000 Y198.9765 Z-0.7336 F600
G01 X49.0745 Y199.0482 Z-0.7201 F600
G01 X49.0476 Y199.1192 Z-0.7083 F600
G01 X49.0219 Y199.1908 Z-0.6950 F600
G01 X48.9953 Y199.2620 Z-0.6828 F600
G01 X48.9657 Y199.3314 Z-0.6741 F600
G01 X48.9331 Y199.3990 Z-0.6688 F600
G01 X48.8975 Y199.4650 Z-0.6670 F600
G01 X48.8230 Y199.5951 Z-0.6671 F600
G01 X48.7509 Y199.7265 Z-0.6645 F600
G01 X48.7141 Y199.7919 Z-0.6640 F600
G01 X48.6745 Y199.8556 Z-0.6668 F600
G01 X48.5251 Y200.1155 Z-0.6675 F600
G01 X48.4903 Y200.1819 Z-0.6648 F600
G01 X48.4533 Y200.2471 Z-0.6645 F600
G01 X48.3764 Y200.3758 Z-0.6674 F600
G01 X48.3018 Y200.5058 Z-0.6677 F600
G01 X48.2637 Y200.5703 Z-0.6687 F600
G01 X48.2227 Y200.6333 Z-0.6731 F600
G01 X48.1787 Y200.6945 Z-0.6809 F600
G01 X48.1318 Y200.7540 Z-0.6921 F600
G01 X48.0823 Y200.8120 Z-0.7063 F600
G01 X48.0354 Y200.8715 Z-0.7174 F600
G01 X47.9864 Y200.9299 Z-0.7310 F600
G01 X47.9368 Y200.9878 Z-0.7454 F600
G01 X47.8852 Y201.0447 Z-0.7620 F600
G01 X47.8330 Y201.1011 Z-0.7793 F600
G01 X47.7789 Y201.1565 Z-0.7988 F600
G01 X47.7241 Y201.2115 Z-0.8191 F600
G01 X47.6672 Y201.2654 Z-0.8417 F600
G01 X47.6097 Y201.3188 Z-0.8651 F600
G01 X47.5501 Y201.3711 Z-0.8909 F600
G01 X47.4899 Y201.4230 Z-0.9175 F600
G01 X47.4278 Y201.4738 Z-0.9462 F600
G01 X47.3651 Y201.5243 Z-0.9756 F600
G01 X47.3004 Y201.5736 Z-1.0072 F600
G01 X47.2343 Y201.6222 Z-1.0404 F600
G01 X47.1673 Y201.6702 Z-1.0749 F600
G01 X47.1205 Y201.7298 Z-1.0858 F600
G01 X47.3742 Y202.3064 Z-0.5795 F600
G01 X47.1216 Y201.7322 Z-1.0837 F600
G01 X47.0519 Y201.7065 Z-1.0935 F600
G01 X46.9775 Y201.7018 Z-1.0816 F600
G01 X46.9032 Y201.6963 Z-1.0705 F600
G01 X46.8292 Y201.6896 Z-1.0607 F600
G01 X46.7556 Y201.6811 Z-1.0528 F600
G01 X46.6523 Y201.6685 Z-1.0435 F600
G01 X46.5789 Y201.6581 Z-1.0393 F600
G01 X46.5057 Y201.6471 Z-1.0357 F600
G01 X46.4328 Y201.6342 Z-1.0340 F600
G01 X46.3600 Y201.6208 Z-1.0328 F600
G01 X46.2876 Y201.6056 Z-1.0335 F600
G01 X46.2148 Y201.5925 Z-1.0320 F600
G01 X46.1423 Y201.5776 Z-1.0324 F600
G01 X46.0703 Y201.5604 Z-1.0351 F600
G01 X45.9987 Y201.5409 Z-1.0401 F600
G01 X45.9276 Y201.5192 Z-1.0474 F600
G01 X45.8312 Y201.4864 Z-1.0617 F600
G01 X45.6902 Y201.4346 Z-1.0882 F600
G01 X45.6196 Y201.4095 Z-1.1005 F600
G01 X45.4782 Y201.3601 Z-1.1245 F600
G01 X45.4079 Y201.3332 Z-1.1387 F600
G01 X45.3378 Y201.3054 Z-1.1538 F600
G01 X45.0252 Y201.1913 Z-1.2128 F600
G01 X44.2113 Y200.9040 Z-1.3748 F600
G01 X43.3890 Y200.6246 Z-1.5479 F600
G01 X42.5578 Y200.3531 Z-1.7322 F600
G01 X41.7173 Y200.0894 Z-1.9279 F600
G01 X41.5723 Y200.0456 Z-1.9632 F600
G01 X41.4254 Y200.0353 Z-1.9650 F600
G01 X41.1276 Y200.0810 Z-1.9021 F600
G01 X40.9789 Y200.1004 Z-1.8742 F600
G01 X40.7857 Y200.1254 Z-1.8409 F600
G01 X40.4899 Y200.1575 Z-1.7982 F600
G01 X40.3421 Y200.1702 Z-1.7802 F600
G01 X40.1943 Y200.1820 Z-1.7632 F600
G01 X39.9997 Y200.1942 Z-1.7455 F600
G01 X39.8524 Y200.2033 Z-1.7348 F600
G01 X39.5578 Y200.2146 Z-1.7202 F600
G01 X39.4105 Y200.2170 Z-1.7161 F600
G01 X39.2633 Y200.2183 Z-1.7132 F600
G01 X39.1482 F600
G01 X39.0010 Y200.2170 Z-1.7162 F600
G01 X38.8537 Y200.2145 Z-1.7203 F600
G01 X38.5591 Y200.2031 Z-1.7350 F600
G01 X38.4118 Y200.1939 Z-1.7458 F600
G01 X38.2910 Y200.1869 Z-1.7557 F600
G01 X37.9955 Y200.1640 Z-1.7891 F600
G01 X37.8477 Y200.1492 Z-1.8092 F600
G01 X37.6998 Y200.1335 Z-1.8302 F600
G01 X37.5518 Y200.1151 Z-1.8538 F600
G01 X37.4325 Y200.0998 Z-1.8747 F600
G01 X37.2838 Y200.0804 Z-1.9027 F600
G01 X36.9861 Y200.0346 Z-1.9657 F600
G01 X36.8392 Y200.0457 Z-1.9632 F600
G01 X36.6942 Y200.0895 Z-1.9279 F600
G01 X35.7390 Y200.3899 Z-1.7061 F600
G01 X34.9127 Y200.6613 Z-1.5242 F600
G01 X34.0949 Y200.9406 Z-1.3533 F600
G01 X33.2851 Y201.2278 Z-1.1933 F600
G01 X33.1442 Y201.2795 Z-1.1670 F600
G01 X33.0036 Y201.3332 Z-1.1387 F600
G01 X32.8626 Y201.3851 Z-1.1122 F600
G01 X32.7213 Y201.4346 Z-1.0881 F600
G01 X32.5803 Y201.4864 Z-1.0617 F600
G01 X32.4825 Y201.5197 Z-1.0473 F600
G01 X32.4114 Y201.5414 Z-1.0400 F600
G01 X32.3398 Y201.5609 Z-1.0351 F600
G01 X32.2678 Y201.5781 Z-1.0325 F600
G01 X32.1953 Y201.5930 Z-1.0322 F600
G01 X32.1224 Y201.6062 Z-1.0336 F600
G01 X32.0500 Y201.6214 Z-1.0331 F600
G01 X31.9772 Y201.6348 Z-1.0343 F600
G01 X31.9043 Y201.6477 Z-1.0361 F600
G01 X31.8311 Y201.6588 Z-1.0398 F600
G01 X31.7577 Y201.6692 Z-1.0440 F600
G01 X31.6574 Y201.6814 Z-1.0531 F600
G01 X31.5838 Y201.6899 Z-1.0610 F600
G01 X31.5097 Y201.6966 Z-1.0707 F600
G01 X31.4354 Y201.7020 Z-1.0817 F600
G01 X31.3610 Y201.7066 Z-1.0936 F600
G01 X31.2909 Y201.7311 Z-1.0850 F600
G01 X31.0409 Y202.2980 Z-0.5869 F600
G01 X31.2913 Y201.7303 Z-1.0857 F600
G01 X31.2445 Y201.6702 Z-1.0749 F600
G01 X31.1107 Y201.5730 Z-1.0069 F600
G01 X30.9827 Y201.4724 Z-0.9456 F600
G01 X30.8598 Y201.3690 Z-0.8901 F600
G01 X30.7999 Y201.3164 Z-0.8642 F600
G01 X30.7422 Y201.2625 Z-0.8408 F600
G01 X30.6851 Y201.2083 Z-0.8180 F600
G01 X30.6301 Y201.1529 Z-0.7977 F600
G01 X30.5758 Y201.0971 Z-0.7782 F600
G01 X30.5234 Y201.0402 Z-0.7609 F600
G01 X30.4716 Y200.9830 Z-0.7443 F600
G01 X30.4218 Y200.9246 Z-0.7300 F600
G01 X30.3726 Y200.8658 Z-0.7164 F600
G01 X30.3250 Y200.8062 Z-0.7046 F600
G01 X30.2750 Y200.7479 Z-0.6901 F600
G01 X30.2281 Y200.6879 Z-0.6791 F600
G01 X30.1842 Y200.6262 Z-0.6716 F600
G01 X30.1433 Y200.5627 Z-0.6676 F600
G01 X30.1053 Y200.4976 Z-0.6669 F600
G01 X30.0681 Y200.4321 Z-0.6670 F600
G01 X30.0304 Y200.3668 Z-0.6666 F600
G01 X29.9528 Y200.2375 Z-0.6633 F600
G01 X29.9161 Y200.1716 Z-0.6641 F600
G01 X29.8814 Y200.1046 Z-0.6672 F600
G01 X29.7321 Y199.8426 Z-0.6674 F600
G01 X29.6930 Y199.7781 Z-0.6654 F600
G01 X29.5819 Y199.5811 Z-0.6665 F600
G01 X29.5456 Y199.5150 Z-0.6678 F600
G01 X29.5085 Y199.4494 Z-0.6681 F600
G01 X29.4734 Y199.3827 Z-0.6707 F600
G01 X29.4413 Y199.3142 Z-0.6768 F600
G01 X29.4123 Y199.2439 Z-0.6864 F600
G01 X29.3525 Y199.1044 Z-0.7037 F600
G01 X29.3257 Y199.0329 Z-0.7159 F600
G01 X29.3019 Y198.9597 Z-0.7315 F600
G01 X29.1961 Y198.5861 Z-0.8248 F600
G01 X29.1761 Y198.5107 Z-0.8448 F600
G01 X29.1588 Y198.4338 Z-0.8679 F600
G01 X29.1442 Y198.3553 Z-0.8941 F600
G01 X29.1323 Y198.2753 Z-0.9234 F600
G01 X29.1230 Y198.1938 Z-0.9558 F600
G01 X29.1165 Y198.1107 Z-0.9913 F600
G01 X29.0996 Y197.9468 Z-1.0579 F600
G01 X29.0930 Y197.8637 Z-1.0933 F600
G01 X28.7223 Y197.8149 Z-0.7956 F600
G01 X28.4674 Y197.7868 Z-0.5882 F600
G01 X29.0806 Y197.8545 Z-1.0872 F600
G01 X29.1304 Y197.7959 Z-1.0845 F600
G01 X29.1730 Y197.7308 Z-1.0721 F600
G01 X29.2169 Y197.6668 Z-1.0615 F600
G01 X29.2615 Y197.6035 Z-1.0518 F600
G01 X29.3070 Y197.5410 Z-1.0435 F600
G01 X29.3698 Y197.4582 Z-1.0353 F600
G01 X29.4156 Y197.3994 Z-1.0313 F600
G01 X29.4621 Y197.3412 Z-1.0283 F600
G01 X29.5099 Y197.2842 Z-1.0269 F600
G01 X29.6071 Y197.1715 Z-1.0264 F600
G01 X29.6552 Y197.1146 Z-1.0255 F600
G01 X29.7050 Y197.0594 Z-1.0268 F600
G01 X29.7566 Y197.0056 Z-1.0305 F600
G01 X29.8100 Y196.9534 Z-1.0366 F600
G01 X29.8652 Y196.9028 Z-1.0451 F600
G01 X29.9429 Y196.8356 Z-1.0609 F600
G01 X30.0578 Y196.7378 Z-1.0868 F600
G01 X30.1709 Y196.6386 Z-1.1105 F600
G01 X30.2285 Y196.5898 Z-1.1237 F600
G01 X30.2878 Y196.5425 Z-1.1391 F600
G01 X30.5184 Y196.3476 Z-1.1921 F600
G01 X31.2546 Y195.7084 Z-1.3732 F600
G01 X31.9068 Y195.1281 Z-1.5459 F600
G01 X32.5559 Y194.5368 Z-1.7296 F600
G01 X33.2038 Y193.9330 Z-1.9248 F600
G01 X33.3142 Y193.8278 Z-1.9600 F600
G01 X33.3820 Y193.6949 Z-1.9444 F600
G01 X33.4920 Y193.4125 Z-1.8826 F600
G01 X33.5499 Y193.2733 Z-1.8553 F600
G01 X33.5966 Y193.1607 Z-1.8344 F600
G01 X33.6553 Y193.0226 Z-1.8117 F600
G01 X33.7157 Y192.8855 Z-1.7911 F600
G01 X33.7774 Y192.7493 Z-1.7720 F600
G01 X33.8412 Y192.6143 Z-1.7553 F600
G01 X33.9060 Y192.4800 Z-1.7398 F600
G01 X34.0243 Y192.2421 Z-1.7200 F600
G01 X34.1624 Y191.9794 Z-1.7061 F600
G01 X34.3072 Y191.7206 Z-1.6999 F600
G01 X34.3662 Y191.6190 Z-1.7007 F600
G01 X34.4407 Y191.4907 Z-1.7034 F600
G01 X34.5172 Y191.3635 Z-1.7085 F600
G01 X34.5954 Y191.2373 Z-1.7155 F600
G01 X34.6751 Y191.1119 Z-1.7242 F600
G01 X34.7567 Y190.9876 Z-1.7351 F600
G01 X34.8213 Y190.8894 Z-1.7452 F600
G01 X34.9895 Y190.6426 Z-1.7789 F600
G01 X35.1645 Y190.3994 Z-1.8205 F600
G01 X35.2553 Y190.2795 Z-1.8449 F600
G00 Z10.0000 F480
G00 X32.0595 Y177.5439 F2100
G00 Z0.6500 F480
G01 Z-0.9381 F600
G01 X31.9096 Y177.6485 Z-0.8335 F600
G01 X32.0498 Y177.5509 Z-0.9311 F600
G01 X32.0784 Y177.5301 Z-0.9519 F600
G01 X32.1075 Y177.5082 Z-0.9738 F600
G01 X32.1372 Y177.4853 Z-0.9967 F600
G01 X32.1675 Y177.4613 Z-1.0207 F600
G01 X31.0179 Y177.2050 Z0.1500 F600
G01 X31.1253 Y177.2007 Z0.0493 F600
G01 X31.8945 Y177.3742 Z-0.7356 F600
G01 X32.2048 Y177.3970 Z-1.0375 F600
G01 X32.1828 Y177.2315 Z-0.9649 F600
G01 X32.1723 Y177.0698 Z-0.9045 F600
G01 X32.1713 Y176.9903 Z-0.8788 F600
G01 X32.1733 Y176.9118 Z-0.8561 F600
G01 X32.1781 Y176.8342 Z-0.8365 F600
G01 X32.1858 Y176.7576 Z-0.8199 F600
G01 X32.1964 Y176.6820 Z-0.8064 F600
G01 X32.2099 Y176.6072 Z-0.7959 F600
G01 X32.2263 Y176.5335 Z-0.7884 F600
G01 X32.2455 Y176.4606 Z-0.7839 F600
G01 X32.2674 Y176.3887 Z-0.7823 F600
G01 X32.2810 Y176.3140 Z-0.7719 F600
G01 X32.2976 Y176.2403 Z-0.7646 F600
G01 X32.3171 Y176.1676 Z-0.7605 F600
G01 X32.3396 Y176.0958 Z-0.7594 F600
G01 X32.3650 Y176.0250 Z-0.7615 F600
G01 X32.3933 Y175.9552 Z-0.7666 F600
G01 X32.4247 Y175.8863 Z-0.7749 F600
G01 X32.4589 Y175.8184 Z-0.7862 F600
G01 X32.5837 Y175.4637 Z-0.7941 F600
G01 X32.6068 Y175.3921 Z-0.7936 F600
G01 X32.6267 Y175.3195 Z-0.7899 F600
G01 X32.6398 Y175.2656 Z-0.7832 F600
G01 X32.6298 Y175.3063 Z-0.7888 F600
G01 X32.6168 Y175.3572 Z-0.7923 F600
G01 X32.6034 Y175.4036 Z-0.7940 F600
G01 X32.5818 Y175.4691 Z-0.7939 F600
G01 X32.4748 Y175.7726 Z-0.7870 F600
G01 X33.2215 Y176.3516 Z0.1107 F600
G01 X33.2410 Y176.3789 Z0.1379 F600
G01 X33.1928 Y176.3117 Z0.0704 F600
G01 X33.1759 Y176.2915 Z0.0477 F600
G01 X33.1578 Y176.2726 Z0.0244 F600
G01 X33.1391 Y176.2547 Z0.0009 F600
G01 X33.1200 Y176.2377 Z-0.0228 F600
G01 X33.0992 Y176.2203 Z-0.0482 F600
G01 X33.0777 Y176.2030 Z-0.0741 F600
G01 X33.0569 Y176.1870 Z-0.0990 F600
G01 X33.0322 Y176.1686 Z-0.1284 F600
G01 X33.0104 Y176.1529 Z-0.1542 F600
G01 X32.9555 Y176.1150 Z-0.2186 F600
G01 X32.9078 Y176.0833 Z-0.2742 F600
G01 X32.8476 Y176.0449 Z-0.3438 F600
G01 X32.7471 Y175.9834 Z-0.4591 F600
G01 X32.6042 Y175.9000 Z-0.6218 F600
G01 X32.4875 Y175.8345 Z-0.7539 F600
G01 X32.4574 Y175.8214 Z-0.7857 F600
G01 X32.4313 Y175.8727 Z-0.7769 F600
G01 X32.4071 Y175.9241 Z-0.7700 F600
G01 X32.3847 Y175.9757 Z-0.7648 F600
G01 X32.3640 Y176.0276 Z-0.7613 F600
G01 X32.3476 Y176.0724 Z-0.7597 F600
G01 X32.3324 Y176.1175 Z-0.7594 F600
G01 X32.3184 Y176.1631 Z-0.7603 F600
G01 X32.3056 Y176.2091 Z-0.7625 F600
G01 X32.2939 Y176.2556 Z-0.7659 F600
G01 X32.2834 Y176.3028 Z-0.7706 F600
G01 X32.2648 Y176.3973 Z-0.7825 F600
G01 X32.2504 Y176.4439 Z-0.7833 F600
G01 X32.2371 Y176.4911 Z-0.7854 F600
G01 X32.2250 Y176.5387 Z-0.7888 F600
G01 X32.2141 Y176.5870 Z-0.7935 F600
G01 X32.2044 Y176.6360 Z-0.7996 F600
G01 X32.1972 Y176.6774 Z-0.8057 F600
G01 X32.1908 Y176.7193 Z-0.8127 F600
G01 X32.1853 Y176.7619 Z-0.8208 F600
G01 X32.1807 Y176.8052 Z-0.8299 F600
G01 X32.1770 Y176.8492 Z-0.8401 F600
G01 X32.1741 Y176.8940 Z-0.8514 F600
G01 X32.1723 Y176.9397 Z-0.8639 F600
G01 X32.1714 Y176.9862 Z-0.8775 F600
G01 X32.1715 Y177.0338 Z-0.8925 F600
G01 X32.1727 Y177.0824 Z-0.9088 F600
G01 X32.1744 Y177.1222 Z-0.9229 F600
G01 X32.1769 Y177.1627 Z-0.9379 F600
G01 X32.1802 Y177.2040 Z-0.9539 F600
G01 X32.1843 Y177.2462 Z-0.9709 F600
G01 X32.1892 Y177.2894 Z-0.9891 F600
G01 X32.1950 Y177.3335 Z-1.0084 F600
G01 X32.2018 Y177.3786 Z-1.0289 F600
G01 X33.1997 Y176.6980 Z0.1500 F600
G01 X33.1218 Y176.7538 Z0.0718 F600
G01 X33.1009 Y176.7689 Z0.0487 F600
G01 X33.0781 Y176.7853 Z0.0224 F600
G01 X33.0061 Y176.8373 Z-0.0636 F600
G01 X32.2079 Y177.4160 Z-1.0464 F600
G01 X32.2905 Y177.4702 Z-1.0118 F600
G01 X32.3899 Y177.5155 Z-0.9665 F600
G01 X32.4762 Y177.5506 Z-0.9314 F600
G01 X32.5599 Y177.5809 Z-0.9011 F600
G01 X32.6324 Y177.6041 Z-0.8779 F600
G01 X32.7035 Y177.6242 Z-0.8578 F600
G01 X32.7732 Y177.6412 Z-0.8408 F600
G01 X32.8419 Y177.6555 Z-0.8265 F600
G01 X32.9012 Y177.6658 Z-0.8161 F600
G01 X32.9599 Y177.6742 Z-0.8078 F600
G01 X33.0182 Y177.6808 Z-0.8012 F600
G01 X33.0762 Y177.6854 Z-0.7965 F600
G01 X33.1339 Y177.6883 Z-0.7936 F600
G01 X33.1833 Y177.6894 Z-0.7926 F600
G01 X33.2389 Y177.6967 Z-0.7853 F600
G01 X33.2958 Y177.7035 Z-0.7785 F600
G01 X33.3523 Y177.7085 Z-0.7735 F600
G01 X33.4086 Y177.7118 Z-0.7702 F600
G01 X33.4568 Y177.7132 Z-0.7688 F600
G01 X33.5049 Y177.7134 Z-0.7686 F600
G01 X33.5530 Y177.7123 Z-0.7697 F600
G01 X33.6012 Y177.7100 Z-0.7720 F600
G01 X33.6496 Y177.7063 Z-0.7757 F600
G01 X33.6982 Y177.7014 Z-0.7806 F600
G01 X33.7470 Y177.6951 Z-0.7868 F600
G01 X33.5031 Y176.7470 Z0.1500 F600
G01 X33.5405 Y176.7986 Z0.0984 F600
G01 X33.6153 Y176.9414 Z-0.0444 F600
G01 X33.6902 Y177.1991 Z-0.3021 F600
G01 X33.7650 Y177.5733 Z-0.6763 F600
G01 X33.8398 Y177.6895 Z-0.7925 F600
G01 X46.4822 F600
G01 X46.5570 F600
G00 Z10.0000 F480
G00 X32.5100 Y172.3600 F2100
G00 Z0.6500 F480
G01 Z0.1500 F600
G01 X32.5126 Y172.3350 Z0.1277 F600
G01 X32.5086 Y172.3095 Z0.1025 F600
G01 X32.5025 Y172.2811 Z0.0739 F600
G01 X32.4955 Y172.2529 Z0.0450 F600
G01 X32.4888 Y172.2275 Z0.0190 F600
G01 X32.4692 Y172.1585 Z-0.0524 F600
G01 X32.4245 Y172.0137 Z-0.2035 F600
G01 X32.2928 Y171.6184 Z-0.6195 F600
G01 X32.2372 Y171.4572 Z-0.7899 F600
G01 X32.2208 Y171.4323 Z-0.8186 F600
G01 X32.1732 Y171.4497 Z-0.8174 F600
G01 X31.9467 Y171.5404 Z-0.8191 F600
G01 X31.8965 Y171.5592 Z-0.8182 F600
G01 X31.7206 Y171.6653 Z-0.6620 F600
G01 X31.8159 Y171.5974 Z-0.7758 F600
G01 X31.8412 Y171.5869 Z-0.8021 F600
G01 X31.9066 Y171.5556 Z-0.8186 F600
G01 X31.9764 Y171.5288 Z-0.8191 F600
G01 X32.1151 Y171.4728 Z-0.8176 F600
G01 X32.1847 Y171.4454 F600
G01 X32.2547 Y171.4192 Z-0.8188 F600
G01 X44.0420 Y166.7767 Z-0.8064 F600
G01 X44.0878 Y166.7561 Z-0.8087 F600
G01 X44.1332 Y166.7342 Z-0.8124 F600
G01 X44.1783 Y166.7109 Z-0.8174 F600
G01 X44.2232 Y166.6863 Z-0.8238 F600
G01 X44.2605 Y166.6647 Z-0.8303 F600
G01 X44.2977 Y166.6420 Z-0.8377 F600
G01 X44.3349 Y166.6182 Z-0.8461 F600
G01 X44.3720 Y166.5933 Z-0.8557 F600
G01 X44.4091 Y166.5672 Z-0.8663 F600
G01 X44.4462 Y166.5399 Z-0.8781 F600
G01 X44.4834 Y166.5112 Z-0.8911 F600
G01 X44.5207 Y166.4811 Z-0.9054 F600
G01 X44.5582 Y166.4496 Z-0.9210 F600
G01 X44.5957 Y166.4165 Z-0.9379 F600
G01 X44.6259 Y166.3889 Z-0.9526 F600
G01 X44.6562 Y166.3601 Z-0.9682 F600
G01 X44.6867 Y166.3302 Z-0.9848 F600
G01 X44.7173 Y166.2990 Z-1.0025 F600
G01 X44.7481 Y166.2666 Z-1.0214 F600
G01 X44.7791 Y166.2328 Z-1.0414 F600
G01 X44.8103 Y166.1975 Z-1.0628 F600
G01 X44.8417 Y166.1608 Z-1.0854 F600
G01 X44.8733 Y166.1224 Z-1.1095 F600
G01 X44.9052 Y166.0823 Z-1.1351 F600
G01 X44.9374 Y166.0403 Z-1.1623 F600
G01 X44.9699 Y165.9965 Z-1.1911 F600
G01 X45.0026 Y165.9506 Z-1.2218 F600
G01 X45.1110 Y165.7910 Z-1.3297 F600
G01 X45.0965 Y165.8130 Z-1.3152 F600
G01 X45.1685 Y165.7914 Z-1.3089 F600
G01 X46.5370 Y165.7917 Z-0.8058 F600
G01 X46.5795 Y165.7921 Z-0.7893 F600
G01 X46.6238 Y165.8158 Z-0.7489 F600
G01 X46.6093 Y165.7618 Z-0.7497 F600
G01 X46.6238 Y165.8158 Z-0.7489 F600
G01 X46.5795 Y165.7921 Z-0.7893 F600
G01 X46.5370 Y165.7917 Z-0.8058 F600
G01 X45.1685 Y165.7914 Z-1.3089 F600
G01 X45.0965 Y165.8130 Z-1.3152 F600
G01 X45.0115 Y165.6449 Z-1.2304 F600
G01 X44.9219 Y165.5220 Z-1.1489 F600
G01 X44.8344 Y165.4133 Z-1.0800 F600
G01 X44.7565 Y165.3250 Z-1.0265 F600
G01 X44.6797 Y165.2454 Z-0.9807 F600
G01 X44.6115 Y165.1803 Z-0.9452 F600
G01 X44.5439 Y165.1207 Z-0.9146 F600
G01 X44.4842 Y165.0718 Z-0.8911 F600
G01 X44.4247 Y165.0266 Z-0.8708 F600
G01 X44.3653 Y164.9845 Z-0.8536 F600
G01 X44.3059 Y164.9456 Z-0.8392 F600
G01 X44.2539 Y164.9138 Z-0.8287 F600
G01 X44.2016 Y164.8840 Z-0.8202 F600
G01 X44.1491 Y164.8562 Z-0.8137 F600
G01 X44.0962 Y164.8303 Z-0.8090 F600
G01 X44.0429 Y164.8061 Z-0.8060 F600
G01 X43.9968 Y164.7867 Z-0.8050 F600
G01 X31.9110 Y160.0292 Z-0.8169 F600
G01 X31.8318 Y160.0250 Z-0.7918 F600
G00 Z10.0000 F480
G00 X47.9318 Y156.4595 F2100
G00 Z0.6500 F480
G01 Z-0.4735 F600
G01 X48.0067 Y156.9783 Z0.0453 F600
G01 X48.0441 Y157.0830 Z0.1500 F600
G01 X47.9665 Y156.4584 Z-0.4724 F600
G01 X47.9991 Y156.4568 Z-0.4708 F600
G01 X48.0315 Y156.4561 Z-0.4701 F600
G01 X48.0640 Z-0.4702 F600
G01 X48.2137 Y156.4595 Z-0.4729 F600
G01 X48.2462 Y156.4604 Z-0.4726 F600
G01 X48.3615 Y156.4627 Z-0.4703 F600
G01 X48.3957 Y156.4646 Z-0.4684 F600
G01 X48.4280 Y156.4672 Z-0.4669 F600
G01 X48.4601 Y156.4707 Z-0.4663 F600
G01 X48.4921 Y156.4749 Z-0.4665 F600
G01 X48.5239 Y156.4805 Z-0.4671 F600
G01 X48.5554 Y156.4877 Z-0.4678 F600
G01 X48.5921 Y156.4971 Z-0.4696 F600
G01 X48.6134 Y156.5168 Z-0.4586 F600
G01 X48.5622 Y156.6877 Z-0.2810 F600
G01 X48.5221 Y156.8129 Z-0.1505 F600
G01 X48.5005 Y156.8758 Z-0.0846 F600
G01 X48.4812 Y156.9288 Z-0.0290 F600
G01 X48.4697 Y156.9585 Z0.0024 F600
G01 X48.4585 Y156.9856 Z0.0311 F600
G01 X48.4485 Y157.0086 Z0.0556 F600
G01 X48.4366 Y157.0334 Z0.0822 F600
G01 X48.4238 Y157.0569 Z0.1076 F600
G01 X48.4090 Y157.0782 Z0.1307 F600
G01 X48.3903 Y157.0950 Z0.1500 F600
G01 X48.6184 Y156.5045 Z-0.4715 F600
G01 X48.7019 Y156.5252 Z-0.4707 F600
G01 X48.7655 Y156.5437 Z-0.4702 F600
G01 X48.8425 Y156.5696 Z-0.4694 F600
G01 X48.9038 Y156.5925 Z-0.4691 F600
G01 X48.9798 Y156.6250 Z-0.4683 F600
G01 X49.0386 Y156.6527 Z-0.4680 F600
G01 X49.1124 Y156.6919 Z-0.4669 F600
G01 X49.1684 Y156.7241 Z-0.4667 F600
G01 X49.2355 Y156.7668 Z-0.4658 F600
G01 X49.2887 Y156.8029 Z-0.4657 F600
G01 X49.3496 Y156.8483 Z-0.4649 F600
G01 X49.3994 Y156.8879 Z-0.4645 F600
G01 X49.4648 Y156.9451 Z-0.4638 F600
G01 X49.5116 Y156.9890 Z-0.4640 F600
G01 X49.5662 Y157.0448 Z-0.4636 F600
G01 X49.6095 Y157.0921 Z-0.4637 F600
G01 X49.6590 Y157.1508 Z-0.4634 F600
G01 X49.6983 Y157.2009 F600
G01 X49.7476 Y157.2694 Z-0.4632 F600
G01 X49.7834 Y157.3232 Z-0.4636 F600
G01 X49.8243 Y157.3908 F600
G01 X49.8559 Y157.4473 Z-0.4638 F600
G01 X49.8935 Y157.5220 Z-0.4640 F600
G01 X49.9209 Y157.5818 Z-0.4645 F600
G01 X49.9501 Y157.6529 Z-0.4647 F600
G01 X49.9729 Y157.7141 Z-0.4650 F600
G01 X49.9987 Y157.7939 Z-0.4653 F600
G01 X50.0169 Y157.8584 Z-0.4657 F600
G01 X50.0353 Y157.9361 Z-0.4659 F600
G01 X49.7804 Y158.0203 Z-0.1995 F600
G01 X49.5662 Y158.0965 Z0.0254 F600
G01 X49.4806 Y158.1381 Z0.1168 F600
G01 X49.4504 Y158.1660 Z0.1500 F600
G01 X50.0447 Y157.9713 Z-0.4637 F600
G01 X50.0526 Y158.0024 Z-0.4622 F600
G01 X50.0597 Y158.0336 Z-0.4615 F600
G01 X50.0649 Y158.0652 Z-0.4605 F600
G01 X50.0691 Y158.0969 Z-0.4602 F600
G01 X50.0724 Y158.1287 Z-0.4608 F600
G01 X50.0749 Y158.1607 Z-0.4622 F600
G01 X50.0768 Y158.1952 Z-0.4640 F600
G01 X50.0791 Y158.3118 Z-0.4664 F600
G01 X50.0801 Y158.3463 Z-0.4667 F600
G01 X50.0834 Y158.5151 Z-0.4640 F600
G01 X50.0830 Y158.5473 Z-0.4644 F600
G01 X50.0817 Y158.5795 Z-0.4657 F600
G01 X50.0711 Y158.6050 Z-0.4584 F600
G01 X49.9028 Y158.5915 Z-0.2900 F600
G01 X49.7449 Y158.5761 Z-0.1322 F600
G01 X49.6728 Y158.5676 Z-0.0600 F600
G01 X49.6159 Y158.5598 Z-0.0031 F600
G01 X49.5856 Y158.5550 Z0.0272 F600
G01 X49.5589 Y158.5503 Z0.0538 F600
G01 X49.5342 Y158.5452 Z0.0786 F600
G01 X49.5082 Y158.5387 Z0.1046 F600
G01 X49.4834 Y158.5302 Z0.1294 F600
G01 X49.4627 Y158.5160 Z0.1500 F600
G01 X50.0801 Y158.6285 Z-0.4673 F600
G01 Y193.4444 F600
G01 X50.0172 Y193.5194 Z-0.4045 F600
G01 X49.4945 Y193.6963 Z0.1183 F600
G01 X50.0684 Y193.5019 Z-0.4556 F600
G01 X50.0929 Y193.5352 Z-0.4546 F600
G01 X50.3780 Y194.3517 Z-0.1694 F600
G01 X50.6974 Y195.2310 Z0.1500 F600
G01 X50.3842 Y194.3689 Z-0.1632 F600
G00 Z10.0000 F480
G00 X50.0801 Y203.3929 F2100
G00 Z0.6500 F480
G01 Z-0.4674 F600
G01 X50.0897 Y203.3180 Z-0.4578 F600
G01 X50.6974 Y201.0310 Z0.1500 F600
G01 X50.0866 Y203.3297 Z-0.4609 F600
G01 X50.6974 Y201.0310 Z0.1500 F600
G01 X50.0897 Y203.3180 Z-0.4578 F600
G01 X50.0801 Y203.3929 Z-0.4674 F600
G01 Y203.3774 Z-0.4673 F600
G01 Y203.4524 F600
G01 Y348.4665 F600
G01 X49.5710 Y348.5415 Z0.0418 F600
G01 X49.4627 Y348.5790 Z0.1500 F600
G01 X50.0809 Y348.5006 Z-0.4665 F600
G01 X50.0826 Y348.5328 Z-0.4649 F600
G01 X50.0834 Y348.5650 Z-0.4641 F600
G01 X50.0833 Y348.5971 F600
G01 X50.0801 Y348.7484 Z-0.4667 F600
G01 X50.0791 Y348.7832 Z-0.4664 F600
G01 X50.0768 Y348.8998 Z-0.4640 F600
G01 X50.0741 Y348.9450 Z-0.4616 F600
G01 X50.0713 Y348.9769 Z-0.4605 F600
G01 X50.0677 Y349.0086 Z-0.4602 F600
G01 X50.0633 Y349.0403 Z-0.4608 F600
G01 X50.0574 Y349.0718 Z-0.4616 F600
G01 X50.0501 Y349.1030 Z-0.4625 F600
G01 X50.0404 Y349.1392 Z-0.4647 F600
G01 X50.0152 Y349.1466 Z-0.4437 F600
G01 X49.8817 Y349.1069 Z-0.3052 F600
G01 X49.7448 Y349.0635 Z-0.1625 F600
G01 X49.6772 Y349.0406 Z-0.0918 F600
G01 X49.6211 Y349.0204 Z-0.0328 F600
G01 X49.5899 Y349.0085 Z0.0000 F600
G01 X49.5617 Y348.9970 Z0.0299 F600
G01 X49.5380 Y348.9867 Z0.0551 F600
G01 X49.5126 Y348.9747 Z0.0823 F600
G01 X49.4889 Y348.9619 Z0.1079 F600
G01 X49.4675 Y348.9475 Z0.1309 F600
G01 X49.4504 Y348.9290 Z0.1500 F600
G01 X50.0355 Y349.1576 Z-0.4658 F600
G01 X50.0164 Y349.2379 Z-0.4656 F600
G01 X49.9983 Y349.3019 Z-0.4653 F600
G01 X49.9737 Y349.3781 Z-0.4651 F600
G01 X49.9509 Y349.4399 Z-0.4647 F600
G01 X49.9199 Y349.5153 Z-0.4645 F600
G01 X49.8926 Y349.5745 Z-0.4641 F600
G01 X49.8560 Y349.6467 Z-0.4640 F600
G01 X49.8243 Y349.7032 Z-0.4636 F600
G01 X49.7834 Y349.7708 F600
G01 X49.7476 Y349.8246 Z-0.4632 F600
G01 X49.7007 Y349.8901 Z-0.4633 F600
G01 X49.6612 Y349.9407 Z-0.4631 F600
G01 X49.6097 Y350.0024 Z-0.4635 F600
G01 X49.5664 Y350.0497 F600
G01 X49.5080 Y350.1094 Z-0.4640 F600
G01 X49.4613 Y350.1528 Z-0.4642 F600
G01 X49.4036 Y350.2033 Z-0.4648 F600
G01 X49.3536 Y350.2434 Z-0.4649 F600
G01 X49.2887 Y350.2921 Z-0.4657 F600
G01 X49.2355 Y350.3282 Z-0.4658 F600
G01 X49.1636 Y350.3734 Z-0.4667 F600
G01 X49.1076 Y350.4051 Z-0.4671 F600
G01 X49.0386 Y350.4413 Z-0.4680 F600
G01 X48.9798 Y350.4689 Z-0.4683 F600
G01 X48.9038 Y350.5016 Z-0.4692 F600
G01 X48.8426 Y350.5247 Z-0.4697 F600
G01 X48.7656 Y350.5507 Z-0.4706 F600
G01 X48.7020 Y350.5690 Z-0.4709 F600
G01 X48.6244 Y350.5885 Z-0.4716 F600
G01 X48.5341 Y350.3122 Z-0.1829 F600
G01 X48.4586 Y350.1084 Z0.0319 F600
G01 X48.4172 Y350.0271 Z0.1192 F600
G01 X48.3903 Y349.9990 Z0.1500 F600
G01 X48.6181 Y350.5901 Z-0.4713 F600
G01 X48.5868 Y350.5990 Z-0.4690 F600
G01 X48.5554 Y350.6072 Z-0.4676 F600
G01 X48.5239 Y350.6144 Z-0.4670 F600
G01 X48.4921 Y350.6199 Z-0.4664 F600
G01 X48.4601 Y350.6241 Z-0.4661 F600
G01 X48.4280 Y350.6275 Z-0.4666 F600
G01 X48.3957 Y350.6300 Z-0.4680 F600
G01 X48.3615 Y350.6319 Z-0.4699 F600
G01 X48.2460 Y350.6344 Z-0.4724 F600
G01 X48.2100 Y350.6355 Z-0.4729 F600
G01 X48.1524 Y350.6368 Z-0.4722 F600
G01 X48.0380 Y350.6385 Z-0.4705 F600
G01 X48.0055 Y350.6379 Z-0.4711 F600
G01 X47.9730 Y350.6364 Z-0.4726 F600
G01 X47.9596 Y350.6148 Z-0.4528 F600
G01 X47.9646 Y350.5468 Z-0.3848 F600
G01 X47.9826 Y350.3333 Z-0.1713 F600
G01 X47.9941 Y350.2263 Z-0.0643 F600
G01 X48.0020 Y350.1651 Z-0.0032 F600
G01 X48.0057 Y350.1403 Z0.0217 F600
G01 X48.0106 Y350.1106 Z0.0514 F600
G01 X48.0157 Y350.0838 Z0.0782 F600
G01 X48.0217 Y350.0580 Z0.1040 F600
G01 X48.0298 Y350.0328 Z0.1292 F600
G01 X48.0442 Y350.0120 Z0.1500 F600
G01 X47.9319 Y350.6355 Z-0.4735 F600
G01 X30.4797 F600
G01 X30.4048 Y350.1331 Z0.0289 F600
G01 X30.3673 Y350.0120 Z0.1500 F600
G01 X30.4485 Y350.6358 Z-0.4732 F600
G01 X30.4159 Y350.6375 Z-0.4715 F600
G01 X30.3834 Y350.6384 Z-0.4706 F600
G01 X30.3509 F600
G01 X30.2019 Y350.6354 Z-0.4728 F600
G01 X30.1666 Y350.6344 Z-0.4724 F600
G01 X30.0531 Y350.6319 Z-0.4699 F600
G01 X30.0193 Y350.6300 Z-0.4680 F600
G01 X29.9871 Y350.6275 Z-0.4666 F600
G01 X29.9550 Y350.6241 Z-0.4661 F600
G01 X29.9230 Y350.6199 Z-0.4664 F600
G01 X29.8912 Y350.6144 Z-0.4671 F600
G01 X29.8597 Y350.6072 Z-0.4676 F600
G01 X29.8231 Y350.5976 Z-0.4694 F600
G01 X29.8006 Y350.5810 Z-0.4616 F600
G01 X29.8438 Y350.4383 Z-0.3131 F600
G01 X29.8899 Y350.2947 Z-0.1632 F600
G01 X29.9138 Y350.2251 Z-0.0902 F600
G01 X29.9347 Y350.1680 Z-0.0302 F600
G01 X29.9468 Y350.1367 Z0.0030 F600
G01 X29.9584 Y350.1086 Z0.0328 F600
G01 X29.9687 Y350.0850 Z0.0579 F600
G01 X29.9797 Y350.0620 Z0.0826 F600
G01 X29.9920 Y350.0380 Z0.1082 F600
G01 X30.0063 Y350.0169 Z0.1309 F600
G01 X30.0247 Y350.0000 Z0.1500 F600
G01 X29.7871 Y350.5881 Z-0.4712 F600
G01 X29.7096 Y350.5685 Z-0.4704 F600
G01 X29.6461 Y350.5502 Z-0.4701 F600
G01 X29.5691 Y350.5241 Z-0.4691 F600
G01 X29.5079 Y350.5010 Z-0.4686 F600
G01 X29.4320 Y350.4682 Z-0.4675 F600
G01 X29.3732 Y350.4406 Z-0.4672 F600
G01 X29.3043 Y350.4044 Z-0.4662 F600
G01 X29.2483 Y350.3727 Z-0.4658 F600
G01 X29.1765 Y350.3274 Z-0.4649 F600
G01 X29.1233 Y350.2913 Z-0.4647 F600
G01 X29.0589 Y350.2428 Z-0.4638 F600
G01 X29.0088 Y350.2027 Z-0.4637 F600
G01 X28.9503 Y350.1513 Z-0.4629 F600
G01 X28.9037 Y350.1079 Z-0.4628 F600
G01 X28.8464 Y350.0492 Z-0.4622 F600
G01 X28.8031 Y350.0019 F600
G01 X28.7513 Y349.9399 Z-0.4618 F600
G01 X28.7118 Y349.8893 Z-0.4619 F600
G01 X28.6651 Y349.8238 Z-0.4618 F600
G01 X28.6293 Y349.7700 Z-0.4621 F600
G01 X28.5885 Y349.7025 F600
G01 X28.5568 Y349.6460 Z-0.4624 F600
G01 X28.5204 Y349.5739 Z-0.4625 F600
G01 X28.4930 Y349.5147 Z-0.4629 F600
G01 X28.4621 Y349.4394 Z-0.4631 F600
G01 X28.4393 Y349.3775 Z-0.4635 F600
G01 X28.4148 Y349.3014 Z-0.4636 F600
G01 X28.3967 Y349.2375 Z-0.4639 F600
G01 X28.3776 Y349.1573 Z-0.4641 F600
G01 X28.6434 Y349.0711 Z-0.1868 F600
G01 X28.8520 Y348.9961 Z0.0323 F600
G01 X28.9324 Y348.9560 Z0.1184 F600
G01 X28.9610 Y348.9290 Z0.1500 F600
G01 X28.3684 Y349.1232 Z-0.4619 F600
G01 X28.3605 Y349.0921 Z-0.4604 F600
G01 X28.3535 Y349.0610 Z-0.4597 F600
G01 X28.3483 Y349.0295 Z-0.4588 F600
G01 X28.3442 Y348.9979 Z-0.4585 F600
G01 X28.3408 Y348.9662 Z-0.4590 F600
G01 X28.3384 Y348.9343 Z-0.4604 F600
G01 X28.3365 Y348.8998 Z-0.4623 F600
G01 X28.3341 Y348.7832 Z-0.4646 F600
G01 X28.3331 Y348.7480 Z-0.4650 F600
G01 X28.3289 Y348.6313 Z-0.4648 F600
G01 X28.3281 Y348.5736 Z-0.4641 F600
G01 X28.3287 Y348.5415 Z-0.4646 F600
G01 X28.3301 Y348.5093 Z-0.4660 F600
G01 X28.3479 Y348.4902 Z-0.4509 F600
G01 X28.4127 Y348.4951 Z-0.3861 F600
G01 X28.6200 Y348.5134 Z-0.1788 F600
G01 X28.7265 Y348.5252 Z-0.0722 F600
G01 X28.7885 Y348.5335 Z-0.0103 F600
G01 X28.8210 Y348.5385 Z0.0223 F600
G01 X28.8494 Y348.5434 Z0.0506 F600
G01 X28.8783 Y348.5492 Z0.0796 F600
G01 X28.9039 Y348.5556 Z0.1052 F600
G01 X28.9284 Y348.5640 Z0.1297 F600
G01 X28.9487 Y348.5790 Z0.1500 F600
G01 X28.3314 Y348.4665 Z-0.4673 F600
G01 Y203.3774 Z-0.4674 F600
G01 X28.3249 Y203.3297 Z-0.4609 F600
G01 X27.7140 Y201.0310 Z0.1500 F600
G01 X28.3221 Y203.3189 Z-0.4580 F600
G00 Z10.0000 F480
G00 X31.8773 Y208.1603 F2100
G00 Z0.6500 F480
G01 Z-0.8383 F600
G01 X31.9522 Y208.2351 Z-0.9131 F600
G01 X32.0318 Y208.2792 Z-0.9572 F600
G01 X31.9890 Y208.3318 Z-0.9500 F600
G01 X31.9570 Y208.4169 Z-0.9179 F600
G01 X31.9295 Y208.4997 Z-0.8904 F600
G01 X31.9085 Y208.5716 Z-0.8695 F600
G01 X31.8906 Y208.6421 Z-0.8516 F600
G01 X31.8755 Y208.7115 Z-0.8365 F600
G01 X31.8646 Y208.7714 Z-0.8255 F600
G01 X31.8556 Y208.8307 Z-0.8165 F600
G01 X31.8485 Y208.8895 Z-0.8094 F600
G01 X31.8432 Y208.9480 Z-0.8042 F600
G01 X31.8398 Y209.0061 Z-0.8008 F600
G01 X31.8383 Y209.0559 Z-0.7992 F600
G01 X31.8380 Y218.0084 Z-0.7990 F600
G01 X31.8630 Y218.1144 Z-0.7406 F600
G01 X31.8330 Y218.0652 Z-0.7893 F600
G01 X31.8630 Y218.1144 Z-0.7406 F600
G01 X31.8380 Y218.0084 Z-0.7990 F600
G01 X31.8383 Y209.0559 Z-0.7992 F600
G01 X31.8398 Y209.0061 Z-0.8008 F600
G01 X31.8432 Y208.9480 Z-0.8042 F600
G01 X31.8485 Y208.8895 Z-0.8094 F600
G01 X31.8556 Y208.8307 Z-0.8165 F600
G01 X31.8646 Y208.7714 Z-0.8255 F600
G01 X31.8755 Y208.7115 Z-0.8365 F600
G01 X31.8906 Y208.6421 Z-0.8516 F600
G01 X31.9085 Y208.5716 Z-0.8695 F600
G01 X31.9295 Y208.4997 Z-0.8904 F600
G01 X31.9570 Y208.4169 Z-0.9179 F600
G01 X31.9890 Y208.3318 Z-0.9500 F600
G01 X32.0318 Y208.2792 Z-0.9572 F600
G01 X32.0270 Y208.2811 Z-0.9591 F600
G01 X32.1766 Y208.2276 Z-0.9056 F600
G01 X32.2515 Y208.2053 Z-0.8833 F600
G01 X32.3263 Y208.1858 Z-0.8638 F600
G01 X32.4011 Y208.1693 Z-0.8473 F600
G01 X32.4759 Y208.1557 Z-0.8337 F600
G01 X32.5507 Y208.1450 Z-0.8230 F600
G01 X32.6256 Y208.1373 Z-0.8153 F600
G01 X32.7004 Y208.1324 Z-0.8105 F600
G01 X32.7752 Y208.1305 Z-0.8085 F600
G01 X38.3121 Y208.1312 Z-0.8092 F600
G01 X38.3869 Y208.1348 Z-0.8128 F600
G01 X38.4617 Y208.1413 Z-0.8193 F600
G01 X38.5365 Y208.1506 Z-0.8287 F600
G01 X38.6114 Y208.1630 Z-0.8410 F600
G01 X38.6862 Y208.1782 Z-0.8562 F600
G01 X38.7610 Y208.1963 Z-0.8744 F600
G01 X38.8358 Y208.2174 Z-0.8954 F600
G01 X38.9106 Y208.2414 Z-0.9194 F600
G01 X38.9855 Y208.2683 Z-0.9463 F600
G01 X39.0603 Y208.2982 Z-0.9762 F600
G01 X39.2075 Y208.4121 Z-1.0156 F600
G01 Y208.5411 Z-0.9458 F600
G01 Y208.6465 Z-0.8971 F600
G01 Y208.7342 Z-0.8631 F600
G01 Y208.8169 Z-0.8372 F600
G01 Y208.8873 Z-0.8202 F600
G01 Y208.9472 Z-0.8095 F600
G01 Y209.0060 Z-0.8026 F600
G01 Y209.0641 Z-0.7993 F600
G01 Y215.3515 Z-0.7990 F600
G01 X40.1564 Y215.3890 Z0.1500 F600
G01 X40.1291 Y215.3850 Z0.1227 F600
G01 X40.1017 Y215.3833 Z0.0952 F600
G01 X39.9956 Y215.3792 Z-0.0108 F600
G01 X39.2810 Y215.3661 Z-0.7255 F600
G01 X39.2071 Y215.4093 Z-0.7985 F600
G01 X39.2058 Y215.5574 Z-0.7972 F600
G01 X39.2075 Y215.3062 Z-0.7990 F600
G01 X39.2058 Y215.5574 Z-0.7972 F600
G01 X39.2071 Y215.4093 Z-0.7985 F600
G01 X39.2810 Y215.3661 Z-0.7255 F600
G01 X39.9956 Y215.3792 Z-0.0108 F600
G01 X40.1017 Y215.3833 Z0.0952 F600
G01 X40.1291 Y215.3850 Z0.1227 F600
G01 X40.1564 Y215.3890 Z0.1500 F600
G01 X39.2075 Y215.3515 Z-0.7990 F600
G01 Y209.0641 Z-0.7993 F600
G01 Y209.0060 Z-0.8026 F600
G01 Y208.9472 Z-0.8095 F600
G01 Y208.8873 Z-0.8202 F600
G01 Y208.8169 Z-0.8372 F600
G01 Y208.7342 Z-0.8631 F600
G01 Y208.6465 Z-0.8971 F600
G01 Y208.5411 Z-0.9458 F600
G01 Y208.4121 Z-1.0156 F600
G01 X39.2099 Y208.3642 Z-1.0422 F600
G01 X39.3596 Y208.2961 Z-0.9741 F600
G01 X39.5092 Y208.2397 Z-0.9178 F600
G01 X39.5840 Y208.2159 Z-0.8940 F600
G01 X39.6589 Y208.1951 Z-0.8731 F600
G01 X39.7337 Y208.1771 Z-0.8551 F600
G01 X39.8085 Y208.1621 Z-0.8401 F600
G01 X39.8833 Y208.1499 Z-0.8280 F600
G01 X39.9582 Y208.1407 Z-0.8188 F600
G01 X40.0330 Y208.1345 Z-0.8125 F600
G01 X40.1078 Y208.1311 Z-0.8091 F600
G01 X40.1826 Y208.1305 Z-0.8085 F600
G01 X45.6447 Y208.1306 Z-0.8086 F600
G01 X45.7195 Y208.1328 Z-0.8109 F600
G01 X45.7943 Y208.1380 Z-0.8160 F600
G01 X45.8691 Y208.1461 Z-0.8241 F600
G01 X45.9439 Y208.1571 Z-0.8351 F600
G01 X46.0188 Y208.1710 Z-0.8490 F600
G01 X46.0936 Y208.1879 Z-0.8659 F600
G01 X46.1684 Y208.2076 Z-0.8857 F600
G01 X46.2432 Y208.2303 Z-0.9083 F600
G01 X46.3181 Y208.2559 Z-0.9339 F600
G01 X46.3929 Y208.2845 Z-0.9625 F600
G01 X46.5425 Y208.1519 Z-0.8299 F600
G01 X46.4488 Y208.2456 Z-0.9236 F600
G01 X46.4180 Y208.3207 Z-0.9544 F600
G01 X46.4729 Y208.4709 Z-0.8996 F600
G01 X46.4958 Y208.5460 Z-0.8766 F600
G01 X46.5158 Y208.6211 Z-0.8566 F600
G01 X46.5328 Y208.6962 Z-0.8396 F600
G01 X46.5469 Y208.7713 Z-0.8255 F600
G01 X46.5580 Y208.8464 Z-0.8145 F600
G01 X46.5661 Y208.9215 Z-0.8063 F600
G01 X46.5712 Y208.9966 Z-0.8012 F600
G01 X46.5734 Y209.0717 Z-0.7990 F600
G01 X46.5735 Y218.0084 F600
G01 X46.5980 Y218.1130 Z-0.7420 F600
G01 X46.5720 Y218.0661 Z-0.7884 F600
G00 Z10.0000 F480
G00 X35.0410 Y221.8665 F2100
G00 Z0.6500 F480
G01 Z-0.8085 F600
G01 X35.1161 F600
G01 X46.5359 F600
G01 X35.0012 F600
G01 X34.9263 Y221.8680 Z-0.8101 F600
G01 X34.8514 Y221.8725 Z-0.8145 F600
G01 X34.7765 Y221.8799 Z-0.8219 F600
G01 X34.7016 Y221.8903 Z-0.8323 F600
G01 X34.6267 Y221.9035 Z-0.8455 F600
G01 X34.5518 Y221.9197 Z-0.8617 F600
G01 X34.4769 Y221.9388 Z-0.8808 F600
G01 X34.4020 Y221.9608 Z-0.9028 F600
G01 X34.2522 Y222.0137 Z-0.9557 F600
G01 X34.1024 Y222.0782 Z-1.0203 F600
G01 X33.9526 Y222.1545 Z-1.0965 F600
G01 X33.8028 Y222.2425 Z-1.1845 F600
G01 X33.6530 Y222.3422 Z-1.2842 F600
G01 X33.5032 Y222.4399 Z-1.3819 F600
G01 X31.9303 Y221.8961 Z-0.8381 F600
G01 X31.8553 Y221.8683 Z-0.8103 F600
G01 X31.9405 Y221.8996 Z-0.8416 F600
G01 X33.3658 Y222.3924 Z-1.3344 F600
G01 X33.5133 Y222.4474 Z-1.3822 F600
G01 X33.5657 Y222.6236 Z-1.2760 F600
G01 X33.5932 Y222.7100 Z-1.2250 F600
G01 X33.6226 Y222.7941 Z-1.1770 F600
G01 X33.6537 Y222.8759 Z-1.1319 F600
G01 X33.6867 Y222.9554 Z-1.0898 F600
G01 X33.7215 Y223.0325 Z-1.0506 F600
G01 X33.7581 Y223.1074 Z-1.0143 F600
G01 X33.7965 Y223.1799 Z-0.9810 F600
G01 X33.8367 Y223.2502 Z-0.9506 F600
G01 X33.8788 Y223.3181 Z-0.9232 F600
G01 X33.9226 Y223.3837 Z-0.8986 F600
G01 X33.9683 Y223.4470 Z-0.8771 F600
G01 X34.0158 Y223.5080 Z-0.8584 F600
G01 X34.0651 Y223.5667 Z-0.8427 F600
G01 X34.1162 Y223.6231 Z-0.8299 F600
G01 X34.1691 Y223.6772 Z-0.8201 F600
G01 X34.2238 Y223.7289 Z-0.8132 F600
G01 X34.2804 Y223.7784 Z-0.8092 F600
G01 X44.1334 Y231.5240 Z-0.8041 F600
G01 X44.1716 Y231.5563 Z-0.8058 F600
G01 X44.2153 Y231.5954 Z-0.8096 F600
G01 X44.2581 Y231.6361 Z-0.8151 F600
G01 X44.3000 Y231.6785 Z-0.8225 F600
G01 X44.3411 Y231.7227 Z-0.8319 F600
G01 X44.3815 Y231.7689 Z-0.8432 F600
G01 X44.4268 Y231.8243 Z-0.8587 F600
G01 X44.4713 Y231.8827 Z-0.8771 F600
G01 X44.5150 Y231.9444 Z-0.8986 F600
G01 X44.5631 Y232.0181 Z-0.9268 F600
G01 X44.6103 Y232.0969 Z-0.9596 F600
G01 X44.6565 Y232.1815 Z-0.9975 F600
G01 X44.7067 Y232.2830 Z-1.0463 F600
G01 X44.7555 Y232.3938 Z-1.1032 F600
G01 X44.8074 Y232.5279 Z-1.1765 F600
G01 X44.8571 Y232.6773 Z-1.2632 F600
G01 X44.9102 Y232.8557 Z-1.3706 F600
G01 X44.8459 Y232.9235 Z-1.3315 F600
G01 X44.7966 Y232.9588 Z-1.2962 F600
G01 X44.7468 Y232.9937 Z-1.2613 F600
G01 X44.6981 Y233.0266 Z-1.2284 F600
G01 X44.6505 Y233.0575 Z-1.1975 F600
G01 X44.6040 Y233.0866 Z-1.1684 F600
G01 X44.5584 Y233.1139 Z-1.1411 F600
G01 X44.5138 Y233.1397 Z-1.1153 F600
G01 X44.4701 Y233.1639 Z-1.0911 F600
G01 X44.4272 Y233.1867 Z-1.0682 F600
G01 X44.3850 Y233.2082 Z-1.0468 F600
G01 X44.3436 Y233.2284 Z-1.0266 F600
G01 X44.3029 Y233.2474 Z-1.0076 F600
G01 X44.2628 Y233.2653 Z-0.9897 F600
G01 X44.2233 Y233.2820 Z-0.9730 F600
G01 X44.1844 Y233.2978 Z-0.9572 F600
G01 X44.1460 Y233.3125 Z-0.9425 F600
G01 X44.0987 Y233.3296 Z-0.9254 F600
G01 X44.0521 Y233.3453 Z-0.9097 F600
G01 X44.0062 Y233.3597 Z-0.8953 F600
G01 X43.9609 Y233.3728 Z-0.8822 F600
G01 X43.9161 Y233.3847 Z-0.8703 F600
G01 X43.8718 Y233.3954 Z-0.8596 F600
G01 X43.8280 Y233.4050 Z-0.8500 F600
G01 X43.7845 Y233.4136 Z-0.8414 F600
G01 X43.7414 Y233.4211 Z-0.8339 F600
G01 X43.6987 Y233.4276 Z-0.8274 F600
G01 X43.6477 Y233.4340 Z-0.8209 F600
G01 X43.5970 Y233.4392 Z-0.8158 F600
G01 X43.5465 Y233.4429 Z-0.8121 F600
G01 X43.4962 Y233.4453 Z-0.8097 F600
G01 X31.8767 Y233.4465 Z-0.8085 F600
G01 X43.4121 F600
G01 X43.4870 Y233.4456 Z-0.8094 F600
G01 X43.5619 Y233.4419 Z-0.8131 F600
G01 X43.6368 Y233.4353 Z-0.8197 F600
G01 X43.7117 Y233.4257 Z-0.8293 F600
G01 X43.7866 Y233.4132 Z-0.8418 F600
G01 X43.8615 Y233.3978 Z-0.8572 F600
G01 X43.9364 Y233.3794 Z-0.8756 F600
G01 X44.0113 Y233.3581 Z-0.8969 F600
G01 X44.1611 Y233.3068 Z-0.9482 F600
G01 X44.3109 Y233.2437 Z-1.0113 F600
G01 X44.4607 Y233.1690 Z-1.0860 F600
G01 X44.6106 Y233.0825 Z-1.1725 F600
G01 X44.7604 Y232.9843 Z-1.2707 F600
G01 X44.9102 Y232.8774 Z-1.3776 F600
G01 X44.9851 Y232.8977 Z-1.3573 F600
G01 X46.5208 Y233.4292 Z-0.8258 F600
G01 X44.9420 Y232.8828 Z-1.3722 F600
G00 Z10.0000 F480
G00 X40.1562 Y237.3746 F2100
G00 Z0.6500 F480
G01 Z-0.8090 F600
G01 X40.0326 Y237.3614 Z-0.8086 F600
G01 X39.8612 Y237.3460 Z-0.8087 F600
G01 X39.7445 Y237.3377 Z-0.8084 F600
G01 X39.5706 Y237.3278 Z-0.8082 F600
G01 X39.3809 Y238.2810 Z0.1500 F600
G01 X39.3976 Y238.2622 Z0.1310 F600
G01 X39.4084 Y238.2392 Z0.1079 F600
G01 X39.4166 Y238.2148 Z0.0834 F600
G01 X39.4237 Y238.1884 Z0.0569 F600
G01 X39.4295 Y238.1639 Z0.0324 F600
G01 X39.4355 Y238.1352 Z0.0036 F600
G01 X39.4415 Y238.1037 Z-0.0279 F600
G01 X39.4510 Y238.0475 Z-0.0843 F600
G01 X39.4610 Y237.9804 Z-0.1514 F600
G01 X39.5286 Y237.4270 Z-0.7068 F600
G01 X39.5378 Y237.3259 Z-0.8081 F600
G01 X39.4795 Y237.3210 Z-0.8051 F600
G01 X39.4295 Y237.3186 Z-0.8036 F600
G01 X39.3796 Y237.3176 Z-0.8034 F600
G01 X39.1922 Y237.3178 Z-0.8064 F600
G01 X39.1238 Y237.3191 Z-0.8065 F600
G01 X39.0057 Y237.3201 Z-0.8054 F600
G01 X38.9557 Y237.3219 Z-0.8063 F600
G01 X39.0341 Y238.2770 Z0.1500 F600
G01 X39.0178 Y238.2185 Z0.0912 F600
G01 X38.9377 Y237.3224 Z-0.8065 F600
G01 X38.8491 Y237.3261 Z-0.8066 F600
G01 X38.6758 Y237.3356 Z-0.8064 F600
G01 X38.5520 Y237.3444 Z-0.8067 F600
G01 X38.3812 Y237.3602 Z-0.8070 F600
G01 X38.2616 Y237.3731 Z-0.8075 F600
G01 X38.0934 Y237.3952 Z-0.8074 F600
G01 X37.9745 Y237.4127 Z-0.8076 F600
G01 X37.8089 Y237.4412 Z-0.8072 F600
G01 X37.6872 Y237.4642 Z-0.8074 F600
G01 X37.5241 Y237.4988 Z-0.8075 F600
G01 X37.4034 Y237.5268 Z-0.8078 F600
G01 X37.2429 Y237.5681 F600
G01 X37.1271 Y237.6003 Z-0.8079 F600
G01 X36.9691 Y237.6476 Z-0.8078 F600
G01 X36.8548 Y237.6844 F600
G01 X36.6995 Y237.7379 Z-0.8076 F600
G01 X36.5833 Y237.7810 Z-0.8073 F600
G01 X36.4307 Y237.8412 Z-0.8071 F600
G01 X36.3199 Y237.8879 Z-0.8066 F600
G01 X36.1700 Y237.9541 Z-0.8064 F600
G01 X36.0580 Y238.0069 Z-0.8059 F600
G01 X35.9107 Y238.0796 Z-0.8058 F600
G01 X35.8040 Y238.1356 Z-0.8052 F600
G01 X35.6594 Y238.2143 F600
G01 X35.5523 Y238.2764 Z-0.8045 F600
G01 X35.4104 Y238.3616 Z-0.8046 F600
G01 X35.3090 Y238.4265 Z-0.8037 F600
G01 X35.1699 Y238.5180 Z-0.8034 F600
G01 X35.0708 Y238.5870 Z-0.8025 F600
G01 X34.9344 Y238.6844 Z-0.8024 F600
G01 X34.8379 Y238.7571 Z-0.8016 F600
G01 X34.7044 Y238.8605 Z-0.8015 F600
G01 X34.6088 Y238.9386 Z-0.8007 F600
G01 X34.4779 Y239.0486 F600
G01 X34.3871 Y239.1287 Z-0.8001 F600
G01 X34.2590 Y239.2447 Z-0.8000 F600
G01 X34.8013 Y240.0400 Z0.1500 F600
G01 X34.7982 Y240.0150 Z0.1300 F600
G01 X34.7870 Y239.9913 Z0.1052 F600
G01 X34.7736 Y239.9686 Z0.0796 F600
G01 X34.7576 Y239.9439 Z0.0508 F600
G01 X34.7414 Y239.9204 Z0.0227 F600
G01 X34.7224 Y239.8940 Z-0.0095 F600
G01 X34.6855 Y239.8446 Z-0.0706 F600
G01 X34.6204 Y239.7616 Z-0.1754 F600
G01 X34.4914 Y239.6043 Z-0.3780 F600
G01 X34.2458 Y239.3128 Z-0.7584 F600
G01 X34.2145 Y239.2854 Z-0.7993 F600
G01 X34.1775 Y239.3185 Z-0.7971 F600
G01 X34.1414 Y239.3526 Z-0.7963 F600
G01 X34.0906 Y239.4034 Z-0.7971 F600
G01 X34.0085 Y239.4866 Z-0.7992 F600
G01 X33.9516 Y239.5426 Z-0.7993 F600
G01 X33.8732 Y239.6218 Z-0.7975 F600
G01 X33.8392 Y239.6580 Z-0.7980 F600
G01 X33.8061 Y239.6950 Z-0.7998 F600
G01 X34.5561 Y240.2870 Z0.1500 F600
G01 X34.5291 Y240.2822 Z0.1272 F600
G01 X34.3928 Y240.1941 Z-0.0323 F600
G01 X34.1411 Y239.9959 Z-0.3512 F600
G01 X33.7536 Y239.7541 Z-0.8006 F600
G01 X33.6374 Y239.8848 F600
G01 X33.5580 Y239.9772 Z-0.8008 F600
G01 X33.4481 Y240.1106 Z-0.8007 F600
G01 X33.3706 Y240.2079 Z-0.8011 F600
G01 X33.2666 Y240.3444 Z-0.8014 F600
G01 X33.1955 Y240.4408 Z-0.8018 F600
G01 X33.0980 Y240.5795 Z-0.8017 F600
G01 X33.0295 Y240.6803 Z-0.8021 F600
G01 X32.9382 Y240.8217 Z-0.8020 F600
G01 X32.8726 Y240.9271 Z-0.8024 F600
G01 X32.7873 Y241.0717 Z-0.8026 F600
G01 X32.7281 Y241.1764 Z-0.8029 F600
G01 X32.6493 Y241.3231 Z-0.8028 F600
G01 X32.5936 Y241.4317 Z-0.8029 F600
G01 X32.5210 Y241.5810 F600
G01 X32.4692 Y241.6934 F600
G01 X32.4030 Y241.8461 F600
G01 X32.3570 Y241.9580 Z-0.8028 F600
G01 X32.2970 Y242.1127 F600
G01 X32.2554 Y242.2274 Z-0.8026 F600
G01 X32.2018 Y242.3848 Z-0.8025 F600
G01 X32.1649 Y242.5019 Z-0.8021 F600
G01 X32.1176 Y242.6619 F600
G01 X32.0858 Y242.7797 Z-0.8016 F600
G01 X32.0447 Y242.9424 F600
G01 X32.0177 Y243.0618 Z-0.8011 F600
G01 X31.9829 Y243.2271 F600
G01 X31.9606 Y243.3479 Z-0.8006 F600
G01 X31.9323 Y243.5159 F600
G01 X31.9149 Y243.6362 Z-0.8000 F600
G01 X31.8929 Y243.8062 Z-0.7999 F600
G01 X31.8800 Y243.9276 Z-0.7994 F600
G01 X31.8643 Y244.1003 F600
G01 X31.8564 Y244.2121 Z-0.7990 F600
G01 X31.8458 Y244.4093 F600
G01 X32.7900 Y244.5820 Z0.1500 F600
G01 X32.7685 Y244.5684 Z0.1282 F600
G01 X32.7441 Y244.5613 Z0.1037 F600
G01 X32.7192 Y244.5559 Z0.0787 F600
G01 X32.6930 Y244.5510 Z0.0525 F600
G01 X32.6665 Y244.5467 Z0.0258 F600
G01 X32.6386 Y244.5426 Z-0.0021 F600
G01 X32.5656 Y244.5332 Z-0.0753 F600
G01 X32.4232 Y244.5181 Z-0.2179 F600
G01 X32.0852 Y244.4898 Z-0.5564 F600
G01 X31.9622 Y244.4809 Z-0.6796 F600
G01 X31.8429 Y244.4746 Z-0.7987 F600
G01 X31.8403 Y244.5242 Z-0.7970 F600
G01 X31.8390 Y244.5737 Z-0.7966 F600
G01 X31.8382 Y244.7370 Z-0.7986 F600
G01 X31.8380 Y244.9420 Z-0.7959 F600
G01 X31.8393 Y244.9915 Z-0.7963 F600
G01 X31.8421 Y245.0410 Z-0.7978 F600
G01 X32.7892 Y244.9340 Z0.1500 F600
G01 X32.7286 Y244.9605 Z0.0888 F600
G01 X32.6257 Y244.9796 Z-0.0146 F600
G01 X31.8447 Y245.0764 Z-0.7986 F600
G01 X31.8527 Y245.2405 Z-0.7985 F600
G01 X31.8558 Y245.2928 Z-0.7988 F600
G01 X31.8657 Y245.4179 Z-0.7982 F600
G01 X31.8766 Y245.5440 Z-0.7986 F600
G01 X31.8906 Y245.6683 Z-0.7979 F600
G01 X31.9056 Y245.7926 Z-0.7983 F600
G01 X31.9236 Y245.9153 Z-0.7977 F600
G01 X31.9426 Y246.0376 Z-0.7979 F600
G01 X31.9649 Y246.1611 Z-0.7973 F600
G01 X31.9880 Y246.2823 Z-0.7975 F600
G01 X32.0028 Y246.3522 Z-0.7973 F600
G01 X32.0298 Y246.4731 Z-0.7969 F600
G01 X32.0413 Y246.5234 Z-0.7971 F600
G01 X32.0584 Y246.5926 Z-0.7969 F600
G01 X32.0895 Y246.7123 Z-0.7965 F600
G01 X32.1031 Y246.7631 Z-0.7966 F600
G01 X32.1225 Y246.8317 Z-0.7964 F600
G01 X32.1374 Y246.8820 Z-0.7961 F600
G01 X33.0801 Y246.7300 Z0.1500 F600
G01 X33.0549 Y246.7257 Z0.1272 F600
G01 X33.0298 Y246.7274 Z0.1029 F600
G01 X33.0047 Y246.7307 Z0.0779 F600
G01 X32.9751 Y246.7355 Z0.0483 F600
G01 X32.9439 Y246.7412 Z0.0169 F600
G01 X32.8064 Y246.7698 Z-0.1230 F600
G01 X32.5478 Y246.8297 Z-0.3879 F600
G01 X32.1598 Y246.9263 Z-0.7873 F600
G01 X32.1620 Y246.9680 Z-0.7947 F600
G01 X32.1759 Y247.0154 Z-0.7944 F600
G01 X32.1954 Y247.0736 Z-0.7948 F600
G01 X32.2679 Y247.2839 Z-0.7951 F600
G01 X32.3061 Y247.3901 Z-0.7931 F600
G01 X32.3240 Y247.4361 Z-0.7934 F600
G01 X33.1951 Y247.0650 Z0.1500 F600
G01 X33.1525 Y247.1007 Z0.0976 F600
G01 X33.0739 Y247.1432 Z0.0091 F600
G01 X32.7149 Y247.3123 Z-0.3867 F600
G01 X32.3478 Y247.4943 Z-0.7949 F600
G01 X32.4063 Y247.6373 Z-0.7938 F600
G01 X32.4543 Y247.7507 F600
G01 X32.5061 Y247.8644 Z-0.7929 F600
G01 X32.5562 Y247.9722 Z-0.7930 F600
G01 X32.6090 Y248.0793 Z-0.7919 F600
G01 X32.6657 Y248.1914 F600
G01 X32.6896 Y248.2366 Z-0.7917 F600
G01 X32.7476 Y248.3433 Z-0.7911 F600
G01 X32.8048 Y248.4463 Z-0.7914 F600
G01 X32.8689 Y248.5553 Z-0.7906 F600
G01 X32.9471 Y248.6845 Z-0.7910 F600
G01 X33.0319 Y248.8177 Z-0.7905 F600
G01 X33.0625 Y248.8647 Z-0.7909 F600
G01 X33.1014 Y248.9229 Z-0.7911 F600
G01 X33.1967 Y249.0612 Z-0.7915 F600
G01 X34.0411 Y248.6220 Z0.1500 F600
G01 X34.0159 Y248.6207 Z0.1304 F600
G01 X33.9909 Y248.6260 Z0.1072 F600
G01 X33.9662 Y248.6343 Z0.0824 F600
G01 X33.9405 Y248.6446 Z0.0555 F600
G01 X33.9172 Y248.6549 Z0.0308 F600
G01 X33.8894 Y248.6677 Z0.0007 F600
G01 X33.8589 Y248.6825 Z-0.0327 F600
G01 X33.8044 Y248.7103 Z-0.0932 F600
G01 X33.7393 Y248.7451 Z-0.1664 F600
G01 X33.6078 Y248.8188 Z-0.3162 F600
G01 X33.3577 Y248.9664 Z-0.6054 F600
G01 X33.1987 Y249.0641 Z-0.7915 F600
G01 X33.2291 Y249.1129 Z-0.7889 F600
G01 X33.2568 Y249.1535 Z-0.7874 F600
G01 X33.2855 Y249.1933 Z-0.7871 F600
G01 X33.3153 Y249.2323 Z-0.7881 F600
G01 X33.3467 Y249.2714 Z-0.7903 F600
G01 X33.4057 Y249.3170 Z-0.7766 F600
G01 X33.4348 Y249.3829 Z-0.7936 F600
G01 X33.4812 Y249.4357 Z-0.7888 F600
G01 X34.2533 Y248.8890 Z0.1500 F600
G01 X34.2410 Y248.9193 Z0.1228 F600
G01 X34.2118 Y248.9538 Z0.0793 F600
G01 X34.1839 Y248.9814 Z0.0408 F600
G01 X34.1288 Y249.0297 Z-0.0314 F600
G01 X34.0578 Y249.0879 Z-0.1224 F600
G01 X34.0266 Y249.1123 Z-0.1617 F600
G01 X33.9435 Y249.1746 Z-0.2648 F600
G01 X33.8252 Y249.2587 Z-0.4091 F600
G01 X33.7544 Y249.3054 Z-0.4932 F600
G01 X33.7065 Y249.3408 Z-0.5514 F600
G01 X33.6814 Y249.3509 Z-0.5785 F600
G00 Z10.0000 F480
G00 X40.0234 Y245.4628 F2100
G00 Z0.6500 F480
G01 Z-0.7980 F600
G01 X40.0241 Y245.2946 Z-0.7973 F600
G01 X40.0234 Y245.4633 Z-0.7980 F600
G01 X40.0226 Y245.5129 Z-0.7989 F600
G01 X39.8945 Y245.5123 Z-0.6710 F600
G01 X39.4385 Y245.4932 Z-0.2151 F600
G01 X39.2555 Y245.4819 Z-0.0321 F600
G01 X39.1823 Y245.4758 Z0.0411 F600
G01 X39.1515 Y245.4725 Z0.0720 F600
G01 X39.1251 Y245.4692 Z0.0984 F600
G01 X39.0976 Y245.4646 Z0.1259 F600
G01 X39.0734 Y245.4550 Z0.1500 F600
G01 X40.0224 Y245.5683 Z-0.7990 F600
G01 X40.0226 Y248.4380 Z-0.7991 F600
G01 X40.0250 Y248.5135 Z-0.8016 F600
G01 X40.0304 Y248.5890 Z-0.8070 F600
G01 X40.0388 Y248.6646 Z-0.8154 F600
G01 X40.0503 Y248.7401 Z-0.8268 F600
G01 X40.0647 Y248.8156 Z-0.8413 F600
G01 X40.0822 Y248.8911 Z-0.8587 F600
G01 X40.1026 Y248.9666 Z-0.8792 F600
G01 X40.1261 Y249.0422 Z-0.9026 F600
G01 X40.1820 Y249.1932 Z-0.9585 F600
G01 X40.1367 Y249.2687 Z-0.9133 F600
G01 X40.0449 Y249.3442 Z-0.8215 F600
G01 X39.8761 Y249.3792 Z-0.6527 F600
G01 X40.0617 Y249.3952 Z-0.7868 F600
G01 X40.2125 Y249.2233 Z-0.9587 F600
G01 X40.2879 Y249.2516 Z-0.9304 F600
G01 X40.3634 Y249.2771 Z-0.9049 F600
G01 X40.4388 Y249.2995 Z-0.8825 F600
G01 X40.5142 Y249.3190 Z-0.8630 F600
G01 X40.5896 Y249.3355 Z-0.8465 F600
G01 X40.6651 Y249.3490 Z-0.8330 F600
G01 X40.7405 Y249.3596 Z-0.8224 F600
G01 X40.8159 Y249.3672 Z-0.8148 F600
G01 X40.8914 Y249.3718 Z-0.8102 F600
G01 X40.9668 Y249.3735 Z-0.8085 F600
G01 X44.1347 F600
G01 X44.2102 Y249.3841 Z-0.7979 F600
G01 X44.2856 Y249.3940 Z-0.7880 F600
G01 X44.3610 Y249.4009 Z-0.7811 F600
G01 X44.4364 Y249.4047 Z-0.7773 F600
G01 X44.5119 Y249.4054 Z-0.7766 F600
G01 X44.5873 Y249.4030 Z-0.7790 F600
G01 X44.6627 Y249.3976 Z-0.7844 F600
G01 X44.7381 Y249.3891 Z-0.7929 F600
G01 X44.8136 Y249.3776 Z-0.8044 F600
G01 X44.8890 Y249.3630 Z-0.8190 F600
G01 X44.9644 Y249.3453 Z-0.8367 F600
G01 X44.9719 Y249.3389 Z-0.8348 F600
G01 X44.5331 Y248.4150 Z0.1500 F600
G01 X44.6156 Y248.5665 Z-0.0015 F600
G01 X44.5331 Y248.4150 Z0.1500 F600
G01 X44.9719 Y249.3389 Z-0.8348 F600
G01 X44.9772 Y249.3707 Z-0.8113 F600
G01 X45.0136 Y249.3033 Z-0.8234 F600
G01 X45.0735 Y249.2540 Z-0.8059 F600
G01 X45.1068 Y249.2244 Z-0.7968 F600
G01 X45.1604 Y249.1728 Z-0.7833 F600
G01 X45.2117 Y249.1194 Z-0.7728 F600
G01 X45.2605 Y249.0644 Z-0.7652 F600
G01 X45.2886 Y249.0300 Z-0.7617 F600
G01 X45.3327 Y248.9715 Z-0.7577 F600
G01 X45.3743 Y248.9113 Z-0.7566 F600
G01 X45.4348 Y248.8127 Z-0.7606 F600
G01 X45.4685 Y248.7487 Z-0.7658 F600
G01 X45.4998 Y248.6832 Z-0.7739 F600
G01 X45.5444 Y248.5757 Z-0.7922 F600
G01 X45.5805 Y248.5144 Z-0.7918 F600
G01 X45.6162 Y248.4529 Z-0.7919 F600
G01 X45.6699 Y248.3579 Z-0.7925 F600
G01 X45.7041 Y248.2952 Z-0.7920 F600
G01 X45.7888 Y248.1335 Z-0.7929 F600
G01 X45.8201 Y248.0704 Z-0.7927 F600
G01 X45.8982 Y247.9094 Z-0.7932 F600
G01 X45.9270 Y247.8451 Z-0.7933 F600
G01 X45.9996 Y247.6809 Z-0.7940 F600
G01 X46.0526 Y247.5513 Z-0.7942 F600
G01 X46.0916 Y247.4524 Z-0.7950 F600
G01 X46.1402 Y247.3215 Z-0.7949 F600
G01 X46.1757 Y247.2206 Z-0.7959 F600
G01 X46.2200 Y247.0872 Z-0.7958 F600
G01 X46.2526 Y246.9839 Z-0.7966 F600
G01 X46.2726 Y246.9173 Z-0.7961 F600
G01 X46.3203 Y246.7485 Z-0.7973 F600
G01 X46.3379 Y246.6805 Z-0.7971 F600
G01 X46.3805 Y246.5079 Z-0.7979 F600
G01 X46.4326 Y246.2638 Z-0.7986 F600
G01 X46.4578 Y246.1257 Z-0.7988 F600
G01 X46.4761 Y246.0192 Z-0.7994 F600
G01 X46.4972 Y245.8782 Z-0.7992 F600
G01 X46.5120 Y245.7688 Z-0.8000 F600
G01 X46.5286 Y245.6269 Z-0.7996 F600
G01 X46.5399 Y245.5154 Z-0.8003 F600
G01 X46.5462 Y245.4439 Z-0.7999 F600
G01 X46.5597 Y245.2602 Z-0.8006 F600
G01 X46.5637 Y245.1878 Z-0.8001 F600
G01 X46.5668 Y245.1152 Z-0.8004 F600
G01 X46.5752 Y245.0056 Z-0.7968 F600
G01 X46.5770 Y244.9429 Z-0.7959 F600
G01 X46.5768 Y244.8432 Z-0.7971 F600
G01 X46.5722 Y244.5425 Z-0.7963 F600
G01 X46.5686 Y244.4292 Z-0.7972 F600
G01 X46.5577 Y244.2234 F600
G01 X46.5505 Y244.1134 Z-0.7976 F600
G01 X46.5353 Y243.9454 F600
G01 X46.5220 Y243.8139 Z-0.7981 F600
G01 X46.5007 Y243.6484 F600
G01 X46.4826 Y243.5201 Z-0.7986 F600
G01 X46.4553 Y243.3576 F600
G01 X46.4327 Y243.2319 Z-0.7992 F600
G01 X46.3992 Y243.0720 F600
G01 X46.3723 Y242.9499 Z-0.7998 F600
G01 X46.3328 Y242.7924 Z-0.7997 F600
G01 X46.3012 Y242.6724 Z-0.8003 F600
G01 X46.2556 Y242.5174 F600
G01 X46.2200 Y242.4009 Z-0.8007 F600
G01 X46.1685 Y242.2488 Z-0.8006 F600
G01 X46.1280 Y242.1332 Z-0.8008 F600
G01 X46.0264 Y241.8724 Z-0.8011 F600
G01 X45.9131 Y241.6132 Z-0.8008 F600
G01 X45.7900 Y241.3601 F600
G01 X45.6558 Y241.1108 Z-0.8006 F600
G01 X45.5101 Y240.8640 Z-0.8004 F600
G01 X45.3545 Y240.6232 Z-0.8001 F600
G01 X45.1858 Y240.3835 Z-0.7996 F600
G01 X45.0069 Y240.1496 F600
G01 X44.8201 Y239.9237 Z-0.7995 F600
G01 X44.6183 Y239.6968 Z-0.7992 F600
G01 X44.5721 Y239.6458 Z-0.7974 F600
G01 X44.5241 Y239.5963 Z-0.7979 F600
G01 X44.4756 Y239.5474 Z-0.7992 F600
G01 X44.4031 Y239.4721 Z-0.7989 F600
G01 X44.3061 Y239.3739 Z-0.7965 F600
G01 X44.2564 Y239.3260 Z-0.7969 F600
G01 X44.1796 Y239.2585 Z-0.8016 F600
G01 X44.0292 Y239.1224 F600
G01 X43.9489 Y239.0517 Z-0.8023 F600
G01 X43.8201 Y238.9436 Z-0.8022 F600
G01 X43.7191 Y238.8610 Z-0.8030 F600
G01 X43.5888 Y238.7599 Z-0.8028 F600
G01 X43.4854 Y238.6820 Z-0.8037 F600
G01 X43.3521 Y238.5867 Z-0.8040 F600
G01 X43.2499 Y238.5158 Z-0.8051 F600
G01 X43.1144 Y238.4269 Z-0.8052 F600
G01 X43.0116 Y238.3614 Z-0.8062 F600
G01 X42.8730 Y238.2786 Z-0.8064 F600
G01 X42.7672 Y238.2171 Z-0.8072 F600
G01 X42.6271 Y238.1405 Z-0.8071 F600
G01 X42.5211 Y238.0845 Z-0.8078 F600
G01 X42.3779 Y238.0143 Z-0.8081 F600
G01 X42.2714 Y237.9634 Z-0.8088 F600
G01 X42.1263 Y237.8992 Z-0.8086 F600
G01 X42.0149 Y237.8514 Z-0.8089 F600
G01 X41.7567 Y237.7514 Z-0.8098 F600
G01 X41.4909 Y237.6604 Z-0.8095 F600
G01 X41.2247 Y237.5812 Z-0.8096 F600
G01 X40.9478 Y237.5117 Z-0.8095 F600
G01 X40.6697 Y237.4530 F600
G01 X40.3824 Y237.4043 Z-0.8089 F600
G01 X40.1375 Y237.3721 Z-0.8090 F600
G00 Z10.0000 F480
G00 X43.6623 Y239.9397 F2100
G00 Z0.6500 F480
G01 Z0.0490 F600
G01 X43.6224 Y240.0420 Z0.1500 F600
G01 X44.1989 Y239.2747 Z-0.8003 F600
G01 X44.2362 Y239.3076 Z-0.7977 F600
G01 X44.2726 Y239.3413 Z-0.7965 F600
G01 X44.3081 Y239.3759 F600
G01 X44.4003 Y239.4693 Z-0.7989 F600
G01 X44.4572 Y239.5283 Z-0.7993 F600
G01 X44.5484 Y239.6210 Z-0.7974 F600
G01 X44.5825 Y239.6570 Z-0.7976 F600
G01 X44.6157 Y239.6940 Z-0.7992 F600
G01 X44.5119 Y239.7859 Z-0.6608 F600
G01 X44.3410 Y239.9328 Z-0.4358 F600
G01 X44.1289 Y240.1100 Z-0.1600 F600
G01 X44.0360 Y240.1842 Z-0.0415 F600
G01 X43.9869 Y240.2218 Z0.0199 F600
G01 X43.9624 Y240.2397 Z0.0500 F600
G01 X43.9418 Y240.2541 Z0.0748 F600
G01 X43.9179 Y240.2698 Z0.1030 F600
G01 X43.8957 Y240.2825 Z0.1277 F600
G01 X43.8711 Y240.2890 Z0.1500 F600
G01 X44.6715 Y239.7559 Z-0.7993 F600
G01 X44.7871 Y239.8864 Z-0.7994 F600
G01 X44.8649 Y239.9773 Z-0.7996 F600
G01 X44.9742 Y240.1099 F600
G01 X45.0496 Y240.2047 Z-0.7998 F600
G01 X45.1528 Y240.3401 Z-0.7996 F600
G01 X45.2261 Y240.4399 Z-0.7999 F600
G01 X45.3232 Y240.5785 Z-0.8000 F600
G01 X45.3912 Y240.6791 Z-0.8004 F600
G01 X45.4821 Y240.8205 Z-0.8003 F600
G01 X45.5464 Y240.9245 Z-0.8006 F600
G01 X45.6310 Y241.0685 F600
G01 X45.6905 Y241.1741 Z-0.8008 F600
G01 X45.7690 Y241.3208 F600
G01 X45.8244 Y241.4294 Z-0.8009 F600
G01 X45.8965 Y241.5788 Z-0.8008 F600
G01 X45.9479 Y241.6912 F600
G01 X46.0140 Y241.8438 Z-0.8010 F600
G01 X46.0595 Y241.9554 Z-0.8009 F600
G01 X46.1191 Y242.1101 Z-0.8008 F600
G01 X46.1608 Y242.2261 Z-0.8005 F600
G01 X46.2143 Y242.3841 Z-0.8007 F600
G01 X46.2504 Y242.4998 Z-0.8003 F600
G01 X46.2975 Y242.6598 F600
G01 X46.3290 Y242.7776 Z-0.7997 F600
G01 X46.3699 Y242.9403 Z-0.7998 F600
G01 X46.3966 Y243.0593 Z-0.7992 F600
G01 X46.4311 Y243.2246 F600
G01 X46.4532 Y243.3450 Z-0.7986 F600
G01 X46.4814 Y243.5130 F600
G01 X46.4988 Y243.6338 Z-0.7981 F600
G01 X46.5207 Y243.8045 F600
G01 X46.5335 Y243.9260 Z-0.7976 F600
G01 X46.5492 Y244.0994 F600
G01 X46.5570 Y244.2105 Z-0.7972 F600
G01 X46.5675 Y244.4085 F600
G01 X46.5706 Y244.4905 Z-0.7970 F600
G01 X46.2012 Y244.5273 Z-0.4270 F600
G01 X45.6899 Y244.5667 Z0.0849 F600
G01 X45.6250 Y244.5830 Z0.1500 F600
G01 X46.5725 Y244.5541 Z-0.7961 F600
G01 X46.5736 Y244.6636 Z-0.7971 F600
G01 X46.5771 Y244.8811 Z-0.7968 F600
G01 Y244.9340 Z-0.7960 F600
G01 X46.5761 Y244.9835 Z-0.7962 F600
G01 X46.5736 Y245.0330 Z-0.7976 F600
G01 X46.5682 Y245.0908 Z-0.8001 F600
G01 X46.5270 Y245.0920 Z-0.7597 F600
G01 X46.1391 Y245.0466 Z-0.3703 F600
G01 X45.9563 Y245.0211 Z-0.1866 F600
G01 X45.8559 Y245.0049 Z-0.0856 F600
G01 X45.7949 Y244.9936 Z-0.0243 F600
G01 X45.7692 Y244.9884 Z0.0016 F600
G01 X45.7430 Y244.9826 Z0.0280 F600
G01 X45.7152 Y244.9759 Z0.0560 F600
G01 X45.6888 Y244.9686 Z0.0827 F600
G01 X45.6647 Y244.9607 Z0.1072 F600
G01 X45.6414 Y244.9504 Z0.1306 F600
G01 X45.6222 Y244.9340 Z0.1500 F600
G01 X46.5650 Y245.1570 Z-0.8002 F600
G00 Z10.0000 F480
G00 X46.5346 Y254.1765 F2100
G00 Z0.6500 F480
G01 Z-0.8085 F600
G01 X31.8768 F600
G01 X46.5016 F600
G00 Z10.0000 F480
G00 X31.8786 Y258.5957 F2100
G00 Z0.6500 F480
G01 Z-0.8207 F600
G01 X33.4570 Y259.1413 Z-1.3663 F600
G01 X33.5322 Y259.1456 Z-1.3706 F600
G01 X33.6825 Y259.0386 Z-1.2636 F600
G01 X33.8329 Y258.9409 Z-1.1659 F600
G01 X33.9832 Y258.8550 Z-1.0800 F600
G01 X34.1335 Y258.7809 Z-1.0059 F600
G01 X34.2838 Y258.7186 Z-0.9436 F600
G01 X34.4342 Y258.6680 Z-0.8930 F600
G01 X34.5093 Y258.6472 Z-0.8722 F600
G01 X34.5845 Y258.6293 Z-0.8543 F600
G01 X34.6596 Y258.6143 Z-0.8393 F600
G01 X34.7348 Y258.6023 Z-0.8273 F600
G01 X34.8100 Y258.5933 Z-0.8183 F600
G01 X34.8851 Y258.5871 Z-0.8122 F600
G01 X34.9603 Y258.5840 Z-0.8090 F600
G01 X35.0355 Y258.5835 Z-0.8085 F600
G01 X46.5354 F600
G01 X34.9365 Y258.5847 Z-0.8097 F600
G01 X34.8862 Y258.5871 Z-0.8121 F600
G01 X34.8357 Y258.5908 Z-0.8158 F600
G01 X34.7850 Y258.5959 Z-0.8209 F600
G01 X34.7340 Y258.6024 Z-0.8274 F600
G01 X34.6912 Y258.6089 Z-0.8339 F600
G01 X34.6481 Y258.6164 Z-0.8414 F600
G01 X34.6047 Y258.6250 Z-0.8500 F600
G01 X34.5609 Y258.6346 Z-0.8596 F600
G01 X34.5166 Y258.6453 Z-0.8703 F600
G01 X34.4718 Y258.6572 Z-0.8822 F600
G01 X34.4265 Y258.6703 Z-0.8953 F600
G01 X34.3806 Y258.6847 Z-0.9097 F600
G01 X34.3340 Y258.7004 Z-0.9254 F600
G01 X34.2867 Y258.7175 Z-0.9425 F600
G01 X34.2483 Y258.7322 Z-0.9572 F600
G01 X34.2094 Y258.7479 Z-0.9730 F600
G01 X34.1699 Y258.7647 Z-0.9897 F600
G01 X34.1298 Y258.7826 Z-1.0076 F600
G01 X34.0891 Y258.8016 Z-1.0266 F600
G01 X34.0477 Y258.8218 Z-1.0468 F600
G01 X34.0055 Y258.8432 Z-1.0682 F600
G01 X33.9626 Y258.8661 Z-1.0911 F600
G01 X33.9189 Y258.8903 Z-1.1153 F600
G01 X33.8742 Y258.9161 Z-1.1411 F600
G01 X33.8287 Y258.9434 Z-1.1684 F600
G01 X33.7822 Y258.9725 Z-1.1975 F600
G01 X33.7346 Y259.0034 Z-1.2284 F600
G01 X33.6859 Y259.0362 Z-1.2613 F600
G01 X33.6361 Y259.0712 Z-1.2962 F600
G01 X33.5873 Y259.1061 Z-1.3311 F600
G01 X33.5150 Y259.1712 Z-1.3786 F600
G01 X33.5682 Y259.3498 Z-1.2710 F600
G01 X33.6182 Y259.5000 Z-1.1838 F600
G01 X33.6705 Y259.6349 Z-1.1099 F600
G01 X33.7196 Y259.7463 Z-1.0526 F600
G01 X33.7700 Y259.8484 Z-1.0035 F600
G01 X33.8165 Y259.9334 Z-0.9653 F600
G01 X33.8640 Y260.0127 Z-0.9323 F600
G01 X33.9124 Y260.0868 Z-0.9040 F600
G01 X33.9563 Y260.1488 Z-0.8823 F600
G01 X34.0010 Y260.2074 Z-0.8638 F600
G01 X34.0466 Y260.2631 Z-0.8481 F600
G01 X34.0872 Y260.3095 Z-0.8367 F600
G01 X34.1285 Y260.3540 Z-0.8273 F600
G01 X34.1707 Y260.3966 Z-0.8198 F600
G01 X34.2136 Y260.4375 Z-0.8142 F600
G01 X34.2575 Y260.4768 Z-0.8104 F600
G01 X34.2959 Y260.5092 Z-0.8086 F600
G01 X44.1696 Y268.2716 Z-0.8056 F600
G01 X44.2256 Y268.3220 Z-0.8107 F600
G01 X44.2797 Y268.3748 Z-0.8186 F600
G01 X44.3321 Y268.4298 Z-0.8296 F600
G01 X44.3826 Y268.4873 Z-0.8435 F600
G01 X44.4312 Y268.5470 Z-0.8604 F600
G01 X44.4781 Y268.6090 Z-0.8802 F600
G01 X44.5231 Y268.6734 Z-0.9030 F600
G01 X44.5662 Y268.7402 Z-0.9288 F600
G01 X44.6076 Y268.8092 Z-0.9575 F600
G01 X44.6471 Y268.8806 Z-0.9892 F600
G01 X44.6847 Y268.9543 Z-1.0238 F600
G01 X44.7206 Y269.0303 Z-1.0614 F600
G01 X44.7546 Y269.1087 Z-1.1020 F600
G01 X44.7867 Y269.1894 Z-1.1456 F600
G01 X44.8171 Y269.2724 Z-1.1921 F600
G01 X44.8456 Y269.3578 Z-1.2415 F600
G01 X44.8986 Y269.5337 Z-1.3471 F600
G01 X44.9421 Y269.5999 Z-1.3721 F600
G01 X46.5208 Y270.1463 Z-0.8257 F600
G01 X44.9850 Y269.6147 Z-1.3573 F600
G01 X44.9101 Y269.5945 Z-1.3775 F600
G01 X44.7603 Y269.7014 Z-1.2706 F600
G01 X44.6104 Y269.7996 Z-1.1724 F600
G01 X44.4606 Y269.8860 Z-1.0859 F600
G01 X44.3108 Y269.9608 Z-1.0112 F600
G01 X44.1610 Y270.0238 Z-0.9482 F600
G01 X44.0112 Y270.0752 Z-0.8968 F600
G01 X43.9362 Y270.0964 Z-0.8755 F600
G01 X43.8613 Y270.1148 Z-0.8572 F600
G01 X43.7864 Y270.1302 Z-0.8418 F600
G01 X43.7115 Y270.1427 Z-0.8293 F600
G01 X43.6366 Y270.1523 Z-0.8197 F600
G01 X43.5617 Y270.1589 Z-0.8131 F600
G01 X43.4868 Y270.1626 Z-0.8094 F600
G01 X43.4119 Y270.1635 Z-0.8085 F600
G01 X31.8758 F600
G01 X43.4962 Y270.1623 Z-0.8097 F600
G00 Z10.0000 F480
G00 X46.5611 Y274.0183 F2100
G00 Z0.6500 F480
G01 Z-0.8113 F600
G01 X46.4107 Y274.1879 Z-0.9618 F600
G01 X46.4262 Y274.2264 Z-0.9462 F600
G01 X46.4408 Y274.2644 Z-0.9316 F600
G01 X46.4578 Y274.3112 Z-0.9147 F600
G01 X46.4733 Y274.3573 Z-0.8991 F600
G01 X46.4875 Y274.4028 Z-0.8849 F600
G01 X46.5005 Y274.4477 Z-0.8719 F600
G01 X46.5123 Y274.4920 Z-0.8602 F600
G01 X46.5229 Y274.5358 Z-0.8495 F600
G01 X46.5324 Y274.5792 Z-0.8400 F600
G01 X46.5409 Y274.6222 Z-0.8315 F600
G01 X46.5483 Y274.6649 Z-0.8241 F600
G01 X46.5547 Y274.7073 Z-0.8177 F600
G01 X46.5612 Y274.7578 Z-0.8113 F600
G01 X46.5662 Y274.8079 Z-0.8062 F600
G01 X46.5699 Y274.8579 Z-0.8025 F600
G01 X46.5723 Y274.9077 Z-0.8001 F600
G01 X46.5735 Y283.8953 Z-0.7990 F600
G01 X46.5720 Y283.9515 Z-0.7880 F600
G01 X46.6051 Y284.0131 Z-0.7261 F600
G01 X46.5735 Y283.8924 Z-0.7990 F600
G01 X46.6051 Y284.0131 Z-0.7261 F600
G01 X46.5720 Y283.9515 Z-0.7880 F600
G01 X46.5735 Y283.8953 Z-0.7990 F600
G01 X46.5723 Y274.9077 Z-0.8001 F600
G01 X46.5699 Y274.8579 Z-0.8025 F600
G01 X46.5662 Y274.8079 Z-0.8062 F600
G01 X46.5612 Y274.7578 Z-0.8113 F600
G01 X46.5547 Y274.7073 Z-0.8177 F600
G01 X46.5483 Y274.6649 Z-0.8241 F600
G01 X46.5409 Y274.6222 Z-0.8315 F600
G01 X46.5324 Y274.5792 Z-0.8400 F600
G01 X46.5229 Y274.5358 Z-0.8495 F600
G01 X46.5123 Y274.4920 Z-0.8602 F600
G01 X46.5005 Y274.4477 Z-0.8719 F600
G01 X46.4875 Y274.4028 Z-0.8849 F600
G01 X46.4733 Y274.3573 Z-0.8991 F600
G01 X46.4578 Y274.3112 Z-0.9147 F600
G01 X46.4408 Y274.2644 Z-0.9316 F600
G01 X46.4262 Y274.2264 Z-0.9462 F600
G01 X46.4107 Y274.1879 Z-0.9618 F600
G01 X46.4112 Y274.1682 Z-0.9612 F600
G01 X46.3363 Y274.1476 Z-0.9406 F600
G01 X46.2614 Y274.1213 Z-0.9143 F600
G01 X46.1865 Y274.0979 Z-0.8909 F600
G01 X46.1116 Y274.0774 Z-0.8704 F600
G01 X46.0366 Y274.0598 Z-0.8528 F600
G01 X45.9617 Y274.0451 Z-0.8382 F600
G01 X45.8868 Y274.0334 Z-0.8264 F600
G01 X45.8119 Y274.0246 Z-0.8177 F600
G01 X45.7370 Y274.0188 Z-0.8118 F600
G01 X45.6620 Y274.0159 Z-0.8089 F600
G01 X40.1179 F600
G01 X40.0430 Y274.0188 Z-0.8119 F600
G01 X39.9681 Y274.0247 Z-0.8178 F600
G01 X39.8932 Y274.0336 Z-0.8266 F600
G01 X39.8182 Y274.0453 Z-0.8383 F600
G01 X39.7433 Y274.0600 Z-0.8530 F600
G01 X39.6684 Y274.0776 Z-0.8706 F600
G01 X39.5935 Y274.0982 Z-0.8912 F600
G01 X39.5186 Y274.1216 Z-0.9146 F600
G01 X39.3687 Y274.1773 Z-0.9703 F600
G01 X39.2075 Y274.2845 Z-1.0230 F600
G01 Y274.3339 Z-0.9946 F600
G01 Y274.3810 Z-0.9690 F600
G01 Y274.4261 Z-0.9458 F600
G01 Y274.4694 Z-0.9248 F600
G01 Y274.5112 Z-0.9058 F600
G01 Y274.5515 Z-0.8888 F600
G01 Y274.5906 Z-0.8735 F600
G01 Y274.6380 Z-0.8567 F600
G01 Y274.6839 Z-0.8423 F600
G01 Y274.7286 Z-0.8302 F600
G01 Y274.7723 Z-0.8202 F600
G01 Y274.8152 Z-0.8121 F600
G01 Y274.8575 Z-0.8061 F600
G01 Y274.9076 Z-0.8013 F600
G01 Y281.1903 Z-0.7990 F600
G01 X39.2058 Y281.4414 Z-0.7972 F600
G01 X39.2071 Y281.2941 Z-0.7985 F600
G01 X39.2810 Y281.2511 Z-0.7255 F600
G01 X39.9956 Y281.2642 Z-0.0108 F600
G01 X40.1017 Y281.2683 Z0.0952 F600
G01 X40.1291 Y281.2700 Z0.1227 F600
G01 X40.1564 Y281.2740 Z0.1500 F600
G01 X39.2075 Y281.2365 Z-0.7990 F600
G01 X40.1564 Y281.2740 Z0.1500 F600
G01 X40.1291 Y281.2700 Z0.1227 F600
G01 X40.1017 Y281.2683 Z0.0952 F600
G01 X39.9956 Y281.2642 Z-0.0108 F600
G01 X39.2810 Y281.2511 Z-0.7255 F600
G01 X39.2071 Y281.2941 Z-0.7985 F600
G01 X39.2058 Y281.4414 Z-0.7972 F600
G01 X39.2075 Y281.1903 Z-0.7990 F600
G01 Y274.9076 Z-0.8013 F600
G01 Y274.8575 Z-0.8061 F600
G01 Y274.8152 Z-0.8121 F600
G01 Y274.7723 Z-0.8202 F600
G01 Y274.7286 Z-0.8302 F600
G01 Y274.6839 Z-0.8423 F600
G01 Y274.6380 Z-0.8567 F600
G01 Y274.5906 Z-0.8735 F600
G01 Y274.5515 Z-0.8888 F600
G01 Y274.5112 Z-0.9058 F600
G01 Y274.4694 Z-0.9248 F600
G01 Y274.4261 Z-0.9458 F600
G01 Y274.3810 Z-0.9690 F600
G01 Y274.3339 Z-0.9946 F600
G01 Y274.2845 Z-1.0230 F600
G01 X39.2189 Y274.2448 Z-1.0378 F600
G01 X39.1440 Y274.2200 Z-1.0130 F600
G01 X39.0690 Y274.1868 Z-0.9798 F600
G01 X38.9941 Y274.1566 Z-0.9496 F600
G01 X38.9192 Y274.1293 Z-0.9223 F600
G01 X38.8443 Y274.1050 Z-0.8980 F600
G01 X38.7694 Y274.0836 Z-0.8766 F600
G01 X38.6944 Y274.0651 Z-0.8581 F600
G01 X38.6195 Y274.0495 Z-0.8425 F600
G01 X38.5446 Y274.0368 Z-0.8298 F600
G01 X38.4697 Y274.0271 Z-0.8201 F600
G01 X38.3948 Y274.0203 Z-0.8133 F600
G01 X38.3198 Y274.0165 Z-0.8095 F600
G01 X32.7757 Y274.0155 Z-0.8085 F600
G01 X32.7008 Y274.0174 Z-0.8104 F600
G01 X32.6259 Y274.0223 Z-0.8153 F600
G01 X32.5510 Y274.0300 Z-0.8230 F600
G01 X32.4761 Y274.0407 Z-0.8337 F600
G01 X32.4011 Y274.0543 Z-0.8473 F600
G01 X32.3262 Y274.0709 Z-0.8639 F600
G01 X32.2513 Y274.0903 Z-0.8833 F600
G01 X32.1764 Y274.1127 Z-0.9057 F600
G01 X32.0265 Y274.1663 Z-0.9593 F600
G01 X31.9516 Y274.1196 Z-0.9126 F600
G01 X31.8836 Y274.0516 Z-0.8446 F600
G01 X31.9950 Y274.2019 Z-0.9560 F600
G01 X31.9660 Y274.2770 Z-0.9269 F600
G01 X31.9399 Y274.3522 Z-0.9008 F600
G01 X31.9167 Y274.4273 Z-0.8777 F600
G01 X31.8966 Y274.5025 Z-0.8575 F600
G01 X31.8794 Y274.5776 Z-0.8403 F600
G01 X31.8652 Y274.6528 Z-0.8261 F600
G01 X31.8539 Y274.7279 Z-0.8149 F600
G01 X31.8457 Y274.8031 Z-0.8066 F600
G01 X31.8404 Y274.8782 Z-0.8014 F600
G01 X31.8380 Y283.8964 Z-0.7990 F600
G01 X31.8330 Y283.9511 Z-0.7884 F600
G01 X31.8731 Y284.0173 Z-0.7206 F600
G01 X31.8380 Y283.8934 Z-0.7990 F600
G00 Z10.0000 F480
G00 X40.1448 Y287.7405 F2100
G00 Z0.6500 F480
G01 Z-0.8085 F600
G01 X40.0700 Y287.7424 Z-0.8105 F600
G01 X39.9951 Y287.7473 Z-0.8153 F600
G01 X39.9203 Y287.7550 Z-0.8230 F600
G01 X39.8454 Y287.7657 Z-0.8337 F600
G01 X39.7706 Y287.7793 Z-0.8473 F600
G01 X39.6958 Y287.7958 Z-0.8639 F600
G01 X39.6209 Y287.8153 Z-0.8833 F600
G01 X39.5461 Y287.8377 Z-0.9057 F600
G01 X39.3964 Y287.8912 Z-0.9592 F600
G01 X39.2467 Y287.9564 Z-1.0244 F600
G01 X39.1832 Y287.9635 Z-1.0315 F600
G01 X39.2075 Y288.0095 Z-1.0230 F600
G01 Y288.0589 Z-0.9946 F600
G01 Y288.1060 Z-0.9690 F600
G01 Y288.1511 Z-0.9458 F600
G01 Y288.1944 Z-0.9248 F600
G01 Y288.2362 Z-0.9058 F600
G01 Y288.2765 Z-0.8888 F600
G01 Y288.3156 Z-0.8735 F600
G01 Y288.3630 Z-0.8567 F600
G01 Y288.4089 Z-0.8423 F600
G01 Y288.4536 Z-0.8302 F600
G01 Y288.4973 Z-0.8202 F600
G01 Y288.5402 Z-0.8121 F600
G01 Y288.5825 Z-0.8061 F600
G01 Y288.6326 Z-0.8013 F600
G01 Y294.9191 Z-0.7990 F600
G01 X39.2058 Y295.1704 Z-0.7972 F600
G01 X39.2071 Y295.0223 Z-0.7985 F600
G01 X39.2810 Y294.9791 Z-0.7255 F600
G01 X39.9956 Y294.9922 Z-0.0108 F600
G01 X40.1017 Y294.9963 Z0.0952 F600
G01 X40.1291 Y294.9980 Z0.1227 F600
G01 X40.1564 Y295.0020 Z0.1500 F600
G01 X39.2075 Y294.9645 Z-0.7990 F600
G01 X40.1564 Y295.0020 Z0.1500 F600
G01 X40.1291 Y294.9980 Z0.1227 F600
G01 X40.1017 Y294.9963 Z0.0952 F600
G01 X39.9956 Y294.9922 Z-0.0108 F600
G01 X39.2810 Y294.9791 Z-0.7255 F600
G01 X39.2071 Y295.0223 Z-0.7985 F600
G01 X39.2058 Y295.1704 Z-0.7972 F600
G01 X39.2075 Y294.9191 Z-0.7990 F600
G01 Y288.6326 Z-0.8013 F600
G01 Y288.5825 Z-0.8061 F600
G01 Y288.5402 Z-0.8121 F600
G01 Y288.4973 Z-0.8202 F600
G01 Y288.4536 Z-0.8302 F600
G01 Y288.4089 Z-0.8423 F600
G01 Y288.3630 Z-0.8567 F600
G01 Y288.3156 Z-0.8735 F600
G01 Y288.2765 Z-0.8888 F600
G01 Y288.2362 Z-0.9058 F600
G01 Y288.1944 Z-0.9248 F600
G01 Y288.1511 Z-0.9458 F600
G01 Y288.1060 Z-0.9690 F600
G01 Y288.0589 Z-0.9946 F600
G01 Y288.0095 Z-1.0230 F600
G01 X39.1832 Y287.9635 Z-1.0315 F600
G01 X39.1719 Y287.9581 Z-1.0261 F600
G01 X39.0970 Y287.9239 Z-0.9919 F600
G01 X39.0222 Y287.8926 Z-0.9606 F600
G01 X38.9473 Y287.8642 Z-0.9322 F600
G01 X38.8725 Y287.8388 Z-0.9068 F600
G01 X38.7977 Y287.8163 Z-0.8843 F600
G01 X38.7228 Y287.7967 Z-0.8647 F600
G01 X38.6480 Y287.7800 Z-0.8481 F600
G01 X38.5731 Y287.7663 Z-0.8343 F600
G01 X38.4983 Y287.7555 Z-0.8235 F600
G01 X38.4234 Y287.7476 Z-0.8156 F600
G01 X38.3486 Y287.7426 Z-0.8106 F600
G01 X38.2738 Y287.7406 Z-0.8086 F600
G01 X32.8103 Y287.7405 Z-0.8085 F600
G01 X32.7355 Y287.7412 Z-0.8092 F600
G01 X32.6606 Y287.7447 Z-0.8127 F600
G01 X32.5858 Y287.7510 Z-0.8191 F600
G01 X32.5109 Y287.7604 Z-0.8284 F600
G01 X32.4361 Y287.7726 Z-0.8406 F600
G01 X32.3613 Y287.7878 Z-0.8558 F600
G01 X32.2864 Y287.8058 Z-0.8738 F600
G01 X32.2116 Y287.8268 Z-0.8948 F600
G01 X32.0619 Y287.8776 Z-0.9456 F600
G01 X31.9870 Y287.8800 Z-0.9480 F600
G01 X31.8866 Y287.7796 Z-0.8476 F600
G01 X31.9939 Y287.9298 Z-0.9548 F600
G01 X31.9649 Y288.0049 Z-0.9259 F600
G01 X31.9389 Y288.0801 Z-0.8999 F600
G01 X31.9159 Y288.1552 Z-0.8769 F600
G01 X31.8959 Y288.2303 Z-0.8568 F600
G01 X31.8788 Y288.3055 Z-0.8398 F600
G01 X31.8647 Y288.3806 Z-0.8257 F600
G01 X31.8536 Y288.4557 Z-0.8145 F600
G01 X31.8454 Y288.5308 Z-0.8064 F600
G01 X31.8403 Y288.6060 Z-0.8012 F600
G01 X31.8380 Y297.6214 Z-0.7990 F600
G01 X31.8466 Y297.6872 Z-0.7802 F600
G01 X31.8380 Y297.6213 Z-0.7990 F600
G00 Z10.0000 F480
G00 X40.0571 Y301.6726 F2100
G00 Z0.6500 F480
G01 Z-1.0266 F600
G01 X40.0224 Y301.7361 Z-1.0157 F600
G01 Y301.8651 Z-0.9458 F600
G01 Y301.9705 Z-0.8971 F600
G01 Y302.0582 Z-0.8632 F600
G01 Y302.1409 Z-0.8372 F600
G01 Y302.2113 Z-0.8202 F600
G01 Y302.2712 Z-0.8095 F600
G01 Y302.3300 Z-0.8026 F600
G01 Y302.3881 Z-0.7993 F600
G01 Y305.7727 Z-0.7990 F600
G01 X40.0209 Y305.8482 Z-0.8005 F600
G01 X40.0186 Y305.8943 Z-0.8029 F600
G01 X40.0163 Y305.9444 Z-0.8069 F600
G01 Y305.9948 Z-0.8113 F600
G01 X40.0173 Y306.0457 Z-0.8174 F600
G01 X40.0190 Y306.0884 Z-0.8237 F600
G01 X40.0214 Y306.1317 Z-0.8313 F600
G01 X40.0247 Y306.1755 Z-0.8400 F600
G01 X40.0285 Y306.2199 Z-0.8503 F600
G01 X40.0334 Y306.2650 Z-0.8617 F600
G01 X40.0390 Y306.3109 Z-0.8747 F600
G01 X40.0456 Y306.3577 Z-0.8891 F600
G01 X40.0530 Y306.4056 Z-0.9052 F600
G01 X40.0598 Y306.4446 Z-0.9192 F600
G01 X40.0671 Y306.4845 Z-0.9345 F600
G01 X40.0753 Y306.5252 Z-0.9508 F600
G01 X40.0840 Y306.5669 Z-0.9686 F600
G01 X40.0936 Y306.6096 Z-0.9877 F600
G01 X40.1040 Y306.6534 Z-1.0082 F600
G01 X40.1153 Y306.6984 Z-1.0302 F600
G01 X40.2215 Y306.7336 Z-0.9818 F600
G01 X40.3249 Y306.7598 Z-0.9370 F600
G01 X40.4450 Y306.7906 Z-0.8959 F600
G01 X40.5202 Y306.8125 Z-0.8744 F600
G01 X40.5937 Y306.8369 Z-0.8558 F600
G01 X40.6657 Y306.8639 Z-0.8401 F600
G01 X40.7361 Y306.8933 Z-0.8275 F600
G01 X40.8049 Y306.9252 Z-0.8177 F600
G01 X40.8722 Y306.9597 Z-0.8110 F600
G01 X40.9378 Y306.9966 Z-0.8072 F600
G01 X41.0019 Y307.0360 Z-0.8063 F600
G01 X41.1293 Y307.1162 Z-0.8062 F600
G01 X41.2582 Y307.1939 Z-0.8030 F600
G01 X41.3217 Y307.2343 Z-0.8033 F600
G01 X41.3838 Y307.2769 Z-0.8062 F600
G01 X46.5373 Y310.5300 Z-0.8032 F600
G01 X46.6326 Y310.6147 Z-0.7233 F600
G01 X46.5862 Y310.5731 Z-0.7824 F600
G01 X46.5657 Y310.5493 Z-0.8006 F600
G01 X46.5276 Y310.5233 Z-0.8037 F600
G01 X46.4647 Y310.4820 Z-0.8050 F600
G01 X41.4402 Y307.3125 Z-0.8061 F600
G01 X41.3639 Y307.2926 Z-0.7822 F600
G01 X40.7712 Y308.0210 Z0.1500 F600
G01 X40.7946 Y308.0118 Z0.1298 F600
G01 X40.8148 Y307.9959 Z0.1055 F600
G01 X40.8332 Y307.9784 Z0.0809 F600
G01 X40.8526 Y307.9585 Z0.0537 F600
G01 X40.8706 Y307.9388 Z0.0275 F600
G01 X40.8904 Y307.9162 Z-0.0022 F600
G01 X40.9265 Y307.8736 Z-0.0575 F600
G01 X40.9706 Y307.8193 Z-0.1270 F600
G01 X41.0634 Y307.7003 Z-0.2770 F600
G01 X41.2530 Y307.4457 Z-0.5936 F600
G01 X41.3149 Y307.3605 Z-0.6987 F600
G01 X41.3768 Y307.2724 Z-0.8061 F600
G01 X41.3289 Y307.2391 Z-0.8035 F600
G01 X41.2871 Y307.2118 Z-0.8027 F600
G01 X41.2235 Y307.1729 Z-0.8038 F600
G01 X41.1246 Y307.1135 Z-0.8063 F600
G01 X40.9685 Y307.0151 Z-0.8064 F600
G01 X40.9255 Y306.9894 Z-0.8077 F600
G01 X40.8816 Y306.9648 Z-0.8103 F600
G01 X40.8369 Y306.9412 Z-0.8142 F600
G01 X40.7913 Y306.9187 Z-0.8194 F600
G01 X40.7447 Y306.8971 Z-0.8261 F600
G01 X40.7050 Y306.8799 Z-0.8327 F600
G01 X40.6645 Y306.8634 Z-0.8404 F600
G01 X40.6232 Y306.8476 Z-0.8490 F600
G01 X40.5810 Y306.8325 Z-0.8588 F600
G01 X40.5377 Y306.8181 Z-0.8697 F600
G01 X40.4934 Y306.8044 Z-0.8817 F600
G01 X40.4481 Y306.7914 Z-0.8950 F600
G01 X40.4015 Y306.7792 Z-0.9096 F600
G01 X40.3535 Y306.7671 Z-0.9261 F600
G01 X40.3140 Y306.7570 Z-0.9413 F600
G01 X40.2734 Y306.7467 Z-0.9583 F600
G01 X40.2313 Y306.7361 Z-0.9771 F600
G01 X40.1878 Y306.7251 Z-0.9981 F600
G01 X40.1426 Y306.7136 Z-1.0213 F600
G01 X40.0792 Y306.7485 Z-1.0082 F600
G01 X40.4741 Y307.8420 Z0.1500 F600
G01 X40.4667 Y307.8177 Z0.1286 F600
G01 X40.4587 Y307.7921 Z0.1022 F600
G01 X40.2331 Y306.7371 Z-0.9767 F600
G01 X40.1897 Y306.7259 Z-0.9974 F600
G01 X40.1447 Y306.7143 Z-1.0203 F600
G01 X40.0805 Y306.7468 Z-1.0090 F600
G01 X40.0069 Y306.8288 Z-0.9605 F600
G01 X39.9467 Y306.9000 Z-0.9241 F600
G01 X39.8933 Y306.9720 Z-0.8903 F600
G01 X39.8484 Y307.0326 Z-0.8671 F600
G01 X39.8052 Y307.0909 Z-0.8496 F600
G01 X39.7646 Y307.1487 Z-0.8357 F600
G01 X39.7314 Y307.1995 Z-0.8257 F600
G01 X39.7004 Y307.2508 Z-0.8172 F600
G01 X39.6715 Y307.3026 Z-0.8105 F600
G01 X39.6444 Y307.3547 Z-0.8056 F600
G01 X39.5978 Y307.4448 Z-0.8016 F600
G01 X39.5691 Y307.4950 Z-0.8018 F600
G01 X39.5284 Y307.5637 Z-0.8006 F600
G01 X39.4992 Y307.6138 Z-0.7991 F600
G01 X39.4719 Y307.6603 Z-0.7982 F600
G01 X39.4475 Y307.7035 Z-0.7988 F600
G01 X40.2955 Y308.1410 Z0.1500 F600
G01 X40.2110 Y308.1245 Z0.0689 F600
G01 X40.0825 Y308.0705 Z-0.0691 F600
G01 X39.9069 Y307.9864 Z-0.2629 F600
G01 X39.6036 Y307.8304 Z-0.6031 F600
G01 X39.4221 Y307.7488 Z-0.8005 F600
G01 X39.3909 Y307.7986 Z-0.8003 F600
G01 X39.3563 Y307.8524 Z-0.8002 F600
G01 X39.3236 Y307.9018 Z-0.7999 F600
G01 X39.2916 Y307.9483 Z-0.7998 F600
G01 X39.2511 Y308.0058 Z-0.8001 F600
G01 X39.2177 Y308.0518 Z-0.8003 F600
G01 X39.1847 Y308.0957 Z-0.8004 F600
G01 X39.1452 Y308.1469 Z-0.8006 F600
G01 X39.1068 Y308.1957 Z-0.8011 F600
G01 X39.0721 Y308.2382 Z-0.8014 F600
G01 X39.0389 Y308.2814 Z-0.7992 F600
G01 X39.0006 Y308.3278 Z-0.7983 F600
G01 X38.9658 Y308.3668 Z-0.7985 F600
G01 X38.9210 Y308.4140 Z-0.8004 F600
G01 X38.8827 Y308.4532 Z-0.8019 F600
G01 X38.7964 Y308.5397 Z-0.8039 F600
G01 X38.7582 Y308.5772 Z-0.8045 F600
G01 X38.7229 Y308.6108 Z-0.8049 F600
G01 X38.6774 Y308.6544 Z-0.8045 F600
G01 X38.6351 Y308.6927 Z-0.8052 F600
G01 X38.5933 Y308.7278 Z-0.8070 F600
G01 X38.5486 Y308.7660 Z-0.8078 F600
G01 X38.5035 Y308.8039 Z-0.8086 F600
G01 X38.4648 Y308.8354 Z-0.8091 F600
G01 X38.4103 Y308.8780 Z-0.8095 F600
G01 X38.3725 Y308.9070 Z-0.8102 F600
G01 X38.3293 Y308.9393 Z-0.8105 F600
G01 X38.2810 Y308.9746 Z-0.8107 F600
G01 X38.2280 Y309.0116 Z-0.8113 F600
G01 X38.1765 Y309.0467 Z-0.8115 F600
G01 X38.1265 Y309.0793 Z-0.8117 F600
G01 X38.0764 Y309.1283 Z-0.7977 F600
G01 X38.0336 Y309.1376 Z-0.8120 F600
G01 X37.8713 Y309.2335 Z-0.8127 F600
G01 X37.8261 Y309.2615 Z-0.8109 F600
G01 X37.7724 Y309.2909 Z-0.8092 F600
G01 X37.7134 Y309.3207 Z-0.8095 F600
G01 X37.6604 Y309.3449 Z-0.8108 F600
G01 X37.6087 Y309.3677 Z-0.8118 F600
G01 X37.5605 Y309.3885 Z-0.8123 F600
G01 X37.5108 Y309.4106 Z-0.8118 F600
G01 X37.4653 Y309.4305 Z-0.8105 F600
G01 X37.4108 Y309.4537 Z-0.8084 F600
G01 X37.3533 Y309.4770 Z-0.8067 F600
G01 X37.3007 Y309.4962 Z-0.8066 F600
G01 X37.2451 Y309.5138 Z-0.8074 F600
G01 X37.1935 Y309.5282 Z-0.8095 F600
G01 X37.1477 Y309.5416 Z-0.8101 F600
G01 X37.0909 Y309.5584 Z-0.8097 F600
G01 X37.0432 Y309.5721 Z-0.8095 F600
G01 X36.9837 Y309.5885 Z-0.8092 F600
G01 X36.9209 Y309.6046 Z-0.8087 F600
G01 X36.8662 Y309.6178 Z-0.8089 F600
G01 X36.8026 Y309.6323 Z-0.8091 F600
G01 X36.7545 Y309.6423 Z-0.8090 F600
G01 X36.6983 Y309.6533 Z-0.8089 F600
G01 X36.6227 Y309.6670 Z-0.8087 F600
G01 X36.5531 Y309.6781 Z-0.8086 F600
G01 X36.4872 Y309.6875 Z-0.8088 F600
G01 X36.4343 Y309.6942 Z-0.8086 F600
G01 X36.3520 Y309.7035 F600
G01 X36.2901 Y309.7092 Z-0.8084 F600
G01 X36.2345 Y309.7156 Z-0.8065 F600
G01 X36.1813 Y309.7201 Z-0.8057 F600
G01 X36.1318 Y309.7226 Z-0.8058 F600
G01 X36.0764 Y309.7236 Z-0.8068 F600
G01 X35.9573 Y309.7244 Z-0.8082 F600
G01 X35.8441 Y309.7245 Z-0.8074 F600
G01 X35.7756 Y309.7239 Z-0.8060 F600
G01 X35.7258 Y309.7225 Z-0.8052 F600
G01 X35.6525 Y309.7173 Z-0.8057 F600
G01 X35.5950 Y309.7107 Z-0.8075 F600
G01 X35.4724 Y309.6983 Z-0.8085 F600
G01 X35.4090 Y309.6907 F600
G01 X35.3539 Y309.6832 Z-0.8082 F600
G01 X35.2880 Y309.6735 Z-0.8079 F600
G01 X35.2107 Y309.6601 F600
G01 X35.1591 Y309.6504 F600
G01 X35.0938 Y309.6371 Z-0.8077 F600
G01 X35.0388 Y309.6251 Z-0.8073 F600
G01 X34.9733 Y309.6099 Z-0.8072 F600
G01 X34.8517 Y309.5776 Z-0.8064 F600
G01 X34.7816 Y309.5576 Z-0.8058 F600
G01 X34.7104 Y309.5349 Z-0.8057 F600
G01 X34.6350 Y309.5111 Z-0.8035 F600
G01 X34.5859 Y309.4952 Z-0.8017 F600
G01 X34.5235 Y309.4726 Z-0.8010 F600
G01 X34.4728 Y309.4510 Z-0.8009 F600
G01 X34.3196 Y309.3830 Z-0.8008 F600
G01 X34.2027 Y309.3311 Z-0.7984 F600
G01 X34.1442 Y309.3042 Z-0.7972 F600
G01 X34.0743 Y309.2679 Z-0.7976 F600
G01 X34.0121 Y309.2319 Z-0.7993 F600
G01 X33.9560 Y309.2011 Z-0.7992 F600
G01 X33.8961 Y309.1670 Z-0.7991 F600
G01 X33.8537 Y309.1418 Z-0.7989 F600
G01 X33.7985 Y309.1080 Z-0.7987 F600
G01 X33.7515 Y309.0784 F600
G01 X33.6926 Y309.0401 Z-0.7985 F600
G01 X33.6505 Y309.0120 Z-0.7981 F600
G01 X33.5969 Y308.9748 Z-0.7980 F600
G01 X33.5326 Y308.9287 Z-0.7976 F600
G01 X33.4912 Y308.8980 F600
G01 X33.4364 Y308.8559 Z-0.7975 F600
G01 X33.3928 Y308.8216 Z-0.7971 F600
G01 X33.3421 Y308.7801 Z-0.7973 F600
G01 X33.2882 Y308.7345 Z-0.7971 F600
G01 X33.2454 Y308.6998 Z-0.7951 F600
G01 X33.1906 Y308.6517 Z-0.7943 F600
G01 X33.1520 Y308.6149 Z-0.7950 F600
G01 X33.1063 Y308.5699 Z-0.7964 F600
G01 X32.9803 Y308.4432 Z-0.7975 F600
G01 X32.9401 Y308.4021 Z-0.7969 F600
G01 X32.9054 Y308.3658 Z-0.7960 F600
G01 X32.8580 Y308.3128 Z-0.7959 F600
G01 X32.8247 Y308.2724 Z-0.7971 F600
G01 X32.7854 Y308.2233 Z-0.7988 F600
G01 X32.7365 Y308.1628 F600
G01 X32.6881 Y308.1008 Z-0.7990 F600
G01 X32.6419 Y308.0389 Z-0.7991 F600
G01 X32.5956 Y307.9744 F600
G01 X32.5511 Y307.9098 Z-0.7992 F600
G01 X32.5078 Y307.8441 Z-0.7993 F600
G01 X32.4659 Y307.7782 Z-0.7991 F600
G01 X32.4389 Y307.7340 F600
G01 X32.4007 Y307.6695 Z-0.7992 F600
G01 X32.3745 Y307.6238 Z-0.7991 F600
G01 X32.3425 Y307.5666 Z-0.7990 F600
G01 X32.3199 Y307.5244 F600
G01 X32.2807 Y307.4556 Z-0.7959 F600
G01 X32.2441 Y307.3831 Z-0.7951 F600
G01 X32.2227 Y307.3359 Z-0.7961 F600
G01 X32.1959 Y307.2747 Z-0.7973 F600
G01 X32.1753 Y307.2267 Z-0.7979 F600
G01 X32.1543 Y307.1781 Z-0.7981 F600
G01 X32.1278 Y307.1170 Z-0.7973 F600
G01 X32.0971 Y307.0444 Z-0.7956 F600
G01 X32.0683 Y306.9690 Z-0.7951 F600
G01 X32.0535 Y306.9242 Z-0.7959 F600
G01 X32.0395 Y306.8779 Z-0.7978 F600
G01 X32.0208 Y306.8154 Z-0.7993 F600
G01 X31.9979 Y306.7395 Z-0.7994 F600
G01 X31.9765 Y306.6627 Z-0.7996 F600
G01 X31.9527 Y306.5702 F600
G01 X31.9379 Y306.5069 Z-0.7997 F600
G01 X31.9208 Y306.4276 F600
G01 X31.9117 Y306.3809 F600
G01 X31.8974 Y306.3022 Z-0.7996 F600
G01 X31.8894 Y306.2548 F600
G01 X31.8792 Y306.1875 Z-0.7995 F600
G01 X31.8688 Y306.1081 F600
G01 X31.8632 Y306.0587 Z-0.7993 F600
G01 X31.8551 Y305.9775 Z-0.7992 F600
G01 X31.8506 Y305.9270 Z-0.7989 F600
G01 X31.8439 Y305.8592 Z-0.7969 F600
G01 X31.8410 Y305.8096 Z-0.7966 F600
G01 X31.8395 Y305.7594 Z-0.7974 F600
G01 X31.8385 Y305.6894 Z-0.7984 F600
G01 X31.8372 Y305.4040 Z-0.7982 F600
G01 X31.8380 Y305.3288 Z-0.7990 F600
G01 X31.8381 Y302.3960 F600
G01 X31.8402 Y302.3208 Z-0.8012 F600
G01 X31.8454 Y302.2456 Z-0.8063 F600
G01 X31.8535 Y302.1704 Z-0.8145 F600
G01 X31.8646 Y302.0952 Z-0.8256 F600
G01 X31.8787 Y302.0200 Z-0.8396 F600
G01 X31.8957 Y301.9448 Z-0.8567 F600
G01 X31.9158 Y301.8696 Z-0.8767 F600
G01 X31.9388 Y301.7944 Z-0.8998 F600
