(Project lr4_strut_carve)
(Created with Estlcam 12.102)
(Machining time about 00:03:56 hours)

(Required tools:)
(90deg engraver)

G21
G90
G94
M03 S10000
G00 Z10.0000 F480

(No. 1 Carve collection machining: Multiple)
G00 X69.2678 Y13.5741 F2100
G00 Z0.5000 F480
G01 Z-1.5509 F2400 S10000
G01 X69.1457 Y13.4763 Z-1.5097 F2400
G01 X69.2100 Y13.5229 Z-1.5343 F2400
G01 X69.2736 Y13.5809 Z-1.5516 F2400
G01 X69.3714 Y13.6954 Z-1.5634 F2400
G01 X69.4213 Y13.7517 Z-1.5679 F2400
G01 X87.9755 Y32.3132 Z-1.5628 F2400
G01 X88.0316 Y32.1791 Z-1.4386 F2400
G01 X88.7632 Y31.5543 Z-0.4795 F2400
G01 X88.0316 Y32.1791 Z-1.4386 F2400
G01 X87.9755 Y32.3132 Z-1.5628 F2400
G01 X88.0738 Y32.4283 Z-1.5509 F2400
G01 X88.1960 Y32.5262 Z-1.5097 F2400
G00 Z10.0000 F480
G00 X88.7632 Y41.0793 F2100
G00 Z0.5000 F480
G01 Z-0.4795 F2400
G01 X88.0316 Y41.7041 Z-1.4386 F2400
G01 X87.9755 Y41.8382 Z-1.5628 F2400
G01 X88.0738 Y41.9533 Z-1.5509 F2400
G01 X88.1960 Y42.0512 Z-1.5097 F2400
G01 X88.1316 Y42.0046 Z-1.5343 F2400
G01 X88.0683 Y41.9468 Z-1.5516 F2400
G01 X87.9706 Y41.8324 Z-1.5634 F2400
G01 X87.9208 Y41.7762 Z-1.5679 F2400
G01 X59.8411 Y13.6893 Z-1.5628 F2400
G01 X59.7428 Y13.5741 Z-1.5509 F2400
G01 X59.6207 Y13.4763 Z-1.5097 F2400
G01 X59.6850 Y13.5229 Z-1.5343 F2400
G00 Z10.0000 F480
G00 X58.2600 Y21.6229 F2100
G00 Z0.5000 F480
G01 Z-1.5343 F2400
G01 X58.1957 Y21.5763 Z-1.5097 F2400
G01 X58.3178 Y21.6741 Z-1.5509 F2400
G01 X58.4161 Y21.7893 Z-1.5628 F2400
G01 X87.9209 Y51.3013 Z-1.5679 F2400
G01 X87.9707 Y51.3575 Z-1.5634 F2400
G01 X88.0683 Y51.4719 Z-1.5516 F2400
G01 X88.1316 Y51.5296 Z-1.5343 F2400
G01 X88.1960 Y51.5762 Z-1.5097 F2400
G01 X88.0738 Y51.4783 Z-1.5509 F2400
G01 X87.9755 Y51.3632 Z-1.5628 F2400
G01 X88.0316 Y51.2291 Z-1.4386 F2400
G01 X88.7632 Y50.6043 Z-0.4795 F2400
G00 Z10.0000 F480
G00 Y60.1293 F2100
G00 Z0.5000 F480
G01 Z-0.4795 F2400
G01 X88.0316 Y60.7541 Z-1.4386 F2400
G01 X87.9755 Y60.8882 Z-1.5628 F2400
G01 X88.0738 Y61.0033 Z-1.5509 F2400
G01 X88.1960 Y61.1012 Z-1.5097 F2400
G01 X88.1316 Y61.0546 Z-1.5343 F2400
G01 X88.0683 Y60.9969 Z-1.5516 F2400
G01 X87.9707 Y60.8825 Z-1.5634 F2400
G01 X87.9209 Y60.8263 Z-1.5679 F2400
G01 X58.4161 Y31.3143 Z-1.5628 F2400
G01 X58.3178 Y31.1991 Z-1.5509 F2400
G01 X58.1957 Y31.1013 Z-1.5097 F2400
G01 X58.2600 Y31.1479 Z-1.5343 F2400
G00 Z10.0000 F480
G00 Y40.6729 F2100
G00 Z0.5000 F480
G01 Z-1.5343 F2400
G01 X58.1957 Y40.6263 Z-1.5097 F2400
G01 X58.3178 Y40.7241 Z-1.5509 F2400
G01 X58.4161 Y40.8393 Z-1.5628 F2400
G01 X87.9209 Y70.3513 Z-1.5679 F2400
G01 X87.9707 Y70.4075 Z-1.5634 F2400
G01 X88.0683 Y70.5219 Z-1.5516 F2400
G01 X88.1316 Y70.5796 Z-1.5343 F2400
G01 X88.1960 Y70.6262 Z-1.5097 F2400
G01 X88.0738 Y70.5283 Z-1.5509 F2400
G01 X87.9755 Y70.4132 Z-1.5628 F2400
G01 X88.0316 Y70.2791 Z-1.4386 F2400
G01 X88.7632 Y69.6543 Z-0.4795 F2400
G00 Z10.0000 F480
G00 Y79.1793 F2100
G00 Z0.5000 F480
G01 Z-0.4795 F2400
G01 X88.0316 Y79.8041 Z-1.4386 F2400
G01 X87.9755 Y79.9382 Z-1.5628 F2400
G01 X88.0738 Y80.0533 Z-1.5509 F2400
G01 X88.1960 Y80.1512 Z-1.5097 F2400
G01 X88.1316 Y80.1046 Z-1.5343 F2400
G01 X88.0683 Y80.0469 Z-1.5516 F2400
G01 X87.9707 Y79.9325 Z-1.5634 F2400
G01 X87.9209 Y79.8763 Z-1.5679 F2400
G01 X58.4161 Y50.3643 Z-1.5628 F2400
G01 X58.3178 Y50.2491 Z-1.5509 F2400
G01 X58.1957 Y50.1513 Z-1.5097 F2400
G01 X58.2600 Y50.1979 Z-1.5343 F2400
G00 Z10.0000 F480
G00 X81.0803 Y85.6168 F2100
G00 Z0.5000 F480
G01 Z-0.6567 F2400
G01 X81.0792 Y85.5302 Z-0.6579 F2400
G01 X81.0076 Y84.8725 Z-0.6628 F2400
G01 X80.9989 Y84.7995 Z-0.6641 F2400
G01 X80.9864 Y84.7269 Z-0.6692 F2400
G01 X80.9702 Y84.6701 Z-0.6728 F2400
G01 X80.7387 Y84.0610 Z-0.6895 F2400
G01 X80.6918 Y83.9635 Z-0.6960 F2400
G01 X80.6474 Y83.9016 Z-0.6973 F2400
G01 X80.3263 Y83.4754 Z-0.7192 F2400
G01 X80.2591 Y83.3898 Z-0.7221 F2400
G01 X80.2052 Y83.3400 Z-0.7190 F2400
G01 X80.1489 Y83.2931 Z-0.7196 F2400
G01 X79.6831 Y82.9355 Z-0.7479 F2400
G01 X79.6398 Y82.9062 Z-0.7474 F2400
G01 X79.5757 Y82.8679 Z-0.7428 F2400
G01 X79.5103 Y82.8323 Z-0.7413 F2400
G01 X79.4431 Y82.7999 Z-0.7434 F2400
G01 X78.9009 Y82.5507 Z-0.7713 F2400
G01 X78.8252 Y82.5199 Z-0.7715 F2400
G01 X78.7563 Y82.4954 Z-0.7684 F2400
G01 X78.6870 Y82.4723 Z-0.7665 F2400
G01 X78.6167 Y82.4523 Z-0.7681 F2400
G01 X77.9106 Y82.2630 Z-0.7940 F2400
G01 X77.8063 Y82.2390 F2400
G01 X77.7340 Y82.2250 Z-0.7914 F2400
G01 X77.6614 Y82.2131 Z-0.7909 F2400
G01 X76.7133 Y82.0842 Z-0.8107 F2400
G01 X76.5806 Y82.0699 Z-0.8097 F2400
G01 X76.5057 Y82.0657 Z-0.8088 F2400
G01 X75.2279 Y82.0158 Z-0.8172 F2400
G01 X73.9283 Y82.0644 Z-0.8093 F2400
G01 X73.8519 Y82.0685 Z-0.8100 F2400
G01 X73.7126 Y82.0829 Z-0.8111 F2400
G01 X72.7535 Y82.2087 Z-0.7925 F2400
G01 X72.6800 Y82.2203 Z-0.7929 F2400
G01 X72.6068 Y82.2340 Z-0.7956 F2400
G01 X72.4995 Y82.2580 Z-0.7959 F2400
G01 X71.7928 Y82.4428 Z-0.7717 F2400
G01 X71.7224 Y82.4622 Z-0.7702 F2400
G01 X71.6530 Y82.4848 Z-0.7722 F2400
G01 X71.5840 Y82.5090 Z-0.7757 F2400
G01 X71.5119 Y82.5380 Z-0.7758 F2400
G01 X70.9773 Y82.7816 Z-0.7505 F2400
G01 X70.9110 Y82.8129 Z-0.7484 F2400
G01 X70.8462 Y82.8474 Z-0.7497 F2400
G01 X70.7829 Y82.8848 Z-0.7543 F2400
G01 X70.7448 Y82.9117 Z-0.7546 F2400
G01 X70.3138 Y83.2487 Z-0.7302 F2400
G01 X70.2527 Y83.2974 Z-0.7274 F2400
G01 X70.1739 Y83.3707 Z-0.7280 F2400
G01 X70.1282 Y83.4322 Z-0.7240 F2400
G01 X69.7695 Y83.9284 Z-0.7001 F2400
G01 X69.7496 Y83.9619 Z-0.6973 F2400
G01 X69.7187 Y84.0300 Z-0.6895 F2400
G01 X69.6916 Y84.0995 Z-0.6857 F2400
G01 X69.4903 Y84.6601 Z-0.6713 F2400
G01 X69.4698 Y84.7322 Z-0.6657 F2400
G01 X69.4566 Y84.8083 Z-0.6596 F2400
G01 X69.4476 Y84.8848 Z-0.6580 F2400
G01 X69.3774 Y85.5740 Z-0.6531 F2400
G01 X69.3772 Y85.6755 Z-0.6529 F2400
G01 X69.4481 Y86.3470 Z-0.6578 F2400
G01 X69.4568 Y86.4216 Z-0.6591 F2400
G01 X69.4693 Y86.4957 Z-0.6643 F2400
G01 X69.4873 Y86.5595 Z-0.6687 F2400
G01 X69.6914 Y87.1076 Z-0.6839 F2400
G01 X69.7177 Y87.1759 Z-0.6866 F2400
G01 X69.7654 Y87.2737 Z-0.6947 F2400
G01 X69.8100 Y87.3352 Z-0.6969 F2400
G01 X70.1286 Y87.7611 Z-0.7197 F2400
G01 X70.1902 Y87.8402 Z-0.7234 F2400
G01 X70.2438 Y87.8888 Z-0.7208 F2400
G01 X70.2998 Y87.9346 Z-0.7217 F2400
G01 X70.7611 Y88.2852 Z-0.7506 F2400
G01 X70.7980 Y88.3098 Z-0.7502 F2400
G01 X70.8617 Y88.3472 Z-0.7456 F2400
G01 X70.9267 Y88.3819 Z-0.7439 F2400
G01 X70.9934 Y88.4134 Z-0.7459 F2400
G01 X71.5324 Y88.6543 Z-0.7743 F2400
G01 X71.6074 Y88.6839 Z-0.7746 F2400
G01 X71.6764 Y88.7076 Z-0.7716 F2400
G01 X71.7458 Y88.7302 Z-0.7697 F2400
G01 X71.8162 Y88.7495 Z-0.7712 F2400
G01 X72.5229 Y88.9323 Z-0.7976 F2400
G01 X72.6296 Y88.9559 Z-0.7977 F2400
G01 X72.7024 Y88.9694 Z-0.7952 F2400
G01 X72.7754 Y88.9810 Z-0.7948 F2400
G01 X73.7291 Y89.1053 Z-0.8148 F2400
G01 X73.8659 Y89.1194 Z-0.8139 F2400
G01 X73.9416 Y89.1235 Z-0.8132 F2400
G01 X75.2295 Y89.1716 Z-0.8217 F2400
G01 X76.4982 Y89.1208 Z-0.8131 F2400
G01 X76.5727 Y89.1159 Z-0.8145 F2400
G01 X76.7020 Y89.1017 Z-0.8154 F2400
G01 X77.6474 Y88.9702 Z-0.7951 F2400
G01 X77.7197 Y88.9574 Z-0.7963 F2400
G01 X77.7918 Y88.9432 Z-0.7988 F2400
G01 X77.8934 Y88.9194 Z-0.7987 F2400
G01 X78.5997 Y88.7271 Z-0.7713 F2400
G01 X78.6698 Y88.7062 Z-0.7703 F2400
G01 X78.7389 Y88.6822 Z-0.7725 F2400
G01 X78.8079 Y88.6576 Z-0.7754 F2400
G01 X78.8828 Y88.6269 Z-0.7748 F2400
G01 X79.4282 Y88.3744 Z-0.7440 F2400
G01 X79.4954 Y88.3410 Z-0.7422 F2400
G01 X79.5609 Y88.3043 Z-0.7442 F2400
G01 X79.6253 Y88.2656 Z-0.7484 F2400
G01 X79.6712 Y88.2345 Z-0.7486 F2400
G01 X80.0835 Y87.9192 Z-0.7200 F2400
G01 X80.1420 Y87.8737 Z-0.7165 F2400
G01 X80.1983 Y87.8257 Z-0.7164 F2400
G01 X80.2522 Y87.7747 Z-0.7201 F2400
G01 X80.2765 Y87.7462 Z-0.7205 F2400
G01 X80.6486 Y87.2567 Z-0.6915 F2400
G01 X80.6923 Y87.1937 Z-0.6912 F2400
G01 X80.7118 Y87.1588 Z-0.6905 F2400
G01 X80.7396 Y87.0915 Z-0.6865 F2400
G01 X80.9486 Y86.5483 Z-0.6694 F2400
G01 X80.9742 Y86.4802 Z-0.6679 F2400
G01 X80.9895 Y86.4214 Z-0.6655 F2400
G01 X81.0003 Y86.3485 Z-0.6622 F2400
G01 X81.0733 Y85.6901 Z-0.6563 F2400
G01 X81.0803 Y85.6168 Z-0.6567 F2400
G01 X81.3808 Y85.5734 Z-0.3622 F2400
G00 Z10.0000 F480
G00 X85.6469 Y85.9823 F2100
G00 Z0.5000 F480
G01 Z-0.2439 F2400
G01 X85.7242 Y85.4945 Z-0.7318 F2400
G01 X85.6489 Y85.4762 Z-0.7258 F2400
G01 X85.2409 Y85.9819 Z-0.1189 F2400
G01 X85.5348 Y85.5774 Z-0.5944 F2400
G01 X85.4894 Y85.5149 F2400
G01 X85.4895 Y85.4376 Z-0.5945 F2400
G01 X85.5348 Y85.3750 Z-0.5944 F2400
G01 X85.6489 Y85.4762 Z-0.7258 F2400
G01 X85.7242 Y85.4580 Z-0.7318 F2400
G01 X85.7958 Y85.4762 Z-0.7500 F2400
G01 X91.4208 F2400
G01 X91.4958 Y85.4367 Z-0.7105 F2400
G01 X91.5677 Y85.4762 Z-0.7258 F2400
G01 X91.9757 Y84.9705 Z-0.1189 F2400
G01 X91.6818 Y85.3750 Z-0.5944 F2400
G01 X91.7272 Y85.4376 F2400
G01 X91.7271 Y85.5149 Z-0.5945 F2400
G01 X91.6818 Y85.5774 Z-0.5944 F2400
G01 X91.5677 Y85.4762 Z-0.7258 F2400
G01 X91.4924 Y85.4945 Z-0.7318 F2400
G00 Z10.0000 F480
G00 X85.6469 Y135.9820 F2100
G00 Z0.5000 F480
G01 Z-0.2442 F2400
G01 X85.7242 Y135.4936 Z-0.7327 F2400
G01 X85.6486 Y135.4762 Z-0.7258 F2400
G01 X85.2409 Y135.9822 Z-0.1188 F2400
G01 X85.5345 Y135.5779 Z-0.5939 F2400
G01 X85.4894 Y135.5151 Z-0.5944 F2400
G01 X85.4900 Y135.4376 Z-0.5950 F2400
G01 X85.5345 Y135.3746 Z-0.5939 F2400
G01 X85.6486 Y135.4762 Z-0.7258 F2400
G01 X85.7242 Y135.4589 Z-0.7327 F2400
G01 X85.7958 Y135.4762 Z-0.7500 F2400
G01 X91.4208 F2400
G01 X91.4958 Y135.4376 Z-0.7114 F2400
G01 X91.5680 Y135.4762 Z-0.7258 F2400
G01 X91.9758 Y134.9703 Z-0.1188 F2400
G01 X91.6822 Y135.3746 Z-0.5939 F2400
G01 X91.7272 Y135.4374 Z-0.5944 F2400
G01 X91.7266 Y135.5149 Z-0.5950 F2400
G01 X91.6822 Y135.5779 Z-0.5939 F2400
G01 X91.5680 Y135.4762 Z-0.7258 F2400
G01 X91.4924 Y135.4936 Z-0.7327 F2400
G01 X91.4208 Y135.4762 Z-0.7500 F2400
G01 X85.7958 F2400
G01 X85.7208 Y135.5148 Z-0.7114 F2400
G01 X85.6486 Y135.4762 Z-0.7258 F2400
G01 X85.2409 Y135.9822 Z-0.1188 F2400
G00 Z10.0000 F480
G00 X49.3711 Y157.4316 F2100
G00 Z0.5000 F480
G01 Z-0.6223 F2400
G01 X49.2961 Y157.4301 Z-0.6208 F2400
G01 X31.6659 Y157.4327 Z-0.6235 F2400
G01 X31.5909 Y157.4294 Z-0.6202 F2400
G01 X31.5159 Y157.4301 Z-0.6208 F2400
G01 X31.4408 Y157.4316 Z-0.6223 F2400
G01 X31.3930 Y157.4330 Z-0.6229 F2400
G01 X31.2414 Y157.4364 Z-0.6199 F2400
G01 X31.1750 Y157.4415 Z-0.6166 F2400
G01 X31.0917 Y157.4532 Z-0.6172 F2400
G01 X30.9521 Y157.4869 Z-0.6213 F2400
G01 X30.8893 Y157.5049 Z-0.6206 F2400
G01 X30.8106 Y157.5283 Z-0.6198 F2400
G01 X30.7497 Y157.5510 Z-0.6191 F2400
G01 X30.6732 Y157.5804 Z-0.6184 F2400
G01 X30.6148 Y157.6075 Z-0.6178 F2400
G01 X30.5409 Y157.6429 Z-0.6173 F2400
G01 X30.4848 Y157.6745 Z-0.6168 F2400
G01 X30.4172 Y157.7135 Z-0.6166 F2400
G01 X30.3640 Y157.7493 Z-0.6159 F2400
G01 X30.2962 Y157.7961 Z-0.6154 F2400
G01 X30.2456 Y157.8360 Z-0.6148 F2400
G01 X30.1809 Y157.8882 Z-0.6143 F2400
G01 X30.1340 Y157.9317 Z-0.6141 F2400
G01 X30.0758 Y157.9869 F2400
G01 X30.0322 Y158.0341 Z-0.6139 F2400
G01 X29.9761 Y158.0964 F2400
G01 X29.9362 Y158.1466 Z-0.6138 F2400
G01 X29.8874 Y158.2094 Z-0.6139 F2400
G01 X29.8516 Y158.2631 F2400
G01 X29.8059 Y158.3331 Z-0.6142 F2400
G01 X29.7742 Y158.3895 Z-0.6144 F2400
G01 X29.7347 Y158.4615 Z-0.6148 F2400
G01 X29.7075 Y158.5203 Z-0.6152 F2400
G01 X29.6736 Y158.5956 Z-0.6158 F2400
G01 X29.6509 Y158.6563 Z-0.6160 F2400
G01 X29.6234 Y158.7323 Z-0.6165 F2400
G01 X29.6053 Y158.7957 Z-0.6168 F2400
G01 X29.5835 Y158.8755 Z-0.6173 F2400
G01 X29.5667 Y158.9398 Z-0.6138 F2400
G01 X29.5477 Y159.0220 Z-0.6109 F2400
G01 X29.5390 Y159.0883 Z-0.6104 F2400
G01 X29.5299 Y159.6018 Z-0.6174 F2400
G01 X29.9064 Y159.5267 Z-0.2408 F2400
G01 X30.1472 Y159.4892 Z0.0000 F2400
G01 X29.5290 Y159.5292 Z-0.6165 F2400
G01 X29.5283 Y159.4969 Z-0.6158 F2400
G01 X29.5285 Y159.4647 Z-0.6160 F2400
G01 X29.5293 Y159.4241 Z-0.6168 F2400
G01 X29.5299 Y159.3737 Z-0.6174 F2400
G01 X29.5304 Y159.3067 Z-0.6168 F2400
G01 X29.5331 Y159.1727 Z-0.6141 F2400
G01 X29.5359 Y159.1232 Z-0.6116 F2400
G01 X29.5387 Y159.0913 Z-0.6104 F2400
G01 X29.5423 Y159.0596 Z-0.6102 F2400
G01 X29.5467 Y159.0279 Z-0.6107 F2400
G01 X29.5527 Y158.9965 Z-0.6114 F2400
G01 X29.5600 Y158.9653 Z-0.6124 F2400
G01 X29.5697 Y158.9290 Z-0.6146 F2400
G01 X29.5845 Y158.9004 Z-0.6113 F2400
G01 X29.7405 Y158.9496 Z-0.4488 F2400
G01 X29.8606 Y158.9900 Z-0.3231 F2400
G01 X29.9234 Y159.0126 Z-0.2572 F2400
G01 X29.9777 Y159.0333 Z-0.1999 F2400
G01 X30.0019 Y159.0430 Z-0.1743 F2400
G01 X30.0273 Y159.0537 Z-0.1473 F2400
G01 X30.0555 Y159.0662 Z-0.1173 F2400
G01 X30.0810 Y159.0785 Z-0.0898 F2400
G01 X30.1048 Y159.0913 Z-0.0640 F2400
G01 X30.1265 Y159.1048 Z-0.0401 F2400
G01 X30.1462 Y159.1205 Z-0.0188 F2400
G01 X30.1630 Y159.1392 Z0.0000 F2400
G01 X29.5953 Y158.8313 Z-0.6170 F2400
G01 X29.6135 Y158.7668 Z-0.6166 F2400
G01 X29.6395 Y158.6870 Z-0.6162 F2400
G01 X29.6623 Y158.6258 Z-0.6158 F2400
G01 X29.6919 Y158.5542 Z-0.6154 F2400
G01 X29.7194 Y158.4944 Z-0.6149 F2400
G01 X29.7567 Y158.4207 Z-0.6146 F2400
G01 X29.7883 Y158.3642 Z-0.6142 F2400
G01 X29.8296 Y158.2962 Z-0.6141 F2400
G01 X29.8653 Y158.2423 Z-0.6138 F2400
G01 X29.9147 Y158.1738 F2400
G01 X29.9542 Y158.1238 F2400
G01 X30.0038 Y158.0652 Z-0.6139 F2400
G01 X30.0471 Y158.0179 F2400
G01 X30.1017 Y157.9620 Z-0.6142 F2400
G01 X30.1485 Y157.9181 Z-0.6141 F2400
G01 X30.2140 Y157.8611 Z-0.6146 F2400
G01 X30.2638 Y157.8215 Z-0.6149 F2400
G01 X30.3247 Y157.7761 Z-0.6157 F2400
G01 X30.3779 Y157.7399 Z-0.6160 F2400
G01 X30.4450 Y157.6972 Z-0.6168 F2400
G01 X30.5011 Y157.6652 Z-0.6169 F2400
G01 X30.5750 Y157.6262 Z-0.6176 F2400
G01 X30.6338 Y157.5986 Z-0.6179 F2400
G01 X30.7098 Y157.5660 Z-0.6188 F2400
G01 X30.7710 Y157.5429 Z-0.6193 F2400
G01 X30.8480 Y157.5169 Z-0.6202 F2400
G01 X30.9115 Y157.4984 Z-0.6207 F2400
G01 X30.9950 Y157.4778 Z-0.6216 F2400
G01 X31.0843 Y157.7643 Z-0.3233 F2400
G01 X31.1566 Y157.9625 Z-0.1150 F2400
G01 X31.1949 Y158.0384 Z-0.0335 F2400
G01 X31.2232 Y158.0682 Z0.0000 F2400
G01 X31.0215 Y157.4703 Z-0.6197 F2400
G01 X31.0529 Y157.4622 Z-0.6180 F2400
G01 X31.0844 Y157.4548 Z-0.6172 F2400
G01 X31.1161 Y157.4490 Z-0.6166 F2400
G01 X31.1481 Y157.4445 Z-0.6163 F2400
G01 X31.1802 Y157.4410 Z-0.6168 F2400
G01 X31.2178 Y157.4379 Z-0.6184 F2400
G01 X31.2520 Y157.4359 Z-0.6203 F2400
G01 X31.3673 Y157.4337 Z-0.6226 F2400
G01 X31.3998 Y157.4327 Z-0.6229 F2400
G01 X31.5588 Y157.4293 Z-0.6200 F2400
G01 X31.5913 Y157.4294 Z-0.6202 F2400
G01 X31.6238 Y157.4304 Z-0.6212 F2400
G01 X31.6618 Y157.4327 Z-0.6235 F2400
G01 X31.6576 Y157.4934 Z-0.5628 F2400
G01 X31.6415 Y157.6784 Z-0.3778 F2400
G01 X31.6281 Y157.8046 Z-0.2516 F2400
G01 X31.6188 Y157.8766 Z-0.1797 F2400
G01 X31.6145 Y157.9058 Z-0.1505 F2400
G01 X31.6098 Y157.9348 Z-0.1215 F2400
G01 X31.6051 Y157.9605 Z-0.0957 F2400
G01 X31.5994 Y157.9873 Z-0.0689 F2400
G01 X31.5931 Y158.0117 Z-0.0446 F2400
G01 X31.5845 Y158.0359 Z-0.0203 F2400
G01 X31.5694 Y158.0562 Z0.0000 F2400
G01 X31.5845 Y158.0359 Z-0.0203 F2400
G01 X31.5931 Y158.0117 Z-0.0446 F2400
G01 X31.5994 Y157.9873 Z-0.0689 F2400
G01 X31.6051 Y157.9605 Z-0.0957 F2400
G01 X31.6098 Y157.9348 Z-0.1215 F2400
G01 X31.6145 Y157.9058 Z-0.1505 F2400
G01 X31.6188 Y157.8766 Z-0.1797 F2400
G01 X31.6281 Y157.8046 Z-0.2516 F2400
G01 X31.6415 Y157.6784 Z-0.3778 F2400
G01 X31.6576 Y157.4934 Z-0.5628 F2400
G01 X31.6618 Y157.4327 Z-0.6235 F2400
G01 X31.6238 Y157.4304 Z-0.6212 F2400
G01 X31.5913 Y157.4294 Z-0.6202 F2400
G01 X31.5588 Y157.4293 Z-0.6200 F2400
G01 X31.3998 Y157.4327 Z-0.6229 F2400
G01 X31.3673 Y157.4337 Z-0.6226 F2400
G01 X31.2520 Y157.4359 Z-0.6203 F2400
G01 X31.2178 Y157.4379 Z-0.6184 F2400
G01 X31.1802 Y157.4410 Z-0.6168 F2400
G01 X31.1481 Y157.4445 Z-0.6163 F2400
G01 X31.1161 Y157.4490 Z-0.6166 F2400
G01 X31.0844 Y157.4548 Z-0.6172 F2400
G01 X31.0529 Y157.4622 Z-0.6180 F2400
G01 X31.0215 Y157.4703 Z-0.6197 F2400
G01 X31.2232 Y158.0682 Z0.0000 F2400
G01 X31.1949 Y158.0384 Z-0.0335 F2400
G01 X31.1566 Y157.9625 Z-0.1150 F2400
G01 X31.0843 Y157.7643 Z-0.3233 F2400
G01 X30.9950 Y157.4778 Z-0.6216 F2400
G01 X30.9115 Y157.4984 Z-0.6207 F2400
G01 X30.8480 Y157.5169 Z-0.6202 F2400
G01 X30.7710 Y157.5429 Z-0.6193 F2400
G01 X30.7098 Y157.5660 Z-0.6188 F2400
G01 X30.6338 Y157.5986 Z-0.6179 F2400
G01 X30.5750 Y157.6262 Z-0.6176 F2400
G01 X30.5011 Y157.6652 Z-0.6169 F2400
G01 X30.4450 Y157.6972 Z-0.6168 F2400
G01 X30.3779 Y157.7399 Z-0.6160 F2400
G01 X30.3247 Y157.7761 Z-0.6157 F2400
G01 X30.2638 Y157.8215 Z-0.6149 F2400
G01 X30.2140 Y157.8611 Z-0.6146 F2400
G01 X30.1485 Y157.9181 Z-0.6141 F2400
G01 X30.1017 Y157.9620 Z-0.6142 F2400
G01 X30.0471 Y158.0179 Z-0.6139 F2400
G01 X30.0038 Y158.0652 F2400
G01 X29.9542 Y158.1238 Z-0.6138 F2400
G01 X29.9147 Y158.1738 F2400
G01 X29.8653 Y158.2423 F2400
G01 X29.8296 Y158.2962 Z-0.6141 F2400
G01 X29.7883 Y158.3642 Z-0.6142 F2400
G01 X29.7567 Y158.4207 Z-0.6146 F2400
G01 X29.7194 Y158.4944 Z-0.6149 F2400
G01 X29.6919 Y158.5542 Z-0.6154 F2400
G01 X29.6623 Y158.6258 Z-0.6158 F2400
G01 X29.6395 Y158.6870 Z-0.6162 F2400
G01 X29.6135 Y158.7668 Z-0.6166 F2400
G01 X29.5953 Y158.8313 Z-0.6170 F2400
G01 X30.1630 Y159.1392 Z0.0000 F2400
G01 X30.1462 Y159.1205 Z-0.0188 F2400
G01 X30.1265 Y159.1048 Z-0.0401 F2400
G01 X30.1048 Y159.0913 Z-0.0640 F2400
G01 X30.0810 Y159.0785 Z-0.0898 F2400
G01 X30.0555 Y159.0662 Z-0.1173 F2400
G01 X30.0273 Y159.0537 Z-0.1473 F2400
G01 X30.0019 Y159.0430 Z-0.1743 F2400
G01 X29.9777 Y159.0333 Z-0.1999 F2400
G01 X29.9234 Y159.0126 Z-0.2572 F2400
G01 X29.8606 Y158.9900 Z-0.3231 F2400
G01 X29.7405 Y158.9496 Z-0.4488 F2400
G01 X29.5845 Y158.9004 Z-0.6113 F2400
G01 X29.5697 Y158.9290 Z-0.6146 F2400
G01 X29.5600 Y158.9653 Z-0.6124 F2400
G01 X29.5527 Y158.9965 Z-0.6114 F2400
G01 X29.5467 Y159.0279 Z-0.6107 F2400
G01 X29.5423 Y159.0596 Z-0.6102 F2400
G01 X29.5387 Y159.0913 Z-0.6104 F2400
G01 X29.5359 Y159.1232 Z-0.6116 F2400
G01 X29.5331 Y159.1727 Z-0.6141 F2400
G01 X29.5304 Y159.3067 Z-0.6168 F2400
G01 X29.5299 Y159.3737 Z-0.6174 F2400
G01 X29.5293 Y159.4241 Z-0.6168 F2400
G01 X29.5285 Y159.4647 Z-0.6160 F2400
G01 X29.5283 Y159.4969 Z-0.6158 F2400
G01 X29.5290 Y159.5292 Z-0.6165 F2400
G01 X30.1472 Y159.4892 Z0.0000 F2400
G01 X29.9064 Y159.5267 Z-0.2408 F2400
G01 X29.5299 Y159.6018 Z-0.6174 F2400
G01 X29.5331 Y159.1727 Z-0.6141 F2400
G01 X29.5299 Y194.4397 Z-0.6173 F2400
G01 X29.5137 Y194.5146 Z-0.6012 F2400
G01 X29.4623 Y194.6646 Z-0.5498 F2400
G01 X29.1456 Y195.5641 Z-0.2331 F2400
G01 X28.9125 Y196.2012 Z0.0000 F2400
G01 X29.0228 Y195.9025 Z-0.1103 F2400
G01 X29.2602 Y195.2422 Z-0.3477 F2400
G01 X29.5170 Y194.5052 Z-0.6044 F2400
G01 X29.5407 Y194.4713 Z-0.6065 F2400
G01 X30.1156 Y194.6665 Z-0.0316 F2400
G01 X29.5943 Y194.4897 Z-0.5529 F2400
G00 Z10.0000 F480
G00 X30.0061 Y204.2007 F2100
G00 Z0.5000 F480
G01 Z-0.1411 F2400
G01 X29.7240 Y204.2757 Z-0.4232 F2400
G01 X29.5299 Y204.3507 Z-0.6174 F2400
G01 Y349.4398 Z-0.6173 F2400
G01 X30.1472 Y349.5522 Z0.0000 F2400
G01 X30.1269 Y349.5372 Z-0.0203 F2400
G01 X30.1024 Y349.5288 Z-0.0448 F2400
G01 X30.0768 Y349.5225 Z-0.0704 F2400
G01 X30.0478 Y349.5166 Z-0.0994 F2400
G01 X30.0195 Y349.5117 Z-0.1277 F2400
G01 X29.9869 Y349.5067 Z-0.1603 F2400
G01 X29.9250 Y349.4985 Z-0.2222 F2400
G01 X29.8185 Y349.4867 Z-0.3288 F2400
G01 X29.6111 Y349.4684 Z-0.5361 F2400
G01 X29.5464 Y349.4634 Z-0.6009 F2400
G01 X29.5285 Y349.4825 Z-0.6160 F2400
G01 X29.5271 Y349.5147 Z-0.6146 F2400
G01 X29.5266 Y349.5469 Z-0.6141 F2400
G01 X29.5273 Y349.6046 Z-0.6148 F2400
G01 X29.5316 Y349.7212 Z-0.6150 F2400
G01 X29.5326 Y349.7564 Z-0.6146 F2400
G01 X29.5350 Y349.8731 Z-0.6123 F2400
G01 X29.5368 Y349.9076 Z-0.6104 F2400
G01 X29.5393 Y349.9394 Z-0.6090 F2400
G01 X29.5426 Y349.9711 Z-0.6085 F2400
G01 X29.5468 Y350.0027 Z-0.6088 F2400
G01 X29.5519 Y350.0342 Z-0.6097 F2400
G01 X29.5590 Y350.0654 Z-0.6104 F2400
G01 X29.5669 Y350.0964 Z-0.6119 F2400
G01 X30.1595 Y349.9022 Z0.0000 F2400
G01 X30.1309 Y349.9293 Z-0.0316 F2400
G01 X30.0505 Y349.9693 Z-0.1177 F2400
G01 X29.8419 Y350.0444 Z-0.3368 F2400
G01 X29.5761 Y350.1305 Z-0.6141 F2400
G01 X29.5952 Y350.2107 Z-0.6139 F2400
G01 X29.6133 Y350.2747 Z-0.6136 F2400
G01 X29.6378 Y350.3507 Z-0.6135 F2400
G01 X29.6606 Y350.4126 Z-0.6131 F2400
G01 X29.6915 Y350.4879 Z-0.6129 F2400
G01 X29.7188 Y350.5471 Z-0.6125 F2400
G01 X29.7553 Y350.6192 Z-0.6124 F2400
G01 X29.7869 Y350.6758 Z-0.6121 F2400
G01 X29.8278 Y350.7432 F2400
G01 X29.8636 Y350.7970 Z-0.6118 F2400
G01 X29.9103 Y350.8625 Z-0.6119 F2400
G01 X29.9498 Y350.9131 Z-0.6118 F2400
G01 X30.0016 Y350.9751 Z-0.6122 F2400
G01 X30.0448 Y351.0224 F2400
G01 X30.1022 Y351.0811 Z-0.6128 F2400
G01 X30.1488 Y351.1246 Z-0.6129 F2400
G01 X30.2073 Y351.1759 Z-0.6137 F2400
G01 X30.2573 Y351.2161 Z-0.6138 F2400
G01 X30.3218 Y351.2646 Z-0.6147 F2400
G01 X30.3750 Y351.3007 Z-0.6149 F2400
G01 X30.4468 Y351.3459 Z-0.6158 F2400
G01 X30.5028 Y351.3776 Z-0.6162 F2400
G01 X30.5717 Y351.4139 Z-0.6172 F2400
G01 X30.6304 Y351.4415 Z-0.6175 F2400
G01 X30.7063 Y351.4742 Z-0.6186 F2400
G01 X30.7676 Y351.4973 Z-0.6191 F2400
G01 X30.8445 Y351.5234 Z-0.6201 F2400
G01 X30.9081 Y351.5417 Z-0.6204 F2400
G01 X30.9856 Y351.5614 Z-0.6212 F2400
G01 X31.2232 Y350.9732 Z0.0000 F2400
G01 X31.2048 Y350.9902 Z-0.0191 F2400
G01 X31.1905 Y351.0112 Z-0.0418 F2400
G01 X31.1782 Y351.0353 Z-0.0674 F2400
G01 X31.1672 Y351.0583 Z-0.0921 F2400
G01 X31.1569 Y351.0818 Z-0.1172 F2400
G01 X31.1453 Y351.1099 Z-0.1470 F2400
G01 X31.1331 Y351.1413 Z-0.1802 F2400
G01 X31.1123 Y351.1983 Z-0.2402 F2400
G01 X31.0884 Y351.2679 Z-0.3132 F2400
G01 X31.0423 Y351.4115 Z-0.4631 F2400
G01 X30.9991 Y351.5542 Z-0.6116 F2400
G01 X31.0216 Y351.5709 Z-0.6194 F2400
G01 X31.0582 Y351.5804 Z-0.6176 F2400
G01 X31.0897 Y351.5877 Z-0.6171 F2400
G01 X31.1215 Y351.5932 Z-0.6164 F2400
G01 X31.1535 Y351.5974 Z-0.6161 F2400
G01 X31.1856 Y351.6007 Z-0.6166 F2400
G01 X31.2178 Y351.6032 Z-0.6180 F2400
G01 X31.2516 Y351.6051 Z-0.6199 F2400
G01 X31.3651 Y351.6076 Z-0.6224 F2400
G01 X31.4004 Y351.6087 Z-0.6228 F2400
G01 X31.5494 Y351.6116 Z-0.6206 F2400
G01 X31.5819 F2400
G01 X31.6144 Y351.6108 Z-0.6215 F2400
G01 X31.6470 Y351.6091 Z-0.6232 F2400
G01 X31.5658 Y350.9852 Z0.0000 F2400
G01 X31.6033 Y351.1064 Z-0.1211 F2400
G01 X31.6782 Y351.6087 Z-0.6235 F2400
G01 X49.1304 F2400
G01 X49.2427 Y350.9852 Z0.0000 F2400
G01 X49.2283 Y351.0061 Z-0.0208 F2400
G01 X49.2202 Y351.0312 Z-0.0460 F2400
G01 X49.2142 Y351.0570 Z-0.0718 F2400
G01 X49.2090 Y351.0838 Z-0.0986 F2400
G01 X49.2041 Y351.1135 Z-0.1283 F2400
G01 X49.2005 Y351.1384 Z-0.1532 F2400
G01 X49.1926 Y351.1995 Z-0.2143 F2400
G01 X49.1811 Y351.3065 Z-0.3213 F2400
G01 X49.1630 Y351.5200 Z-0.5348 F2400
G01 X49.1581 Y351.5880 Z-0.6028 F2400
G01 X49.1715 Y351.6097 Z-0.6226 F2400
G01 X49.2040 Y351.6111 Z-0.6211 F2400
G01 X49.2365 Y351.6117 Z-0.6205 F2400
G01 X49.3509 Y351.6100 Z-0.6222 F2400
G01 X49.4085 Y351.6087 Z-0.6229 F2400
G01 X49.4445 Y351.6076 Z-0.6224 F2400
G01 X49.5600 Y351.6051 Z-0.6199 F2400
G01 X49.5942 Y351.6032 Z-0.6180 F2400
G01 X49.6265 Y351.6007 Z-0.6166 F2400
G01 X49.6586 Y351.5974 Z-0.6161 F2400
G01 X49.6906 Y351.5932 Z-0.6164 F2400
G01 X49.7224 Y351.5877 Z-0.6170 F2400
G01 X49.7539 Y351.5804 Z-0.6176 F2400
G01 X49.7852 Y351.5723 Z-0.6190 F2400
G01 X49.8165 Y351.5633 Z-0.6213 F2400
G01 X49.5888 Y350.9722 Z0.0000 F2400
G01 X49.6156 Y351.0004 Z-0.0308 F2400
G01 X49.6570 Y351.0816 Z-0.1181 F2400
G01 X49.7326 Y351.2855 Z-0.3329 F2400
G01 X49.8229 Y351.5617 Z-0.6216 F2400
G01 X49.9005 Y351.5422 Z-0.6209 F2400
G01 X49.9640 Y351.5239 Z-0.6206 F2400
G01 X50.0411 Y351.4979 Z-0.6197 F2400
G01 X50.1023 Y351.4748 Z-0.6192 F2400
G01 X50.1783 Y351.4422 Z-0.6183 F2400
G01 X50.2370 Y351.4145 Z-0.6180 F2400
G01 X50.3061 Y351.3784 Z-0.6171 F2400
G01 X50.3621 Y351.3467 Z-0.6167 F2400
G01 X50.4340 Y351.3015 Z-0.6158 F2400
G01 X50.4872 Y351.2654 Z-0.6157 F2400
G01 X50.5521 Y351.2167 Z-0.6149 F2400
G01 X50.6021 Y351.1766 Z-0.6148 F2400
G01 X50.6598 Y351.1260 Z-0.6142 F2400
G01 X50.7065 Y351.0826 Z-0.6140 F2400
G01 X50.7649 Y351.0229 Z-0.6135 F2400
G01 X50.8082 Y350.9756 F2400
G01 X50.8597 Y350.9140 Z-0.6131 F2400
G01 X50.8992 Y350.8634 Z-0.6133 F2400
G01 X50.9461 Y350.7978 Z-0.6132 F2400
G01 X50.9819 Y350.7440 Z-0.6136 F2400
G01 X51.0228 Y350.6765 F2400
G01 X51.0545 Y350.6200 Z-0.6140 F2400
G01 X51.0910 Y350.5478 Z-0.6141 F2400
G01 X51.1184 Y350.4886 Z-0.6145 F2400
G01 X51.1494 Y350.4132 Z-0.6147 F2400
G01 X51.1722 Y350.3513 Z-0.6151 F2400
G01 X51.1968 Y350.2751 Z-0.6153 F2400
G01 X51.2149 Y350.2112 Z-0.6156 F2400
G01 X51.2340 Y350.1308 Z-0.6158 F2400
G01 X50.6489 Y349.9022 Z0.0000 F2400
G01 X50.6660 Y349.9208 Z-0.0191 F2400
G01 X50.6874 Y349.9352 Z-0.0421 F2400
G01 X50.7111 Y349.9479 Z-0.0677 F2400
G01 X50.7365 Y349.9600 Z-0.0949 F2400
G01 X50.7602 Y349.9703 Z-0.1201 F2400
G01 X50.7884 Y349.9817 Z-0.1500 F2400
G01 X50.8195 Y349.9936 Z-0.1828 F2400
G01 X50.8757 Y350.0139 Z-0.2418 F2400
G01 X50.9433 Y350.0368 Z-0.3125 F2400
G01 X51.0802 Y350.0801 Z-0.4552 F2400
G01 X51.2136 Y350.1198 Z-0.5937 F2400
G01 X51.2389 Y350.1125 Z-0.6147 F2400
G01 X51.2485 Y350.0762 Z-0.6125 F2400
G01 X51.2559 Y350.0450 Z-0.6116 F2400
G01 X51.2618 Y350.0135 Z-0.6108 F2400
G01 X51.2662 Y349.9819 Z-0.6102 F2400
G01 X51.2698 Y349.9501 Z-0.6105 F2400
G01 X51.2726 Y349.9182 Z-0.6116 F2400
G01 X51.2752 Y349.8731 Z-0.6140 F2400
G01 X51.2776 Y349.7564 Z-0.6164 F2400
G01 X51.2786 Y349.7217 Z-0.6167 F2400
G01 X51.2818 Y349.5704 Z-0.6141 F2400
G01 Y349.5382 F2400
G01 X51.2810 Y349.5061 Z-0.6149 F2400
G01 X51.2794 Y349.4738 Z-0.6165 F2400
G01 X50.6612 Y349.5522 Z0.0000 F2400
G01 X50.7695 Y349.5147 Z-0.1082 F2400
G01 X51.2786 Y349.4398 Z-0.6173 F2400
G01 X51.2850 Y204.3029 Z-0.6109 F2400
G01 X51.8959 Y202.0042 Z0.0000 F2400
G01 X51.2882 Y204.2912 Z-0.6078 F2400
G00 Z10.0000 F480
G00 X47.7410 Y209.1251 F2100
G00 Z0.5000 F480
G01 Z-0.9799 F2400
G01 X47.6092 Y209.2761 Z-1.1118 F2400
G01 X47.6247 Y209.3146 Z-1.0962 F2400
G01 X47.6393 Y209.3526 Z-1.0816 F2400
G01 X47.6562 Y209.3995 Z-1.0647 F2400
G01 X47.6718 Y209.4456 Z-1.0491 F2400
G01 X47.6860 Y209.4910 Z-1.0349 F2400
G01 X47.6990 Y209.5359 Z-1.0219 F2400
G01 X47.7108 Y209.5802 Z-1.0102 F2400
G01 X47.7214 Y209.6241 Z-0.9995 F2400
G01 X47.7309 Y209.6675 Z-0.9900 F2400
G01 X47.7394 Y209.7105 Z-0.9815 F2400
G01 X47.7468 Y209.7531 Z-0.9741 F2400
G01 X47.7532 Y209.7955 Z-0.9677 F2400
G01 X47.7596 Y209.8460 Z-0.9613 F2400
G01 X47.7647 Y209.8962 Z-0.9562 F2400
G01 X47.7684 Y209.9462 Z-0.9525 F2400
G01 X47.7708 Y209.9960 Z-0.9501 F2400
G01 X47.7720 Y218.9806 Z-0.9490 F2400
G01 X47.7705 Y219.0393 Z-0.9384 F2400
G01 X47.7965 Y219.0862 Z-0.8920 F2400
G01 X47.7720 Y218.9817 Z-0.9490 F2400
G01 X47.7965 Y219.0862 Z-0.8920 F2400
G01 X47.7705 Y219.0393 Z-0.9384 F2400
G01 X47.7720 Y218.9806 Z-0.9490 F2400
G01 X47.7708 Y209.9960 Z-0.9501 F2400
G01 X47.7684 Y209.9462 Z-0.9525 F2400
G01 X47.7647 Y209.8962 Z-0.9562 F2400
G01 X47.7596 Y209.8460 Z-0.9613 F2400
G01 X47.7532 Y209.7955 Z-0.9677 F2400
G01 X47.7468 Y209.7531 Z-0.9741 F2400
G01 X47.7394 Y209.7105 Z-0.9815 F2400
G01 X47.7309 Y209.6675 Z-0.9900 F2400
G01 X47.7214 Y209.6241 Z-0.9995 F2400
G01 X47.7108 Y209.5802 Z-1.0102 F2400
G01 X47.6990 Y209.5359 Z-1.0219 F2400
G01 X47.6860 Y209.4910 Z-1.0349 F2400
G01 X47.6718 Y209.4456 Z-1.0491 F2400
G01 X47.6562 Y209.3995 Z-1.0647 F2400
G01 X47.6393 Y209.3526 Z-1.0816 F2400
G01 X47.6247 Y209.3146 Z-1.0962 F2400
G01 X47.6092 Y209.2761 Z-1.1118 F2400
G01 X47.5914 Y209.2577 Z-1.1125 F2400
G01 X47.5165 Y209.2292 Z-1.0839 F2400
G01 X47.4417 Y209.2036 Z-1.0583 F2400
G01 X47.3669 Y209.1809 Z-1.0357 F2400
G01 X47.2921 Y209.1611 Z-1.0159 F2400
G01 X47.2173 Y209.1443 Z-0.9990 F2400
G01 X47.1424 Y209.1303 Z-0.9851 F2400
G01 X47.0676 Y209.1193 Z-0.9741 F2400
G01 X46.9928 Y209.1112 Z-0.9660 F2400
G01 X46.9180 Y209.1061 Z-0.9609 F2400
G01 X46.8431 Y209.1038 Z-0.9586 F2400
G01 X41.3811 Y209.1037 Z-0.9585 F2400
G01 X41.3063 Y209.1043 Z-0.9591 F2400
G01 X41.2315 Y209.1077 Z-0.9625 F2400
G01 X41.1566 Y209.1140 Z-0.9688 F2400
G01 X41.0818 Y209.1232 Z-0.9780 F2400
G01 X41.0070 Y209.1353 Z-0.9901 F2400
G01 X40.9322 Y209.1503 Z-1.0051 F2400
G01 X40.8574 Y209.1683 Z-1.0231 F2400
G01 X40.7825 Y209.1892 Z-1.0440 F2400
G01 X40.7077 Y209.2130 Z-1.0678 F2400
G01 X40.5581 Y209.2693 Z-1.1241 F2400
G01 X40.4060 Y209.3728 Z-1.1730 F2400
G01 Y209.4222 Z-1.1446 F2400
G01 Y209.4693 Z-1.1190 F2400
G01 Y209.5144 Z-1.0958 F2400
G01 Y209.5577 Z-1.0748 F2400
G01 Y209.5994 Z-1.0558 F2400
G01 Y209.6397 Z-1.0388 F2400
G01 Y209.6788 Z-1.0235 F2400
G01 Y209.7262 Z-1.0067 F2400
G01 Y209.7721 Z-0.9923 F2400
G01 Y209.8168 Z-0.9802 F2400
G01 Y209.8605 Z-0.9702 F2400
G01 Y209.9034 Z-0.9621 F2400
G01 Y209.9457 Z-0.9561 F2400
G01 Y209.9959 Z-0.9513 F2400
G01 Y216.2795 Z-0.9490 F2400
G01 X40.4043 Y216.5306 Z-0.9472 F2400
G01 X40.4056 Y216.3826 Z-0.9485 F2400
G01 X40.4795 Y216.3393 Z-0.8755 F2400
G01 X41.1941 Y216.3524 Z-0.1608 F2400
G01 X41.3002 Y216.3565 Z-0.0548 F2400
G01 X41.3276 Y216.3582 Z-0.0273 F2400
G01 X41.3549 Y216.3622 Z0.0000 F2400
G01 X40.4060 Y216.3247 Z-0.9490 F2400
G01 X41.3549 Y216.3622 Z0.0000 F2400
G01 X41.3276 Y216.3582 Z-0.0273 F2400
G01 X41.3002 Y216.3565 Z-0.0548 F2400
G01 X41.1941 Y216.3524 Z-0.1608 F2400
G01 X40.4795 Y216.3393 Z-0.8755 F2400
G01 X40.4056 Y216.3826 Z-0.9485 F2400
G01 X40.4043 Y216.5306 Z-0.9472 F2400
G01 X40.4060 Y216.2795 Z-0.9490 F2400
G01 Y209.9959 Z-0.9513 F2400
G01 Y209.9457 Z-0.9561 F2400
G01 Y209.9034 Z-0.9621 F2400
G01 Y209.8605 Z-0.9702 F2400
G01 Y209.8168 Z-0.9802 F2400
G01 Y209.7721 Z-0.9923 F2400
G01 Y209.7262 Z-1.0067 F2400
G01 Y209.6788 Z-1.0235 F2400
G01 Y209.6397 Z-1.0388 F2400
G01 Y209.5994 Z-1.0558 F2400
G01 Y209.5577 Z-1.0748 F2400
G01 Y209.5144 Z-1.0958 F2400
G01 Y209.4693 Z-1.1190 F2400
G01 Y209.4222 Z-1.1446 F2400
G01 Y209.3728 Z-1.1730 F2400
G01 X40.4084 Y209.3374 Z-1.1922 F2400
G01 X40.2588 Y209.2714 Z-1.1262 F2400
G01 X40.1840 Y209.2416 Z-1.0963 F2400
G01 X40.1091 Y209.2146 Z-1.0694 F2400
G01 X40.0343 Y209.1907 Z-1.0454 F2400
G01 X39.9595 Y209.1696 Z-1.0244 F2400
G01 X39.8847 Y209.1514 Z-1.0062 F2400
G01 X39.8098 Y209.1362 Z-0.9910 F2400
G01 X39.7350 Y209.1239 Z-0.9787 F2400
G01 X39.6602 Y209.1145 Z-0.9693 F2400
G01 X39.5854 Y209.1080 Z-0.9628 F2400
G01 X39.5105 Y209.1045 Z-0.9592 F2400
G01 X33.9737 Y209.1038 Z-0.9585 F2400
G01 X33.8989 Y209.1057 Z-0.9605 F2400
G01 X33.8241 Y209.1105 Z-0.9653 F2400
G01 X33.7492 Y209.1183 Z-0.9730 F2400
G01 X33.6744 Y209.1290 Z-0.9837 F2400
G01 X33.5996 Y209.1426 Z-0.9973 F2400
G01 X33.5248 Y209.1591 Z-1.0138 F2400
G01 X33.4499 Y209.1785 Z-1.0333 F2400
G01 X33.3751 Y209.2009 Z-1.0556 F2400
G01 X33.2255 Y209.2544 Z-1.1091 F2400
G01 X33.1507 Y209.2084 Z-1.0631 F2400
G01 X33.0821 Y209.1398 Z-0.9946 F2400
G01 X33.1936 Y209.2901 Z-1.1060 F2400
G01 X33.1645 Y209.3652 Z-1.0770 F2400
G01 X33.1384 Y209.4403 Z-1.0508 F2400
G01 X33.1152 Y209.5154 Z-1.0277 F2400
G01 X33.0951 Y209.5906 Z-1.0076 F2400
G01 X33.0779 Y209.6657 Z-0.9904 F2400
G01 X33.0637 Y209.7408 Z-0.9762 F2400
G01 X33.0524 Y209.8160 Z-0.9649 F2400
G01 X33.0442 Y209.8911 Z-0.9567 F2400
G01 X33.0389 Y209.9662 Z-0.9514 F2400
G01 X33.0365 Y218.9817 Z-0.9490 F2400
G01 X33.0315 Y219.0385 Z-0.9393 F2400
G01 X33.0615 Y219.0877 Z-0.8906 F2400
G01 X33.0365 Y218.9816 Z-0.9490 F2400
G00 Z10.0000 F480
G00 X36.2395 Y222.8397 F2100
G00 Z0.5000 F480
G01 Z-0.9585 F2400
G01 X36.3146 F2400
G01 X47.7344 F2400
G01 X36.1997 F2400
G01 X36.1248 Y222.8413 Z-0.9601 F2400
G01 X36.0499 Y222.8458 Z-0.9645 F2400
G01 X35.9750 Y222.8532 Z-0.9719 F2400
G01 X35.9001 Y222.8635 Z-0.9823 F2400
G01 X35.8252 Y222.8767 Z-0.9955 F2400
G01 X35.7503 Y222.8929 Z-1.0117 F2400
G01 X35.6754 Y222.9120 Z-1.0308 F2400
G01 X35.6005 Y222.9341 Z-1.0528 F2400
G01 X35.4507 Y222.9869 Z-1.1057 F2400
G01 X35.3009 Y223.0515 Z-1.1703 F2400
G01 X35.1511 Y223.1277 Z-1.2465 F2400
G01 X35.0013 Y223.2157 Z-1.3345 F2400
G01 X34.8515 Y223.3154 Z-1.4342 F2400
G01 X34.7017 Y223.4131 Z-1.5319 F2400
G01 X33.1288 Y222.8693 Z-0.9881 F2400
G01 X33.0538 Y222.8416 Z-0.9603 F2400
G01 X33.1390 Y222.8729 Z-0.9916 F2400
G01 X34.5643 Y223.3656 Z-1.4844 F2400
G01 X34.7118 Y223.4206 Z-1.5322 F2400
G01 X34.7642 Y223.5969 Z-1.4260 F2400
G01 X34.7917 Y223.6833 Z-1.3750 F2400
G01 X34.8210 Y223.7674 Z-1.3270 F2400
G01 X34.8522 Y223.8492 Z-1.2819 F2400
G01 X34.8852 Y223.9286 Z-1.2398 F2400
G01 X34.9200 Y224.0058 Z-1.2006 F2400
G01 X34.9566 Y224.0806 Z-1.1643 F2400
G01 X34.9950 Y224.1532 Z-1.1310 F2400
G01 X35.0352 Y224.2234 Z-1.1006 F2400
G01 X35.0772 Y224.2913 Z-1.0732 F2400
G01 X35.1211 Y224.3570 Z-1.0486 F2400
G01 X35.1668 Y224.4203 Z-1.0271 F2400
G01 X35.2142 Y224.4813 Z-1.0084 F2400
G01 X35.2635 Y224.5399 Z-0.9927 F2400
G01 X35.3146 Y224.5963 Z-0.9799 F2400
G01 X35.3676 Y224.6504 Z-0.9701 F2400
G01 X35.4223 Y224.7021 Z-0.9632 F2400
G01 X35.4788 Y224.7516 Z-0.9592 F2400
G01 X45.3319 Y232.4972 Z-0.9541 F2400
G01 X45.3701 Y232.5295 Z-0.9558 F2400
G01 X45.4138 Y232.5686 Z-0.9596 F2400
G01 X45.4566 Y232.6093 Z-0.9651 F2400
G01 X45.4985 Y232.6517 Z-0.9725 F2400
G01 X45.5396 Y232.6960 Z-0.9819 F2400
G01 X45.5800 Y232.7422 Z-0.9932 F2400
G01 X45.6253 Y232.7975 Z-1.0087 F2400
G01 X45.6698 Y232.8559 Z-1.0271 F2400
G01 X45.7134 Y232.9176 Z-1.0486 F2400
G01 X45.7616 Y232.9913 Z-1.0768 F2400
G01 X45.8088 Y233.0702 Z-1.1096 F2400
G01 X45.8550 Y233.1547 Z-1.1475 F2400
G01 X45.9052 Y233.2563 Z-1.1963 F2400
G01 X45.9540 Y233.3670 Z-1.2532 F2400
G01 X46.0059 Y233.5012 Z-1.3265 F2400
G01 X46.0556 Y233.6505 Z-1.4132 F2400
G01 X46.1087 Y233.8289 Z-1.5206 F2400
G01 X46.0444 Y233.8967 Z-1.4815 F2400
G01 X45.9951 Y233.9321 Z-1.4462 F2400
G01 X45.9452 Y233.9670 Z-1.4113 F2400
G01 X45.8966 Y233.9998 Z-1.3784 F2400
G01 X45.8490 Y234.0307 Z-1.3475 F2400
G01 X45.8025 Y234.0598 Z-1.3184 F2400
G01 X45.7569 Y234.0872 Z-1.2911 F2400
G01 X45.7123 Y234.1129 Z-1.2653 F2400
G01 X45.6686 Y234.1372 Z-1.2411 F2400
G01 X45.6256 Y234.1600 Z-1.2182 F2400
G01 X45.5835 Y234.1815 Z-1.1968 F2400
G01 X45.5421 Y234.2017 Z-1.1766 F2400
G01 X45.5013 Y234.2207 Z-1.1576 F2400
G01 X45.4613 Y234.2385 Z-1.1397 F2400
G01 X45.4218 Y234.2553 Z-1.1230 F2400
G01 X45.3828 Y234.2710 Z-1.1072 F2400
G01 X45.3445 Y234.2857 Z-1.0925 F2400
G01 X45.2972 Y234.3028 Z-1.0754 F2400
G01 X45.2506 Y234.3185 Z-1.0597 F2400
G01 X45.2047 Y234.3329 Z-1.0453 F2400
G01 X45.1593 Y234.3460 Z-1.0322 F2400
G01 X45.1146 Y234.3579 Z-1.0203 F2400
G01 X45.0703 Y234.3686 Z-1.0096 F2400
G01 X45.0265 Y234.3783 Z-1.0000 F2400
G01 X44.9830 Y234.3868 Z-0.9914 F2400
G01 X44.9399 Y234.3943 Z-0.9839 F2400
G01 X44.8971 Y234.4008 Z-0.9774 F2400
G01 X44.8461 Y234.4073 Z-0.9709 F2400
G01 X44.7954 Y234.4124 Z-0.9658 F2400
G01 X44.7450 Y234.4161 Z-0.9621 F2400
G01 X44.6947 Y234.4186 Z-0.9597 F2400
G01 X33.0752 Y234.4197 Z-0.9585 F2400
G01 X44.6106 F2400
G01 X44.6855 Y234.4189 Z-0.9594 F2400
G01 X44.7604 Y234.4151 Z-0.9631 F2400
G01 X44.8353 Y234.4085 Z-0.9697 F2400
G01 X44.9102 Y234.3989 Z-0.9793 F2400
G01 X44.9851 Y234.3864 Z-0.9918 F2400
G01 X45.0600 Y234.3710 Z-1.0072 F2400
G01 X45.1349 Y234.3526 Z-1.0256 F2400
G01 X45.2098 Y234.3314 Z-1.0469 F2400
G01 X45.3596 Y234.2800 Z-1.0982 F2400
G01 X45.5094 Y234.2170 Z-1.1613 F2400
G01 X45.6592 Y234.1422 Z-1.2360 F2400
G01 X45.8090 Y234.0558 Z-1.3225 F2400
G01 X45.9588 Y233.9576 Z-1.4207 F2400
G01 X46.1087 Y233.8507 Z-1.5276 F2400
G01 X46.1836 Y233.8709 Z-1.5073 F2400
G01 X47.7193 Y234.4025 Z-0.9758 F2400
G01 X46.1405 Y233.8560 Z-1.5222 F2400
G00 Z10.0000 F480
G00 X41.8682 Y238.4262 F2100
G00 Z0.5000 F480
G01 Z-0.9595 F2400
G01 X41.5809 Y238.3775 Z-0.9589 F2400
G01 X41.2927 Y238.3403 Z-0.9587 F2400
G01 X41.0006 Y238.3143 Z-0.9585 F2400
G01 X40.7971 Y238.3027 Z-0.9582 F2400
G01 X40.6980 Y238.2956 Z-0.9561 F2400
G01 X40.6294 Y238.2919 Z-0.9536 F2400
G01 X40.5608 Y238.2907 Z-0.9537 F2400
G01 X40.3886 Y238.2911 Z-0.9564 F2400
G01 X40.3202 Y238.2923 Z-0.9565 F2400
G01 X40.2518 Y238.2927 Z-0.9557 F2400
G01 X40.1362 Y238.2956 Z-0.9565 F2400
G01 X40.2163 Y239.1918 Z-0.0588 F2400
G01 X40.2326 Y239.2502 Z0.0000 F2400
G01 X40.1541 Y238.2951 Z-0.9563 F2400
G01 X40.2042 Y238.2933 Z-0.9554 F2400
G01 X40.3223 Y238.2923 Z-0.9565 F2400
G01 X40.3907 Y238.2911 Z-0.9564 F2400
G01 X40.5781 Y238.2908 Z-0.9534 F2400
G01 X40.6280 Y238.2919 Z-0.9536 F2400
G01 X40.6779 Y238.2942 Z-0.9551 F2400
G01 X40.7362 Y238.2991 Z-0.9581 F2400
G01 X40.7270 Y238.4002 Z-0.8568 F2400
G01 X40.6595 Y238.9537 Z-0.3014 F2400
G01 X40.6495 Y239.0207 Z-0.2343 F2400
G01 X40.6400 Y239.0770 Z-0.1779 F2400
G01 X40.6340 Y239.1084 Z-0.1464 F2400
G01 X40.6279 Y239.1372 Z-0.1176 F2400
G01 X40.6222 Y239.1616 Z-0.0931 F2400
G01 X40.6150 Y239.1880 Z-0.0666 F2400
G01 X40.6069 Y239.2124 Z-0.0421 F2400
G01 X40.5961 Y239.2355 Z-0.0190 F2400
G01 X40.5794 Y239.2542 Z0.0000 F2400
G01 X40.5961 Y239.2355 Z-0.0190 F2400
G01 X40.6069 Y239.2124 Z-0.0421 F2400
G01 X40.6150 Y239.1880 Z-0.0666 F2400
G01 X40.6222 Y239.1616 Z-0.0931 F2400
G01 X40.6279 Y239.1372 Z-0.1176 F2400
G01 X40.6340 Y239.1084 Z-0.1464 F2400
G01 X40.6400 Y239.0770 Z-0.1779 F2400
G01 X40.6495 Y239.0207 Z-0.2343 F2400
G01 X40.6595 Y238.9537 Z-0.3014 F2400
G01 X40.7270 Y238.4002 Z-0.8568 F2400
G01 X40.7362 Y238.2991 Z-0.9581 F2400
G01 X40.6779 Y238.2942 Z-0.9551 F2400
G01 X40.6280 Y238.2919 Z-0.9536 F2400
G01 X40.5781 Y238.2908 Z-0.9534 F2400
G01 X40.3907 Y238.2911 Z-0.9564 F2400
G01 X40.3223 Y238.2923 Z-0.9565 F2400
G01 X40.2042 Y238.2933 Z-0.9554 F2400
G01 X40.1541 Y238.2951 Z-0.9563 F2400
G01 X40.2326 Y239.2502 Z0.0000 F2400
G01 X40.2163 Y239.1918 Z-0.0588 F2400
G01 X40.1362 Y238.2956 Z-0.9565 F2400
G01 X40.1834 Y238.2939 Z-0.9556 F2400
G01 X40.0839 Y238.2973 Z-0.9567 F2400
G01 X39.8811 Y238.3085 Z-0.9564 F2400
G01 X39.7708 Y238.3158 Z-0.9567 F2400
G01 X39.6052 Y238.3311 Z-0.9570 F2400
G01 X39.4787 Y238.3439 Z-0.9575 F2400
G01 X39.3153 Y238.3653 Z-0.9574 F2400
G01 X39.1922 Y238.3827 Z-0.9577 F2400
G01 X39.0315 Y238.4103 Z-0.9573 F2400
G01 X38.9052 Y238.4333 Z-0.9574 F2400
G01 X38.7469 Y238.4668 Z-0.9575 F2400
G01 X38.6302 Y238.4927 Z-0.9578 F2400
G01 X38.3568 Y238.5641 Z-0.9579 F2400
G01 X38.0886 Y238.6455 Z-0.9578 F2400
G01 X37.8284 Y238.7359 Z-0.9574 F2400
G01 X37.5683 Y238.8391 Z-0.9567 F2400
G01 X37.3139 Y238.9519 Z-0.9560 F2400
G01 X37.0623 Y239.0765 Z-0.9554 F2400
G01 X36.8163 Y239.2106 Z-0.9548 F2400
G01 X36.5761 Y239.3551 Z-0.9542 F2400
G01 X36.3346 Y239.5139 Z-0.9530 F2400
G01 X36.0980 Y239.6831 Z-0.9519 F2400
G01 X35.8669 Y239.8622 Z-0.9511 F2400
G01 X35.6443 Y240.0492 Z-0.9504 F2400
G01 X35.4185 Y240.2537 Z-0.9497 F2400
G01 X35.3669 Y240.3002 Z-0.9468 F2400
G01 X35.3170 Y240.3484 Z-0.9464 F2400
G01 X35.2195 Y240.4472 Z-0.9489 F2400
G01 X35.1428 Y240.5231 Z-0.9491 F2400
G01 X35.0943 Y240.5721 Z-0.9479 F2400
G01 X35.0464 Y240.6217 Z-0.9477 F2400
G01 X34.9789 Y240.6972 Z-0.9506 F2400
G01 X34.8429 Y240.8502 F2400
G01 X34.7717 Y240.9320 Z-0.9508 F2400
G01 X34.6111 Y241.1269 Z-0.9507 F2400
G01 X34.5807 Y241.1658 Z-0.9511 F2400
G01 X34.4797 Y241.2985 Z-0.9513 F2400
G01 X34.4033 Y241.4007 Z-0.9519 F2400
G01 X34.3088 Y241.5351 Z-0.9518 F2400
G01 X34.2369 Y241.6397 Z-0.9521 F2400
G01 X34.1481 Y241.7772 Z-0.9520 F2400
G01 X34.0810 Y241.8836 Z-0.9524 F2400
G01 X33.9990 Y242.0226 Z-0.9526 F2400
G01 X33.9382 Y242.1279 Z-0.9529 F2400
G01 X33.9000 Y242.1991 F2400
G01 X33.8044 Y242.3794 Z-0.9530 F2400
G01 X33.6830 Y242.6314 F2400
G01 X33.5706 Y242.8922 Z-0.9528 F2400
G01 X33.4698 Y243.1540 Z-0.9527 F2400
G01 X33.3793 Y243.4214 Z-0.9522 F2400
G01 X33.2992 Y243.6942 Z-0.9517 F2400
G01 X33.2294 Y243.9725 Z-0.9512 F2400
G01 X33.1706 Y244.2542 Z-0.9507 F2400
G01 X33.1221 Y244.5432 Z-0.9502 F2400
G01 X33.0899 Y244.7914 Z-0.9499 F2400
G01 X33.0842 Y244.8391 Z-0.9495 F2400
G01 X33.0579 Y245.1304 Z-0.9491 F2400
G01 X33.0417 Y245.4385 Z-0.9488 F2400
G01 X33.0384 Y245.5075 Z-0.9468 F2400
G01 X33.0373 Y245.5765 Z-0.9469 F2400
G01 X33.0364 Y245.7540 Z-0.9484 F2400
G01 Y245.9026 Z-0.9460 F2400
G01 X33.0410 Y246.0189 Z-0.9480 F2400
G01 X33.0554 Y246.2813 Z-0.9487 F2400
G01 X33.0610 Y246.3538 Z-0.9482 F2400
G01 X33.0775 Y246.5392 Z-0.9484 F2400
G01 X33.0855 Y246.6115 Z-0.9479 F2400
G01 X33.1081 Y246.7942 Z-0.9482 F2400
G01 X33.1185 Y246.8653 Z-0.9477 F2400
G01 X33.1472 Y247.0462 Z-0.9479 F2400
G01 X33.1601 Y247.1171 Z-0.9473 F2400
G01 X33.1949 Y247.2961 Z-0.9475 F2400
G01 X33.2102 Y247.3660 Z-0.9470 F2400
G01 X33.2508 Y247.5419 Z-0.9471 F2400
G01 X33.2866 Y247.6800 Z-0.9465 F2400
G01 X33.3152 Y247.7852 Z-0.9466 F2400
G01 X33.3552 Y247.9221 Z-0.9452 F2400
G01 X33.3871 Y248.0272 Z-0.9447 F2400
G01 X33.4340 Y248.1625 Z-0.9454 F2400
G01 X33.4695 Y248.2660 Z-0.9449 F2400
G01 X33.4937 Y248.3335 Z-0.9435 F2400
G01 X33.5190 Y248.4007 Z-0.9432 F2400
G01 X33.5603 Y248.5029 Z-0.9447 F2400
G01 X33.6151 Y248.6353 Z-0.9437 F2400
G01 X33.6585 Y248.7367 Z-0.9436 F2400
G01 X33.7186 Y248.8681 Z-0.9428 F2400
G01 X33.7664 Y248.9698 Z-0.9427 F2400
G01 X33.8314 Y249.1002 Z-0.9417 F2400
G01 X33.8836 Y249.2016 F2400
G01 X33.9535 Y249.3299 Z-0.9412 F2400
G01 X34.0090 Y249.4293 Z-0.9413 F2400
G01 X34.0463 Y249.4931 Z-0.9407 F2400
G01 X34.1451 Y249.6570 Z-0.9410 F2400
G01 X34.1847 Y249.7198 Z-0.9405 F2400
G01 X34.2248 Y249.7823 F2400
G01 X34.2903 Y249.8820 Z-0.9412 F2400
G01 X34.3757 Y250.0065 F2400
G01 X34.4171 Y250.0696 Z-0.9396 F2400
G01 X34.4429 Y250.1089 Z-0.9379 F2400
G01 X34.4873 Y250.1709 Z-0.9371 F2400
G01 X34.5342 Y250.2310 Z-0.9394 F2400
G01 X34.6102 Y250.3263 Z-0.9438 F2400
G01 X34.6805 Y250.4088 Z-0.9381 F2400
G01 X34.7170 Y250.3968 Z-0.9018 F2400
G01 X34.8224 Y250.3663 Z-0.7964 F2400
G01 X34.8482 Y250.3489 Z-0.7668 F2400
G01 X34.8799 Y250.3242 Z-0.7285 F2400
G01 X34.9050 Y250.3140 Z-0.7014 F2400
G01 X34.9529 Y250.2786 Z-0.6432 F2400
G01 X35.0236 Y250.2319 Z-0.5591 F2400
G01 X35.1420 Y250.1478 Z-0.4148 F2400
G01 X35.2250 Y250.0856 Z-0.3117 F2400
G01 X35.2563 Y250.0612 Z-0.2724 F2400
G01 X35.3273 Y250.0030 Z-0.1814 F2400
G01 X35.3823 Y249.9546 Z-0.1092 F2400
G01 X35.4103 Y249.9270 Z-0.0707 F2400
G01 X35.4395 Y249.8925 Z-0.0272 F2400
G01 X35.4518 Y249.8622 Z0.0000 F2400
G01 X34.6796 Y250.4090 Z-0.9388 F2400
G01 X34.6333 Y250.3562 Z-0.9436 F2400
G01 X34.6042 Y250.2902 Z-0.9266 F2400
G01 X34.5451 Y250.2446 Z-0.9403 F2400
G01 X34.5138 Y250.2055 Z-0.9381 F2400
G01 X34.4840 Y250.1665 Z-0.9371 F2400
G01 X34.4552 Y250.1267 Z-0.9374 F2400
G01 X34.4276 Y250.0861 Z-0.9389 F2400
G01 X34.3972 Y250.0373 Z-0.9415 F2400
G01 X34.5562 Y249.9396 Z-0.7554 F2400
G01 X34.8063 Y249.7921 Z-0.4662 F2400
G01 X34.9378 Y249.7183 Z-0.3164 F2400
G01 X35.0029 Y249.6835 Z-0.2432 F2400
G01 X35.0574 Y249.6557 Z-0.1827 F2400
G01 X35.0879 Y249.6409 Z-0.1493 F2400
G01 X35.1157 Y249.6281 Z-0.1192 F2400
G01 X35.1390 Y249.6179 Z-0.0945 F2400
G01 X35.1647 Y249.6076 Z-0.0676 F2400
G01 X35.1894 Y249.5993 Z-0.0428 F2400
G01 X35.2144 Y249.5940 Z-0.0196 F2400
G01 X35.2396 Y249.5952 Z0.0000 F2400
G01 X34.3952 Y250.0344 Z-0.9415 F2400
G01 X34.2999 Y249.8961 Z-0.9411 F2400
G01 X34.2609 Y249.8380 Z-0.9409 F2400
G01 X34.2304 Y249.7909 Z-0.9405 F2400
G01 X34.1456 Y249.6578 Z-0.9410 F2400
G01 X34.0674 Y249.5285 Z-0.9406 F2400
G01 X34.0033 Y249.4195 Z-0.9414 F2400
G01 X33.9461 Y249.3165 Z-0.9411 F2400
G01 X33.8881 Y249.2099 Z-0.9417 F2400
G01 X33.8642 Y249.1646 Z-0.9419 F2400
G01 X33.8075 Y249.0526 F2400
G01 X33.7547 Y248.9455 Z-0.9430 F2400
G01 X33.7046 Y248.8377 Z-0.9429 F2400
G01 X33.6528 Y248.7239 Z-0.9438 F2400
G01 X33.6048 Y248.6106 F2400
G01 X33.5463 Y248.4675 Z-0.9449 F2400
G01 X33.9133 Y248.2856 Z-0.5367 F2400
G01 X34.2724 Y248.1164 Z-0.1409 F2400
G01 X34.3510 Y248.0740 Z-0.0524 F2400
G01 X34.3936 Y248.0382 Z0.0000 F2400
G01 X33.5225 Y248.4093 Z-0.9434 F2400
G01 X33.5046 Y248.3633 Z-0.9431 F2400
G01 X33.4663 Y248.2572 Z-0.9451 F2400
G01 X33.3939 Y248.0468 Z-0.9448 F2400
G01 X33.3744 Y247.9887 Z-0.9444 F2400
G01 X33.3604 Y247.9412 Z-0.9447 F2400
G01 X33.3583 Y247.8996 Z-0.9373 F2400
G01 X33.7463 Y247.8029 Z-0.5379 F2400
G01 X34.0049 Y247.7431 Z-0.2730 F2400
G01 X34.1424 Y247.7144 Z-0.1331 F2400
G01 X34.1735 Y247.7087 Z-0.1017 F2400
G01 X34.2032 Y247.7039 Z-0.0721 F2400
G01 X34.2283 Y247.7007 Z-0.0471 F2400
G01 X34.2533 Y247.6989 Z-0.0228 F2400
G01 X34.2786 Y247.7032 Z0.0000 F2400
G01 X33.3359 Y247.8553 Z-0.9461 F2400
G01 X33.3210 Y247.8049 Z-0.9464 F2400
G01 X33.3016 Y247.7363 Z-0.9466 F2400
G01 X33.2880 Y247.6856 Z-0.9465 F2400
G01 X33.2569 Y247.5659 Z-0.9469 F2400
G01 X33.2398 Y247.4966 Z-0.9471 F2400
G01 X33.2283 Y247.4464 Z-0.9469 F2400
G01 X33.2013 Y247.3254 Z-0.9473 F2400
G01 X33.1865 Y247.2555 Z-0.9475 F2400
G01 X33.1634 Y247.1344 Z-0.9473 F2400
G01 X33.1411 Y247.0109 Z-0.9479 F2400
G01 X33.1220 Y246.8885 Z-0.9477 F2400
G01 X33.1041 Y246.7658 Z-0.9483 F2400
G01 X33.0890 Y246.6415 Z-0.9479 F2400
G01 X33.0751 Y246.5172 Z-0.9486 F2400
G01 X33.0641 Y246.3912 Z-0.9482 F2400
G01 X33.0542 Y246.2661 Z-0.9488 F2400
G01 X33.0512 Y246.2138 Z-0.9485 F2400
G01 X33.0431 Y246.0496 Z-0.9486 F2400
G01 X33.8242 Y245.9528 Z-0.1646 F2400
G01 X33.9271 Y245.9337 Z-0.0612 F2400
G01 X33.9877 Y245.9072 Z0.0000 F2400
G01 X33.0406 Y246.0143 Z-0.9478 F2400
G01 X33.0377 Y245.9648 Z-0.9463 F2400
G01 X33.0365 Y245.9152 Z-0.9459 F2400
G01 X33.0366 Y245.7102 Z-0.9486 F2400
G01 X33.0375 Y245.5470 Z-0.9466 F2400
G01 X33.0388 Y245.4974 Z-0.9470 F2400
G01 X33.0414 Y245.4478 Z-0.9487 F2400
G01 X33.1606 Y245.4541 Z-0.8296 F2400
G01 X33.2836 Y245.4630 Z-0.7064 F2400
G01 X33.6217 Y245.4913 Z-0.3679 F2400
G01 X33.7641 Y245.5065 Z-0.2253 F2400
G01 X33.8371 Y245.5159 Z-0.1521 F2400
G01 X33.8649 Y245.5200 Z-0.1242 F2400
G01 X33.8915 Y245.5243 Z-0.0975 F2400
G01 X33.9177 Y245.5291 Z-0.0713 F2400
G01 X33.9426 Y245.5346 Z-0.0463 F2400
G01 X33.9670 Y245.5417 Z-0.0218 F2400
G01 X33.9885 Y245.5552 Z0.0000 F2400
G01 X33.0442 Y245.3826 Z-0.9490 F2400
G01 X33.0548 Y245.1853 F2400
G01 X33.0627 Y245.0736 Z-0.9494 F2400
G01 X33.0785 Y244.9009 F2400
G01 X33.0914 Y244.7795 Z-0.9499 F2400
G01 X33.1134 Y244.6094 Z-0.9500 F2400
G01 X33.1308 Y244.4891 Z-0.9506 F2400
G01 X33.1591 Y244.3212 F2400
G01 X33.1814 Y244.2004 Z-0.9511 F2400
G01 X33.2161 Y244.0350 F2400
G01 X33.2432 Y243.9156 Z-0.9516 F2400
G01 X33.2843 Y243.7530 F2400
G01 X33.3161 Y243.6351 Z-0.9521 F2400
G01 X33.3634 Y243.4751 F2400
G01 X33.4003 Y243.3580 Z-0.9525 F2400
G01 X33.4539 Y243.2007 Z-0.9526 F2400
G01 X33.4955 Y243.0860 Z-0.9528 F2400
G01 X33.5555 Y242.9313 F2400
G01 X33.6014 Y242.8193 Z-0.9529 F2400
G01 X33.6677 Y242.6666 F2400
G01 X33.7195 Y242.5543 F2400
G01 X33.7920 Y242.4049 F2400
G01 X33.8478 Y242.2963 Z-0.9528 F2400
G01 X33.9265 Y242.1496 Z-0.9529 F2400
G01 X33.9858 Y242.0449 Z-0.9526 F2400
G01 X34.0711 Y241.9004 Z-0.9524 F2400
G01 X34.1367 Y241.7949 Z-0.9520 F2400
G01 X34.2280 Y241.6535 Z-0.9521 F2400
G01 X34.2964 Y241.5528 Z-0.9517 F2400
G01 X34.3939 Y241.4140 Z-0.9518 F2400
G01 X34.4651 Y241.3176 Z-0.9514 F2400
G01 X34.5691 Y241.1811 Z-0.9511 F2400
G01 X34.6466 Y241.0839 Z-0.9507 F2400
G01 X34.7565 Y240.9505 Z-0.9508 F2400
G01 X34.8359 Y240.8581 Z-0.9506 F2400
G01 X34.9520 Y240.7274 F2400
G01 X35.3396 Y240.9692 Z-0.5012 F2400
G01 X35.5913 Y241.1674 Z-0.1823 F2400
G01 X35.7276 Y241.2555 Z-0.0228 F2400
G01 X35.7546 Y241.2602 Z0.0000 F2400
G01 X35.0045 Y240.6683 Z-0.9498 F2400
G01 X35.0377 Y240.6312 Z-0.9480 F2400
G01 X35.0717 Y240.5951 Z-0.9475 F2400
G01 X35.1501 Y240.5158 Z-0.9493 F2400
G01 X35.2070 Y240.4598 Z-0.9492 F2400
G01 X35.2890 Y240.3767 Z-0.9471 F2400
G01 X35.3399 Y240.3258 Z-0.9463 F2400
G01 X35.3759 Y240.2918 Z-0.9471 F2400
G01 X35.4130 Y240.2586 Z-0.9493 F2400
G01 X35.4443 Y240.2861 Z-0.9084 F2400
G01 X35.6899 Y240.5775 Z-0.5280 F2400
G01 X35.8189 Y240.7348 Z-0.3254 F2400
G01 X35.8839 Y240.8178 Z-0.2206 F2400
G01 X35.9209 Y240.8672 Z-0.1595 F2400
G01 X35.9399 Y240.8937 Z-0.1273 F2400
G01 X35.9561 Y240.9172 Z-0.0992 F2400
G01 X35.9721 Y240.9418 Z-0.0704 F2400
G01 X35.9854 Y240.9645 Z-0.0448 F2400
G01 X35.9967 Y240.9883 Z-0.0200 F2400
G01 X35.9998 Y241.0132 Z0.0000 F2400
G01 X35.4575 Y240.2180 Z-0.9500 F2400
G00 Z10.0000 F480
G00 X41.6462 Y238.3881 F2100
G00 Z0.5000 F480
G01 Z-0.9592 F2400
G01 X41.7293 Y238.4024 Z-0.9593 F2400
G01 X41.8124 Y238.4166 Z-0.9594 F2400
G01 X41.9307 Y238.4390 Z-0.9597 F2400
G01 X42.0943 Y238.4738 Z-0.9595 F2400
G01 X42.2117 Y238.5009 Z-0.9597 F2400
G01 X42.3727 Y238.5417 Z-0.9596 F2400
G01 X42.4923 Y238.5745 Z-0.9597 F2400
G01 X42.6507 Y238.6220 Z-0.9596 F2400
G01 X42.7689 Y238.6602 F2400
G01 X42.9246 Y238.7140 Z-0.9597 F2400
G01 X43.0341 Y238.7545 Z-0.9595 F2400
G01 X43.1869 Y238.8143 Z-0.9590 F2400
G01 X43.3047 Y238.8636 Z-0.9586 F2400
G01 X43.4551 Y238.9301 Z-0.9587 F2400
G01 X43.5612 Y238.9800 Z-0.9582 F2400
G01 X43.7087 Y239.0524 Z-0.9578 F2400
G01 X43.8216 Y239.1116 Z-0.9571 F2400
G01 X43.9665 Y239.1908 Z-0.9572 F2400
G01 X44.0679 Y239.2497 Z-0.9564 F2400
G01 X44.2099 Y239.3346 Z-0.9562 F2400
G01 X44.3146 Y239.4012 Z-0.9552 F2400
G01 X44.4539 Y239.4926 Z-0.9551 F2400
G01 X44.5529 Y239.5616 Z-0.9540 F2400
G01 X44.6893 Y239.6592 Z-0.9537 F2400
G01 X44.7882 Y239.7339 Z-0.9528 F2400
G01 X44.9221 Y239.8378 Z-0.9530 F2400
G01 X45.0160 Y239.9147 Z-0.9522 F2400
G01 X45.1469 Y240.0246 Z-0.9523 F2400
G01 X45.2376 Y240.1046 Z-0.9516 F2400
G01 X45.3658 Y240.2206 F2400
G01 X44.9612 Y240.7689 Z-0.2742 F2400
G01 X44.8607 Y240.9129 Z-0.1010 F2400
G01 X44.8209 Y241.0152 Z0.0000 F2400
G01 X45.3974 Y240.2480 Z-0.9503 F2400
G01 X45.4347 Y240.2808 Z-0.9477 F2400
G01 X45.4711 Y240.3145 Z-0.9465 F2400
G01 X45.5065 Y240.3492 F2400
G01 X45.5988 Y240.4425 Z-0.9489 F2400
G01 X45.6557 Y240.5015 Z-0.9493 F2400
G01 X45.7469 Y240.5942 Z-0.9474 F2400
G01 X45.7810 Y240.6303 Z-0.9476 F2400
G01 X45.8142 Y240.6672 Z-0.9492 F2400
G01 X45.7104 Y240.7591 Z-0.8108 F2400
G01 X45.5395 Y240.9060 Z-0.5858 F2400
G01 X45.3274 Y241.0833 Z-0.3100 F2400
G01 X45.2345 Y241.1575 Z-0.1915 F2400
G01 X45.1853 Y241.1950 Z-0.1301 F2400
G01 X45.1609 Y241.2129 Z-0.1000 F2400
G01 X45.1403 Y241.2274 Z-0.0752 F2400
G01 X45.1164 Y241.2431 Z-0.0470 F2400
G01 X45.0942 Y241.2557 Z-0.0223 F2400
G01 X45.0696 Y241.2622 Z0.0000 F2400
G01 X45.8700 Y240.7291 Z-0.9493 F2400
G01 X45.9856 Y240.8597 Z-0.9494 F2400
G01 X46.0633 Y240.9505 Z-0.9496 F2400
G01 X46.1727 Y241.0832 F2400
G01 X46.2481 Y241.1779 Z-0.9498 F2400
G01 X46.3512 Y241.3133 Z-0.9496 F2400
G01 X46.4246 Y241.4132 Z-0.9499 F2400
G01 X46.5217 Y241.5518 Z-0.9500 F2400
G01 X46.5897 Y241.6524 Z-0.9504 F2400
G01 X46.6806 Y241.7937 Z-0.9503 F2400
G01 X46.7449 Y241.8977 Z-0.9506 F2400
G01 X46.8295 Y242.0417 F2400
G01 X46.8890 Y242.1474 Z-0.9508 F2400
G01 X46.9675 Y242.2940 F2400
G01 X47.0228 Y242.4027 Z-0.9509 F2400
G01 X47.0950 Y242.5520 Z-0.9508 F2400
G01 X47.1464 Y242.6644 F2400
G01 X47.2125 Y242.8170 Z-0.9510 F2400
G01 X47.2580 Y242.9287 Z-0.9509 F2400
G01 X47.3176 Y243.0833 Z-0.9508 F2400
G01 X47.3593 Y243.1994 Z-0.9505 F2400
G01 X47.4128 Y243.3573 Z-0.9507 F2400
G01 X47.4489 Y243.4731 Z-0.9503 F2400
G01 X47.4960 Y243.6331 F2400
G01 X47.5275 Y243.7508 Z-0.9497 F2400
G01 X47.5683 Y243.9135 Z-0.9498 F2400
G01 X47.5951 Y244.0325 Z-0.9492 F2400
G01 X47.6296 Y244.1978 F2400
G01 X47.6517 Y244.3182 Z-0.9486 F2400
G01 X47.6799 Y244.4862 F2400
G01 X47.6973 Y244.6070 Z-0.9481 F2400
G01 X47.7192 Y244.7777 F2400
G01 X47.7320 Y244.8993 Z-0.9476 F2400
G01 X47.7477 Y245.0726 F2400
G01 X47.7555 Y245.1837 Z-0.9472 F2400
G01 X47.7660 Y245.3817 F2400
G01 X47.7690 Y245.4638 Z-0.9470 F2400
G01 X47.3997 Y245.5006 Z-0.5770 F2400
G01 X46.8883 Y245.5399 Z-0.0651 F2400
G01 X46.8235 Y245.5562 Z0.0000 F2400
G01 X47.7710 Y245.5274 Z-0.9461 F2400
G01 X47.7721 Y245.6368 Z-0.9471 F2400
G01 X47.7756 Y245.8543 Z-0.9468 F2400
G01 Y245.9072 Z-0.9460 F2400
G01 X47.7746 Y245.9568 Z-0.9462 F2400
G01 X47.7720 Y246.0063 Z-0.9476 F2400
G01 X47.7667 Y246.0641 Z-0.9501 F2400
G01 X47.7255 Y246.0652 Z-0.9097 F2400
G01 X47.3376 Y246.0198 Z-0.5203 F2400
G01 X47.1548 Y245.9944 Z-0.3366 F2400
G01 X47.0544 Y245.9781 Z-0.2356 F2400
G01 X46.9934 Y245.9668 Z-0.1743 F2400
G01 X46.9677 Y245.9616 Z-0.1484 F2400
G01 X46.9415 Y245.9559 Z-0.1220 F2400
G01 X46.9137 Y245.9492 Z-0.0940 F2400
G01 X46.8873 Y245.9419 Z-0.0673 F2400
G01 X46.8631 Y245.9339 Z-0.0428 F2400
G01 X46.8399 Y245.9237 Z-0.0194 F2400
G01 X46.8207 Y245.9072 Z0.0000 F2400
G01 X47.7635 Y246.1302 Z-0.9502 F2400
G01 X47.7589 Y246.2206 Z-0.9504 F2400
G01 X47.7547 Y246.2853 Z-0.9505 F2400
G01 X47.7499 Y246.3499 Z-0.9501 F2400
G01 X47.7426 Y246.4404 Z-0.9500 F2400
G01 X47.7370 Y246.5044 Z-0.9504 F2400
G01 X47.7304 Y246.5684 Z-0.9499 F2400
G01 X47.7204 Y246.6585 Z-0.9496 F2400
G01 X47.7129 Y246.7219 Z-0.9499 F2400
G01 X47.7050 Y246.7852 Z-0.9498 F2400
G01 X47.6923 Y246.8744 Z-0.9492 F2400
G01 X47.6735 Y246.9997 Z-0.9494 F2400
G01 X47.6580 Y247.0894 Z-0.9488 F2400
G01 X47.6354 Y247.2134 Z-0.9486 F2400
G01 X47.6177 Y247.3021 Z-0.9484 F2400
G01 X47.5913 Y247.4246 Z-0.9479 F2400
G01 X47.5716 Y247.5123 Z-0.9480 F2400
G01 X47.5414 Y247.6335 Z-0.9472 F2400
G01 X47.5189 Y247.7215 Z-0.9473 F2400
G01 X47.4852 Y247.8413 Z-0.9465 F2400
G01 X47.4595 Y247.9292 Z-0.9464 F2400
G01 X47.4415 Y247.9883 Z-0.9465 F2400
G01 X47.4227 Y248.0471 Z-0.9459 F2400
G01 X47.3950 Y248.1318 Z-0.9456 F2400
G01 X47.3753 Y248.1905 Z-0.9459 F2400
G01 X47.3550 Y248.2491 Z-0.9454 F2400
G01 X47.3243 Y248.3334 Z-0.9449 F2400
G01 X47.2811 Y248.4495 F2400
G01 X47.2474 Y248.5337 Z-0.9441 F2400
G01 X47.2004 Y248.6483 Z-0.9440 F2400
G01 X47.1640 Y248.7324 Z-0.9435 F2400
G01 X47.1136 Y248.8450 Z-0.9433 F2400
G01 X47.0755 Y248.9271 Z-0.9432 F2400
G01 X47.0213 Y249.0382 Z-0.9427 F2400
G01 X46.9822 Y249.1169 Z-0.9430 F2400
G01 X46.9243 Y249.2272 Z-0.9422 F2400
G01 X46.8808 Y249.3083 Z-0.9423 F2400
G01 X46.8508 Y249.3628 Z-0.9425 F2400
G01 X46.8200 Y249.4169 Z-0.9420 F2400
G01 X46.7746 Y249.4952 Z-0.9419 F2400
G01 X46.7328 Y249.5751 Z-0.9376 F2400
G01 X46.7171 Y249.6134 Z-0.9307 F2400
G01 X46.7008 Y249.6509 Z-0.9247 F2400
G01 X46.6802 Y249.6949 Z-0.9188 F2400
G01 X46.6588 Y249.7381 Z-0.9142 F2400
G01 X46.6363 Y249.7804 Z-0.9109 F2400
G01 X46.6126 Y249.8217 Z-0.9085 F2400
G01 X46.5874 Y249.8621 Z-0.9069 F2400
G01 X46.5613 Y249.9017 Z-0.9066 F2400
G01 X46.5341 Y249.9407 Z-0.9075 F2400
G01 X46.5010 Y249.9853 Z-0.9101 F2400
G01 X46.4662 Y250.0291 Z-0.9143 F2400
G01 X46.4294 Y250.0715 Z-0.9195 F2400
G01 X46.3908 Y250.1133 Z-0.9265 F2400
G01 X46.3506 Y250.1543 Z-0.9353 F2400
G01 X46.3084 Y250.1948 Z-0.9460 F2400
G01 X46.2574 Y250.2397 Z-0.9599 F2400
G01 X46.2034 Y250.2834 Z-0.9761 F2400
G01 X46.1723 Y250.2322 Z-0.9168 F2400
G01 X45.9191 Y249.7427 Z-0.3697 F2400
G01 X45.8516 Y249.6122 Z-0.2271 F2400
G01 X45.8264 Y249.5635 Z-0.1757 F2400
G01 X45.8141 Y249.5398 Z-0.1515 F2400
G01 X45.7316 Y249.3882 Z0.0000 F2400
G01 X46.1704 Y250.3121 Z-0.9848 F2400
G01 X46.1297 Y250.3267 Z-0.9786 F2400
G01 X46.0872 Y250.3363 Z-0.9690 F2400
G01 X46.0451 Y250.3448 Z-0.9604 F2400
G01 X46.0034 Y250.3523 Z-0.9529 F2400
G01 X45.9619 Y250.3588 Z-0.9464 F2400
G01 X45.9125 Y250.3654 Z-0.9398 F2400
G01 X45.8635 Y250.3707 Z-0.9346 F2400
G01 X45.8147 Y250.3746 Z-0.9307 F2400
G01 X45.7660 Y250.3772 Z-0.9280 F2400
G01 X45.7174 Y250.3785 Z-0.9267 F2400
G01 X45.6689 Y250.3786 Z-0.9266 F2400
G01 X45.6204 Y250.3774 Z-0.9278 F2400
G01 X45.5636 Y250.3744 Z-0.9308 F2400
G01 X45.5066 Y250.3696 Z-0.9356 F2400
G01 X45.4493 Y250.3630 Z-0.9422 F2400
G01 X45.3915 Y250.3546 Z-0.9506 F2400
G01 X45.3309 Y250.3467 Z-0.9585 F2400
G01 X42.1616 F2400
G01 X42.1113 Y250.3458 Z-0.9594 F2400
G01 X42.0611 Y250.3436 Z-0.9616 F2400
G01 X42.0022 Y250.3394 Z-0.9658 F2400
G01 X41.9430 Y250.3333 Z-0.9719 F2400
G01 X41.8834 Y250.3253 Z-0.9799 F2400
G01 X41.8233 Y250.3154 Z-0.9898 F2400
G01 X41.7537 Y250.3015 Z-1.0037 F2400
G01 X41.6831 Y250.2849 Z-1.0203 F2400
G01 X41.6112 Y250.2653 Z-1.0399 F2400
G01 X41.5378 Y250.2425 Z-1.0627 F2400
G01 X41.4532 Y250.2127 Z-1.0925 F2400
G01 X41.3837 Y250.1744 Z-1.1118 F2400
G01 X41.3682 Y250.1359 Z-1.0963 F2400
G01 X41.3536 Y250.0979 Z-1.0817 F2400
G01 X41.3367 Y250.0510 Z-1.0647 F2400
G01 X41.3211 Y250.0049 Z-1.0492 F2400
G01 X41.3069 Y249.9595 Z-1.0350 F2400
G01 X41.2939 Y249.9146 Z-1.0220 F2400
G01 X41.2821 Y249.8703 Z-1.0102 F2400
G01 X41.2715 Y249.8264 Z-0.9996 F2400
G01 X41.2620 Y249.7830 Z-0.9901 F2400
G01 X41.2535 Y249.7400 Z-0.9816 F2400
G01 X41.2461 Y249.6973 Z-0.9742 F2400
G01 X41.2397 Y249.6550 Z-0.9677 F2400
G01 X41.2332 Y249.6045 Z-0.9613 F2400
G01 X41.2282 Y249.5543 Z-0.9563 F2400
G01 X41.2245 Y249.5043 Z-0.9526 F2400
G01 X41.2221 Y249.4545 Z-0.9502 F2400
G01 X41.2209 Y246.5108 Z-0.9490 F2400
G01 X41.2219 Y246.4361 Z-0.9480 F2400
G01 X41.2226 Y246.2679 Z-0.9473 F2400
G01 X41.2219 Y246.4365 Z-0.9480 F2400
G01 X41.2210 Y246.4862 Z-0.9489 F2400
G01 X41.0930 Y246.4855 Z-0.8210 F2400
G01 X40.6370 Y246.4664 Z-0.3651 F2400
G01 X40.4540 Y246.4551 Z-0.1821 F2400
G01 X40.3808 Y246.4490 Z-0.1089 F2400
G01 X40.3500 Y246.4458 Z-0.0780 F2400
G01 X40.3235 Y246.4425 Z-0.0516 F2400
G01 X40.2960 Y246.4378 Z-0.0241 F2400
G01 X40.2719 Y246.4282 Z0.0000 F2400
G01 X41.2209 Y246.5415 Z-0.9490 F2400
G01 X41.2211 Y249.4112 Z-0.9491 F2400
G01 X41.2235 Y249.4868 Z-0.9516 F2400
G01 X41.2289 Y249.5623 Z-0.9570 F2400
G01 X41.2373 Y249.6378 Z-0.9654 F2400
G01 X41.2488 Y249.7133 Z-0.9768 F2400
G01 X41.2632 Y249.7888 Z-0.9913 F2400
G01 X41.2806 Y249.8644 Z-1.0087 F2400
G01 X41.3011 Y249.9399 Z-1.0292 F2400
G01 X41.3245 Y250.0154 Z-1.0526 F2400
G01 X41.3805 Y250.1664 Z-1.1085 F2400
G01 X41.3352 Y250.2420 Z-1.0633 F2400
G01 X41.2434 Y250.3175 Z-0.9715 F2400
G01 X41.0746 Y250.3524 Z-0.8027 F2400
G01 X41.2601 Y250.3684 Z-0.9368 F2400
G01 X41.4110 Y250.1965 Z-1.1087 F2400
G00 Z10.0000 F480
G00 X47.7330 Y255.1497 F2100
G00 Z0.5000 F480
G01 Z-0.9585 F2400
G01 X33.0753 F2400
G01 X47.6998 F2400
G01 X47.7748 Y255.1344 Z-0.9431 F2400
G00 Z10.0000 F480
G00 X33.0771 Y259.5689 F2100
G00 Z0.5000 F480
G01 Z-0.9707 F2400
G01 X34.6555 Y260.1146 Z-1.5163 F2400
G01 X34.7307 Y260.1188 Z-1.5206 F2400
G01 X34.8810 Y260.0118 Z-1.4136 F2400
G01 X35.0313 Y259.9141 Z-1.3159 F2400
G01 X35.1817 Y259.8282 Z-1.2300 F2400
G01 X35.3320 Y259.7541 Z-1.1559 F2400
G01 X35.4823 Y259.6918 Z-1.0936 F2400
G01 X35.6326 Y259.6413 Z-1.0430 F2400
G01 X35.7078 Y259.6204 Z-1.0222 F2400
G01 X35.7830 Y259.6025 Z-1.0043 F2400
G01 X35.8581 Y259.5876 Z-0.9893 F2400
G01 X35.9333 Y259.5756 Z-0.9773 F2400
G01 X36.0084 Y259.5665 Z-0.9683 F2400
G01 X36.0836 Y259.5604 Z-0.9622 F2400
G01 X36.1588 Y259.5572 Z-0.9590 F2400
G01 X36.2339 Y259.5567 Z-0.9585 F2400
G01 X47.7338 F2400
G01 X36.1350 Y259.5579 Z-0.9597 F2400
G01 X36.0847 Y259.5603 Z-0.9621 F2400
G01 X36.0342 Y259.5641 Z-0.9658 F2400
G01 X35.9835 Y259.5692 Z-0.9709 F2400
G01 X35.9325 Y259.5757 Z-0.9774 F2400
G01 X35.8897 Y259.5822 Z-0.9839 F2400
G01 X35.8466 Y259.5897 Z-0.9914 F2400
G01 X35.8032 Y259.5982 Z-1.0000 F2400
G01 X35.7593 Y259.6078 Z-1.0096 F2400
G01 X35.7151 Y259.6186 Z-1.0203 F2400
G01 X35.6703 Y259.6304 Z-1.0322 F2400
G01 X35.6250 Y259.6436 Z-1.0453 F2400
G01 X35.5790 Y259.6579 Z-1.0597 F2400
G01 X35.5325 Y259.6736 Z-1.0754 F2400
G01 X35.4852 Y259.6907 Z-1.0925 F2400
G01 X35.4468 Y259.7055 Z-1.1072 F2400
G01 X35.4079 Y259.7212 Z-1.1230 F2400
G01 X35.3684 Y259.7379 Z-1.1397 F2400
G01 X35.3283 Y259.7558 Z-1.1576 F2400
G01 X35.2876 Y259.7748 Z-1.1766 F2400
G01 X35.2461 Y259.7950 Z-1.1968 F2400
G01 X35.2040 Y259.8165 Z-1.2182 F2400
G01 X35.1611 Y259.8393 Z-1.2411 F2400
G01 X35.1173 Y259.8635 Z-1.2653 F2400
G01 X35.0727 Y259.8893 Z-1.2911 F2400
G01 X35.0272 Y259.9167 Z-1.3184 F2400
G01 X34.9807 Y259.9457 Z-1.3475 F2400
G01 X34.9331 Y259.9766 Z-1.3784 F2400
G01 X34.8844 Y260.0095 Z-1.4113 F2400
G01 X34.8345 Y260.0444 Z-1.4462 F2400
G01 X34.7858 Y260.0794 Z-1.4811 F2400
G01 X34.7135 Y260.1444 Z-1.5286 F2400
G01 X34.7667 Y260.3231 Z-1.4210 F2400
G01 X34.8167 Y260.4733 Z-1.3338 F2400
G01 X34.8689 Y260.6082 Z-1.2599 F2400
G01 X34.9180 Y260.7195 Z-1.2026 F2400
G01 X34.9685 Y260.8217 Z-1.1535 F2400
G01 X35.0150 Y260.9067 Z-1.1153 F2400
G01 X35.0624 Y260.9859 Z-1.0823 F2400
G01 X35.1109 Y261.0600 Z-1.0540 F2400
G01 X35.1548 Y261.1220 Z-1.0323 F2400
G01 X35.1995 Y261.1807 Z-1.0138 F2400
G01 X35.2450 Y261.2363 Z-0.9981 F2400
G01 X35.2857 Y261.2828 Z-0.9867 F2400
G01 X35.3270 Y261.3272 Z-0.9773 F2400
G01 X35.3691 Y261.3698 Z-0.9698 F2400
G01 X35.4121 Y261.4107 Z-0.9642 F2400
G01 X35.4560 Y261.4500 Z-0.9604 F2400
G01 X35.4944 Y261.4824 Z-0.9586 F2400
G01 X45.3681 Y269.2449 Z-0.9556 F2400
G01 X45.4241 Y269.2953 Z-0.9607 F2400
G01 X45.4782 Y269.3480 Z-0.9686 F2400
G01 X45.5306 Y269.4031 Z-0.9796 F2400
G01 X45.5810 Y269.4605 Z-0.9935 F2400
G01 X45.6297 Y269.5202 Z-1.0104 F2400
G01 X45.6765 Y269.5823 Z-1.0302 F2400
G01 X45.7215 Y269.6467 Z-1.0530 F2400
G01 X45.7647 Y269.7134 Z-1.0788 F2400
G01 X45.8060 Y269.7825 Z-1.1075 F2400
G01 X45.8455 Y269.8538 Z-1.1392 F2400
G01 X45.8832 Y269.9275 Z-1.1738 F2400
G01 X45.9190 Y270.0036 Z-1.2114 F2400
G01 X45.9531 Y270.0820 Z-1.2520 F2400
G01 X45.9852 Y270.1627 Z-1.2956 F2400
G01 X46.0156 Y270.2457 Z-1.3421 F2400
G01 X46.0441 Y270.3310 Z-1.3915 F2400
G01 X46.0970 Y270.5069 Z-1.4971 F2400
G01 X46.1406 Y270.5731 Z-1.5221 F2400
G01 X47.7193 Y271.1195 Z-0.9757 F2400
G01 X46.1835 Y270.5879 Z-1.5073 F2400
G01 X46.1086 Y270.5677 Z-1.5275 F2400
G01 X45.9587 Y270.6747 Z-1.4206 F2400
G01 X45.8089 Y270.7728 Z-1.3224 F2400
G01 X45.6591 Y270.8593 Z-1.2359 F2400
G01 X45.5093 Y270.9340 Z-1.1612 F2400
G01 X45.3595 Y270.9971 Z-1.0982 F2400
G01 X45.2096 Y271.0484 Z-1.0468 F2400
G01 X45.1347 Y271.0697 Z-1.0255 F2400
G01 X45.0598 Y271.0880 Z-1.0072 F2400
G01 X44.9849 Y271.1035 Z-0.9918 F2400
G01 X44.9100 Y271.1159 Z-0.9793 F2400
G01 X44.8351 Y271.1255 Z-0.9697 F2400
G01 X44.7602 Y271.1322 Z-0.9631 F2400
G01 X44.6853 Y271.1359 Z-0.9594 F2400
G01 X44.6104 Y271.1367 Z-0.9585 F2400
G01 X33.0743 F2400
G01 X44.6947 Y271.1356 Z-0.9597 F2400
G00 Z10.0000 F480
G00 X40.4061 Y275.2236 F2100
G00 Z0.5000 F480
G01 Z-1.1933 F2400
G01 X40.5561 Y275.1552 Z-1.1249 F2400
G01 X40.7062 Y275.0985 Z-1.0683 F2400
G01 X40.7812 Y275.0746 Z-1.0443 F2400
G01 X40.8563 Y275.0536 Z-1.0234 F2400
G01 X40.9313 Y275.0355 Z-1.0053 F2400
G01 X41.0063 Y275.0204 Z-0.9902 F2400
G01 X41.0814 Y275.0082 Z-0.9780 F2400
G01 X41.1564 Y274.9990 Z-0.9688 F2400
G01 X41.2315 Y274.9927 Z-0.9625 F2400
G01 X41.3065 Y274.9893 Z-0.9591 F2400
G01 X41.3815 Y274.9887 Z-0.9585 F2400
G01 X46.8591 Y274.9891 Z-0.9588 F2400
G01 X46.9341 Y274.9920 Z-0.9617 F2400
G01 X47.0092 Y274.9978 Z-0.9675 F2400
G01 X47.0842 Y275.0065 Z-0.9763 F2400
G01 X47.1592 Y275.0182 Z-0.9880 F2400
G01 X47.2343 Y275.0328 Z-1.0026 F2400
G01 X47.3093 Y275.0504 Z-1.0202 F2400
G01 X47.3843 Y275.0709 Z-1.0407 F2400
G01 X47.4594 Y275.0943 Z-1.0641 F2400
G01 X47.5344 Y275.1207 Z-1.0905 F2400
G01 X47.6094 Y275.1417 Z-1.1115 F2400
G01 X47.7595 Y274.9916 Z-0.9614 F2400
G01 X47.6483 Y275.1029 Z-1.0726 F2400
G01 X47.6161 Y275.1780 Z-1.1048 F2400
G01 X47.6710 Y275.3282 Z-1.0499 F2400
G01 X47.6940 Y275.4033 Z-1.0269 F2400
G01 X47.7141 Y275.4784 Z-1.0069 F2400
G01 X47.7311 Y275.5535 Z-0.9898 F2400
G01 X47.7452 Y275.6286 Z-0.9757 F2400
G01 X47.7563 Y275.7037 Z-0.9646 F2400
G01 X47.7645 Y275.7788 Z-0.9564 F2400
G01 X47.7697 Y275.8539 Z-0.9512 F2400
G01 X47.7719 Y275.9290 Z-0.9490 F2400
G01 X47.7720 Y284.8657 F2400
G01 X47.8036 Y284.9863 Z-0.8761 F2400
G01 X47.7705 Y284.9247 Z-0.9380 F2400
G00 Z10.0000 F480
G00 X47.7796 Y288.6959 F2100
G00 Z0.5000 F480
G01 Z-0.9407 F2400
G01 X47.6092 Y288.8861 Z-1.1118 F2400
G01 X47.6247 Y288.9246 Z-1.0962 F2400
G01 X47.6393 Y288.9626 Z-1.0816 F2400
G01 X47.6562 Y289.0095 Z-1.0647 F2400
G01 X47.6718 Y289.0556 Z-1.0491 F2400
G01 X47.6860 Y289.1010 Z-1.0349 F2400
G01 X47.6990 Y289.1459 Z-1.0219 F2400
G01 X47.7108 Y289.1902 Z-1.0102 F2400
G01 X47.7214 Y289.2341 Z-0.9995 F2400
G01 X47.7309 Y289.2775 Z-0.9900 F2400
G01 X47.7394 Y289.3205 Z-0.9815 F2400
G01 X47.7468 Y289.3631 Z-0.9741 F2400
G01 X47.7532 Y289.4055 Z-0.9677 F2400
G01 X47.7596 Y289.4560 Z-0.9613 F2400
G01 X47.7647 Y289.5062 Z-0.9562 F2400
G01 X47.7684 Y289.5562 Z-0.9525 F2400
G01 X47.7708 Y289.6060 Z-0.9501 F2400
G01 X47.7720 Y298.5936 Z-0.9490 F2400
G01 X47.7788 Y298.6562 Z-0.9345 F2400
G01 X47.7720 Y298.5937 Z-0.9490 F2400
G01 X47.7788 Y298.6562 Z-0.9345 F2400
G01 X47.7720 Y298.5936 Z-0.9490 F2400
G01 X47.7708 Y289.6060 Z-0.9501 F2400
G01 X47.7684 Y289.5562 Z-0.9525 F2400
G01 X47.7647 Y289.5062 Z-0.9562 F2400
G01 X47.7596 Y289.4560 Z-0.9613 F2400
G01 X47.7532 Y289.4055 Z-0.9677 F2400
G01 X47.7468 Y289.3631 Z-0.9741 F2400
G01 X47.7394 Y289.3205 Z-0.9815 F2400
G01 X47.7309 Y289.2775 Z-0.9900 F2400
G01 X47.7214 Y289.2341 Z-0.9995 F2400
G01 X47.7108 Y289.1902 Z-1.0102 F2400
G01 X47.6990 Y289.1459 Z-1.0219 F2400
G01 X47.6860 Y289.1010 Z-1.0349 F2400
G01 X47.6718 Y289.0556 Z-1.0491 F2400
G01 X47.6562 Y289.0095 Z-1.0647 F2400
G01 X47.6393 Y288.9626 Z-1.0816 F2400
G01 X47.6247 Y288.9246 Z-1.0962 F2400
G01 X47.6092 Y288.8861 Z-1.1118 F2400
G01 X47.6296 Y288.8466 Z-1.0913 F2400
G01 X47.5546 Y288.8533 Z-1.0981 F2400
G01 X47.4795 Y288.8262 Z-1.0709 F2400
G01 X47.4045 Y288.8019 Z-1.0467 F2400
G01 X47.3295 Y288.7806 Z-1.0254 F2400
G01 X47.2545 Y288.7623 Z-1.0071 F2400
G01 X47.1795 Y288.7469 Z-0.9916 F2400
G01 X47.1045 Y288.7344 Z-0.9792 F2400
G01 X47.0294 Y288.7248 Z-0.9696 F2400
G01 X46.9544 Y288.7182 Z-0.9630 F2400
G01 X46.8794 Y288.7146 Z-0.9593 F2400
G01 X41.3282 Y288.7139 Z-0.9587 F2400
G01 X41.2532 Y288.7164 Z-0.9612 F2400
G01 X41.1781 Y288.7219 Z-0.9667 F2400
G01 X41.1031 Y288.7303 Z-0.9750 F2400
G01 X41.0281 Y288.7416 Z-0.9864 F2400
G01 X40.9531 Y288.7558 Z-1.0006 F2400
G01 X40.8781 Y288.7730 Z-1.0178 F2400
G01 X40.8031 Y288.7932 Z-1.0379 F2400
G01 X40.7280 Y288.8162 Z-1.0610 F2400
G01 X40.5780 Y288.8712 Z-1.1159 F2400
G01 X40.4060 Y288.9828 Z-1.1730 F2400
G01 Y289.0322 Z-1.1446 F2400
G01 Y289.0793 Z-1.1190 F2400
G01 Y289.1244 Z-1.0958 F2400
G01 Y289.1677 Z-1.0748 F2400
G01 Y289.2094 Z-1.0558 F2400
G01 Y289.2497 Z-1.0388 F2400
G01 Y289.2888 Z-1.0235 F2400
G01 Y289.3362 Z-1.0067 F2400
G01 Y289.3821 Z-0.9923 F2400
G01 Y289.4268 Z-0.9802 F2400
G01 Y289.4705 Z-0.9702 F2400
G01 Y289.5134 Z-0.9621 F2400
G01 Y289.5557 Z-0.9561 F2400
G01 Y289.6059 Z-0.9513 F2400
G01 Y295.8923 Z-0.9490 F2400
G01 X40.4043 Y296.1436 Z-0.9472 F2400
G01 X40.4056 Y295.9956 Z-0.9485 F2400
G01 X40.4795 Y295.9523 Z-0.8755 F2400
G01 X41.1941 Y295.9654 Z-0.1608 F2400
G01 X41.3002 Y295.9695 Z-0.0548 F2400
G01 X41.3276 Y295.9712 Z-0.0273 F2400
G01 X41.3549 Y295.9752 Z0.0000 F2400
G01 X40.4060 Y295.9377 Z-0.9490 F2400
G01 X41.3549 Y295.9752 Z0.0000 F2400
G01 X41.3276 Y295.9712 Z-0.0273 F2400
G01 X41.3002 Y295.9695 Z-0.0548 F2400
G01 X41.1941 Y295.9654 Z-0.1608 F2400
G01 X40.4795 Y295.9523 Z-0.8755 F2400
G01 X40.4056 Y295.9956 Z-0.9485 F2400
G01 X40.4043 Y296.1436 Z-0.9472 F2400
G01 X40.4060 Y295.8923 Z-0.9490 F2400
G01 Y289.6059 Z-0.9513 F2400
G01 Y289.5557 Z-0.9561 F2400
G01 Y289.5134 Z-0.9621 F2400
G01 Y289.4705 Z-0.9702 F2400
G01 Y289.4268 Z-0.9802 F2400
G01 Y289.3821 Z-0.9923 F2400
G01 Y289.3362 Z-1.0067 F2400
G01 Y289.2888 Z-1.0235 F2400
G01 Y289.2497 Z-1.0388 F2400
G01 Y289.2094 Z-1.0558 F2400
G01 Y289.1677 Z-1.0748 F2400
G01 Y289.1244 Z-1.0958 F2400
G01 Y289.0793 Z-1.1190 F2400
G01 Y289.0322 Z-1.1446 F2400
G01 Y288.9828 Z-1.1730 F2400
G01 X40.4280 Y288.9378 Z-1.1826 F2400
G01 X40.3530 Y288.9231 Z-1.1679 F2400
G01 X40.2779 Y288.8895 Z-1.1343 F2400
G01 X40.2029 Y288.8588 Z-1.1036 F2400
G01 X40.1279 Y288.8311 Z-1.0759 F2400
G01 X40.0529 Y288.8063 Z-1.0511 F2400
G01 X39.9779 Y288.7845 Z-1.0293 F2400
G01 X39.9029 Y288.7656 Z-1.0103 F2400
G01 X39.8278 Y288.7496 Z-0.9944 F2400
G01 X39.7528 Y288.7366 Z-0.9813 F2400
G01 X39.6778 Y288.7264 Z-0.9712 F2400
G01 X39.6028 Y288.7193 Z-0.9640 F2400
G01 X39.5278 Y288.7150 Z-0.9598 F2400
G01 X33.9765 Y288.7138 Z-0.9585 F2400
G01 X33.9015 Y288.7156 Z-0.9603 F2400
G01 X33.8265 Y288.7203 Z-0.9651 F2400
G01 X33.7515 Y288.7280 Z-0.9728 F2400
G01 X33.6765 Y288.7386 Z-0.9834 F2400
G01 X33.6014 Y288.7522 Z-0.9970 F2400
G01 X33.5264 Y288.7687 Z-1.0134 F2400
G01 X33.4514 Y288.7881 Z-1.0329 F2400
G01 X33.3764 Y288.8105 Z-1.0552 F2400
G01 X33.2264 Y288.8640 Z-1.1088 F2400
G01 X33.1513 Y288.8191 Z-1.0638 F2400
G01 X33.0851 Y288.7528 Z-0.9976 F2400
G01 X33.1923 Y288.9031 Z-1.1048 F2400
G01 X33.1634 Y288.9782 Z-1.0759 F2400
G01 X33.1374 Y289.0533 Z-1.0499 F2400
G01 X33.1144 Y289.1284 Z-1.0269 F2400
G01 X33.0943 Y289.2036 Z-1.0068 F2400
G01 X33.0773 Y289.2787 Z-0.9898 F2400
G01 X33.0632 Y289.3538 Z-0.9757 F2400
G01 X33.0521 Y289.4290 Z-0.9645 F2400
G01 X33.0439 Y289.5041 Z-0.9564 F2400
G01 X33.0387 Y289.5792 Z-0.9512 F2400
G01 X33.0365 Y298.5947 Z-0.9490 F2400
G01 X33.0451 Y298.6604 Z-0.9302 F2400
G01 X33.0365 Y298.5946 Z-0.9490 F2400
G00 Z10.0000 F480
G00 X33.0763 Y302.4580 F2100
G00 Z0.5000 F480
G01 Z-0.9888 F2400
G01 X33.1513 Y302.5331 Z-1.0638 F2400
G01 X33.2264 Y302.5780 Z-1.1088 F2400
G01 X33.3764 Y302.5245 Z-1.0552 F2400
G01 X33.4514 Y302.5021 Z-1.0329 F2400
G01 X33.5264 Y302.4827 Z-1.0134 F2400
G01 X33.6015 Y302.4662 Z-0.9970 F2400
G01 X33.6765 Y302.4526 Z-0.9834 F2400
G01 X33.7515 Y302.4420 Z-0.9728 F2400
G01 X33.8265 Y302.4343 Z-0.9651 F2400
G01 X33.9015 Y302.4296 Z-0.9603 F2400
G01 X33.9766 Y302.4278 Z-0.9585 F2400
G01 X40.3532 Y302.4295 Z-0.9602 F2400
G01 X40.4282 Y302.4341 Z-0.9649 F2400
G01 X40.5033 Y302.4417 Z-0.9725 F2400
G01 X40.5783 Y302.4522 Z-0.9830 F2400
G01 X40.6533 Y302.4657 Z-0.9964 F2400
G01 X40.7283 Y302.4821 Z-1.0128 F2400
G01 X40.8033 Y302.5014 Z-1.0322 F2400
G01 X40.8784 Y302.5237 Z-1.0544 F2400
G01 X40.9534 Y302.5489 Z-1.0796 F2400
G01 X41.0284 Y302.5770 Z-1.1078 F2400
G01 X41.1034 Y302.6081 Z-1.1388 F2400
G01 X41.1784 Y302.6421 Z-1.1728 F2400
G01 X41.2535 Y302.6468 Z-1.1776 F2400
G01 X41.4035 Y302.5809 Z-1.1117 F2400
G01 X41.5535 Y302.5268 Z-1.0576 F2400
G01 X41.6286 Y302.5042 Z-1.0349 F2400
G01 X41.7036 Y302.4845 Z-1.0152 F2400
G01 X41.7786 Y302.4677 Z-0.9984 F2400
G01 X41.8536 Y302.4538 Z-0.9846 F2400
G01 X41.9286 Y302.4429 Z-0.9737 F2400
G01 X42.0037 Y302.4349 Z-0.9657 F2400
G01 X42.0787 Y302.4299 Z-0.9607 F2400
G01 X42.1537 Y302.4278 Z-0.9586 F2400
G01 X47.7583 Y302.4293 Z-0.9569 F2400
G01 X47.5838 Y302.4277 Z-0.9585 F2400
G01 X42.1030 Y302.4289 Z-0.9597 F2400
G01 X42.0527 Y302.4313 Z-0.9621 F2400
G01 X42.0022 Y302.4351 Z-0.9658 F2400
G01 X41.9515 Y302.4402 Z-0.9709 F2400
G01 X41.9005 Y302.4467 Z-0.9774 F2400
G01 X41.8577 Y302.4532 Z-0.9839 F2400
G01 X41.8146 Y302.4607 Z-0.9914 F2400
G01 X41.7712 Y302.4692 Z-1.0000 F2400
G01 X41.7273 Y302.4788 Z-1.0096 F2400
G01 X41.6831 Y302.4896 Z-1.0203 F2400
G01 X41.6383 Y302.5014 Z-1.0322 F2400
G01 X41.5930 Y302.5146 Z-1.0453 F2400
G01 X41.5470 Y302.5289 Z-1.0597 F2400
G01 X41.5005 Y302.5446 Z-1.0754 F2400
G01 X41.4532 Y302.5617 Z-1.0925 F2400
G01 X41.4148 Y302.5765 Z-1.1072 F2400
G01 X41.3759 Y302.5922 Z-1.1230 F2400
G01 X41.3364 Y302.6089 Z-1.1397 F2400
G01 X41.2963 Y302.6268 Z-1.1576 F2400
G01 X41.2556 Y302.6458 Z-1.1766 F2400
G01 X41.2209 Y302.7093 Z-1.1657 F2400
G01 Y302.8383 Z-1.0958 F2400
G01 Y302.9437 Z-1.0471 F2400
G01 Y303.0314 Z-1.0132 F2400
G01 Y303.1141 Z-0.9872 F2400
G01 Y303.1845 Z-0.9702 F2400
G01 Y303.2444 Z-0.9595 F2400
G01 Y303.3032 Z-0.9526 F2400
G01 Y303.3614 Z-0.9493 F2400
G01 Y306.7460 Z-0.9490 F2400
G01 X41.2194 Y306.8215 Z-0.9505 F2400
G01 X41.2171 Y306.8675 Z-0.9529 F2400
G01 X41.2148 Y306.9177 Z-0.9569 F2400
G01 Y306.9681 Z-0.9613 F2400
G01 X41.2158 Y307.0189 Z-0.9674 F2400
G01 X41.2175 Y307.0617 Z-0.9737 F2400
G01 X41.2198 Y307.1049 Z-0.9813 F2400
G01 X41.2231 Y307.1487 Z-0.9900 F2400
G01 X41.2270 Y307.1931 Z-1.0003 F2400
G01 X41.2319 Y307.2382 Z-1.0117 F2400
G01 X41.2374 Y307.2842 Z-1.0247 F2400
G01 X41.2440 Y307.3310 Z-1.0391 F2400
G01 X41.2515 Y307.3788 Z-1.0552 F2400
G01 X41.2583 Y307.4179 Z-1.0692 F2400
G01 X41.2656 Y307.4578 Z-1.0845 F2400
G01 X41.2738 Y307.4985 Z-1.1008 F2400
G01 X41.2825 Y307.5402 Z-1.1186 F2400
G01 X41.2921 Y307.5829 Z-1.1377 F2400
G01 X41.3025 Y307.6267 Z-1.1582 F2400
G01 X41.3138 Y307.6716 Z-1.1802 F2400
G01 X41.4200 Y307.7069 Z-1.1318 F2400
G01 X41.5233 Y307.7330 Z-1.0870 F2400
G01 X41.6435 Y307.7638 Z-1.0459 F2400
G01 X41.7187 Y307.7857 Z-1.0244 F2400
G01 X41.7922 Y307.8102 Z-1.0058 F2400
G01 X41.8642 Y307.8371 Z-0.9901 F2400
G01 X41.9346 Y307.8665 Z-0.9775 F2400
G01 X42.0034 Y307.8985 Z-0.9677 F2400
G01 X42.0706 Y307.9329 Z-0.9610 F2400
G01 X42.1363 Y307.9699 Z-0.9572 F2400
G01 X42.2004 Y308.0093 Z-0.9563 F2400
G01 X42.3277 Y308.0895 Z-0.9562 F2400
G01 X42.4567 Y308.1671 Z-0.9530 F2400
G01 X42.5202 Y308.2075 Z-0.9533 F2400
G01 X42.5823 Y308.2501 Z-0.9562 F2400
G01 X47.7358 Y311.5032 Z-0.9532 F2400
G01 X47.8311 Y311.5879 Z-0.8733 F2400
G01 X47.7847 Y311.5464 Z-0.9324 F2400
G00 Z10.0000 F480
G00 X47.7340 Y316.1027 F2100
G00 Z0.5000 F480
G01 Z-0.9585 F2400
G01 X33.0502 Y316.1011 Z-0.9569 F2400
G01 X33.2250 Y316.1027 Z-0.9585 F2400
G01 X47.6589 F2400
G01 X47.7340 F2400
G00 Z10.0000 F480
G00 X42.5624 Y308.2658 F2100
G00 Z0.5000 F480
G01 Z-0.9322 F2400
G01 X41.9697 Y308.9942 Z0.0000 F2400
G01 X41.9931 Y308.9851 Z-0.0202 F2400
G01 X42.0133 Y308.9691 Z-0.0445 F2400
G01 X42.0317 Y308.9517 Z-0.0691 F2400
G01 X42.0510 Y308.9317 Z-0.0963 F2400
G01 X42.0690 Y308.9120 Z-0.1225 F2400
G01 X42.0889 Y308.8895 Z-0.1522 F2400
G01 X42.1250 Y308.8468 Z-0.2075 F2400
G01 X42.1691 Y308.7925 Z-0.2770 F2400
G01 X42.2618 Y308.6736 Z-0.4270 F2400
G01 X42.4515 Y308.4190 Z-0.7436 F2400
G01 X42.5134 Y308.3337 Z-0.8487 F2400
G01 X42.5753 Y308.2456 Z-0.9561 F2400
G01 X42.5274 Y308.2123 Z-0.9535 F2400
G01 X42.4856 Y308.1850 Z-0.9527 F2400
G01 X42.4220 Y308.1462 Z-0.9538 F2400
G01 X42.3231 Y308.0867 Z-0.9563 F2400
G01 X42.1670 Y307.9883 Z-0.9564 F2400
G01 X42.1239 Y307.9627 Z-0.9577 F2400
G01 X42.0801 Y307.9380 Z-0.9603 F2400
G01 X42.0354 Y307.9145 Z-0.9642 F2400
G01 X41.9898 Y307.8919 Z-0.9694 F2400
G01 X41.9432 Y307.8704 Z-0.9761 F2400
G01 X41.9035 Y307.8532 Z-0.9827 F2400
G01 X41.8630 Y307.8366 Z-0.9904 F2400
G01 X41.8217 Y307.8208 Z-0.9990 F2400
G01 X41.7794 Y307.8057 Z-1.0088 F2400
G01 X41.7362 Y307.7913 Z-1.0197 F2400
G01 X41.6919 Y307.7776 Z-1.0317 F2400
G01 X41.6465 Y307.7646 Z-1.0450 F2400
G01 X41.6000 Y307.7524 Z-1.0596 F2400
G01 X41.5520 Y307.7403 Z-1.0761 F2400
G01 X41.5125 Y307.7303 Z-1.0913 F2400
G01 X41.4718 Y307.7200 Z-1.1083 F2400
G01 X41.4298 Y307.7093 Z-1.1271 F2400
G01 X41.3863 Y307.6983 Z-1.1481 F2400
G01 X41.3410 Y307.6869 Z-1.1713 F2400
G01 X41.2777 Y307.7218 Z-1.1582 F2400
G01 X41.6726 Y308.8152 Z0.0000 F2400
G01 X41.6652 Y308.7909 Z-0.0214 F2400
G01 X41.6571 Y308.7654 Z-0.0478 F2400
G01 X41.4315 Y307.7103 Z-1.1267 F2400
G01 X41.3882 Y307.6991 Z-1.1474 F2400
G01 X41.3432 Y307.6876 Z-1.1703 F2400
G01 X41.2789 Y307.7201 Z-1.1590 F2400
G01 X41.2053 Y307.8021 Z-1.1105 F2400
G01 X41.1452 Y307.8733 Z-1.0741 F2400
G01 X41.0918 Y307.9452 Z-1.0403 F2400
G01 X41.0469 Y308.0058 Z-1.0171 F2400
G01 X41.0037 Y308.0641 Z-0.9996 F2400
G01 X40.9631 Y308.1219 Z-0.9857 F2400
G01 X40.9298 Y308.1728 Z-0.9757 F2400
G01 X40.8989 Y308.2241 Z-0.9672 F2400
G01 X40.8700 Y308.2758 Z-0.9605 F2400
G01 X40.8429 Y308.3279 Z-0.9556 F2400
G01 X40.7963 Y308.4180 Z-0.9516 F2400
G01 X40.7676 Y308.4683 Z-0.9518 F2400
G01 X40.7269 Y308.5370 Z-0.9506 F2400
G01 X40.6977 Y308.5871 Z-0.9491 F2400
G01 X40.6704 Y308.6335 Z-0.9482 F2400
G01 X40.6460 Y308.6767 Z-0.9488 F2400
G01 X41.4940 Y309.1142 Z0.0000 F2400
G01 X41.4094 Y309.0977 Z-0.0811 F2400
G01 X41.2810 Y309.0437 Z-0.2191 F2400
G01 X41.1054 Y308.9596 Z-0.4129 F2400
G01 X40.8021 Y308.8036 Z-0.7531 F2400
G01 X40.6205 Y308.7220 Z-0.9505 F2400
G01 X40.5894 Y308.7719 Z-0.9503 F2400
G01 X40.5548 Y308.8256 Z-0.9502 F2400
G01 X40.5220 Y308.8751 Z-0.9499 F2400
G01 X40.4901 Y308.9215 Z-0.9498 F2400
G01 X40.4496 Y308.9791 Z-0.9501 F2400
G01 X40.4162 Y309.0251 Z-0.9503 F2400
G01 X40.3832 Y309.0689 Z-0.9504 F2400
G01 X40.3437 Y309.1202 Z-0.9506 F2400
G01 X40.3052 Y309.1689 Z-0.9511 F2400
G01 X40.2706 Y309.2114 Z-0.9514 F2400
G01 X40.2374 Y309.2546 Z-0.9492 F2400
G01 X40.1991 Y309.3010 Z-0.9483 F2400
G01 X40.1643 Y309.3401 Z-0.9485 F2400
G01 X40.1195 Y309.3873 Z-0.9504 F2400
G01 X40.0812 Y309.4264 Z-0.9519 F2400
G01 X39.9948 Y309.5130 Z-0.9539 F2400
G01 X39.9567 Y309.5505 Z-0.9545 F2400
G01 X39.9214 Y309.5841 Z-0.9549 F2400
G01 X39.8759 Y309.6276 Z-0.9545 F2400
G01 X39.8336 Y309.6659 Z-0.9552 F2400
G01 X39.7918 Y309.7011 Z-0.9570 F2400
G01 X39.7471 Y309.7393 Z-0.9578 F2400
G01 X39.7020 Y309.7771 Z-0.9586 F2400
G01 X39.6632 Y309.8087 Z-0.9591 F2400
G01 X39.6088 Y309.8512 Z-0.9595 F2400
G01 X39.5710 Y309.8803 Z-0.9602 F2400
G01 X39.5278 Y309.9125 Z-0.9605 F2400
G01 X39.4795 Y309.9479 Z-0.9607 F2400
G01 X39.4265 Y309.9849 Z-0.9613 F2400
G01 X39.3750 Y310.0200 Z-0.9615 F2400
G01 X39.3250 Y310.0525 Z-0.9617 F2400
G01 X39.2748 Y310.1015 Z-0.9477 F2400
G01 X39.2321 Y310.1109 Z-0.9620 F2400
G01 X39.0698 Y310.2067 Z-0.9627 F2400
G01 X39.0246 Y310.2347 Z-0.9609 F2400
G01 X38.9709 Y310.2642 Z-0.9592 F2400
G01 X38.9118 Y310.2940 Z-0.9595 F2400
G01 X38.8589 Y310.3181 Z-0.9608 F2400
G01 X38.8071 Y310.3410 Z-0.9618 F2400
G01 X38.7590 Y310.3618 Z-0.9623 F2400
G01 X38.7093 Y310.3838 Z-0.9618 F2400
G01 X38.6638 Y310.4037 Z-0.9605 F2400
G01 X38.6093 Y310.4269 Z-0.9584 F2400
G01 X38.5518 Y310.4503 Z-0.9567 F2400
G01 X38.4992 Y310.4694 Z-0.9566 F2400
G01 X38.4436 Y310.4870 Z-0.9574 F2400
G01 X38.3920 Y310.5015 Z-0.9595 F2400
G01 X38.3462 Y310.5148 Z-0.9601 F2400
G01 X38.2894 Y310.5317 Z-0.9597 F2400
G01 X38.2417 Y310.5453 Z-0.9595 F2400
G01 X38.1822 Y310.5617 Z-0.9592 F2400
G01 X38.1194 Y310.5778 Z-0.9587 F2400
G01 X38.0647 Y310.5910 Z-0.9589 F2400
G01 X38.0011 Y310.6055 Z-0.9591 F2400
G01 X37.9530 Y310.6156 Z-0.9590 F2400
G01 X37.8968 Y310.6266 Z-0.9589 F2400
G01 X37.8212 Y310.6402 Z-0.9587 F2400
G01 X37.7516 Y310.6513 Z-0.9586 F2400
G01 X37.6857 Y310.6607 Z-0.9588 F2400
G01 X37.6327 Y310.6674 Z-0.9586 F2400
G01 X37.5504 Y310.6767 F2400
G01 X37.4886 Y310.6825 Z-0.9584 F2400
G01 X37.4330 Y310.6889 Z-0.9565 F2400
G01 X37.3797 Y310.6934 Z-0.9557 F2400
G01 X37.3302 Y310.6958 Z-0.9558 F2400
G01 X37.2749 Y310.6969 Z-0.9568 F2400
G01 X37.1557 Y310.6976 Z-0.9582 F2400
G01 X37.0426 Y310.6978 Z-0.9574 F2400
G01 X36.9740 Y310.6971 Z-0.9560 F2400
G01 X36.9243 Y310.6957 Z-0.9552 F2400
G01 X36.8510 Y310.6905 Z-0.9557 F2400
G01 X36.7935 Y310.6840 Z-0.9575 F2400
G01 X36.6709 Y310.6716 Z-0.9585 F2400
G01 X36.6075 Y310.6640 F2400
G01 X36.5523 Y310.6564 Z-0.9582 F2400
G01 X36.4865 Y310.6467 Z-0.9579 F2400
G01 X36.4092 Y310.6334 F2400
G01 X36.3576 Y310.6237 F2400
G01 X36.2923 Y310.6104 Z-0.9577 F2400
G01 X36.2373 Y310.5983 Z-0.9573 F2400
G01 X36.1718 Y310.5831 Z-0.9572 F2400
G01 X36.0502 Y310.5508 Z-0.9564 F2400
G01 X35.9801 Y310.5309 Z-0.9558 F2400
G01 X35.9089 Y310.5081 Z-0.9557 F2400
G01 X35.8335 Y310.4843 Z-0.9535 F2400
G01 X35.7844 Y310.4685 Z-0.9517 F2400
G01 X35.7220 Y310.4458 Z-0.9510 F2400
G01 X35.6712 Y310.4242 Z-0.9509 F2400
G01 X35.5181 Y310.3563 Z-0.9508 F2400
G01 X35.4011 Y310.3043 Z-0.9484 F2400
G01 X35.3427 Y310.2774 Z-0.9472 F2400
G01 X35.2727 Y310.2412 Z-0.9476 F2400
G01 X35.2106 Y310.2052 Z-0.9493 F2400
G01 X35.1545 Y310.1744 Z-0.9492 F2400
G01 X35.0946 Y310.1402 Z-0.9491 F2400
G01 X35.0522 Y310.1150 Z-0.9489 F2400
G01 X34.9970 Y310.0812 Z-0.9487 F2400
G01 X34.9500 Y310.0517 F2400
G01 X34.8911 Y310.0134 Z-0.9485 F2400
G01 X34.8489 Y309.9853 Z-0.9481 F2400
G01 X34.7954 Y309.9480 Z-0.9480 F2400
G01 X34.7311 Y309.9019 Z-0.9476 F2400
G01 X34.6896 Y309.8712 F2400
G01 X34.6349 Y309.8292 Z-0.9475 F2400
G01 X34.5913 Y309.7949 Z-0.9471 F2400
G01 X34.5405 Y309.7534 Z-0.9473 F2400
G01 X34.4867 Y309.7078 Z-0.9471 F2400
G01 X34.4439 Y309.6731 Z-0.9451 F2400
G01 X34.3891 Y309.6249 Z-0.9443 F2400
G01 X34.3505 Y309.5881 Z-0.9450 F2400
G01 X34.3048 Y309.5431 Z-0.9464 F2400
G01 X34.1788 Y309.4165 Z-0.9475 F2400
G01 X34.1386 Y309.3753 Z-0.9469 F2400
G01 X34.1039 Y309.3390 Z-0.9460 F2400
G01 X34.0565 Y309.2861 Z-0.9459 F2400
G01 X34.0232 Y309.2456 Z-0.9471 F2400
G01 X33.9839 Y309.1965 Z-0.9488 F2400
G01 X33.9350 Y309.1360 F2400
G01 X33.8866 Y309.0740 Z-0.9490 F2400
G01 X33.8404 Y309.0121 Z-0.9491 F2400
G01 X33.7940 Y308.9477 F2400
G01 X33.7496 Y308.8830 Z-0.9492 F2400
G01 X33.7063 Y308.8173 Z-0.9493 F2400
G01 X33.6644 Y308.7514 Z-0.9491 F2400
G01 X33.6374 Y308.7073 F2400
G01 X33.5992 Y308.6427 Z-0.9492 F2400
G01 X33.5730 Y308.5971 Z-0.9491 F2400
G01 X33.5410 Y308.5398 Z-0.9490 F2400
G01 X33.5184 Y308.4976 F2400
G01 X33.4792 Y308.4289 Z-0.9459 F2400
G01 X33.4426 Y308.3563 Z-0.9451 F2400
G01 X33.4212 Y308.3092 Z-0.9461 F2400
G01 X33.3944 Y308.2480 Z-0.9473 F2400
G01 X33.3738 Y308.1999 Z-0.9479 F2400
G01 X33.3528 Y308.1513 Z-0.9481 F2400
G01 X33.3263 Y308.0903 Z-0.9473 F2400
G01 X33.2956 Y308.0176 Z-0.9456 F2400
G01 X33.2668 Y307.9422 Z-0.9451 F2400
G01 X33.2520 Y307.8974 Z-0.9459 F2400
G01 X33.2380 Y307.8511 Z-0.9478 F2400
G01 X33.2193 Y307.7886 Z-0.9493 F2400
G01 X33.1964 Y307.7127 Z-0.9494 F2400
G01 X33.1750 Y307.6359 Z-0.9496 F2400
G01 X33.1512 Y307.5435 F2400
G01 X33.1364 Y307.4801 Z-0.9497 F2400
G01 X33.1193 Y307.4009 F2400
G01 X33.1101 Y307.3542 F2400
G01 X33.0958 Y307.2755 Z-0.9496 F2400
G01 X33.0879 Y307.2281 F2400
G01 X33.0777 Y307.1608 Z-0.9495 F2400
G01 X33.0673 Y307.0814 F2400
G01 X33.0617 Y307.0319 Z-0.9493 F2400
G01 X33.0536 Y306.9507 Z-0.9492 F2400
G01 X33.0491 Y306.9003 Z-0.9489 F2400
G01 X33.0424 Y306.8324 Z-0.9469 F2400
G01 X33.0395 Y306.7828 Z-0.9466 F2400
G01 X33.0380 Y306.7327 Z-0.9474 F2400
G01 X33.0370 Y306.6626 Z-0.9484 F2400
G01 X33.0357 Y306.3772 Z-0.9482 F2400
G01 X33.0365 Y306.3020 Z-0.9490 F2400
G01 Y303.3692 F2400
G01 X33.0387 Y303.2940 Z-0.9512 F2400
G01 X33.0439 Y303.2188 Z-0.9563 F2400
G01 X33.0520 Y303.1436 Z-0.9645 F2400
G01 X33.0631 Y303.0684 Z-0.9756 F2400
G01 X33.0772 Y302.9932 Z-0.9896 F2400
G01 X33.0942 Y302.9180 Z-1.0067 F2400
G01 X33.1143 Y302.8428 Z-1.0267 F2400
G01 X33.1373 Y302.7676 Z-1.0498 F2400
G01 X33.1633 Y302.6924 Z-1.0758 F2400
G01 X33.1923 Y302.6172 Z-1.1047 F2400
G01 X33.0851 Y302.4668 Z-0.9976 F2400
G00 Z10.0000 F480
G00 X33.0315 Y284.9243 F2100
G00 Z0.5000 F480
G01 Z-0.9384 F2400
G01 X33.0716 Y284.9906 Z-0.8706 F2400
G01 X33.0365 Y284.8666 Z-0.9490 F2400
G01 X33.0368 Y275.9141 Z-0.9492 F2400
G01 X33.0383 Y275.8644 Z-0.9508 F2400
G01 X33.0417 Y275.8062 Z-0.9542 F2400
G01 X33.0470 Y275.7478 Z-0.9594 F2400
G01 X33.0540 Y275.6889 Z-0.9665 F2400
G01 X33.0630 Y275.6296 Z-0.9755 F2400
G01 X33.0740 Y275.5697 Z-0.9865 F2400
G01 X33.0891 Y275.5003 Z-1.0016 F2400
G01 X33.1070 Y275.4298 Z-1.0195 F2400
G01 X33.1280 Y275.3579 Z-1.0404 F2400
G01 X33.1555 Y275.2752 Z-1.0679 F2400
G01 X33.1875 Y275.1900 Z-1.1000 F2400
G01 X33.2027 Y275.1454 Z-1.1152 F2400
G01 X33.0821 Y275.0248 Z-0.9946 F2400
G01 X33.1935 Y275.1751 Z-1.1060 F2400
G01 X33.2303 Y275.1375 Z-1.1072 F2400
G01 X33.2687 Y275.1227 Z-1.0925 F2400
G01 X33.3160 Y275.1056 Z-1.0754 F2400
G01 X33.3625 Y275.0899 Z-1.0597 F2400
G01 X33.4085 Y275.0756 Z-1.0453 F2400
G01 X33.4538 Y275.0624 Z-1.0322 F2400
G01 X33.4986 Y275.0506 Z-1.0203 F2400
G01 X33.5428 Y275.0398 Z-1.0096 F2400
G01 X33.5867 Y275.0302 Z-1.0000 F2400
G01 X33.6301 Y275.0217 Z-0.9914 F2400
G01 X33.6732 Y275.0142 Z-0.9839 F2400
G01 X33.7160 Y275.0077 Z-0.9774 F2400
G01 X33.7670 Y275.0012 Z-0.9709 F2400
G01 X33.8177 Y274.9961 Z-0.9658 F2400
G01 X33.8682 Y274.9923 Z-0.9621 F2400
G01 X33.9185 Y274.9899 Z-0.9597 F2400
G01 X39.4737 Y274.9888 Z-0.9586 F2400
G01 X39.5240 Y274.9899 Z-0.9597 F2400
G01 X39.5827 Y274.9928 Z-0.9626 F2400
G01 X39.6416 Y274.9976 Z-0.9674 F2400
G01 X39.7009 Y275.0042 Z-0.9740 F2400
G01 X39.7606 Y275.0128 Z-0.9825 F2400
G01 X39.8210 Y275.0233 Z-0.9930 F2400
G01 X39.8908 Y275.0378 Z-1.0076 F2400
G01 X39.9617 Y275.0552 Z-1.0249 F2400
G01 X40.0340 Y275.0756 Z-1.0453 F2400
G01 X40.1078 Y275.0992 Z-1.0689 F2400
G01 X40.1929 Y275.1300 Z-1.0997 F2400
G01 X40.2806 Y275.1657 Z-1.1354 F2400
G01 X40.3817 Y275.2117 Z-1.1815 F2400
G01 X40.4060 Y275.2578 Z-1.1730 F2400
G01 Y275.3072 Z-1.1446 F2400
G01 Y275.3543 Z-1.1190 F2400
G01 Y275.3994 Z-1.0958 F2400
G01 Y275.4427 Z-1.0748 F2400
G01 Y275.4844 Z-1.0558 F2400
G01 Y275.5247 Z-1.0388 F2400
G01 Y275.5638 Z-1.0235 F2400
G01 Y275.6112 Z-1.0067 F2400
G01 Y275.6571 Z-0.9923 F2400
G01 Y275.7018 Z-0.9802 F2400
G01 Y275.7455 Z-0.9702 F2400
G01 Y275.7884 Z-0.9621 F2400
G01 Y275.8307 Z-0.9561 F2400
G01 Y275.8809 Z-0.9513 F2400
G01 X40.4058 Y282.2389 Z-0.9488 F2400
G01 X40.4060 Y282.2097 Z-0.9490 F2400
G01 X41.3549 Y282.2472 Z0.0000 F2400
G01 X41.3276 Y282.2432 Z-0.0273 F2400
G01 X41.3549 Y282.2472 Z0.0000 F2400
G01 X40.4060 Y282.2097 Z-0.9490 F2400
G01 X40.4045 Y282.3896 Z-0.9475 F2400
G00 Z10.0000 F480
G00 X71.6199 Y282.1503 F2100
G00 Z0.5000 F480
G01 Z-0.5597 F2400
G01 X72.1197 Y281.4762 Z0.0000 F2400
G01 X71.6070 Y282.1677 Z-0.5742 F2400
G01 X71.5526 Y282.2485 Z-0.6358 F2400
G01 X71.4068 Y282.4893 Z-0.8031 F2400
G01 X71.7777 Y282.7582 Z-0.4585 F2400
G01 X72.2724 Y283.1292 Z0.0000 F2400
G01 X71.7319 Y282.7239 Z-0.5009 F2400
G01 X71.5017 Y282.5674 Z-0.7158 F2400
G01 X71.3966 Y282.5039 Z-0.8127 F2400
G01 X71.1862 Y282.5874 Z-0.8100 F2400
G01 X71.1170 Y282.6176 Z-0.8065 F2400
G01 X70.9174 Y282.7342 Z-0.7916 F2400
G01 X70.7362 Y282.8524 Z-0.7884 F2400
G01 X70.6771 Y282.8939 Z-0.7848 F2400
G01 X70.6206 Y282.9394 Z-0.7765 F2400
G01 X70.4484 Y283.0936 Z-0.7618 F2400
G01 X70.2956 Y283.2454 Z-0.7593 F2400
G01 X70.2034 Y283.3566 Z-0.7437 F2400
G01 X70.0726 Y283.5314 Z-0.7309 F2400
G01 X69.9917 Y283.6514 Z-0.7296 F2400
G01 X69.9519 Y283.7119 Z-0.7282 F2400
G01 X69.8823 Y283.8397 Z-0.7132 F2400
G01 X69.7919 Y284.0267 Z-0.7017 F2400
G01 X69.7057 Y284.2288 Z-0.7000 F2400
G01 X69.6813 Y284.2981 Z-0.6946 F2400
G01 X69.6585 Y284.3681 Z-0.6876 F2400
G01 X69.6058 Y284.5585 Z-0.6777 F2400
G01 X69.5372 Y284.8575 Z-0.6761 F2400
G01 X69.5238 Y284.9332 Z-0.6718 F2400
G01 X69.5040 Y285.1124 Z-0.6642 F2400
G01 X69.4746 Y285.5359 Z-0.6635 F2400
G01 X69.4743 Y285.7012 Z-0.6637 F2400
G01 X69.5035 Y286.1419 Z-0.6654 F2400
G01 X69.5233 Y286.3257 Z-0.6737 F2400
G01 X69.5348 Y286.4029 Z-0.6803 F2400
G01 X69.5502 Y286.4792 Z-0.6830 F2400
G01 X69.6016 Y286.7068 Z-0.6856 F2400
G01 X69.6574 Y286.9083 Z-0.6979 F2400
G01 X69.7030 Y287.0465 Z-0.7136 F2400
G01 X69.7275 Y287.1148 Z-0.7196 F2400
G01 X69.7852 Y287.2475 Z-0.7221 F2400
G01 X69.8879 Y287.4525 Z-0.7384 F2400
G01 X69.9577 Y287.5747 Z-0.7560 F2400
G01 X69.9937 Y287.6349 Z-0.7633 F2400
G01 X70.0754 Y287.7482 Z-0.7659 F2400
G01 X70.2288 Y287.9373 Z-0.7842 F2400
G01 X70.2757 Y287.9889 Z-0.7934 F2400
G01 X70.3238 Y288.0392 Z-0.8007 F2400
G01 X70.4801 Y288.1757 Z-0.8040 F2400
G01 X70.6835 Y288.3335 Z-0.8230 F2400
G01 X70.9941 Y288.4966 Z-0.8274 F2400
G01 X71.2256 Y288.5885 Z-0.8310 F2400
G01 X71.5141 Y288.6668 Z-0.8335 F2400
G01 X71.5862 Y288.6864 Z-0.8341 F2400
G00 Z10.0000 F480
G00 X71.6105 Y288.6930 F2100
G00 Z0.5000 F480
G01 Z-0.8343 F2400
G01 X71.6750 Y288.7058 Z-0.8320 F2400
G01 X71.7532 Y288.7148 Z-0.8295 F2400
G01 X72.2235 Y288.7525 Z-0.8308 F2400
G01 X72.3355 Y288.7562 Z-0.8290 F2400
G01 X72.4091 Y288.7524 Z-0.8286 F2400
G01 X72.4826 Y288.7482 Z-0.8287 F2400
G01 X72.6084 Y288.7372 Z-0.8251 F2400
G01 X72.7565 Y288.7200 Z-0.8166 F2400
G01 X72.8928 Y288.6945 Z-0.8107 F2400
G01 X73.0411 Y288.6596 Z-0.8034 F2400
G01 X73.1256 Y288.6830 Z-0.7576 F2400
G01 X73.1856 Y288.6214 Z-0.7922 F2400
G01 X73.2610 Y288.5982 Z-0.7855 F2400
G01 X73.3351 Y288.5718 Z-0.7823 F2400
G01 X73.4142 Y288.5426 Z-0.7794 F2400
G01 X73.6416 Y288.4467 Z-0.7598 F2400
G01 X73.7276 Y288.4064 Z-0.7556 F2400
G01 X74.0558 Y288.2216 Z-0.7357 F2400
G01 X74.1187 Y288.1796 Z-0.7317 F2400
G01 X74.3913 Y287.9917 Z-0.7186 F2400
G01 X74.4546 Y287.9428 Z-0.7146 F2400
G01 X74.7258 Y287.7259 Z-0.7018 F2400
G01 X74.7799 Y287.6773 Z-0.6984 F2400
G01 X75.0478 Y287.4317 Z-0.6853 F2400
G01 X75.1001 Y287.3812 Z-0.6846 F2400
G01 X75.1283 Y287.3529 Z-0.6839 F2400
G01 X75.3402 Y287.1348 Z-0.6752 F2400
G01 X75.3924 Y287.0795 Z-0.6741 F2400
G01 X75.5993 Y286.8568 Z-0.6722 F2400
G01 X75.6354 Y286.8174 Z-0.6715 F2400
G01 X75.9215 Y286.4912 Z-0.6677 F2400
G01 X76.2031 Y286.1612 Z-0.6699 F2400
G01 X76.8061 Y285.4196 Z-0.6785 F2400
G01 X77.0875 Y285.0801 Z-0.6800 F2400
G01 X77.3173 Y284.8086 Z-0.6788 F2400
G01 X77.3776 Y284.7385 Z-0.6792 F2400
G01 X77.7186 Y284.3542 Z-0.6808 F2400
G01 X77.7874 Y284.2802 Z-0.6807 F2400
G01 X77.9971 Y284.0589 Z-0.6834 F2400
G01 X78.0500 Y284.0040 F2400
G01 X78.1036 Y283.9498 Z-0.6826 F2400
G01 X78.1804 Y283.8737 Z-0.6825 F2400
G01 X78.3534 Y283.7059 Z-0.6851 F2400
G01 X78.4706 Y283.5960 Z-0.6840 F2400
G01 X78.5569 Y283.5176 Z-0.6846 F2400
G01 X78.7221 Y283.3722 Z-0.6892 F2400
G01 X78.8340 Y283.2773 Z-0.6894 F2400
G01 X78.9308 Y283.1981 Z-0.6918 F2400
G01 X79.0593 Y283.0966 Z-0.6977 F2400
G01 X79.1241 Y283.0466 Z-0.6997 F2400
G01 X79.1897 Y282.9976 Z-0.7005 F2400
G01 X79.3004 Y282.9182 Z-0.7044 F2400
G01 X79.4887 Y282.7892 Z-0.7157 F2400
G01 X79.5529 Y282.7486 Z-0.7167 F2400
G01 X79.6741 Y282.6757 Z-0.7218 F2400
G01 X79.8591 Y282.5706 Z-0.7346 F2400
G01 X79.9210 Y282.5362 Z-0.7382 F2400
G01 X79.9714 Y282.5100 Z-0.7399 F2400
G01 X80.0122 Y282.4902 Z-0.7424 F2400
G01 X80.0538 Y282.4715 Z-0.7463 F2400
G01 X80.0964 Y282.4539 Z-0.7517 F2400
G01 X80.1400 Y282.4374 Z-0.7585 F2400
G01 X80.1848 Y282.4221 Z-0.7669 F2400
G01 X80.2375 Y282.4059 Z-0.7784 F2400
G01 X80.2920 Y282.3912 Z-0.7921 F2400
G01 X80.3487 Y282.3781 Z-0.8082 F2400
G01 X80.4074 Y282.3677 Z-0.8257 F2400
G01 X80.4761 Y282.3592 Z-0.8475 F2400
G01 X80.5479 Y282.3531 Z-0.8728 F2400
G01 X80.6235 Y282.3498 Z-0.9021 F2400
G01 X80.7189 Y282.3398 Z-0.9341 F2400
G01 X81.6529 Y281.4042 Z0.0000 F2400
G01 X80.7781 Y282.2791 Z-0.8748 F2400
G01 X81.6529 Y281.4042 Z0.0000 F2400
G01 X80.7189 Y282.3398 Z-0.9341 F2400
G01 X80.7122 Y282.3495 Z-0.9399 F2400
G01 X80.7318 Y282.3815 Z-0.9211 F2400
G01 X80.7500 Y282.4134 Z-0.9029 F2400
G01 X80.7671 Y282.4446 Z-0.8858 F2400
G01 X80.7832 Y282.4752 Z-0.8697 F2400
G01 X80.7984 Y282.5053 Z-0.8545 F2400
G01 X80.8127 Y282.5349 Z-0.8402 F2400
G01 X80.8261 Y282.5640 Z-0.8268 F2400
G01 X80.8387 Y282.5926 Z-0.8142 F2400
G01 X80.8505 Y282.6208 Z-0.8024 F2400
G01 X80.8616 Y282.6486 Z-0.7913 F2400
G01 X80.8745 Y282.6829 Z-0.7784 F2400
G01 X80.8864 Y282.7166 Z-0.7666 F2400
G01 X80.8972 Y282.7498 Z-0.7557 F2400
G01 X80.9072 Y282.7825 Z-0.7457 F2400
G01 X80.9162 Y282.8149 Z-0.7367 F2400
G01 X80.9244 Y282.8468 Z-0.7285 F2400
G01 X80.9318 Y282.8785 Z-0.7211 F2400
G01 X80.9384 Y282.9098 Z-0.7145 F2400
G01 X80.9442 Y282.9408 Z-0.7087 F2400
G01 X80.9493 Y282.9716 Z-0.7036 F2400
G01 X80.9537 Y283.0022 Z-0.6993 F2400
G01 X80.9580 Y283.0387 Z-0.6949 F2400
G01 X80.9613 Y283.0750 Z-0.6916 F2400
G01 X80.9637 Y283.1112 Z-0.6892 F2400
G01 X80.9651 Y283.1472 Z-0.6878 F2400
G01 X80.9656 Y289.0743 Z-0.6874 F2400
G01 X80.9161 Y289.1493 Z-0.6379 F2400
G01 X80.2782 Y289.7872 Z0.0000 F2400
G01 X80.9274 Y289.1381 Z-0.6492 F2400
G01 X81.0038 F2400
G01 X81.6529 Y289.7872 Z0.0000 F2400
G01 X81.0167 Y289.1510 Z-0.6362 F2400
G00 Z10.0000 F480
G00 X85.6469 Y285.9820 F2100
G00 Z0.5000 F480
G01 Z-0.2442 F2400
G01 X85.7242 Y285.4936 Z-0.7327 F2400
G01 X85.6486 Y285.4762 Z-0.7258 F2400
G01 X85.2409 Y285.9822 Z-0.1188 F2400
G01 X85.5345 Y285.5779 Z-0.5939 F2400
G01 X85.4894 Y285.5151 Z-0.5944 F2400
G01 X85.4900 Y285.4376 Z-0.5950 F2400
G01 X85.5345 Y285.3746 Z-0.5939 F2400
G01 X85.6486 Y285.4762 Z-0.7258 F2400
G01 X85.7242 Y285.4589 Z-0.7327 F2400
G01 X85.7958 Y285.4762 Z-0.7500 F2400
G01 X91.4208 F2400
G01 X91.4958 Y285.4376 Z-0.7114 F2400
G01 X91.5680 Y285.4762 Z-0.7258 F2400
G01 X91.9758 Y284.9703 Z-0.1188 F2400
G01 X91.6822 Y285.3746 Z-0.5939 F2400
G01 X91.7272 Y285.4374 Z-0.5944 F2400
G01 X91.7266 Y285.5149 Z-0.5950 F2400
G01 X91.6822 Y285.5779 Z-0.5939 F2400
G01 X91.5680 Y285.4762 Z-0.7258 F2400
G01 X91.4924 Y285.4936 Z-0.7327 F2400
G00 Z10.0000 F480
G00 X85.6469 Y235.9820 F2100
G00 Z0.5000 F480
G01 Z-0.2442 F2400
G01 X85.7242 Y235.4936 Z-0.7327 F2400
G01 X85.6486 Y235.4762 Z-0.7258 F2400
G01 X85.2409 Y235.9822 Z-0.1188 F2400
G01 X85.5345 Y235.5779 Z-0.5939 F2400
G01 X85.4894 Y235.5151 Z-0.5944 F2400
G01 X85.4900 Y235.4376 Z-0.5950 F2400
G01 X85.5345 Y235.3746 Z-0.5939 F2400
G01 X85.6486 Y235.4762 Z-0.7258 F2400
G01 X85.7242 Y235.4589 Z-0.7327 F2400
G01 X85.7958 Y235.4762 Z-0.7500 F2400
G01 X91.4208 F2400
G01 X91.4958 Y235.4376 Z-0.7114 F2400
G01 X91.5680 Y235.4762 Z-0.7258 F2400
G01 X91.9758 Y234.9703 Z-0.1188 F2400
G01 X91.6822 Y235.3746 Z-0.5939 F2400
G01 X91.7272 Y235.4374 Z-0.5944 F2400
G01 X91.7266 Y235.5149 Z-0.5950 F2400
G01 X91.6822 Y235.5779 Z-0.5939 F2400
G01 X91.5680 Y235.4762 Z-0.7258 F2400
G01 X91.4924 Y235.4936 Z-0.7327 F2400
G01 X91.4208 Y235.4762 Z-0.7500 F2400
G01 X85.7958 F2400
G01 X85.7208 Y235.5148 Z-0.7114 F2400
G01 X85.6486 Y235.4762 Z-0.7258 F2400
G01 X85.2409 Y235.9822 Z-0.1188 F2400
G00 Z10.0000 F480
G00 Y185.9822 F2100
G00 Z0.5000 F480
G01 Z-0.1188 F2400
G01 X85.6486 Y185.4762 Z-0.7258 F2400
G01 X85.7208 Y185.5148 Z-0.7114 F2400
G01 X85.7958 Y185.4762 Z-0.7500 F2400
G01 X91.4208 F2400
G01 X91.4924 Y185.4936 Z-0.7327 F2400
G01 X91.5680 Y185.4762 Z-0.7258 F2400
G01 X91.6822 Y185.5779 Z-0.5939 F2400
G01 X91.7266 Y185.5149 Z-0.5950 F2400
G01 X91.7272 Y185.4374 Z-0.5944 F2400
G01 X91.6822 Y185.3746 Z-0.5939 F2400
G01 X91.9758 Y184.9703 Z-0.1188 F2400
G01 X91.5680 Y185.4762 Z-0.7258 F2400
G01 X91.4958 Y185.4376 Z-0.7114 F2400
G01 X91.4208 Y185.4762 Z-0.7500 F2400
G01 X85.7958 F2400
G01 X85.7242 Y185.4589 Z-0.7327 F2400
G01 X85.6486 Y185.4762 Z-0.7258 F2400
G01 X85.5345 Y185.3746 Z-0.5939 F2400
G01 X85.4900 Y185.4376 Z-0.5950 F2400
G01 X85.4894 Y185.5151 Z-0.5944 F2400
G01 X85.5345 Y185.5779 Z-0.5939 F2400
G01 X85.2409 Y185.9822 Z-0.1188 F2400
G01 X85.6486 Y185.4762 Z-0.7258 F2400
G01 X85.7242 Y185.4936 Z-0.7327 F2400
G01 X85.6469 Y185.9820 Z-0.2442 F2400
G00 Z10.0000 F480
G00 X81.5182 Y181.9184 F2100
G00 Z0.5000 F480
G01 Z-0.0382 F2400
G01 X81.4419 Y181.9948 Z-0.1146 F2400
G01 X80.9202 Y182.5164 Z-0.6362 F2400
G01 X81.5564 Y181.8802 Z0.0000 F2400
G01 X80.9073 Y182.5294 Z-0.6492 F2400
G01 X80.8309 F2400
G01 X80.1817 Y181.8802 Z0.0000 F2400
G01 X80.8194 Y182.5179 Z-0.6377 F2400
G01 X80.8691 Y182.5930 Z-0.6874 F2400
G01 X80.8690 Y185.1242 Z-0.6875 F2400
G01 X80.8680 Y185.1602 Z-0.6884 F2400
G01 X80.8657 Y185.2024 Z-0.6907 F2400
G01 X80.8621 Y185.2447 Z-0.6943 F2400
G01 X80.8572 Y185.2872 Z-0.6993 F2400
G01 X80.8508 Y185.3301 Z-0.7056 F2400
G01 X80.8431 Y185.3734 Z-0.7133 F2400
G01 X80.8324 Y185.4236 Z-0.7240 F2400
G01 X80.8197 Y185.4746 Z-0.7367 F2400
G01 X80.8048 Y185.5265 Z-0.7516 F2400
G01 X80.7852 Y185.5863 Z-0.7712 F2400
G01 X80.7624 Y185.6477 Z-0.7940 F2400
G01 X80.7360 Y185.7111 Z-0.8204 F2400
G01 X80.7019 Y185.7842 Z-0.8545 F2400
G01 X80.6622 Y185.8604 Z-0.8942 F2400
G01 X80.6353 Y185.9305 Z-0.9211 F2400
G01 X80.6535 Y185.9624 Z-0.9029 F2400
G01 X80.6706 Y185.9936 Z-0.8858 F2400
G01 X80.6867 Y186.0242 Z-0.8697 F2400
G01 X80.7019 Y186.0543 Z-0.8545 F2400
G01 X80.7162 Y186.0839 Z-0.8402 F2400
G01 X80.7296 Y186.1130 Z-0.8268 F2400
G01 X80.7422 Y186.1416 Z-0.8142 F2400
G01 X80.7540 Y186.1698 Z-0.8024 F2400
G01 X80.7651 Y186.1976 Z-0.7913 F2400
G01 X80.7780 Y186.2319 Z-0.7784 F2400
G01 X80.7899 Y186.2656 Z-0.7666 F2400
G01 X80.8007 Y186.2988 Z-0.7557 F2400
G01 X80.8107 Y186.3315 Z-0.7457 F2400
G01 X80.8197 Y186.3639 Z-0.7367 F2400
G01 X80.8279 Y186.3958 Z-0.7285 F2400
G01 X80.8353 Y186.4275 Z-0.7211 F2400
G01 X80.8419 Y186.4588 Z-0.7145 F2400
G01 X80.8477 Y186.4898 Z-0.7087 F2400
G01 X80.8528 Y186.5206 Z-0.7036 F2400
G01 X80.8572 Y186.5512 Z-0.6993 F2400
G01 X80.8615 Y186.5877 Z-0.6949 F2400
G01 X80.8648 Y186.6240 Z-0.6916 F2400
G01 X80.8672 Y186.6602 Z-0.6892 F2400
G01 X80.8686 Y186.6962 Z-0.6878 F2400
G01 X80.8691 Y189.1001 Z-0.6873 F2400
G01 X80.8207 Y189.1753 Z-0.6390 F2400
G01 X80.1817 Y189.8142 Z0.0000 F2400
G01 X80.8309 Y189.1651 Z-0.6492 F2400
G01 X80.9073 F2400
G01 X81.5564 Y189.8142 Z0.0000 F2400
G01 X80.9202 Y189.1780 Z-0.6362 F2400
G01 X81.5564 Y189.8142 Z0.0000 F2400
G01 X80.9073 Y189.1651 Z-0.6492 F2400
G01 X80.8309 F2400
G01 X80.1817 Y189.8142 Z0.0000 F2400
G01 X80.8207 Y189.1753 Z-0.6390 F2400
G01 X80.8691 Y189.1001 Z-0.6873 F2400
G01 X80.8686 Y186.6962 Z-0.6878 F2400
G01 X80.8672 Y186.6602 Z-0.6892 F2400
G01 X80.8648 Y186.6240 Z-0.6916 F2400
G01 X80.8615 Y186.5877 Z-0.6949 F2400
G01 X80.8572 Y186.5512 Z-0.6993 F2400
G01 X80.8528 Y186.5206 Z-0.7036 F2400
G01 X80.8477 Y186.4898 Z-0.7087 F2400
G01 X80.8419 Y186.4588 Z-0.7145 F2400
G01 X80.8353 Y186.4275 Z-0.7211 F2400
G01 X80.8279 Y186.3958 Z-0.7285 F2400
G01 X80.8197 Y186.3639 Z-0.7367 F2400
G01 X80.8107 Y186.3315 Z-0.7457 F2400
G01 X80.8007 Y186.2988 Z-0.7557 F2400
G01 X80.7899 Y186.2656 Z-0.7666 F2400
G01 X80.7780 Y186.2319 Z-0.7784 F2400
G01 X80.7651 Y186.1976 Z-0.7913 F2400
G01 X80.7540 Y186.1698 Z-0.8024 F2400
G01 X80.7422 Y186.1416 Z-0.8142 F2400
G01 X80.7296 Y186.1130 Z-0.8268 F2400
G01 X80.7162 Y186.0839 Z-0.8402 F2400
G01 X80.7019 Y186.0543 Z-0.8545 F2400
G01 X80.6867 Y186.0242 Z-0.8697 F2400
G01 X80.6706 Y185.9936 Z-0.8858 F2400
G01 X80.6535 Y185.9624 Z-0.9029 F2400
G01 X80.6353 Y185.9305 Z-0.9211 F2400
G01 X80.6140 Y185.9192 Z-0.9208 F2400
G01 X80.5782 Z-0.9045 F2400
G01 X80.5437 Z-0.8899 F2400
G01 X80.5102 Z-0.8768 F2400
G01 X80.4696 Z-0.8625 F2400
G01 X80.4303 Z-0.8501 F2400
G01 X80.3920 Z-0.8397 F2400
G01 X80.3545 Z-0.8312 F2400
G01 X80.3178 Z-0.8243 F2400
G01 X80.2743 Z-0.8183 F2400
G01 X80.2314 Z-0.8145 F2400
G01 X70.4201 Y185.9191 Z-0.8131 F2400
G01 X70.3775 Y185.9180 Z-0.8143 F2400
G01 X70.3277 Y185.9152 Z-0.8170 F2400
G01 X70.2777 Y185.9110 Z-0.8213 F2400
G01 X70.2273 Y185.9051 Z-0.8271 F2400
G01 X70.1766 Y185.8976 Z-0.8346 F2400
G01 X70.1253 Y185.8884 Z-0.8438 F2400
G01 X70.0660 Y185.8758 Z-0.8564 F2400
G01 X70.0057 Y185.8608 Z-0.8715 F2400
G01 X69.9442 Y185.8431 Z-0.8891 F2400
G01 X69.8815 Y185.8227 Z-0.9095 F2400
G01 X69.8220 Y185.7939 Z-0.9257 F2400
G01 X69.8081 Y185.7619 Z-0.9118 F2400
G01 X69.7950 Y185.7303 Z-0.8987 F2400
G01 X69.7827 Y185.6991 Z-0.8864 F2400
G01 X69.7685 Y185.6607 Z-0.8722 F2400
G01 X69.7554 Y185.6230 Z-0.8591 F2400
G01 X69.7434 Y185.5858 Z-0.8471 F2400
G01 X69.7325 Y185.5490 Z-0.8361 F2400
G01 X69.7225 Y185.5128 Z-0.8262 F2400
G01 X69.7192 Y185.4820 Z-0.8144 F2400
G01 X69.7215 Y185.4494 Z-0.7979 F2400
G01 X69.7242 Y185.4179 Z-0.7823 F2400
G01 X69.7274 Y185.3873 Z-0.7676 F2400
G01 X69.7311 Y185.3576 Z-0.7537 F2400
G01 X69.7352 Y185.3287 Z-0.7407 F2400
G01 X69.7396 Y185.3006 Z-0.7285 F2400
G01 X69.7444 Y185.2733 Z-0.7170 F2400
G01 X69.7496 Y185.2468 Z-0.7062 F2400
G01 X69.7551 Y185.2208 Z-0.6961 F2400
G01 X69.7610 Y185.1956 Z-0.6866 F2400
G01 X69.7687 Y185.1648 Z-0.6755 F2400
G01 X69.7769 Y185.1350 Z-0.6654 F2400
G01 X69.7856 Y185.1060 Z-0.6561 F2400
G01 X69.7947 Y185.0777 Z-0.6476 F2400
G01 X69.8043 Y185.0502 Z-0.6399 F2400
G01 X69.8143 Y185.0234 Z-0.6329 F2400
G01 X69.8247 Y184.9972 Z-0.6266 F2400
G01 X69.8355 Y184.9716 Z-0.6210 F2400
G01 X69.8467 Y184.9465 Z-0.6161 F2400
G01 X69.8583 Y184.9220 Z-0.6118 F2400
G01 X69.8728 Y184.8933 Z-0.6074 F2400
G01 X69.8879 Y184.8652 Z-0.6040 F2400
G01 X69.9037 Y184.8377 Z-0.6014 F2400
G01 X69.9200 Y184.8108 Z-0.5996 F2400
G01 X69.9370 Y184.7844 Z-0.5986 F2400
G01 X71.2619 Y182.8929 Z-0.6185 F2400
G01 X71.3237 Y182.8452 Z-0.5959 F2400
G01 X72.4813 Y182.2492 Z0.0000 F2400
G01 X71.2976 Y182.8586 Z-0.6094 F2400
G01 X71.2212 Y182.7575 Z-0.5082 F2400
G01 X70.9539 Y182.2492 Z0.0000 F2400
G01 X71.1430 Y182.6088 Z-0.3596 F2400
G01 X71.2707 Y182.8803 Z-0.6186 F2400
G01 X69.9683 Y184.7390 Z-0.5987 F2400
G01 X69.9258 Y184.8016 Z-0.5991 F2400
G01 X69.8871 Y184.8667 Z-0.6041 F2400
G01 X69.8523 Y184.9346 Z-0.6139 F2400
G01 X69.8214 Y185.0052 Z-0.6285 F2400
G01 X69.7945 Y185.0785 Z-0.6478 F2400
G01 X69.7715 Y185.1545 Z-0.6720 F2400
G01 X69.7524 Y185.2332 Z-0.7009 F2400
G01 X69.7373 Y185.3146 Z-0.7346 F2400
G01 X69.7262 Y185.3988 Z-0.7730 F2400
G01 X69.7197 Y185.5022 Z-0.8234 F2400
G01 X69.7406 Y185.5767 Z-0.8443 F2400
G01 X69.7651 Y185.6513 Z-0.8688 F2400
G01 X69.7932 Y185.7258 Z-0.8969 F2400
G01 X69.8249 Y185.8004 Z-0.9286 F2400
G01 X69.7536 Y185.8749 Z-0.8573 F2400
G01 X68.8963 Y186.7322 Z0.0000 F2400
G01 X69.6863 Y185.9423 Z-0.7900 F2400
G00 Z10.0000 F480
G00 X51.5827 Y195.3421 F2100
G00 Z0.5000 F480
G01 Z-0.3132 F2400
G01 X51.8959 Y196.2042 Z0.0000 F2400
G01 X51.5765 Y195.3250 Z-0.3194 F2400
G01 X51.2914 Y194.5084 Z-0.6046 F2400
G01 X51.2668 Y194.4751 Z-0.6056 F2400
G01 X50.6929 Y194.6696 Z-0.0317 F2400
G01 X51.2157 Y194.4926 Z-0.5545 F2400
G01 X51.2786 Y194.4176 Z-0.6173 F2400
G01 Y159.6018 F2400
G01 X50.6612 Y159.4892 Z0.0000 F2400
G01 X50.6819 Y159.5035 Z-0.0206 F2400
G01 X50.7067 Y159.5120 Z-0.0454 F2400
G01 X50.7327 Y159.5184 Z-0.0714 F2400
G01 X50.7574 Y159.5235 Z-0.0962 F2400
G01 X50.7841 Y159.5282 Z-0.1228 F2400
G01 X50.8144 Y159.5330 Z-0.1531 F2400
G01 X50.8712 Y159.5409 Z-0.2100 F2400
G01 X50.9434 Y159.5494 Z-0.2822 F2400
G01 X51.1013 Y159.5647 Z-0.4400 F2400
G01 X51.2696 Y159.5783 Z-0.6084 F2400
G01 X51.2802 Y159.5527 Z-0.6157 F2400
G01 X51.2815 Y159.5205 Z-0.6144 F2400
G01 X51.2819 Y159.4884 Z-0.6140 F2400
G01 X51.2786 Y159.3195 Z-0.6167 F2400
G01 X51.2776 Y159.2851 Z-0.6164 F2400
G01 X51.2752 Y159.1684 Z-0.6140 F2400
G01 X51.2734 Y159.1339 Z-0.6122 F2400
G01 X51.2709 Y159.1019 Z-0.6108 F2400
