(Project lr4_strut_bot)
(Created with Estlcam 12.102)
(Machining time about 00:39:52 hours)

(Required tools:)
(1/8" Upcut Slow)
(1/8" Upcut Soft wood)

G21
G90
G94
M03 S10000
G00 Z10.0000 F480

(No. 1 Helical drill machining: Helical drill 31)
G00 X15.3197 Y11.8362 Z10.0000 F2100
G00 Z0.5000 F480
G02 X13.7297 Y10.9182 Z-0.1667 I-1.0600 J0.0000 F90 S10000
G02 Y12.7541 Z-0.8333 I0.5300 J0.9180 F90
G02 X15.3197 Y11.8362 Z-1.5000 I0.5300 J-0.9180 F90
G02 X13.7297 Y10.9182 Z-2.1667 I-1.0600 J0.0000 F90
G02 Y12.7541 Z-2.8333 I0.5300 J0.9180 F90
G02 X15.3197 Y11.8362 Z-3.5000 I0.5300 J-0.9180 F90
G02 X13.7297 Y10.9182 Z-4.1667 I-1.0600 J0.0000 F90
G02 Y12.7541 Z-4.8333 I0.5300 J0.9180 F90
G02 X15.3197 Y11.8362 Z-5.5000 I0.5300 J-0.9180 F90
G02 X14.2597 Y10.7762 Z-6.0000 I-1.0600 J0.0000 F90
G02 X13.1997 Y11.8362 Z-6.5000 I0.0000 J1.0600 F90
G02 X14.7897 Y12.7541 I1.0600 J0.0000 F90
G02 Y10.9182 I-0.5300 J-0.9180 F90
G02 X13.1997 Y11.8362 I-0.5300 J0.9180 F90
G02 X13.7297 Y12.3662 Z-6.3675 I0.5300 J0.0000 F600
G00 Z10.0000 F480

(No. 2 Helical drill machining: Helical drill 32)
G00 X71.3216 Y11.8354 Z10.0000 F2100
G00 Z0.5000 F480
G02 X69.7299 Y10.9164 Z-0.1667 I-1.0611 J0.0000 F90
G02 Y12.7543 Z-0.8333 I0.5306 J0.9189 F90
G02 X71.3216 Y11.8354 Z-1.5000 I0.5306 J-0.9189 F90
G02 X69.7299 Y10.9164 Z-2.1667 I-1.0611 J0.0000 F90
G02 Y12.7543 Z-2.8333 I0.5306 J0.9189 F90
G02 X71.3216 Y11.8354 Z-3.5000 I0.5306 J-0.9189 F90
G02 X69.7299 Y10.9164 Z-4.1667 I-1.0611 J0.0000 F90
G02 Y12.7543 Z-4.8333 I0.5306 J0.9189 F90
G02 X71.3216 Y11.8354 Z-5.5000 I0.5306 J-0.9189 F90
G02 X70.2605 Y10.7742 Z-6.0000 I-1.0611 J0.0000 F90
G02 X69.1994 Y11.8354 Z-6.5000 I0.0000 J1.0611 F90
G02 X70.7910 Y12.7543 I1.0611 J0.0000 F90
G02 Y10.9164 I-0.5306 J-0.9189 F90
G02 X69.1994 Y11.8354 I-0.5306 J0.9189 F90
G02 X69.7299 Y12.3659 Z-6.3674 I0.5306 J0.0000 F600
G00 Z10.0000 F480

(No. 3 Helical drill machining: Helical drill 29)
G00 X71.3197 Y173.8660 Z10.0000 F2100
G00 Z0.5000 F480
G02 X69.7298 Y172.9481 Z-0.1667 I-1.0599 J0.0000 F90
G02 Y174.7840 Z-0.8333 I0.5300 J0.9179 F90
G02 X71.3197 Y173.8660 Z-1.5000 I0.5300 J-0.9179 F90
G02 X69.7298 Y172.9481 Z-2.1667 I-1.0599 J0.0000 F90
G02 Y174.7840 Z-2.8333 I0.5300 J0.9179 F90
G02 X71.3197 Y173.8660 Z-3.5000 I0.5300 J-0.9179 F90
G02 X69.7298 Y172.9481 Z-4.1667 I-1.0599 J0.0000 F90
G02 Y174.7840 Z-4.8333 I0.5300 J0.9179 F90
G02 X71.3197 Y173.8660 Z-5.5000 I0.5300 J-0.9179 F90
G02 X70.2597 Y172.8061 Z-6.0000 I-1.0599 J0.0000 F90
G02 X69.1998 Y173.8660 Z-6.5000 I0.0000 J1.0599 F90
G02 X70.7897 Y174.7840 I1.0599 J0.0000 F90
G02 Y172.9481 I-0.5300 J-0.9179 F90
G02 X69.1998 Y173.8660 I-0.5300 J0.9179 F90
G02 X69.7298 Y174.3960 Z-6.3675 I0.5300 J0.0000 F600
G00 Z10.0000 F480

(No. 4 Helical drill machining: Helical drill 28)
G00 X15.3196 Y173.8661 Z10.0000 F2100
G00 Z0.5000 F480
G02 X13.7297 Y172.9481 Z-0.1667 I-1.0600 J0.0000 F90
G02 Y174.7841 Z-0.8333 I0.5300 J0.9180 F90
G02 X15.3196 Y173.8661 Z-1.5000 I0.5300 J-0.9180 F90
G02 X13.7297 Y172.9481 Z-2.1667 I-1.0600 J0.0000 F90
G02 Y174.7841 Z-2.8333 I0.5300 J0.9180 F90
G02 X15.3196 Y173.8661 Z-3.5000 I0.5300 J-0.9180 F90
G02 X13.7297 Y172.9481 Z-4.1667 I-1.0600 J0.0000 F90
G02 Y174.7841 Z-4.8333 I0.5300 J0.9180 F90
G02 X15.3196 Y173.8661 Z-5.5000 I0.5300 J-0.9180 F90
G02 X14.2596 Y172.8061 Z-6.0000 I-1.0600 J0.0000 F90
G02 X13.1997 Y173.8661 Z-6.5000 I0.0000 J1.0600 F90
G02 X14.7896 Y174.7841 I1.0600 J0.0000 F90
G02 Y172.9481 I-0.5300 J-0.9180 F90
G02 X13.1997 Y173.8661 I-0.5300 J0.9180 F90
G02 X13.7297 Y174.3961 Z-6.3675 I0.5300 J0.0000 F600
G00 Z10.0000 F480

(No. 5 Helical drill machining: Helical drill 26)
G00 X15.3192 Y335.8933 Z10.0000 F2100
G00 Z0.5000 F480
G02 X13.7403 Y334.9817 Z-0.1667 I-1.0526 J0.0000 F90
G02 Y336.8049 Z-0.8333 I0.5263 J0.9116 F90
G02 X15.3192 Y335.8933 Z-1.5000 I0.5263 J-0.9116 F90
G02 X13.7403 Y334.9817 Z-2.1667 I-1.0526 J0.0000 F90
G02 Y336.8049 Z-2.8333 I0.5263 J0.9116 F90
G02 X15.3192 Y335.8933 Z-3.5000 I0.5263 J-0.9116 F90
G02 X13.7403 Y334.9817 Z-4.1667 I-1.0526 J0.0000 F90
G02 Y336.8049 Z-4.8333 I0.5263 J0.9116 F90
G02 X15.3192 Y335.8933 Z-5.5000 I0.5263 J-0.9116 F90
G02 X14.2666 Y334.8407 Z-6.0000 I-1.0526 J0.0000 F90
G02 X13.2140 Y335.8933 Z-6.5000 I0.0000 J1.0526 F90
G02 X14.7929 Y336.8049 I1.0526 J0.0000 F90
G02 Y334.9817 I-0.5263 J-0.9116 F90
G02 X13.2140 Y335.8933 I-0.5263 J0.9116 F90
G02 X13.7403 Y336.4196 Z-6.3684 I0.5263 J0.0000 F600
G00 Z10.0000 F480

(No. 6 Helical drill machining: Helical drill 27)
G00 X71.3197 Y335.8961 Z10.0000 F2100
G00 Z0.5000 F480
G02 X69.7297 Y334.9781 Z-0.1667 I-1.0600 J0.0000 F90
G02 Y336.8141 Z-0.8333 I0.5300 J0.9180 F90
G02 X71.3197 Y335.8961 Z-1.5000 I0.5300 J-0.9180 F90
G02 X69.7297 Y334.9781 Z-2.1667 I-1.0600 J0.0000 F90
G02 Y336.8141 Z-2.8333 I0.5300 J0.9180 F90
G02 X71.3197 Y335.8961 Z-3.5000 I0.5300 J-0.9180 F90
G02 X69.7297 Y334.9781 Z-4.1667 I-1.0600 J0.0000 F90
G02 Y336.8141 Z-4.8333 I0.5300 J0.9180 F90
G02 X71.3197 Y335.8961 Z-5.5000 I0.5300 J-0.9180 F90
G02 X70.2597 Y334.8361 Z-6.0000 I-1.0600 J0.0000 F90
G02 X69.1997 Y335.8961 Z-6.5000 I0.0000 J1.0600 F90
G02 X70.7897 Y336.8141 I1.0600 J0.0000 F90
G02 Y334.9781 I-0.5300 J-0.9180 F90
G02 X69.1997 Y335.8961 I-0.5300 J0.9180 F90
G02 X69.7297 Y336.4261 Z-6.3675 I0.5300 J0.0000 F600
G00 Z10.0000 F480

(No. 7 Helical drill machining: Helical drill 25)
G00 X71.3197 Y497.9262 Z10.0000 F2100
G00 Z0.5000 F480
G02 X69.7298 Y497.0082 Z-0.1667 I-1.0600 J0.0000 F90
G02 Y498.8441 Z-0.8333 I0.5300 J0.9180 F90
G02 X71.3197 Y497.9262 Z-1.5000 I0.5300 J-0.9180 F90
G02 X69.7298 Y497.0082 Z-2.1667 I-1.0600 J0.0000 F90
G02 Y498.8441 Z-2.8333 I0.5300 J0.9180 F90
G02 X71.3197 Y497.9262 Z-3.5000 I0.5300 J-0.9180 F90
G02 X69.7298 Y497.0082 Z-4.1667 I-1.0600 J0.0000 F90
G02 Y498.8441 Z-4.8333 I0.5300 J0.9180 F90
G02 X71.3197 Y497.9262 Z-5.5000 I0.5300 J-0.9180 F90
G02 X70.2597 Y496.8662 Z-6.0000 I-1.0600 J0.0000 F90
G02 X69.1998 Y497.9262 Z-6.5000 I0.0000 J1.0600 F90
G02 X70.7897 Y498.8441 I1.0600 J0.0000 F90
G02 Y497.0082 I-0.5300 J-0.9180 F90
G02 X69.1998 Y497.9262 I-0.5300 J0.9180 F90
G02 X69.7298 Y498.4562 Z-6.3675 I0.5300 J0.0000 F600
G00 Z10.0000 F480

(No. 8 Helical drill machining: Helical drill 24)
G00 X15.3196 Y497.9261 Z10.0000 F2100
G00 Z0.5000 F480
G02 X13.7296 Y497.0081 Z-0.1667 I-1.0600 J0.0000 F90
G02 Y498.8441 Z-0.8333 I0.5300 J0.9180 F90
G02 X15.3196 Y497.9261 Z-1.5000 I0.5300 J-0.9180 F90
G02 X13.7296 Y497.0081 Z-2.1667 I-1.0600 J0.0000 F90
G02 Y498.8441 Z-2.8333 I0.5300 J0.9180 F90
G02 X15.3196 Y497.9261 Z-3.5000 I0.5300 J-0.9180 F90
G02 X13.7296 Y497.0081 Z-4.1667 I-1.0600 J0.0000 F90
G02 Y498.8441 Z-4.8333 I0.5300 J0.9180 F90
G02 X15.3196 Y497.9261 Z-5.5000 I0.5300 J-0.9180 F90
G02 X14.2596 Y496.8661 Z-6.0000 I-1.0600 J0.0000 F90
G02 X13.1996 Y497.9261 Z-6.5000 I0.0000 J1.0600 F90
G02 X14.7896 Y498.8441 I1.0600 J0.0000 F90
G02 Y497.0081 I-0.5300 J-0.9180 F90
G02 X13.1996 Y497.9261 I-0.5300 J0.9180 F90
G02 X13.7296 Y498.4561 Z-6.3675 I0.5300 J0.0000 F600
G00 Z10.0000 F480

(No. 9 Helical drill machining: Helical drill 22)
G00 X15.2935 Y659.9627 Z10.0000 F2100
G00 Z0.5000 F480
G02 X13.7243 Y659.0568 Z-0.1667 I-1.0461 J0.0000 F90
G02 Y660.8687 Z-0.8333 I0.5230 J0.9059 F90
G02 X15.2935 Y659.9627 Z-1.5000 I0.5230 J-0.9059 F90
G02 X13.7243 Y659.0568 Z-2.1667 I-1.0461 J0.0000 F90
G02 Y660.8687 Z-2.8333 I0.5230 J0.9059 F90
G02 X15.2935 Y659.9627 Z-3.5000 I0.5230 J-0.9059 F90
G02 X13.7243 Y659.0568 Z-4.1667 I-1.0461 J0.0000 F90
G02 Y660.8687 Z-4.8333 I0.5230 J0.9059 F90
G02 X15.2935 Y659.9627 Z-5.5000 I0.5230 J-0.9059 F90
G02 X14.2474 Y658.9167 Z-6.0000 I-1.0461 J0.0000 F90
G02 X13.2013 Y659.9627 Z-6.5000 I0.0000 J1.0461 F90
G02 X14.7704 Y660.8687 I1.0461 J0.0000 F90
G02 Y659.0568 I-0.5230 J-0.9059 F90
G02 X13.2013 Y659.9627 I-0.5230 J0.9059 F90
G02 X13.7243 Y660.4858 Z-6.3692 I0.5230 J0.0000 F600
G00 Z10.0000 F480

(No. 10 Helical drill machining: Helical drill 23)
G00 X71.3197 Y659.9562 Z10.0000 F2100
G00 Z0.5000 F480
G02 X69.7298 Y659.0382 Z-0.1667 I-1.0600 J0.0000 F90
G02 Y660.8741 Z-0.8333 I0.5300 J0.9180 F90
G02 X71.3197 Y659.9562 Z-1.5000 I0.5300 J-0.9180 F90
G02 X69.7298 Y659.0382 Z-2.1667 I-1.0600 J0.0000 F90
G02 Y660.8741 Z-2.8333 I0.5300 J0.9180 F90
G02 X71.3197 Y659.9562 Z-3.5000 I0.5300 J-0.9180 F90
G02 X69.7298 Y659.0382 Z-4.1667 I-1.0600 J0.0000 F90
G02 Y660.8741 Z-4.8333 I0.5300 J0.9180 F90
G02 X71.3197 Y659.9562 Z-5.5000 I0.5300 J-0.9180 F90
G02 X70.2597 Y658.8962 Z-6.0000 I-1.0600 J0.0000 F90
G02 X69.1998 Y659.9562 Z-6.5000 I0.0000 J1.0600 F90
G02 X70.7897 Y660.8741 I1.0600 J0.0000 F90
G02 Y659.0382 I-0.5300 J-0.9180 F90
G02 X69.1998 Y659.9562 I-0.5300 J0.9180 F90
G02 X69.7298 Y660.4862 Z-6.3675 I0.5300 J0.0000 F600
G00 Z10.0000 F480

(No. 11 Helical drill machining: Helical drill 20)
G00 X71.3203 Y821.9876 Z10.0000 F2100
G00 Z0.5000 F480
G02 X69.7275 Y821.0680 Z-0.1667 I-1.0619 J0.0000 F90
G02 Y822.9072 Z-0.8333 I0.5309 J0.9196 F90
G02 X71.3203 Y821.9876 Z-1.5000 I0.5309 J-0.9196 F90
G02 X69.7275 Y821.0680 Z-2.1667 I-1.0619 J0.0000 F90
G02 Y822.9072 Z-2.8333 I0.5309 J0.9196 F90
G02 X71.3203 Y821.9876 Z-3.5000 I0.5309 J-0.9196 F90
G02 X69.7275 Y821.0680 Z-4.1667 I-1.0619 J0.0000 F90
G02 Y822.9072 Z-4.8333 I0.5309 J0.9196 F90
G02 X71.3203 Y821.9876 Z-5.5000 I0.5309 J-0.9196 F90
G02 X70.2585 Y820.9257 Z-6.0000 I-1.0619 J0.0000 F90
G02 X69.1966 Y821.9876 Z-6.5000 I0.0000 J1.0619 F90
G02 X70.7894 Y822.9072 I1.0619 J0.0000 F90
G02 Y821.0680 I-0.5309 J-0.9196 F90
G02 X69.1966 Y821.9876 I-0.5309 J0.9196 F90
G02 X69.7275 Y822.5185 Z-6.3673 I0.5309 J0.0000 F600
G00 Z10.0000 F480

(No. 12 Helical drill machining: Helical drill 19)
G00 X15.3198 Y821.9861 Z10.0000 F2100
G00 Z0.5000 F480
G02 X13.7299 Y821.0681 Z-0.1667 I-1.0599 J0.0000 F90
G02 Y822.9040 Z-0.8333 I0.5300 J0.9179 F90
G02 X15.3198 Y821.9861 Z-1.5000 I0.5300 J-0.9179 F90
G02 X13.7299 Y821.0681 Z-2.1667 I-1.0599 J0.0000 F90
G02 Y822.9040 Z-2.8333 I0.5300 J0.9179 F90
G02 X15.3198 Y821.9861 Z-3.5000 I0.5300 J-0.9179 F90
G02 X13.7299 Y821.0681 Z-4.1667 I-1.0599 J0.0000 F90
G02 Y822.9040 Z-4.8333 I0.5300 J0.9179 F90
G02 X15.3198 Y821.9861 Z-5.5000 I0.5300 J-0.9179 F90
G02 X14.2599 Y820.9261 Z-6.0000 I-1.0599 J0.0000 F90
G02 X13.1999 Y821.9861 Z-6.5000 I0.0000 J1.0599 F90
G02 X14.7898 Y822.9040 I1.0599 J0.0000 F90
G02 Y821.0681 I-0.5300 J-0.9179 F90
G02 X13.1999 Y821.9861 I-0.5300 J0.9179 F90
G02 X13.7299 Y822.5160 Z-6.3675 I0.5300 J0.0000 F600
G00 Z10.0000 F480

(No. 13 Part machining: Part 2)
M05
;M06 T2 (1/8" Upcut Soft wood)
M00 (Change tool: 1/8" Upcut Soft wood)
M03 S10000
G00 X45.8497 Y1.4961 Z10.0000 F2100
G00 Z0.5000 F480
G01 Z0.0000 F90
G01 X46.8497 Z-1.0000 F90
G01 X45.8497 Z-2.0000 F90
G01 X76.0097 F900
G03 X77.5997 Y3.0861 I0.0000 J1.5900 F900
G01 Y18.6248 F900
G03 X77.1340 Y19.7491 I-1.5900 J0.0000 F900
G02 X77.3423 Y19.9662 I0.1132 J0.0999 F900
G03 X78.4710 Y19.4961 I1.1287 J1.1200 F900
G01 X81.5097 F900
G03 X83.0997 Y21.0861 I0.0000 J1.5900 F900
G01 Y89.2611 F900
G01 Y96.4411 F900
G01 Y164.6161 F900
G03 X81.5097 Y166.2061 I-1.5900 J0.0000 F900
G01 X78.4710 F900
G03 X77.3449 Y165.7386 I0.0000 J-1.5900 F900
G02 X77.1287 Y165.9476 I-0.0981 J0.1149 F900
G03 X77.5997 Y167.0771 I-1.1190 J1.1296 F900
G01 Y180.6551 F900
G03 X77.1312 Y181.7822 I-1.5900 J0.0000 F900
G02 X77.3415 Y181.9971 I0.1162 J0.0966 F900
G03 X78.4710 Y181.5261 I1.1295 J1.1191 F900
G01 X81.5097 F900
G03 X83.0997 Y183.1161 I0.0000 J1.5900 F900
G01 Y251.2911 F900
G01 Y258.4711 F900
G01 Y326.6461 F900
G03 X81.5097 Y328.2361 I-1.5900 J0.0000 F900
G01 X78.4710 F900
G03 X77.3449 Y327.7686 I0.0000 J-1.5900 F900
G02 X77.1287 Y327.9776 I-0.0981 J0.1149 F900
G03 X77.5997 Y329.1071 I-1.1190 J1.1296 F900
G01 Y342.6851 F900
G03 X77.1312 Y343.8122 I-1.5900 J0.0000 F900
G02 X77.3415 Y344.0271 I0.1162 J0.0966 F900
G03 X78.4710 Y343.5561 I1.1295 J1.1191 F900
G01 X81.5097 F900
G03 X83.0997 Y345.1461 I0.0000 J1.5900 F900
G01 Y413.3211 F900
G01 Y420.5011 F900
G01 Y488.6761 F900
G03 X81.5097 Y490.2661 I-1.5900 J0.0000 F900
G01 X78.4710 F900
G03 X77.3449 Y489.7986 I0.0000 J-1.5900 F900
G02 X77.1287 Y490.0076 I-0.0981 J0.1149 F900
G03 X77.5997 Y491.1371 I-1.1190 J1.1296 F900
G01 Y504.7151 F900
G03 X77.1312 Y505.8422 I-1.5900 J0.0000 F900
G02 X77.3415 Y506.0571 I0.1162 J0.0966 F900
G03 X78.4710 Y505.5861 I1.1295 J1.1191 F900
G01 X81.5097 F900
G03 X83.0997 Y507.1761 I0.0000 J1.5900 F900
G01 Y575.3511 F900
G01 Y582.5311 F900
G01 Y650.7061 F900
G03 X81.5097 Y652.2961 I-1.5900 J0.0000 F900
G01 X78.4710 F900
G03 X77.3449 Y651.8286 I0.0000 J-1.5900 F900
G02 X77.1287 Y652.0376 I-0.0981 J0.1149 F900
G03 X77.5997 Y653.1671 I-1.1190 J1.1296 F900
G01 Y666.7451 F900
G03 X77.1312 Y667.8722 I-1.5900 J0.0000 F900
G02 X77.3415 Y668.0871 I0.1162 J0.0966 F900
G03 X78.4710 Y667.6161 I1.1295 J1.1191 F900
G01 X81.5097 F900
G03 X83.0997 Y669.2061 I0.0000 J1.5900 F900
G01 Y737.3811 F900
G01 Y744.5611 F900
G01 Y812.7361 F900
G03 X81.5097 Y814.3261 I-1.5900 J0.0000 F900
G01 X78.4710 F900
G03 X77.3449 Y813.8586 I0.0000 J-1.5900 F900
G02 X77.1287 Y814.0676 I-0.0981 J0.1149 F900
G03 X77.5997 Y815.1971 I-1.1190 J1.1296 F900
G01 Y830.7361 F900
G03 X76.0097 Y832.3261 I-1.5900 J0.0000 F900
G01 X45.8497 F900
G01 X38.6697 F900
G01 X8.5097 F900
G03 X6.9197 Y830.7361 I0.0000 J-1.5900 F900
G01 Y815.1971 F900
G03 X7.3882 Y814.0701 I1.5900 J0.0000 F900
G02 X7.1779 Y813.8552 I-0.1162 J-0.0966 F900
G03 X6.0484 Y814.3261 I-1.1295 J-1.1191 F900
G01 X3.0097 F900
G03 X1.4197 Y812.7361 I0.0000 J-1.5900 F900
G01 Y744.5611 F900
G01 Y737.3811 F900
G01 Y669.2061 F900
G03 X3.0097 Y667.6161 I1.5900 J0.0000 F900
G01 X6.0484 F900
G03 X7.1745 Y668.0837 I0.0000 J1.5900 F900
G02 X7.3907 Y667.8747 I0.0981 J-0.1149 F900
G03 X6.9197 Y666.7451 I1.1190 J-1.1296 F900
G01 Y653.1671 F900
G03 X7.3882 Y652.0401 I1.5900 J0.0000 F900
G02 X7.1779 Y651.8252 I-0.1162 J-0.0966 F900
G03 X6.0484 Y652.2961 I-1.1295 J-1.1191 F900
G01 X3.0097 F900
G03 X1.4197 Y650.7061 I0.0000 J-1.5900 F900
G01 Y582.5311 F900
G01 Y575.3511 F900
G01 Y507.1761 F900
G03 X3.0097 Y505.5861 I1.5900 J0.0000 F900
G01 X6.0484 F900
G03 X7.1745 Y506.0537 I0.0000 J1.5900 F900
G02 X7.3907 Y505.8447 I0.0981 J-0.1149 F900
G03 X6.9197 Y504.7151 I1.1190 J-1.1296 F900
G01 Y491.1371 F900
G03 X7.3882 Y490.0101 I1.5900 J0.0000 F900
G02 X7.1779 Y489.7952 I-0.1162 J-0.0966 F900
G03 X6.0484 Y490.2661 I-1.1295 J-1.1191 F900
G01 X3.0097 F900
G03 X1.4197 Y488.6761 I0.0000 J-1.5900 F900
G01 Y420.5011 F900
G01 Y413.3211 F900
G01 Y345.1461 F900
G03 X3.0097 Y343.5561 I1.5900 J0.0000 F900
G01 X6.0484 F900
G03 X7.1745 Y344.0237 I0.0000 J1.5900 F900
G02 X7.3907 Y343.8147 I0.0981 J-0.1149 F900
G03 X6.9197 Y342.6851 I1.1190 J-1.1296 F900
G01 Y329.1071 F900
G03 X7.3882 Y327.9801 I1.5900 J0.0000 F900
G02 X7.1779 Y327.7652 I-0.1162 J-0.0966 F900
G03 X6.0484 Y328.2361 I-1.1295 J-1.1191 F900
G01 X3.0097 F900
G03 X1.4197 Y326.6461 I0.0000 J-1.5900 F900
G01 Y258.4711 F900
G01 Y251.2911 F900
G01 Y183.1161 F900
G03 X3.0097 Y181.5261 I1.5900 J0.0000 F900
G01 X6.0484 F900
G03 X7.1745 Y181.9937 I0.0000 J1.5900 F900
G02 X7.3907 Y181.7847 I0.0981 J-0.1149 F900
G03 X6.9197 Y180.6551 I1.1190 J-1.1296 F900
G01 Y167.0771 F900
G03 X7.3882 Y165.9501 I1.5900 J0.0000 F900
G02 X7.1779 Y165.7352 I-0.1162 J-0.0966 F900
G03 X6.0484 Y166.2061 I-1.1295 J-1.1191 F900
G01 X3.0097 F900
G03 X1.4197 Y164.6161 I0.0000 J-1.5900 F900
G01 Y96.4411 F900
G01 Y89.2611 F900
G01 Y21.0861 F900
G03 X3.0097 Y19.4961 I1.5900 J0.0000 F900
G01 X6.0484 F900
G03 X7.1727 Y19.9618 I0.0000 J1.5900 F900
G02 X7.3898 Y19.7535 I0.0999 J-0.1132 F900
G03 X6.9197 Y18.6248 I1.1200 J-1.1287 F900
G01 Y3.0861 F900
G03 X8.5097 Y1.4961 I1.5900 J0.0000 F900
G01 X38.6697 F900
G01 X45.8497 F900
G01 X46.8497 Z-3.0000 F90
G01 X45.8497 Z-4.0000 F90
G01 X76.0097 F900
G03 X77.5997 Y3.0861 I0.0000 J1.5900 F900
G01 Y18.6248 F900
G03 X77.1340 Y19.7491 I-1.5900 J0.0000 F900
G02 X77.3423 Y19.9662 I0.1132 J0.0999 F900
G03 X78.4710 Y19.4961 I1.1287 J1.1200 F900
G01 X81.5097 F900
G03 X83.0997 Y21.0861 I0.0000 J1.5900 F900
G01 Y89.2611 F900
G00 Z-3.0000 F480
G01 Y96.4411 F900
G01 Y96.9411 Z-3.5000 F90
G01 Y96.4411 Z-4.0000 F90
G01 Y164.6161 F900
G03 X81.5097 Y166.2061 I-1.5900 J0.0000 F900
G01 X78.4710 F900
G03 X77.3449 Y165.7386 I0.0000 J-1.5900 F900
G02 X77.1287 Y165.9476 I-0.0981 J0.1149 F900
G03 X77.5997 Y167.0771 I-1.1190 J1.1296 F900
G01 Y180.6551 F900
G03 X77.1312 Y181.7822 I-1.5900 J0.0000 F900
G02 X77.3415 Y181.9971 I0.1162 J0.0966 F900
G03 X78.4710 Y181.5261 I1.1295 J1.1191 F900
G01 X81.5097 F900
G03 X83.0997 Y183.1161 I0.0000 J1.5900 F900
G01 Y251.2911 F900
G00 Z-3.0000 F480
G01 Y258.4711 F900
G01 Y258.9711 Z-3.5000 F90
G01 Y258.4711 Z-4.0000 F90
G01 Y326.6461 F900
G03 X81.5097 Y328.2361 I-1.5900 J0.0000 F900
G01 X78.4710 F900
G03 X77.3449 Y327.7686 I0.0000 J-1.5900 F900
G02 X77.1287 Y327.9776 I-0.0981 J0.1149 F900
G03 X77.5997 Y329.1071 I-1.1190 J1.1296 F900
G01 Y342.6851 F900
G03 X77.1312 Y343.8122 I-1.5900 J0.0000 F900
G02 X77.3415 Y344.0271 I0.1162 J0.0966 F900
G03 X78.4710 Y343.5561 I1.1295 J1.1191 F900
G01 X81.5097 F900
G03 X83.0997 Y345.1461 I0.0000 J1.5900 F900
G01 Y413.3211 F900
G00 Z-3.0000 F480
G01 Y420.5011 F900
G01 Y421.0011 Z-3.5000 F90
G01 Y420.5011 Z-4.0000 F90
G01 Y488.6761 F900
G03 X81.5097 Y490.2661 I-1.5900 J0.0000 F900
G01 X78.4710 F900
G03 X77.3449 Y489.7986 I0.0000 J-1.5900 F900
G02 X77.1287 Y490.0076 I-0.0981 J0.1149 F900
G03 X77.5997 Y491.1371 I-1.1190 J1.1296 F900
G01 Y504.7151 F900
G03 X77.1312 Y505.8422 I-1.5900 J0.0000 F900
G02 X77.3415 Y506.0571 I0.1162 J0.0966 F900
G03 X78.4710 Y505.5861 I1.1295 J1.1191 F900
G01 X81.5097 F900
G03 X83.0997 Y507.1761 I0.0000 J1.5900 F900
G01 Y575.3511 F900
G00 Z-3.0000 F480
G01 Y582.5311 F900
G01 Y583.0311 Z-3.5000 F90
G01 Y582.5311 Z-4.0000 F90
G01 Y650.7061 F900
G03 X81.5097 Y652.2961 I-1.5900 J0.0000 F900
G01 X78.4710 F900
G03 X77.3449 Y651.8286 I0.0000 J-1.5900 F900
G02 X77.1287 Y652.0376 I-0.0981 J0.1149 F900
G03 X77.5997 Y653.1671 I-1.1190 J1.1296 F900
G01 Y666.7451 F900
G03 X77.1312 Y667.8722 I-1.5900 J0.0000 F900
G02 X77.3415 Y668.0871 I0.1162 J0.0966 F900
G03 X78.4710 Y667.6161 I1.1295 J1.1191 F900
G01 X81.5097 F900
G03 X83.0997 Y669.2061 I0.0000 J1.5900 F900
G01 Y737.3811 F900
G00 Z-3.0000 F480
G01 Y744.5611 F900
G01 Y745.0611 Z-3.5000 F90
G01 Y744.5611 Z-4.0000 F90
G01 Y812.7361 F900
G03 X81.5097 Y814.3261 I-1.5900 J0.0000 F900
G01 X78.4710 F900
G03 X77.3449 Y813.8586 I0.0000 J-1.5900 F900
G02 X77.1287 Y814.0676 I-0.0981 J0.1149 F900
G03 X77.5997 Y815.1971 I-1.1190 J1.1296 F900
G01 Y830.7361 F900
G03 X76.0097 Y832.3261 I-1.5900 J0.0000 F900
G01 X45.8497 F900
G00 Z-3.0000 F480
G01 X38.6697 F900
G01 X38.1697 Z-3.5000 F90
G01 X38.6697 Z-4.0000 F90
G01 X8.5097 F900
G03 X6.9197 Y830.7361 I0.0000 J-1.5900 F900
G01 Y815.1971 F900
G03 X7.3882 Y814.0701 I1.5900 J0.0000 F900
G02 X7.1779 Y813.8552 I-0.1162 J-0.0966 F900
G03 X6.0484 Y814.3261 I-1.1295 J-1.1191 F900
G01 X3.0097 F900
G03 X1.4197 Y812.7361 I0.0000 J-1.5900 F900
G01 Y744.5611 F900
G00 Z-3.0000 F480
G01 Y737.3811 F900
G01 Y736.8811 Z-3.5000 F90
G01 Y737.3811 Z-4.0000 F90
G01 Y669.2061 F900
G03 X3.0097 Y667.6161 I1.5900 J0.0000 F900
G01 X6.0484 F900
G03 X7.1745 Y668.0837 I0.0000 J1.5900 F900
G02 X7.3907 Y667.8747 I0.0981 J-0.1149 F900
G03 X6.9197 Y666.7451 I1.1190 J-1.1296 F900
G01 Y653.1671 F900
G03 X7.3882 Y652.0401 I1.5900 J0.0000 F900
G02 X7.1779 Y651.8252 I-0.1162 J-0.0966 F900
G03 X6.0484 Y652.2961 I-1.1295 J-1.1191 F900
G01 X3.0097 F900
G03 X1.4197 Y650.7061 I0.0000 J-1.5900 F900
G01 Y582.5311 F900
G00 Z-3.0000 F480
G01 Y575.3511 F900
G01 Y574.8511 Z-3.5000 F90
G01 Y575.3511 Z-4.0000 F90
G01 Y507.1761 F900
G03 X3.0097 Y505.5861 I1.5900 J0.0000 F900
G01 X6.0484 F900
G03 X7.1745 Y506.0537 I0.0000 J1.5900 F900
G02 X7.3907 Y505.8447 I0.0981 J-0.1149 F900
G03 X6.9197 Y504.7151 I1.1190 J-1.1296 F900
G01 Y491.1371 F900
G03 X7.3882 Y490.0101 I1.5900 J0.0000 F900
G02 X7.1779 Y489.7952 I-0.1162 J-0.0966 F900
G03 X6.0484 Y490.2661 I-1.1295 J-1.1191 F900
G01 X3.0097 F900
G03 X1.4197 Y488.6761 I0.0000 J-1.5900 F900
G01 Y420.5011 F900
G00 Z-3.0000 F480
G01 Y413.3211 F900
G01 Y412.8211 Z-3.5000 F90
G01 Y413.3211 Z-4.0000 F90
G01 Y345.1461 F900
G03 X3.0097 Y343.5561 I1.5900 J0.0000 F900
G01 X6.0484 F900
G03 X7.1745 Y344.0237 I0.0000 J1.5900 F900
G02 X7.3907 Y343.8147 I0.0981 J-0.1149 F900
G03 X6.9197 Y342.6851 I1.1190 J-1.1296 F900
G01 Y329.1071 F900
G03 X7.3882 Y327.9801 I1.5900 J0.0000 F900
G02 X7.1779 Y327.7652 I-0.1162 J-0.0966 F900
G03 X6.0484 Y328.2361 I-1.1295 J-1.1191 F900
G01 X3.0097 F900
G03 X1.4197 Y326.6461 I0.0000 J-1.5900 F900
G01 Y258.4711 F900
G00 Z-3.0000 F480
G01 Y251.2911 F900
G01 Y250.7911 Z-3.5000 F90
G01 Y251.2911 Z-4.0000 F90
G01 Y183.1161 F900
G03 X3.0097 Y181.5261 I1.5900 J0.0000 F900
G01 X6.0484 F900
G03 X7.1745 Y181.9937 I0.0000 J1.5900 F900
G02 X7.3907 Y181.7847 I0.0981 J-0.1149 F900
G03 X6.9197 Y180.6551 I1.1190 J-1.1296 F900
G01 Y167.0771 F900
G03 X7.3882 Y165.9501 I1.5900 J0.0000 F900
G02 X7.1779 Y165.7352 I-0.1162 J-0.0966 F900
G03 X6.0484 Y166.2061 I-1.1295 J-1.1191 F900
G01 X3.0097 F900
G03 X1.4197 Y164.6161 I0.0000 J-1.5900 F900
G01 Y96.4411 F900
G00 Z-3.0000 F480
G01 Y89.2611 F900
G01 Y88.7611 Z-3.5000 F90
G01 Y89.2611 Z-4.0000 F90
G01 Y21.0861 F900
G03 X3.0097 Y19.4961 I1.5900 J0.0000 F900
G01 X6.0484 F900
G03 X7.1727 Y19.9618 I0.0000 J1.5900 F900
G02 X7.3898 Y19.7535 I0.0999 J-0.1132 F900
G03 X6.9197 Y18.6248 I1.1200 J-1.1287 F900
G01 Y3.0861 F900
G03 X8.5097 Y1.4961 I1.5900 J0.0000 F900
G01 X38.6697 F900
G00 Z-3.0000 F480
G01 X45.8497 F900
G00 Z-3.5000 F480
G01 Z-4.0000 F90
G01 X46.8497 Z-5.0000 F90
G01 X45.8497 Z-6.0000 F90
G01 X76.0097 F900
G03 X77.5997 Y3.0861 I0.0000 J1.5900 F900
G01 Y18.6248 F900
G03 X77.1340 Y19.7491 I-1.5900 J0.0000 F900
G02 X77.3423 Y19.9662 I0.1132 J0.0999 F900
G03 X78.4710 Y19.4961 I1.1287 J1.1200 F900
G01 X81.5097 F900
G03 X83.0997 Y21.0861 I0.0000 J1.5900 F900
G01 Y89.2611 F900
G00 Z-3.0000 F480
G01 Y96.4411 F900
G00 Z-3.5000 F480
G01 Z-4.0000 F90
G01 Y97.4411 Z-5.0000 F90
G01 Y96.4411 Z-6.0000 F90
G01 Y164.6161 F900
G03 X81.5097 Y166.2061 I-1.5900 J0.0000 F900
G01 X78.4710 F900
G03 X77.3449 Y165.7386 I0.0000 J-1.5900 F900
G02 X77.1287 Y165.9476 I-0.0981 J0.1149 F900
G03 X77.5997 Y167.0771 I-1.1190 J1.1296 F900
G01 Y180.6551 F900
G03 X77.1312 Y181.7822 I-1.5900 J0.0000 F900
G02 X77.3415 Y181.9971 I0.1162 J0.0966 F900
G03 X78.4710 Y181.5261 I1.1295 J1.1191 F900
G01 X81.5097 F900
G03 X83.0997 Y183.1161 I0.0000 J1.5900 F900
G01 Y251.2911 F900
G00 Z-3.0000 F480
G01 Y258.4711 F900
G00 Z-3.5000 F480
G01 Z-4.0000 F90
G01 Y259.4711 Z-5.0000 F90
G01 Y258.4711 Z-6.0000 F90
G01 Y326.6461 F900
G03 X81.5097 Y328.2361 I-1.5900 J0.0000 F900
G01 X78.4710 F900
G03 X77.3449 Y327.7686 I0.0000 J-1.5900 F900
G02 X77.1287 Y327.9776 I-0.0981 J0.1149 F900
G03 X77.5997 Y329.1071 I-1.1190 J1.1296 F900
G01 Y342.6851 F900
G03 X77.1312 Y343.8122 I-1.5900 J0.0000 F900
G02 X77.3415 Y344.0271 I0.1162 J0.0966 F900
G03 X78.4710 Y343.5561 I1.1295 J1.1191 F900
G01 X81.5097 F900
G03 X83.0997 Y345.1461 I0.0000 J1.5900 F900
G01 Y413.3211 F900
G00 Z-3.0000 F480
G01 Y420.5011 F900
G00 Z-3.5000 F480
G01 Z-4.0000 F90
G01 Y421.5011 Z-5.0000 F90
G01 Y420.5011 Z-6.0000 F90
G01 Y488.6761 F900
G03 X81.5097 Y490.2661 I-1.5900 J0.0000 F900
G01 X78.4710 F900
G03 X77.3449 Y489.7986 I0.0000 J-1.5900 F900
G02 X77.1287 Y490.0076 I-0.0981 J0.1149 F900
G03 X77.5997 Y491.1371 I-1.1190 J1.1296 F900
G01 Y504.7151 F900
G03 X77.1312 Y505.8422 I-1.5900 J0.0000 F900
G02 X77.3415 Y506.0571 I0.1162 J0.0966 F900
G03 X78.4710 Y505.5861 I1.1295 J1.1191 F900
G01 X81.5097 F900
G03 X83.0997 Y507.1761 I0.0000 J1.5900 F900
G01 Y575.3511 F900
G00 Z-3.0000 F480
G01 Y582.5311 F900
G00 Z-3.5000 F480
G01 Z-4.0000 F90
G01 Y583.5311 Z-5.0000 F90
G01 Y582.5311 Z-6.0000 F90
G01 Y650.7061 F900
G03 X81.5097 Y652.2961 I-1.5900 J0.0000 F900
G01 X78.4710 F900
G03 X77.3449 Y651.8286 I0.0000 J-1.5900 F900
G02 X77.1287 Y652.0376 I-0.0981 J0.1149 F900
G03 X77.5997 Y653.1671 I-1.1190 J1.1296 F900
G01 Y666.7451 F900
G03 X77.1312 Y667.8722 I-1.5900 J0.0000 F900
G02 X77.3415 Y668.0871 I0.1162 J0.0966 F900
G03 X78.4710 Y667.6161 I1.1295 J1.1191 F900
G01 X81.5097 F900
G03 X83.0997 Y669.2061 I0.0000 J1.5900 F900
G01 Y737.3811 F900
G00 Z-3.0000 F480
G01 Y744.5611 F900
G00 Z-3.5000 F480
G01 Z-4.0000 F90
G01 Y745.5611 Z-5.0000 F90
G01 Y744.5611 Z-6.0000 F90
G01 Y812.7361 F900
G03 X81.5097 Y814.3261 I-1.5900 J0.0000 F900
G01 X78.4710 F900
G03 X77.3449 Y813.8586 I0.0000 J-1.5900 F900
G02 X77.1287 Y814.0676 I-0.0981 J0.1149 F900
G03 X77.5997 Y815.1971 I-1.1190 J1.1296 F900
G01 Y830.7361 F900
G03 X76.0097 Y832.3261 I-1.5900 J0.0000 F900
G01 X45.8497 F900
G00 Z-3.0000 F480
G01 X38.6697 F900
G00 Z-3.5000 F480
G01 Z-4.0000 F90
G01 X37.6697 Z-5.0000 F90
G01 X38.6697 Z-6.0000 F90
G01 X8.5097 F900
G03 X6.9197 Y830.7361 I0.0000 J-1.5900 F900
G01 Y815.1971 F900
G03 X7.3882 Y814.0701 I1.5900 J0.0000 F900
G02 X7.1779 Y813.8552 I-0.1162 J-0.0966 F900
G03 X6.0484 Y814.3261 I-1.1295 J-1.1191 F900
G01 X3.0097 F900
G03 X1.4197 Y812.7361 I0.0000 J-1.5900 F900
G01 Y744.5611 F900
G00 Z-3.0000 F480
G01 Y737.3811 F900
G00 Z-3.5000 F480
G01 Z-4.0000 F90
G01 Y736.3811 Z-5.0000 F90
G01 Y737.3811 Z-6.0000 F90
G01 Y669.2061 F900
G03 X3.0097 Y667.6161 I1.5900 J0.0000 F900
G01 X6.0484 F900
G03 X7.1745 Y668.0837 I0.0000 J1.5900 F900
G02 X7.3907 Y667.8747 I0.0981 J-0.1149 F900
G03 X6.9197 Y666.7451 I1.1190 J-1.1296 F900
G01 Y653.1671 F900
G03 X7.3882 Y652.0401 I1.5900 J0.0000 F900
G02 X7.1779 Y651.8252 I-0.1162 J-0.0966 F900
G03 X6.0484 Y652.2961 I-1.1295 J-1.1191 F900
G01 X3.0097 F900
G03 X1.4197 Y650.7061 I0.0000 J-1.5900 F900
G01 Y582.5311 F900
G00 Z-3.0000 F480
G01 Y575.3511 F900
G00 Z-3.5000 F480
G01 Z-4.0000 F90
G01 Y574.3511 Z-5.0000 F90
G01 Y575.3511 Z-6.0000 F90
G01 Y507.1761 F900
G03 X3.0097 Y505.5861 I1.5900 J0.0000 F900
G01 X6.0484 F900
G03 X7.1745 Y506.0537 I0.0000 J1.5900 F900
G02 X7.3907 Y505.8447 I0.0981 J-0.1149 F900
G03 X6.9197 Y504.7151 I1.1190 J-1.1296 F900
G01 Y491.1371 F900
G03 X7.3882 Y490.0101 I1.5900 J0.0000 F900
G02 X7.1779 Y489.7952 I-0.1162 J-0.0966 F900
G03 X6.0484 Y490.2661 I-1.1295 J-1.1191 F900
G01 X3.0097 F900
G03 X1.4197 Y488.6761 I0.0000 J-1.5900 F900
G01 Y420.5011 F900
G00 Z-3.0000 F480
G01 Y413.3211 F900
G00 Z-3.5000 F480
G01 Z-4.0000 F90
G01 Y412.3211 Z-5.0000 F90
G01 Y413.3211 Z-6.0000 F90
G01 Y345.1461 F900
G03 X3.0097 Y343.5561 I1.5900 J0.0000 F900
G01 X6.0484 F900
G03 X7.1745 Y344.0237 I0.0000 J1.5900 F900
G02 X7.3907 Y343.8147 I0.0981 J-0.1149 F900
G03 X6.9197 Y342.6851 I1.1190 J-1.1296 F900
G01 Y329.1071 F900
G03 X7.3882 Y327.9801 I1.5900 J0.0000 F900
G02 X7.1779 Y327.7652 I-0.1162 J-0.0966 F900
G03 X6.0484 Y328.2361 I-1.1295 J-1.1191 F900
G01 X3.0097 F900
G03 X1.4197 Y326.6461 I0.0000 J-1.5900 F900
G01 Y258.4711 F900
G00 Z-3.0000 F480
G01 Y251.2911 F900
G00 Z-3.5000 F480
G01 Z-4.0000 F90
G01 Y250.2911 Z-5.0000 F90
G01 Y251.2911 Z-6.0000 F90
G01 Y183.1161 F900
G03 X3.0097 Y181.5261 I1.5900 J0.0000 F900
G01 X6.0484 F900
G03 X7.1745 Y181.9937 I0.0000 J1.5900 F900
G02 X7.3907 Y181.7847 I0.0981 J-0.1149 F900
G03 X6.9197 Y180.6551 I1.1190 J-1.1296 F900
G01 Y167.0771 F900
G03 X7.3882 Y165.9501 I1.5900 J0.0000 F900
G02 X7.1779 Y165.7352 I-0.1162 J-0.0966 F900
G03 X6.0484 Y166.2061 I-1.1295 J-1.1191 F900
G01 X3.0097 F900
G03 X1.4197 Y164.6161 I0.0000 J-1.5900 F900
G01 Y96.4411 F900
G00 Z-3.0000 F480
G01 Y89.2611 F900
G00 Z-3.5000 F480
G01 Z-4.0000 F90
G01 Y88.2611 Z-5.0000 F90
G01 Y89.2611 Z-6.0000 F90
G01 Y21.0861 F900
G03 X3.0097 Y19.4961 I1.5900 J0.0000 F900
G01 X6.0484 F900
G03 X7.1727 Y19.9618 I0.0000 J1.5900 F900
G02 X7.3898 Y19.7535 I0.0999 J-0.1132 F900
G03 X6.9197 Y18.6248 I1.1200 J-1.1287 F900
G01 Y3.0861 F900
G03 X8.5097 Y1.4961 I1.5900 J0.0000 F900
G01 X38.6697 F900
G00 Z-3.0000 F480
G01 X45.8497 F900
G00 Z-5.5000 F480
G01 Z-6.0000 F90
G01 X46.0997 Z-6.2500 F90
G01 X45.8497 Z-6.5000 F90
G01 X76.0097 F900
G03 X77.5997 Y3.0861 I0.0000 J1.5900 F900
G01 Y18.6248 F900
G03 X77.1340 Y19.7491 I-1.5900 J0.0000 F900
G02 X77.3423 Y19.9662 I0.1132 J0.0999 F900
G03 X78.4710 Y19.4961 I1.1287 J1.1200 F900
G01 X81.5097 F900
G03 X83.0997 Y21.0861 I0.0000 J1.5900 F900
G01 Y89.2611 F900
G00 Z-3.0000 F480
G01 Y96.4411 F900
G00 Z-5.5000 F480
G01 Z-6.0000 F90
G01 Y96.6911 Z-6.2500 F90
G01 Y96.4411 Z-6.5000 F90
G01 Y164.6161 F900
G03 X81.5097 Y166.2061 I-1.5900 J0.0000 F900
G01 X78.4710 F900
G03 X77.3449 Y165.7386 I0.0000 J-1.5900 F900
G02 X77.1287 Y165.9476 I-0.0981 J0.1149 F900
G03 X77.5997 Y167.0771 I-1.1190 J1.1296 F900
G01 Y180.6551 F900
G03 X77.1312 Y181.7822 I-1.5900 J0.0000 F900
G02 X77.3415 Y181.9971 I0.1162 J0.0966 F900
G03 X78.4710 Y181.5261 I1.1295 J1.1191 F900
G01 X81.5097 F900
G03 X83.0997 Y183.1161 I0.0000 J1.5900 F900
G01 Y251.2911 F900
G00 Z-3.0000 F480
G01 Y258.4711 F900
G00 Z-5.5000 F480
G01 Z-6.0000 F90
G01 Y258.7211 Z-6.2500 F90
G01 Y258.4711 Z-6.5000 F90
G01 Y326.6461 F900
G03 X81.5097 Y328.2361 I-1.5900 J0.0000 F900
G01 X78.4710 F900
G03 X77.3449 Y327.7686 I0.0000 J-1.5900 F900
G02 X77.1287 Y327.9776 I-0.0981 J0.1149 F900
G03 X77.5997 Y329.1071 I-1.1190 J1.1296 F900
G01 Y342.6851 F900
G03 X77.1312 Y343.8122 I-1.5900 J0.0000 F900
G02 X77.3415 Y344.0271 I0.1162 J0.0966 F900
G03 X78.4710 Y343.5561 I1.1295 J1.1191 F900
G01 X81.5097 F900
G03 X83.0997 Y345.1461 I0.0000 J1.5900 F900
G01 Y413.3211 F900
G00 Z-3.0000 F480
G01 Y420.5011 F900
G00 Z-5.5000 F480
G01 Z-6.0000 F90
G01 Y420.7511 Z-6.2500 F90
G01 Y420.5011 Z-6.5000 F90
G01 Y488.6761 F900
G03 X81.5097 Y490.2661 I-1.5900 J0.0000 F900
G01 X78.4710 F900
G03 X77.3449 Y489.7986 I0.0000 J-1.5900 F900
G02 X77.1287 Y490.0076 I-0.0981 J0.1149 F900
G03 X77.5997 Y491.1371 I-1.1190 J1.1296 F900
G01 Y504.7151 F900
G03 X77.1312 Y505.8422 I-1.5900 J0.0000 F900
G02 X77.3415 Y506.0571 I0.1162 J0.0966 F900
G03 X78.4710 Y505.5861 I1.1295 J1.1191 F900
G01 X81.5097 F900
G03 X83.0997 Y507.1761 I0.0000 J1.5900 F900
G01 Y575.3511 F900
G00 Z-3.0000 F480
G01 Y582.5311 F900
G00 Z-5.5000 F480
G01 Z-6.0000 F90
G01 Y582.7811 Z-6.2500 F90
G01 Y582.5311 Z-6.5000 F90
G01 Y650.7061 F900
G03 X81.5097 Y652.2961 I-1.5900 J0.0000 F900
G01 X78.4710 F900
G03 X77.3449 Y651.8286 I0.0000 J-1.5900 F900
G02 X77.1287 Y652.0376 I-0.0981 J0.1149 F900
G03 X77.5997 Y653.1671 I-1.1190 J1.1296 F900
G01 Y666.7451 F900
G03 X77.1312 Y667.8722 I-1.5900 J0.0000 F900
G02 X77.3415 Y668.0871 I0.1162 J0.0966 F900
G03 X78.4710 Y667.6161 I1.1295 J1.1191 F900
G01 X81.5097 F900
G03 X83.0997 Y669.2061 I0.0000 J1.5900 F900
G01 Y737.3811 F900
G00 Z-3.0000 F480
G01 Y744.5611 F900
G00 Z-5.5000 F480
G01 Z-6.0000 F90
G01 Y744.8111 Z-6.2500 F90
G01 Y744.5611 Z-6.5000 F90
G01 Y812.7361 F900
G03 X81.5097 Y814.3261 I-1.5900 J0.0000 F900
G01 X78.4710 F900
G03 X77.3449 Y813.8586 I0.0000 J-1.5900 F900
G02 X77.1287 Y814.0676 I-0.0981 J0.1149 F900
G03 X77.5997 Y815.1971 I-1.1190 J1.1296 F900
G01 Y830.7361 F900
G03 X76.0097 Y832.3261 I-1.5900 J0.0000 F900
G01 X45.8497 F900
G00 Z-3.0000 F480
G01 X38.6697 F900
G00 Z-5.5000 F480
G01 Z-6.0000 F90
G01 X38.4197 Z-6.2500 F90
G01 X38.6697 Z-6.5000 F90
G01 X8.5097 F900
G03 X6.9197 Y830.7361 I0.0000 J-1.5900 F900
G01 Y815.1971 F900
G03 X7.3882 Y814.0701 I1.5900 J0.0000 F900
G02 X7.1779 Y813.8552 I-0.1162 J-0.0966 F900
G03 X6.0484 Y814.3261 I-1.1295 J-1.1191 F900
G01 X3.0097 F900
G03 X1.4197 Y812.7361 I0.0000 J-1.5900 F900
G01 Y744.5611 F900
G00 Z-3.0000 F480
G01 Y737.3811 F900
G00 Z-5.5000 F480
G01 Z-6.0000 F90
G01 Y737.1311 Z-6.2500 F90
G01 Y737.3811 Z-6.5000 F90
G01 Y669.2061 F900
G03 X3.0097 Y667.6161 I1.5900 J0.0000 F900
G01 X6.0484 F900
G03 X7.1745 Y668.0837 I0.0000 J1.5900 F900
G02 X7.3907 Y667.8747 I0.0981 J-0.1149 F900
G03 X6.9197 Y666.7451 I1.1190 J-1.1296 F900
G01 Y653.1671 F900
G03 X7.3882 Y652.0401 I1.5900 J0.0000 F900
G02 X7.1779 Y651.8252 I-0.1162 J-0.0966 F900
G03 X6.0484 Y652.2961 I-1.1295 J-1.1191 F900
G01 X3.0097 F900
G03 X1.4197 Y650.7061 I0.0000 J-1.5900 F900
G01 Y582.5311 F900
G00 Z-3.0000 F480
G01 Y575.3511 F900
G00 Z-5.5000 F480
G01 Z-6.0000 F90
G01 Y575.1011 Z-6.2500 F90
G01 Y575.3511 Z-6.5000 F90
G01 Y507.1761 F900
G03 X3.0097 Y505.5861 I1.5900 J0.0000 F900
G01 X6.0484 F900
G03 X7.1745 Y506.0537 I0.0000 J1.5900 F900
G02 X7.3907 Y505.8447 I0.0981 J-0.1149 F900
G03 X6.9197 Y504.7151 I1.1190 J-1.1296 F900
G01 Y491.1371 F900
G03 X7.3882 Y490.0101 I1.5900 J0.0000 F900
G02 X7.1779 Y489.7952 I-0.1162 J-0.0966 F900
G03 X6.0484 Y490.2661 I-1.1295 J-1.1191 F900
G01 X3.0097 F900
G03 X1.4197 Y488.6761 I0.0000 J-1.5900 F900
G01 Y420.5011 F900
G00 Z-3.0000 F480
G01 Y413.3211 F900
G00 Z-5.5000 F480
G01 Z-6.0000 F90
G01 Y413.0711 Z-6.2500 F90
G01 Y413.3211 Z-6.5000 F90
G01 Y345.1461 F900
G03 X3.0097 Y343.5561 I1.5900 J0.0000 F900
G01 X6.0484 F900
G03 X7.1745 Y344.0237 I0.0000 J1.5900 F900
G02 X7.3907 Y343.8147 I0.0981 J-0.1149 F900
G03 X6.9197 Y342.6851 I1.1190 J-1.1296 F900
G01 Y329.1071 F900
G03 X7.3882 Y327.9801 I1.5900 J0.0000 F900
G02 X7.1779 Y327.7652 I-0.1162 J-0.0966 F900
G03 X6.0484 Y328.2361 I-1.1295 J-1.1191 F900
G01 X3.0097 F900
G03 X1.4197 Y326.6461 I0.0000 J-1.5900 F900
G01 Y258.4711 F900
G00 Z-3.0000 F480
G01 Y251.2911 F900
G00 Z-5.5000 F480
G01 Z-6.0000 F90
G01 Y251.0411 Z-6.2500 F90
G01 Y251.2911 Z-6.5000 F90
G01 Y183.1161 F900
G03 X3.0097 Y181.5261 I1.5900 J0.0000 F900
G01 X6.0484 F900
G03 X7.1745 Y181.9937 I0.0000 J1.5900 F900
G02 X7.3907 Y181.7847 I0.0981 J-0.1149 F900
G03 X6.9197 Y180.6551 I1.1190 J-1.1296 F900
G01 Y167.0771 F900
G03 X7.3882 Y165.9501 I1.5900 J0.0000 F900
G02 X7.1779 Y165.7352 I-0.1162 J-0.0966 F900
G03 X6.0484 Y166.2061 I-1.1295 J-1.1191 F900
G01 X3.0097 F900
G03 X1.4197 Y164.6161 I0.0000 J-1.5900 F900
G01 Y96.4411 F900
G00 Z-3.0000 F480
G01 Y89.2611 F900
G00 Z-5.5000 F480
G01 Z-6.0000 F90
G01 Y89.0111 Z-6.2500 F90
G01 Y89.2611 Z-6.5000 F90
G01 Y21.0861 F900
G03 X3.0097 Y19.4961 I1.5900 J0.0000 F900
G01 X6.0484 F900
G03 X7.1727 Y19.9618 I0.0000 J1.5900 F900
G02 X7.3898 Y19.7535 I0.0999 J-0.1132 F900
G03 X6.9197 Y18.6248 I1.1200 J-1.1287 F900
G01 Y3.0861 F900
G03 X8.5097 Y1.4961 I1.5900 J0.0000 F900
G01 X38.6697 F900
G00 Z-3.0000 F480
G01 X45.8497 F900
G00 Z10.0000 F480
G00 X0.0000 Y0.0000 F2100


M05
M30
