(Project lr4_strut.2)
(Created with Estlcam 12.102)
(Machining time about 01:28:44 hours)

(Required tools:)
(1/8" Upcut Slow)
(1/8" Upcut Soft wood)

G21
G90
G94
M03 S10000
G00 Z10.0000 F480

(No. 1 Helical drill machining: Helical drill 1)
G00 X20.3063 Y10.5049 Z10.0000 F2100
G00 Z0.5000 F480
G02 X18.7195 Y9.5888 Z-0.1667 I-1.0578 J0.0000 F90 S10000
G02 Y11.4210 Z-0.8333 I0.5289 J0.9161 F90
G02 X20.3063 Y10.5049 Z-1.5000 I0.5289 J-0.9161 F90
G02 X18.7195 Y9.5888 Z-2.1667 I-1.0578 J0.0000 F90
G02 Y11.4210 Z-2.8333 I0.5289 J0.9161 F90
G02 X20.3063 Y10.5049 Z-3.5000 I0.5289 J-0.9161 F90
G02 X18.7195 Y9.5888 Z-4.1667 I-1.0578 J0.0000 F90
G02 Y11.4210 Z-4.8333 I0.5289 J0.9161 F90
G02 X20.3063 Y10.5049 Z-5.5000 I0.5289 J-0.9161 F90
G02 X19.2484 Y9.4470 Z-6.0000 I-1.0578 J0.0000 F90
G02 X18.1906 Y10.5049 Z-6.5000 I0.0000 J1.0578 F90
G02 X19.7773 Y11.4210 I1.0578 J0.0000 F90
G02 Y9.5888 I-0.5289 J-0.9161 F90
G02 X18.1906 Y10.5049 I-0.5289 J0.9161 F90
G02 X18.7195 Y11.0338 Z-6.3678 I0.5289 J0.0000 F600
G00 Z10.0000 F480

(No. 2 Helical drill machining: Helical drill 2)
G00 X76.3081 Y10.5036 Z10.0000 F2100
G00 Z0.5000 F480
G02 X74.7172 Y9.5851 Z-0.1667 I-1.0606 J0.0000 F90
G02 Y11.4221 Z-0.8333 I0.5303 J0.9185 F90
G02 X76.3081 Y10.5036 Z-1.5000 I0.5303 J-0.9185 F90
G02 X74.7172 Y9.5851 Z-2.1667 I-1.0606 J0.0000 F90
G02 Y11.4221 Z-2.8333 I0.5303 J0.9185 F90
G02 X76.3081 Y10.5036 Z-3.5000 I0.5303 J-0.9185 F90
G02 X74.7172 Y9.5851 Z-4.1667 I-1.0606 J0.0000 F90
G02 Y11.4221 Z-4.8333 I0.5303 J0.9185 F90
G02 X76.3081 Y10.5036 Z-5.5000 I0.5303 J-0.9185 F90
G02 X75.2475 Y9.4430 Z-6.0000 I-1.0606 J0.0000 F90
G02 X74.1869 Y10.5036 Z-6.5000 I0.0000 J1.0606 F90
G02 X75.7778 Y11.4221 I1.0606 J0.0000 F90
G02 Y9.5851 I-0.5303 J-0.9185 F90
G02 X74.1869 Y10.5036 I-0.5303 J0.9185 F90
G02 X74.7172 Y11.0339 Z-6.3674 I0.5303 J0.0000 F600
G00 Z10.0000 F480

(No. 3 Helical drill machining: Helical drill 23)
G00 X127.0573 Y10.5030 Z10.0000 F2100
G00 Z0.5000 F480
G02 X125.4673 Y9.5850 Z-0.1667 I-1.0600 J0.0000 F90
G02 Y11.4209 Z-0.8333 I0.5300 J0.9180 F90
G02 X127.0573 Y10.5030 Z-1.5000 I0.5300 J-0.9180 F90
G02 X125.4673 Y9.5850 Z-2.1667 I-1.0600 J0.0000 F90
G02 Y11.4209 Z-2.8333 I0.5300 J0.9180 F90
G02 X127.0573 Y10.5030 Z-3.5000 I0.5300 J-0.9180 F90
G02 X125.4673 Y9.5850 Z-4.1667 I-1.0600 J0.0000 F90
G02 Y11.4209 Z-4.8333 I0.5300 J0.9180 F90
G02 X127.0573 Y10.5030 Z-5.5000 I0.5300 J-0.9180 F90
G02 X125.9973 Y9.4430 Z-6.0000 I-1.0600 J0.0000 F90
G02 X124.9373 Y10.5030 Z-6.5000 I0.0000 J1.0600 F90
G02 X126.5273 Y11.4209 I1.0600 J0.0000 F90
G02 Y9.5850 I-0.5300 J-0.9180 F90
G02 X124.9373 Y10.5030 I-0.5300 J0.9180 F90
G02 X125.4673 Y11.0330 Z-6.3675 I0.5300 J0.0000 F600
G00 Z10.0000 F480

(No. 4 Helical drill machining: Helical drill 24)
G00 X183.0573 Y10.5030 Z10.0000 F2100
G00 Z0.5000 F480
G02 X181.4673 Y9.5850 Z-0.1667 I-1.0600 J0.0000 F90
G02 Y11.4210 Z-0.8333 I0.5300 J0.9180 F90
G02 X183.0573 Y10.5030 Z-1.5000 I0.5300 J-0.9180 F90
G02 X181.4673 Y9.5850 Z-2.1667 I-1.0600 J0.0000 F90
G02 Y11.4210 Z-2.8333 I0.5300 J0.9180 F90
G02 X183.0573 Y10.5030 Z-3.5000 I0.5300 J-0.9180 F90
G02 X181.4673 Y9.5850 Z-4.1667 I-1.0600 J0.0000 F90
G02 Y11.4210 Z-4.8333 I0.5300 J0.9180 F90
G02 X183.0573 Y10.5030 Z-5.5000 I0.5300 J-0.9180 F90
G02 X181.9973 Y9.4430 Z-6.0000 I-1.0600 J0.0000 F90
G02 X180.9373 Y10.5030 Z-6.5000 I0.0000 J1.0600 F90
G02 X182.5273 Y11.4210 I1.0600 J0.0000 F90
G02 Y9.5850 I-0.5300 J-0.9180 F90
G02 X180.9373 Y10.5030 I-0.5300 J0.9180 F90
G02 X181.4673 Y11.0330 Z-6.3675 I0.5300 J0.0000 F600
G00 Z10.0000 F480

(No. 5 Helical drill machining: Helical drill 22)
G00 X183.0573 Y172.5330 Z10.0000 F2100
G00 Z0.5000 F480
G02 X181.4673 Y171.6150 Z-0.1667 I-1.0600 J0.0000 F90
G02 Y173.4510 Z-0.8333 I0.5300 J0.9180 F90
G02 X183.0573 Y172.5330 Z-1.5000 I0.5300 J-0.9180 F90
G02 X181.4673 Y171.6150 Z-2.1667 I-1.0600 J0.0000 F90
G02 Y173.4510 Z-2.8333 I0.5300 J0.9180 F90
G02 X183.0573 Y172.5330 Z-3.5000 I0.5300 J-0.9180 F90
G02 X181.4673 Y171.6150 Z-4.1667 I-1.0600 J0.0000 F90
G02 Y173.4510 Z-4.8333 I0.5300 J0.9180 F90
G02 X183.0573 Y172.5330 Z-5.5000 I0.5300 J-0.9180 F90
G02 X181.9973 Y171.4730 Z-6.0000 I-1.0600 J0.0000 F90
G02 X180.9373 Y172.5330 Z-6.5000 I0.0000 J1.0600 F90
G02 X182.5273 Y173.4510 I1.0600 J0.0000 F90
G02 Y171.6150 I-0.5300 J-0.9180 F90
G02 X180.9373 Y172.5330 I-0.5300 J0.9180 F90
G02 X181.4673 Y173.0630 Z-6.3675 I0.5300 J0.0000 F600
G00 Z10.0000 F480

(No. 6 Helical drill machining: Helical drill 21)
G00 X127.0572 Y172.5331 Z10.0000 F2100
G00 Z0.5000 F480
G02 X125.4674 Y171.6152 Z-0.1667 I-1.0599 J0.0000 F90
G02 Y173.4510 Z-0.8333 I0.5300 J0.9179 F90
G02 X127.0572 Y172.5331 Z-1.5000 I0.5300 J-0.9179 F90
G02 X125.4674 Y171.6152 Z-2.1667 I-1.0599 J0.0000 F90
G02 Y173.4510 Z-2.8333 I0.5300 J0.9179 F90
G02 X127.0572 Y172.5331 Z-3.5000 I0.5300 J-0.9179 F90
G02 X125.4674 Y171.6152 Z-4.1667 I-1.0599 J0.0000 F90
G02 Y173.4510 Z-4.8333 I0.5300 J0.9179 F90
G02 X127.0572 Y172.5331 Z-5.5000 I0.5300 J-0.9179 F90
G02 X125.9973 Y171.4732 Z-6.0000 I-1.0599 J0.0000 F90
G02 X124.9374 Y172.5331 Z-6.5000 I0.0000 J1.0599 F90
G02 X126.5273 Y173.4510 I1.0599 J0.0000 F90
G02 Y171.6152 I-0.5300 J-0.9179 F90
G02 X124.9374 Y172.5331 I-0.5300 J0.9179 F90
G02 X125.4674 Y173.0631 Z-6.3675 I0.5300 J0.0000 F600
G00 Z10.0000 F480

(No. 7 Helical drill machining: Helical drill 4)
G00 X76.3073 Y172.5332 Z10.0000 F2100
G00 Z0.5000 F480
G02 X74.7172 Y171.6151 Z-0.1667 I-1.0601 J0.0000 F90
G02 Y173.4512 Z-0.8333 I0.5300 J0.9180 F90
G02 X76.3073 Y172.5332 Z-1.5000 I0.5300 J-0.9180 F90
G02 X74.7172 Y171.6151 Z-2.1667 I-1.0601 J0.0000 F90
G02 Y173.4512 Z-2.8333 I0.5300 J0.9180 F90
G02 X76.3073 Y172.5332 Z-3.5000 I0.5300 J-0.9180 F90
G02 X74.7172 Y171.6151 Z-4.1667 I-1.0601 J0.0000 F90
G02 Y173.4512 Z-4.8333 I0.5300 J0.9180 F90
G02 X76.3073 Y172.5332 Z-5.5000 I0.5300 J-0.9180 F90
G02 X75.2472 Y171.4731 Z-6.0000 I-1.0601 J0.0000 F90
G02 X74.1872 Y172.5332 Z-6.5000 I0.0000 J1.0601 F90
G02 X75.7773 Y173.4512 I1.0601 J0.0000 F90
G02 Y171.6151 I-0.5300 J-0.9180 F90
G02 X74.1872 Y172.5332 I-0.5300 J0.9180 F90
G02 X74.7172 Y173.0632 Z-6.3675 I0.5300 J0.0000 F600
G00 Z10.0000 F480

(No. 8 Helical drill machining: Helical drill 3)
G00 X20.3073 Y172.5329 Z10.0000 F2100
G00 Z0.5000 F480
G02 X18.7174 Y171.6150 Z-0.1667 I-1.0599 J0.0000 F90
G02 Y173.4508 Z-0.8333 I0.5300 J0.9179 F90
G02 X20.3073 Y172.5329 Z-1.5000 I0.5300 J-0.9179 F90
G02 X18.7174 Y171.6150 Z-2.1667 I-1.0599 J0.0000 F90
G02 Y173.4508 Z-2.8333 I0.5300 J0.9179 F90
G02 X20.3073 Y172.5329 Z-3.5000 I0.5300 J-0.9179 F90
G02 X18.7174 Y171.6150 Z-4.1667 I-1.0599 J0.0000 F90
G02 Y173.4508 Z-4.8333 I0.5300 J0.9179 F90
G02 X20.3073 Y172.5329 Z-5.5000 I0.5300 J-0.9179 F90
G02 X19.2473 Y171.4730 Z-6.0000 I-1.0599 J0.0000 F90
G02 X18.1874 Y172.5329 Z-6.5000 I0.0000 J1.0599 F90
G02 X19.7773 Y173.4508 I1.0599 J0.0000 F90
G02 Y171.6150 I-0.5300 J-0.9179 F90
G02 X18.1874 Y172.5329 I-0.5300 J0.9179 F90
G02 X18.7174 Y173.0628 Z-6.3675 I0.5300 J0.0000 F600
G00 Z10.0000 F480

(No. 9 Helical drill machining: Helical drill 5)
G00 X20.3074 Y334.5630 Z10.0000 F2100
G00 Z0.5000 F480
G02 X18.7174 Y333.6450 Z-0.1667 I-1.0600 J0.0000 F90
G02 Y335.4810 Z-0.8333 I0.5300 J0.9180 F90
G02 X20.3074 Y334.5630 Z-1.5000 I0.5300 J-0.9180 F90
G02 X18.7174 Y333.6450 Z-2.1667 I-1.0600 J0.0000 F90
G02 Y335.4810 Z-2.8333 I0.5300 J0.9180 F90
G02 X20.3074 Y334.5630 Z-3.5000 I0.5300 J-0.9180 F90
G02 X18.7174 Y333.6450 Z-4.1667 I-1.0600 J0.0000 F90
G02 Y335.4810 Z-4.8333 I0.5300 J0.9180 F90
G02 X20.3074 Y334.5630 Z-5.5000 I0.5300 J-0.9180 F90
G02 X19.2474 Y333.5030 Z-6.0000 I-1.0600 J0.0000 F90
G02 X18.1874 Y334.5630 Z-6.5000 I0.0000 J1.0600 F90
G02 X19.7774 Y335.4810 I1.0600 J0.0000 F90
G02 Y333.6450 I-0.5300 J-0.9180 F90
G02 X18.1874 Y334.5630 I-0.5300 J0.9180 F90
G02 X18.7174 Y335.0930 Z-6.3675 I0.5300 J0.0000 F600
G00 Z10.0000 F480

(No. 10 Drill machining: Drill 1)
G00 X29.8722 Y363.5626 Z10.0000 F2100
G00 Z0.5000 F480
G01 Z-2.0000 F90
G00 Z0.5000 F480
G00 Z-1.5000 F480
G01 Z-4.0000 F90
G00 Z0.5000 F480
G00 Z-3.5000 F480
G01 Z-6.0000 F90
G00 Z0.5000 F480
G00 Z-5.5000 F480
G01 Z-6.5000 F90
G00 Z10.0000 F480

(No. 11 Drill machining: Drill 2)
G00 X48.2441 Y363.5601 Z10.0000 F2100
G00 Z0.5000 F480
G01 Z-2.0000 F90
G00 Z0.5000 F480
G00 Z-1.5000 F480
G01 Z-4.0000 F90
G00 Z0.5000 F480
G00 Z-3.5000 F480
G01 Z-6.0000 F90
G00 Z0.5000 F480
G00 Z-5.5000 F480
G01 Z-6.5000 F90
G00 Z10.0000 F480

(No. 12 Helical drill machining: Helical drill 6)
G00 X76.3071 Y334.5630 Z10.0000 F2100
G00 Z0.5000 F480
G02 X74.7173 Y333.6452 Z-0.1667 I-1.0598 J0.0000 F90
G02 Y335.4808 Z-0.8333 I0.5299 J0.9178 F90
G02 X76.3071 Y334.5630 Z-1.5000 I0.5299 J-0.9178 F90
G02 X74.7173 Y333.6452 Z-2.1667 I-1.0598 J0.0000 F90
G02 Y335.4808 Z-2.8333 I0.5299 J0.9178 F90
G02 X76.3071 Y334.5630 Z-3.5000 I0.5299 J-0.9178 F90
G02 X74.7173 Y333.6452 Z-4.1667 I-1.0598 J0.0000 F90
G02 Y335.4808 Z-4.8333 I0.5299 J0.9178 F90
G02 X76.3071 Y334.5630 Z-5.5000 I0.5299 J-0.9178 F90
G02 X75.2473 Y333.5032 Z-6.0000 I-1.0598 J0.0000 F90
G02 X74.1874 Y334.5630 Z-6.5000 I0.0000 J1.0598 F90
G02 X75.7772 Y335.4808 I1.0598 J0.0000 F90
G02 Y333.6452 I-0.5299 J-0.9178 F90
G02 X74.1874 Y334.5630 I-0.5299 J0.9178 F90
G02 X74.7173 Y335.0929 Z-6.3675 I0.5299 J0.0000 F600
G00 Z10.0000 F480

(No. 13 Helical drill machining: Helical drill 19)
G00 X127.0571 Y334.5630 Z10.0000 F2100
G00 Z0.5000 F480
G02 X125.4673 Y333.6451 Z-0.1667 I-1.0598 J0.0000 F90
G02 Y335.4808 Z-0.8333 I0.5299 J0.9178 F90
G02 X127.0571 Y334.5630 Z-1.5000 I0.5299 J-0.9178 F90
G02 X125.4673 Y333.6451 Z-2.1667 I-1.0598 J0.0000 F90
G02 Y335.4808 Z-2.8333 I0.5299 J0.9178 F90
G02 X127.0571 Y334.5630 Z-3.5000 I0.5299 J-0.9178 F90
G02 X125.4673 Y333.6451 Z-4.1667 I-1.0598 J0.0000 F90
G02 Y335.4808 Z-4.8333 I0.5299 J0.9178 F90
G02 X127.0571 Y334.5630 Z-5.5000 I0.5299 J-0.9178 F90
G02 X125.9972 Y333.5031 Z-6.0000 I-1.0598 J0.0000 F90
G02 X124.9374 Y334.5630 Z-6.5000 I0.0000 J1.0598 F90
G02 X126.5271 Y335.4808 I1.0598 J0.0000 F90
G02 Y333.6451 I-0.5299 J-0.9178 F90
G02 X124.9374 Y334.5630 I-0.5299 J0.9178 F90
G02 X125.4673 Y335.0929 Z-6.3675 I0.5299 J0.0000 F600
G00 Z10.0000 F480

(No. 14 Helical drill machining: Helical drill 20)
G00 X183.0571 Y334.5630 Z10.0000 F2100
G00 Z0.5000 F480
G02 X181.4673 Y333.6451 Z-0.1667 I-1.0598 J0.0000 F90
G02 Y335.4808 Z-0.8333 I0.5299 J0.9178 F90
G02 X183.0571 Y334.5630 Z-1.5000 I0.5299 J-0.9178 F90
G02 X181.4673 Y333.6451 Z-2.1667 I-1.0598 J0.0000 F90
G02 Y335.4808 Z-2.8333 I0.5299 J0.9178 F90
G02 X183.0571 Y334.5630 Z-3.5000 I0.5299 J-0.9178 F90
G02 X181.4673 Y333.6451 Z-4.1667 I-1.0598 J0.0000 F90
G02 Y335.4808 Z-4.8333 I0.5299 J0.9178 F90
G02 X183.0571 Y334.5630 Z-5.5000 I0.5299 J-0.9178 F90
G02 X181.9972 Y333.5031 Z-6.0000 I-1.0598 J0.0000 F90
G02 X180.9374 Y334.5630 Z-6.5000 I0.0000 J1.0598 F90
G02 X182.5271 Y335.4808 I1.0598 J0.0000 F90
G02 Y333.6451 I-0.5299 J-0.9178 F90
G02 X180.9374 Y334.5630 I-0.5299 J0.9178 F90
G02 X181.4673 Y335.0929 Z-6.3675 I0.5299 J0.0000 F600
G00 Z10.0000 F480

(No. 15 Drill machining: Drill 3)
G00 X39.4205 Y404.8665 Z10.0000 F2100
G00 Z0.5000 F480
G01 Z-2.0000 F90
G00 Z0.5000 F480
G00 Z-1.5000 F480
G01 Z-4.0000 F90
G00 Z0.5000 F480
G00 Z-3.5000 F480
G01 Z-6.0000 F90
G00 Z0.5000 F480
G00 Z-5.5000 F480
G01 Z-6.5000 F90
G00 Z10.0000 F480

(No. 16 Drill machining: Drill 4)
G00 X50.0100 Y415.3194 Z10.0000 F2100
G00 Z0.5000 F480
G01 Z-2.0000 F90
G00 Z0.5000 F480
G00 Z-1.5000 F480
G01 Z-4.0000 F90
G00 Z0.5000 F480
G00 Z-3.5000 F480
G01 Z-6.0000 F90
G00 Z0.5000 F480
G00 Z-5.5000 F480
G01 Z-6.5000 F90
G00 Z10.0000 F480

(No. 17 Drill machining: Drill 5)
G00 X48.2441 Y467.0601 Z10.0000 F2100
G00 Z0.5000 F480
G01 Z-2.0000 F90
G00 Z0.5000 F480
G00 Z-1.5000 F480
G01 Z-4.0000 F90
G00 Z0.5000 F480
G00 Z-3.5000 F480
G01 Z-6.0000 F90
G00 Z0.5000 F480
G00 Z-5.5000 F480
G01 Z-6.5000 F90
G00 Z10.0000 F480

(No. 18 Drill machining: Drill 6)
G00 X29.8722 Y467.0626 Z10.0000 F2100
G00 Z0.5000 F480
G01 Z-2.0000 F90
G00 Z0.5000 F480
G00 Z-1.5000 F480
G01 Z-4.0000 F90
G00 Z0.5000 F480
G00 Z-3.5000 F480
G01 Z-6.0000 F90
G00 Z0.5000 F480
G00 Z-5.5000 F480
G01 Z-6.5000 F90
G00 Z10.0000 F480

(No. 19 Helical drill machining: Helical drill 7)
G00 X20.3074 Y496.5930 Z10.0000 F2100
G00 Z0.5000 F480
G02 X18.7174 Y495.6750 Z-0.1667 I-1.0600 J0.0000 F90
G02 Y497.5110 Z-0.8333 I0.5300 J0.9180 F90
G02 X20.3074 Y496.5930 Z-1.5000 I0.5300 J-0.9180 F90
G02 X18.7174 Y495.6750 Z-2.1667 I-1.0600 J0.0000 F90
G02 Y497.5110 Z-2.8333 I0.5300 J0.9180 F90
G02 X20.3074 Y496.5930 Z-3.5000 I0.5300 J-0.9180 F90
G02 X18.7174 Y495.6750 Z-4.1667 I-1.0600 J0.0000 F90
G02 Y497.5110 Z-4.8333 I0.5300 J0.9180 F90
G02 X20.3074 Y496.5930 Z-5.5000 I0.5300 J-0.9180 F90
G02 X19.2474 Y495.5330 Z-6.0000 I-1.0600 J0.0000 F90
G02 X18.1874 Y496.5930 Z-6.5000 I0.0000 J1.0600 F90
G02 X19.7774 Y497.5110 I1.0600 J0.0000 F90
G02 Y495.6750 I-0.5300 J-0.9180 F90
G02 X18.1874 Y496.5930 I-0.5300 J0.9180 F90
G02 X18.7174 Y497.1230 Z-6.3675 I0.5300 J0.0000 F600
G00 Z10.0000 F480

(No. 20 Helical drill machining: Helical drill 8)
G00 X76.3074 Y496.5930 Z10.0000 F2100
G00 Z0.5000 F480
G02 X74.7173 Y495.6750 Z-0.1667 I-1.0600 J0.0000 F90
G02 Y497.5110 Z-0.8333 I0.5300 J0.9180 F90
G02 X76.3074 Y496.5930 Z-1.5000 I0.5300 J-0.9180 F90
G02 X74.7173 Y495.6750 Z-2.1667 I-1.0600 J0.0000 F90
G02 Y497.5110 Z-2.8333 I0.5300 J0.9180 F90
G02 X76.3074 Y496.5930 Z-3.5000 I0.5300 J-0.9180 F90
G02 X74.7173 Y495.6750 Z-4.1667 I-1.0600 J0.0000 F90
G02 Y497.5110 Z-4.8333 I0.5300 J0.9180 F90
G02 X76.3074 Y496.5930 Z-5.5000 I0.5300 J-0.9180 F90
G02 X75.2473 Y495.5330 Z-6.0000 I-1.0600 J0.0000 F90
G02 X74.1873 Y496.5930 Z-6.5000 I0.0000 J1.0600 F90
G02 X75.7773 Y497.5110 I1.0600 J0.0000 F90
G02 Y495.6750 I-0.5300 J-0.9180 F90
G02 X74.1873 Y496.5930 I-0.5300 J0.9180 F90
G02 X74.7173 Y497.1230 Z-6.3675 I0.5300 J0.0000 F600
G00 Z10.0000 F480

(No. 21 Helical drill machining: Helical drill 17)
G00 X127.0574 Y496.5930 Z10.0000 F2100
G00 Z0.5000 F480
G02 X125.4673 Y495.6750 Z-0.1667 I-1.0600 J0.0000 F90
G02 Y497.5110 Z-0.8333 I0.5300 J0.9180 F90
G02 X127.0574 Y496.5930 Z-1.5000 I0.5300 J-0.9180 F90
G02 X125.4673 Y495.6750 Z-2.1667 I-1.0600 J0.0000 F90
G02 Y497.5110 Z-2.8333 I0.5300 J0.9180 F90
G02 X127.0574 Y496.5930 Z-3.5000 I0.5300 J-0.9180 F90
G02 X125.4673 Y495.6750 Z-4.1667 I-1.0600 J0.0000 F90
G02 Y497.5110 Z-4.8333 I0.5300 J0.9180 F90
G02 X127.0574 Y496.5930 Z-5.5000 I0.5300 J-0.9180 F90
G02 X125.9973 Y495.5330 Z-6.0000 I-1.0600 J0.0000 F90
G02 X124.9373 Y496.5930 Z-6.5000 I0.0000 J1.0600 F90
G02 X126.5273 Y497.5110 I1.0600 J0.0000 F90
G02 Y495.6750 I-0.5300 J-0.9180 F90
G02 X124.9373 Y496.5930 I-0.5300 J0.9180 F90
G02 X125.4673 Y497.1230 Z-6.3675 I0.5300 J0.0000 F600
G00 Z10.0000 F480

(No. 22 Helical drill machining: Helical drill 18)
G00 X183.0573 Y496.5932 Z10.0000 F2100
G00 Z0.5000 F480
G02 X181.4672 Y495.6751 Z-0.1667 I-1.0601 J0.0000 F90
G02 Y497.5112 Z-0.8333 I0.5300 J0.9180 F90
G02 X183.0573 Y496.5932 Z-1.5000 I0.5300 J-0.9180 F90
G02 X181.4672 Y495.6751 Z-2.1667 I-1.0601 J0.0000 F90
G02 Y497.5112 Z-2.8333 I0.5300 J0.9180 F90
G02 X183.0573 Y496.5932 Z-3.5000 I0.5300 J-0.9180 F90
G02 X181.4672 Y495.6751 Z-4.1667 I-1.0601 J0.0000 F90
G02 Y497.5112 Z-4.8333 I0.5300 J0.9180 F90
G02 X183.0573 Y496.5932 Z-5.5000 I0.5300 J-0.9180 F90
G02 X181.9972 Y495.5331 Z-6.0000 I-1.0601 J0.0000 F90
G02 X180.9372 Y496.5932 Z-6.5000 I0.0000 J1.0601 F90
G02 X182.5273 Y497.5112 I1.0601 J0.0000 F90
G02 Y495.6751 I-0.5300 J-0.9180 F90
G02 X180.9372 Y496.5932 I-0.5300 J0.9180 F90
G02 X181.4672 Y497.1232 Z-6.3675 I0.5300 J0.0000 F600
G00 Z10.0000 F480

(No. 23 Helical drill machining: Helical drill 16)
G00 X183.0573 Y658.6231 Z10.0000 F2100
G00 Z0.5000 F480
G02 X181.4674 Y657.7052 Z-0.1667 I-1.0599 J0.0000 F90
G02 Y659.5410 Z-0.8333 I0.5300 J0.9179 F90
G02 X183.0573 Y658.6231 Z-1.5000 I0.5300 J-0.9179 F90
G02 X181.4674 Y657.7052 Z-2.1667 I-1.0599 J0.0000 F90
G02 Y659.5410 Z-2.8333 I0.5300 J0.9179 F90
G02 X183.0573 Y658.6231 Z-3.5000 I0.5300 J-0.9179 F90
G02 X181.4674 Y657.7052 Z-4.1667 I-1.0599 J0.0000 F90
G02 Y659.5410 Z-4.8333 I0.5300 J0.9179 F90
G02 X183.0573 Y658.6231 Z-5.5000 I0.5300 J-0.9179 F90
G02 X181.9974 Y657.5632 Z-6.0000 I-1.0599 J0.0000 F90
G02 X180.9375 Y658.6231 Z-6.5000 I0.0000 J1.0599 F90
G02 X182.5274 Y659.5410 I1.0599 J0.0000 F90
G02 Y657.7052 I-0.5300 J-0.9179 F90
G02 X180.9375 Y658.6231 I-0.5300 J0.9179 F90
G02 X181.4674 Y659.1531 Z-6.3675 I0.5300 J0.0000 F600
G00 Z10.0000 F480

(No. 24 Helical drill machining: Helical drill 15)
G00 X127.0574 Y658.6231 Z10.0000 F2100
G00 Z0.5000 F480
G02 X125.4673 Y657.7051 Z-0.1667 I-1.0601 J0.0000 F90
G02 Y659.5412 Z-0.8333 I0.5301 J0.9181 F90
G02 X127.0574 Y658.6231 Z-1.5000 I0.5301 J-0.9181 F90
G02 X125.4673 Y657.7051 Z-2.1667 I-1.0601 J0.0000 F90
G02 Y659.5412 Z-2.8333 I0.5301 J0.9181 F90
G02 X127.0574 Y658.6231 Z-3.5000 I0.5301 J-0.9181 F90
G02 X125.4673 Y657.7051 Z-4.1667 I-1.0601 J0.0000 F90
G02 Y659.5412 Z-4.8333 I0.5301 J0.9181 F90
G02 X127.0574 Y658.6231 Z-5.5000 I0.5301 J-0.9181 F90
G02 X125.9973 Y657.5630 Z-6.0000 I-1.0601 J0.0000 F90
G02 X124.9372 Y658.6231 Z-6.5000 I0.0000 J1.0601 F90
G02 X126.5274 Y659.5412 I1.0601 J0.0000 F90
G02 Y657.7051 I-0.5301 J-0.9181 F90
G02 X124.9372 Y658.6231 I-0.5301 J0.9181 F90
G02 X125.4673 Y659.1532 Z-6.3675 I0.5301 J0.0000 F600
G00 Z10.0000 F480

(No. 25 Helical drill machining: Helical drill 10)
G00 X76.3075 Y658.6228 Z10.0000 F2100
G00 Z0.5000 F480
G02 X74.7174 Y657.7048 Z-0.1667 I-1.0601 J0.0000 F90
G02 Y659.5409 Z-0.8333 I0.5300 J0.9180 F90
G02 X76.3075 Y658.6228 Z-1.5000 I0.5300 J-0.9180 F90
G02 X74.7174 Y657.7048 Z-2.1667 I-1.0601 J0.0000 F90
G02 Y659.5409 Z-2.8333 I0.5300 J0.9180 F90
G02 X76.3075 Y658.6228 Z-3.5000 I0.5300 J-0.9180 F90
G02 X74.7174 Y657.7048 Z-4.1667 I-1.0601 J0.0000 F90
G02 Y659.5409 Z-4.8333 I0.5300 J0.9180 F90
G02 X76.3075 Y658.6228 Z-5.5000 I0.5300 J-0.9180 F90
G02 X75.2474 Y657.5627 Z-6.0000 I-1.0601 J0.0000 F90
G02 X74.1874 Y658.6228 Z-6.5000 I0.0000 J1.0601 F90
G02 X75.7775 Y659.5409 I1.0601 J0.0000 F90
G02 Y657.7048 I-0.5300 J-0.9180 F90
G02 X74.1874 Y658.6228 I-0.5300 J0.9180 F90
G02 X74.7174 Y659.1528 Z-6.3675 I0.5300 J0.0000 F600
G00 Z10.0000 F480

(No. 26 Helical drill machining: Helical drill 9)
G00 X20.3074 Y658.6229 Z10.0000 F2100
G00 Z0.5000 F480
G02 X18.7175 Y657.7050 Z-0.1667 I-1.0599 J0.0000 F90
G02 Y659.5408 Z-0.8333 I0.5300 J0.9179 F90
G02 X20.3074 Y658.6229 Z-1.5000 I0.5300 J-0.9179 F90
G02 X18.7175 Y657.7050 Z-2.1667 I-1.0599 J0.0000 F90
G02 Y659.5408 Z-2.8333 I0.5300 J0.9179 F90
G02 X20.3074 Y658.6229 Z-3.5000 I0.5300 J-0.9179 F90
G02 X18.7175 Y657.7050 Z-4.1667 I-1.0599 J0.0000 F90
G02 Y659.5408 Z-4.8333 I0.5300 J0.9179 F90
G02 X20.3074 Y658.6229 Z-5.5000 I0.5300 J-0.9179 F90
G02 X19.2475 Y657.5630 Z-6.0000 I-1.0599 J0.0000 F90
G02 X18.1876 Y658.6229 Z-6.5000 I0.0000 J1.0599 F90
G02 X19.7775 Y659.5408 I1.0599 J0.0000 F90
G02 Y657.7050 I-0.5300 J-0.9179 F90
G02 X18.1876 Y658.6229 I-0.5300 J0.9179 F90
G02 X18.7175 Y659.1529 Z-6.3675 I0.5300 J0.0000 F600
G00 Z10.0000 F480

(No. 27 Helical drill machining: Helical drill 11)
G00 X20.3073 Y820.6527 Z10.0000 F2100
G00 Z0.5000 F480
G02 X18.7174 Y819.7347 Z-0.1667 I-1.0600 J0.0000 F90
G02 Y821.5706 Z-0.8333 I0.5300 J0.9180 F90
G02 X20.3073 Y820.6527 Z-1.5000 I0.5300 J-0.9180 F90
G02 X18.7174 Y819.7347 Z-2.1667 I-1.0600 J0.0000 F90
G02 Y821.5706 Z-2.8333 I0.5300 J0.9180 F90
G02 X20.3073 Y820.6527 Z-3.5000 I0.5300 J-0.9180 F90
G02 X18.7174 Y819.7347 Z-4.1667 I-1.0600 J0.0000 F90
G02 Y821.5706 Z-4.8333 I0.5300 J0.9180 F90
G02 X20.3073 Y820.6527 Z-5.5000 I0.5300 J-0.9180 F90
G02 X19.2474 Y819.5927 Z-6.0000 I-1.0600 J0.0000 F90
G02 X18.1874 Y820.6527 Z-6.5000 I0.0000 J1.0600 F90
G02 X19.7773 Y821.5706 I1.0600 J0.0000 F90
G02 Y819.7347 I-0.5300 J-0.9180 F90
G02 X18.1874 Y820.6527 I-0.5300 J0.9180 F90
G02 X18.7174 Y821.1827 Z-6.3675 I0.5300 J0.0000 F600
G00 Z10.0000 F480

(No. 28 Helical drill machining: Helical drill 12)
G00 X76.3075 Y820.6547 Z10.0000 F2100
G00 Z0.5000 F480
G02 X74.7091 Y819.7318 Z-0.1667 I-1.0656 J0.0000 F90
G02 Y821.5775 Z-0.8333 I0.5328 J0.9228 F90
G02 X76.3075 Y820.6547 Z-1.5000 I0.5328 J-0.9228 F90
G02 X74.7091 Y819.7318 Z-2.1667 I-1.0656 J0.0000 F90
G02 Y821.5775 Z-2.8333 I0.5328 J0.9228 F90
G02 X76.3075 Y820.6547 Z-3.5000 I0.5328 J-0.9228 F90
G02 X74.7091 Y819.7318 Z-4.1667 I-1.0656 J0.0000 F90
G02 Y821.5775 Z-4.8333 I0.5328 J0.9228 F90
G02 X76.3075 Y820.6547 Z-5.5000 I0.5328 J-0.9228 F90
G02 X75.2419 Y819.5891 Z-6.0000 I-1.0656 J0.0000 F90
G02 X74.1762 Y820.6547 Z-6.5000 I0.0000 J1.0656 F90
G02 X75.7747 Y821.5775 I1.0656 J0.0000 F90
G02 Y819.7318 I-0.5328 J-0.9228 F90
G02 X74.1762 Y820.6547 I-0.5328 J0.9228 F90
G02 X74.7091 Y821.1875 Z-6.3668 I0.5328 J0.0000 F600
G00 Z10.0000 F480

(No. 29 Helical drill machining: Helical drill 13)
G00 X127.0574 Y820.6530 Z10.0000 F2100
G00 Z0.5000 F480
G02 X125.4674 Y819.7351 Z-0.1667 I-1.0600 J0.0000 F90
G02 Y821.5710 Z-0.8333 I0.5300 J0.9180 F90
G02 X127.0574 Y820.6530 Z-1.5000 I0.5300 J-0.9180 F90
G02 X125.4674 Y819.7351 Z-2.1667 I-1.0600 J0.0000 F90
G02 Y821.5710 Z-2.8333 I0.5300 J0.9180 F90
G02 X127.0574 Y820.6530 Z-3.5000 I0.5300 J-0.9180 F90
G02 X125.4674 Y819.7351 Z-4.1667 I-1.0600 J0.0000 F90
G02 Y821.5710 Z-4.8333 I0.5300 J0.9180 F90
G02 X127.0574 Y820.6530 Z-5.5000 I0.5300 J-0.9180 F90
G02 X125.9974 Y819.5930 Z-6.0000 I-1.0600 J0.0000 F90
G02 X124.9374 Y820.6530 Z-6.5000 I0.0000 J1.0600 F90
G02 X126.5274 Y821.5710 I1.0600 J0.0000 F90
G02 Y819.7351 I-0.5300 J-0.9180 F90
G02 X124.9374 Y820.6530 I-0.5300 J0.9180 F90
G02 X125.4674 Y821.1830 Z-6.3675 I0.5300 J0.0000 F600
G00 Z10.0000 F480

(No. 30 Helical drill machining: Helical drill 14)
G00 X183.0575 Y820.6547 Z10.0000 F2100
G00 Z0.5000 F480
G02 X181.4591 Y819.7318 Z-0.1667 I-1.0656 J0.0000 F90
G02 Y821.5775 Z-0.8333 I0.5328 J0.9228 F90
G02 X183.0575 Y820.6547 Z-1.5000 I0.5328 J-0.9228 F90
G02 X181.4591 Y819.7318 Z-2.1667 I-1.0656 J0.0000 F90
G02 Y821.5775 Z-2.8333 I0.5328 J0.9228 F90
G02 X183.0575 Y820.6547 Z-3.5000 I0.5328 J-0.9228 F90
G02 X181.4591 Y819.7318 Z-4.1667 I-1.0656 J0.0000 F90
G02 Y821.5775 Z-4.8333 I0.5328 J0.9228 F90
G02 X183.0575 Y820.6547 Z-5.5000 I0.5328 J-0.9228 F90
G02 X181.9919 Y819.5891 Z-6.0000 I-1.0656 J0.0000 F90
G02 X180.9262 Y820.6547 Z-6.5000 I0.0000 J1.0656 F90
G02 X182.5247 Y821.5775 I1.0656 J0.0000 F90
G02 Y819.7318 I-0.5328 J-0.9228 F90
G02 X180.9262 Y820.6547 I-0.5328 J0.9228 F90
G02 X181.4591 Y821.1875 Z-6.3668 I0.5328 J0.0000 F600
G00 Z10.0000 F480

(No. 31 Part roughing and finishing: Part 2)
M05
;M06 T2 (1/8" Upcut Soft wood)
M00 (Change tool: 1/8" Upcut Soft wood)
M03 S10000
G00 X150.4073 Y831.1520 Z10.0000 F2100
G00 Z0.5000 F480
G01 Z0.0000 F90
G01 X147.4073 Z-3.0000 F90
G01 X150.4073 Z-6.0000 F90
G01 X120.2473 F1800
G03 X118.4983 Y829.4030 I0.0000 J-1.7490 F1800
G01 Y813.8640 F1800
G03 X118.8619 Y812.7964 I1.7490 J0.0000 F1800
G01 X118.8526 Y812.7891 F1800
G03 X117.7860 Y813.1520 I-1.0666 J-1.3861 F1800
G01 X114.7473 F1800
G03 X112.9983 Y811.4030 I0.0000 J-1.7490 F1800
G01 Y743.2280 F1800
G00 Z-3.0000 F480
G01 Y736.0480 F1800
G01 Y734.5480 Z-4.5000 F90
G01 Y736.0480 Z-6.0000 F90
G01 Y667.8730 F1800
G03 X114.7473 Y666.1240 I1.7490 J0.0000 F1800
G01 X117.7860 F1800
G03 X118.8526 Y666.4869 I0.0000 J1.7490 F1800
G01 X118.8619 Y666.4796 F1800
G03 X118.4983 Y665.4120 I1.3854 J-1.0676 F1800
G01 Y651.8340 F1800
G03 X118.8619 Y650.7664 I1.7490 J0.0000 F1800
G01 X118.8526 Y650.7591 F1800
G03 X117.7860 Y651.1220 I-1.0666 J-1.3861 F1800
G01 X114.7473 F1800
G03 X112.9983 Y649.3730 I0.0000 J-1.7490 F1800
G01 Y581.1980 F1800
G00 Z-3.0000 F480
G01 Y574.0180 F1800
G01 Y572.5180 Z-4.5000 F90
G01 Y574.0180 Z-6.0000 F90
G01 Y505.8430 F1800
G03 X114.7473 Y504.0940 I1.7490 J0.0000 F1800
G01 X117.7860 F1800
G03 X118.8526 Y504.4569 I0.0000 J1.7490 F1800
G01 X118.8619 Y504.4496 F1800
G03 X118.4983 Y503.3820 I1.3854 J-1.0676 F1800
G01 Y489.8040 F1800
G03 X118.8619 Y488.7364 I1.7490 J0.0000 F1800
G01 X118.8526 Y488.7291 F1800
G03 X117.7860 Y489.0920 I-1.0666 J-1.3861 F1800
G01 X114.7473 F1800
G03 X112.9983 Y487.3430 I0.0000 J-1.7490 F1800
G01 Y419.1680 F1800
G00 Z-3.0000 F480
G01 Y411.9880 F1800
G01 Y410.4880 Z-4.5000 F90
G01 Y411.9880 Z-6.0000 F90
G01 Y343.8130 F1800
G03 X114.7473 Y342.0640 I1.7490 J0.0000 F1800
G01 X117.7860 F1800
G03 X118.8526 Y342.4269 I0.0000 J1.7490 F1800
G01 X118.8619 Y342.4196 F1800
G03 X118.4983 Y341.3520 I1.3854 J-1.0676 F1800
G01 Y327.7740 F1800
G03 X118.8619 Y326.7064 I1.7490 J0.0000 F1800
G01 X118.8526 Y326.6991 F1800
G03 X117.7860 Y327.0620 I-1.0666 J-1.3861 F1800
G01 X114.7473 F1800
G03 X112.9983 Y325.3130 I0.0000 J-1.7490 F1800
G01 Y257.1380 F1800
G00 Z-3.0000 F480
G01 Y249.9580 F1800
G01 Y248.4580 Z-4.5000 F90
G01 Y249.9580 Z-6.0000 F90
G01 Y181.7830 F1800
G03 X114.7473 Y180.0340 I1.7490 J0.0000 F1800
G01 X117.7860 F1800
G03 X118.8526 Y180.3969 I0.0000 J1.7490 F1800
G01 X118.8619 Y180.3896 F1800
G03 X118.4983 Y179.3220 I1.3854 J-1.0676 F1800
G01 Y165.7440 F1800
G03 X118.8619 Y164.6764 I1.7490 J0.0000 F1800
G01 X118.8526 Y164.6691 F1800
G03 X117.7860 Y165.0320 I-1.0666 J-1.3861 F1800
G01 X114.7473 F1800
G03 X112.9983 Y163.2830 I0.0000 J-1.7490 F1800
G01 Y95.1080 F1800
G00 Z-3.0000 F480
G01 Y87.9280 F1800
G01 Y86.4280 Z-4.5000 F90
G01 Y87.9280 Z-6.0000 F90
G01 Y19.7530 F1800
G03 X114.7473 Y18.0040 I1.7490 J0.0000 F1800
G01 X117.7860 F1800
G03 X118.8508 Y18.3654 I0.0000 J1.7490 F1800
G01 X118.8598 Y18.3564 F1800
G03 X118.4983 Y17.2917 I1.3876 J-1.0647 F1800
G01 Y1.7530 F1800
G03 X120.2473 Y0.0040 I1.7490 J0.0000 F1800
G01 X150.4073 F1800
G00 Z-3.0000 F480
G01 X157.5873 F1800
G01 X159.0873 Z-4.5000 F90
G01 X157.5873 Z-6.0000 F90
G01 X187.7473 F1800
G03 X189.4963 Y1.7530 I0.0000 J1.7490 F1800
G01 Y17.2917 F1800
G03 X189.1349 Y18.3564 I-1.7490 J0.0000 F1800
G01 X189.1439 Y18.3654 F1800
G03 X190.2086 Y18.0040 I1.0647 J1.3876 F1800
G01 X193.2473 F1800
G03 X194.9963 Y19.7530 I0.0000 J1.7490 F1800
G01 Y87.9280 F1800
G00 Z-3.0000 F480
G01 Y95.1080 F1800
G01 Y96.6080 Z-4.5000 F90
G01 Y95.1080 Z-6.0000 F90
G01 Y163.2830 F1800
G03 X193.2473 Y165.0320 I-1.7490 J0.0000 F1800
G01 X190.2086 F1800
G03 X189.1420 Y164.6691 I0.0000 J-1.7490 F1800
G01 X189.1327 Y164.6764 F1800
G03 X189.4963 Y165.7440 I-1.3854 J1.0676 F1800
G01 Y179.3220 F1800
G03 X189.1327 Y180.3896 I-1.7490 J0.0000 F1800
G01 X189.1420 Y180.3969 F1800
G03 X190.2086 Y180.0340 I1.0666 J1.3861 F1800
G01 X193.2473 F1800
G03 X194.9963 Y181.7830 I0.0000 J1.7490 F1800
G01 Y249.9580 F1800
G00 Z-3.0000 F480
G01 Y257.1380 F1800
G01 Y258.6380 Z-4.5000 F90
G01 Y257.1380 Z-6.0000 F90
G01 Y325.3130 F1800
G03 X193.2473 Y327.0620 I-1.7490 J0.0000 F1800
G01 X190.2086 F1800
G03 X189.1420 Y326.6991 I0.0000 J-1.7490 F1800
G01 X189.1327 Y326.7064 F1800
G03 X189.4963 Y327.7740 I-1.3854 J1.0676 F1800
G01 Y341.3520 F1800
G03 X189.1327 Y342.4196 I-1.7490 J0.0000 F1800
G01 X189.1420 Y342.4269 F1800
G03 X190.2086 Y342.0640 I1.0666 J1.3861 F1800
G01 X193.2473 F1800
G03 X194.9963 Y343.8130 I0.0000 J1.7490 F1800
G01 Y411.9880 F1800
G00 Z-3.0000 F480
G01 Y419.1680 F1800
G01 Y420.6680 Z-4.5000 F90
G01 Y419.1680 Z-6.0000 F90
G01 Y487.3430 F1800
G03 X193.2473 Y489.0920 I-1.7490 J0.0000 F1800
G01 X190.2086 F1800
G03 X189.1420 Y488.7291 I0.0000 J-1.7490 F1800
G01 X189.1327 Y488.7364 F1800
G03 X189.4963 Y489.8040 I-1.3854 J1.0676 F1800
G01 Y503.3820 F1800
G03 X189.1327 Y504.4496 I-1.7490 J0.0000 F1800
G01 X189.1420 Y504.4569 F1800
G03 X190.2086 Y504.0940 I1.0666 J1.3861 F1800
G01 X193.2473 F1800
G03 X194.9963 Y505.8430 I0.0000 J1.7490 F1800
G01 Y574.0180 F1800
G00 Z-3.0000 F480
G01 Y581.1980 F1800
G01 Y582.6980 Z-4.5000 F90
G01 Y581.1980 Z-6.0000 F90
G01 Y649.3730 F1800
G03 X193.2473 Y651.1220 I-1.7490 J0.0000 F1800
G01 X190.2086 F1800
G03 X189.1420 Y650.7591 I0.0000 J-1.7490 F1800
G01 X189.1327 Y650.7664 F1800
G03 X189.4963 Y651.8340 I-1.3854 J1.0676 F1800
G01 Y665.4120 F1800
G03 X189.1327 Y666.4796 I-1.7490 J0.0000 F1800
G01 X189.1420 Y666.4869 F1800
G03 X190.2086 Y666.1240 I1.0666 J1.3861 F1800
G01 X193.2473 F1800
G03 X194.9963 Y667.8730 I0.0000 J1.7490 F1800
G01 Y736.0480 F1800
G00 Z-3.0000 F480
G01 Y743.2280 F1800
G01 Y744.7280 Z-4.5000 F90
G01 Y743.2280 Z-6.0000 F90
G01 Y811.4030 F1800
G03 X193.2473 Y813.1520 I-1.7490 J0.0000 F1800
G01 X190.2086 F1800
G03 X189.1420 Y812.7891 I0.0000 J-1.7490 F1800
G01 X189.1327 Y812.7964 F1800
G03 X189.4963 Y813.8640 I-1.3854 J1.0676 F1800
G01 Y829.4030 F1800
G03 X187.7473 Y831.1520 I-1.7490 J0.0000 F1800
G01 X157.5873 F1800
G00 Z-3.0000 F480
G01 X150.4073 F1800
G00 Z-5.5000 F480
G01 Z-6.0000 F90
G01 X150.1573 Z-6.2500 F90
G01 X150.4073 Z-6.5000 F90
G01 X120.2473 F1800
G03 X118.4983 Y829.4030 I0.0000 J-1.7490 F1800
G01 Y813.8640 F1800
G03 X118.8619 Y812.7964 I1.7490 J0.0000 F1800
G01 X118.8526 Y812.7891 F1800
G03 X117.7860 Y813.1520 I-1.0666 J-1.3861 F1800
G01 X114.7473 F1800
G03 X112.9983 Y811.4030 I0.0000 J-1.7490 F1800
G01 Y743.2280 F1800
G00 Z-3.0000 F480
G01 Y736.0480 F1800
G00 Z-5.5000 F480
G01 Z-6.0000 F90
G01 Y735.7980 Z-6.2500 F90
G01 Y736.0480 Z-6.5000 F90
G01 Y667.8730 F1800
G03 X114.7473 Y666.1240 I1.7490 J0.0000 F1800
G01 X117.7860 F1800
G03 X118.8526 Y666.4869 I0.0000 J1.7490 F1800
G01 X118.8619 Y666.4796 F1800
G03 X118.4983 Y665.4120 I1.3854 J-1.0676 F1800
G01 Y651.8340 F1800
G03 X118.8619 Y650.7664 I1.7490 J0.0000 F1800
G01 X118.8526 Y650.7591 F1800
G03 X117.7860 Y651.1220 I-1.0666 J-1.3861 F1800
G01 X114.7473 F1800
G03 X112.9983 Y649.3730 I0.0000 J-1.7490 F1800
G01 Y581.1980 F1800
G00 Z-3.0000 F480
G01 Y574.0180 F1800
G00 Z-5.5000 F480
G01 Z-6.0000 F90
G01 Y573.7680 Z-6.2500 F90
G01 Y574.0180 Z-6.5000 F90
G01 Y505.8430 F1800
G03 X114.7473 Y504.0940 I1.7490 J0.0000 F1800
G01 X117.7860 F1800
G03 X118.8526 Y504.4569 I0.0000 J1.7490 F1800
G01 X118.8619 Y504.4496 F1800
G03 X118.4983 Y503.3820 I1.3854 J-1.0676 F1800
G01 Y489.8040 F1800
G03 X118.8619 Y488.7364 I1.7490 J0.0000 F1800
G01 X118.8526 Y488.7291 F1800
G03 X117.7860 Y489.0920 I-1.0666 J-1.3861 F1800
G01 X114.7473 F1800
G03 X112.9983 Y487.3430 I0.0000 J-1.7490 F1800
G01 Y419.1680 F1800
G00 Z-3.0000 F480
G01 Y411.9880 F1800
G00 Z-5.5000 F480
G01 Z-6.0000 F90
G01 Y411.7380 Z-6.2500 F90
G01 Y411.9880 Z-6.5000 F90
G01 Y343.8130 F1800
G03 X114.7473 Y342.0640 I1.7490 J0.0000 F1800
G01 X117.7860 F1800
G03 X118.8526 Y342.4269 I0.0000 J1.7490 F1800
G01 X118.8619 Y342.4196 F1800
G03 X118.4983 Y341.3520 I1.3854 J-1.0676 F1800
G01 Y327.7740 F1800
G03 X118.8619 Y326.7064 I1.7490 J0.0000 F1800
G01 X118.8526 Y326.6991 F1800
G03 X117.7860 Y327.0620 I-1.0666 J-1.3861 F1800
G01 X114.7473 F1800
G03 X112.9983 Y325.3130 I0.0000 J-1.7490 F1800
G01 Y257.1380 F1800
G00 Z-3.0000 F480
G01 Y249.9580 F1800
G00 Z-5.5000 F480
G01 Z-6.0000 F90
G01 Y249.7080 Z-6.2500 F90
G01 Y249.9580 Z-6.5000 F90
G01 Y181.7830 F1800
G03 X114.7473 Y180.0340 I1.7490 J0.0000 F1800
G01 X117.7860 F1800
G03 X118.8526 Y180.3969 I0.0000 J1.7490 F1800
G01 X118.8619 Y180.3896 F1800
G03 X118.4983 Y179.3220 I1.3854 J-1.0676 F1800
G01 Y165.7440 F1800
G03 X118.8619 Y164.6764 I1.7490 J0.0000 F1800
G01 X118.8526 Y164.6691 F1800
G03 X117.7860 Y165.0320 I-1.0666 J-1.3861 F1800
G01 X114.7473 F1800
G03 X112.9983 Y163.2830 I0.0000 J-1.7490 F1800
G01 Y95.1080 F1800
G00 Z-3.0000 F480
G01 Y87.9280 F1800
G00 Z-5.5000 F480
G01 Z-6.0000 F90
G01 Y87.6780 Z-6.2500 F90
G01 Y87.9280 Z-6.5000 F90
G01 Y19.7530 F1800
G03 X114.7473 Y18.0040 I1.7490 J0.0000 F1800
G01 X117.7860 F1800
G03 X118.8508 Y18.3654 I0.0000 J1.7490 F1800
G01 X118.8598 Y18.3564 F1800
G03 X118.4983 Y17.2917 I1.3876 J-1.0647 F1800
G01 Y1.7530 F1800
G03 X120.2473 Y0.0040 I1.7490 J0.0000 F1800
G01 X150.4073 F1800
G00 Z-3.0000 F480
G01 X157.5873 F1800
G00 Z-5.5000 F480
G01 Z-6.0000 F90
G01 X157.8373 Z-6.2500 F90
G01 X157.5873 Z-6.5000 F90
G01 X187.7473 F1800
G03 X189.4963 Y1.7530 I0.0000 J1.7490 F1800
G01 Y17.2917 F1800
G03 X189.1349 Y18.3564 I-1.7490 J0.0000 F1800
G01 X189.1439 Y18.3654 F1800
G03 X190.2086 Y18.0040 I1.0647 J1.3876 F1800
G01 X193.2473 F1800
G03 X194.9963 Y19.7530 I0.0000 J1.7490 F1800
G01 Y87.9280 F1800
G00 Z-3.0000 F480
G01 Y95.1080 F1800
G00 Z-5.5000 F480
G01 Z-6.0000 F90
G01 Y95.3580 Z-6.2500 F90
G01 Y95.1080 Z-6.5000 F90
G01 Y163.2830 F1800
G03 X193.2473 Y165.0320 I-1.7490 J0.0000 F1800
G01 X190.2086 F1800
G03 X189.1420 Y164.6691 I0.0000 J-1.7490 F1800
G01 X189.1327 Y164.6764 F1800
G03 X189.4963 Y165.7440 I-1.3854 J1.0676 F1800
G01 Y179.3220 F1800
G03 X189.1327 Y180.3896 I-1.7490 J0.0000 F1800
G01 X189.1420 Y180.3969 F1800
G03 X190.2086 Y180.0340 I1.0666 J1.3861 F1800
G01 X193.2473 F1800
G03 X194.9963 Y181.7830 I0.0000 J1.7490 F1800
G01 Y249.9580 F1800
G00 Z-3.0000 F480
G01 Y257.1380 F1800
G00 Z-5.5000 F480
G01 Z-6.0000 F90
G01 Y257.3880 Z-6.2500 F90
G01 Y257.1380 Z-6.5000 F90
G01 Y325.3130 F1800
G03 X193.2473 Y327.0620 I-1.7490 J0.0000 F1800
G01 X190.2086 F1800
G03 X189.1420 Y326.6991 I0.0000 J-1.7490 F1800
G01 X189.1327 Y326.7064 F1800
G03 X189.4963 Y327.7740 I-1.3854 J1.0676 F1800
G01 Y341.3520 F1800
G03 X189.1327 Y342.4196 I-1.7490 J0.0000 F1800
G01 X189.1420 Y342.4269 F1800
G03 X190.2086 Y342.0640 I1.0666 J1.3861 F1800
G01 X193.2473 F1800
G03 X194.9963 Y343.8130 I0.0000 J1.7490 F1800
G01 Y411.9880 F1800
G00 Z-3.0000 F480
G01 Y419.1680 F1800
G00 Z-5.5000 F480
G01 Z-6.0000 F90
G01 Y419.4180 Z-6.2500 F90
G01 Y419.1680 Z-6.5000 F90
G01 Y487.3430 F1800
G03 X193.2473 Y489.0920 I-1.7490 J0.0000 F1800
G01 X190.2086 F1800
G03 X189.1420 Y488.7291 I0.0000 J-1.7490 F1800
G01 X189.1327 Y488.7364 F1800
G03 X189.4963 Y489.8040 I-1.3854 J1.0676 F1800
G01 Y503.3820 F1800
G03 X189.1327 Y504.4496 I-1.7490 J0.0000 F1800
G01 X189.1420 Y504.4569 F1800
G03 X190.2086 Y504.0940 I1.0666 J1.3861 F1800
G01 X193.2473 F1800
G03 X194.9963 Y505.8430 I0.0000 J1.7490 F1800
G01 Y574.0180 F1800
G00 Z-3.0000 F480
G01 Y581.1980 F1800
G00 Z-5.5000 F480
G01 Z-6.0000 F90
G01 Y581.4480 Z-6.2500 F90
G01 Y581.1980 Z-6.5000 F90
G01 Y649.3730 F1800
G03 X193.2473 Y651.1220 I-1.7490 J0.0000 F1800
G01 X190.2086 F1800
G03 X189.1420 Y650.7591 I0.0000 J-1.7490 F1800
G01 X189.1327 Y650.7664 F1800
G03 X189.4963 Y651.8340 I-1.3854 J1.0676 F1800
G01 Y665.4120 F1800
G03 X189.1327 Y666.4796 I-1.7490 J0.0000 F1800
G01 X189.1420 Y666.4869 F1800
G03 X190.2086 Y666.1240 I1.0666 J1.3861 F1800
G01 X193.2473 F1800
G03 X194.9963 Y667.8730 I0.0000 J1.7490 F1800
G01 Y736.0480 F1800
G00 Z-3.0000 F480
G01 Y743.2280 F1800
G00 Z-5.5000 F480
G01 Z-6.0000 F90
G01 Y743.4780 Z-6.2500 F90
G01 Y743.2280 Z-6.5000 F90
G01 Y811.4030 F1800
G03 X193.2473 Y813.1520 I-1.7490 J0.0000 F1800
G01 X190.2086 F1800
G03 X189.1420 Y812.7891 I0.0000 J-1.7490 F1800
G01 X189.1327 Y812.7964 F1800
G03 X189.4963 Y813.8640 I-1.3854 J1.0676 F1800
G01 Y829.4030 F1800
G03 X187.7473 Y831.1520 I-1.7490 J0.0000 F1800
G01 X157.5873 F1800
G00 Z-3.0000 F480
G01 X150.4073 F1800
G00 X150.4073 Y831.1520 Z10.0000 F480
G00 Z0.5000 F480
G01 Z0.0000 F90
G01 Y830.9930 F90
G01 X147.4073 Z-3.0000 F90
G01 X150.4073 Z-6.0000 F90
G01 X120.2473 F1800
G03 X118.6573 Y829.4030 I0.0000 J-1.5900 F1800
G01 Y813.8640 F1800
G03 X119.1258 Y812.7369 I1.5900 J0.0000 F1800
G02 X118.9156 Y812.5221 I-0.1162 J-0.0966 F1800
G03 X117.7860 Y812.9930 I-1.1295 J-1.1191 F1800
G01 X114.7473 F1800
G03 X113.1573 Y811.4030 I0.0000 J-1.5900 F1800
G01 Y743.2280 F1800
G00 Z-3.0000 F480
G01 Y736.0480 F1800
G01 Y734.5480 Z-4.5000 F90
G01 Y736.0480 Z-6.0000 F90
G01 Y667.8730 F1800
G03 X114.7473 Y666.2830 I1.5900 J0.0000 F1800
G01 X117.7860 F1800
G03 X118.9122 Y666.7505 I0.0000 J1.5900 F1800
G02 X119.1283 Y666.5416 I0.0981 J-0.1149 F1800
G03 X118.6573 Y665.4120 I1.1190 J-1.1296 F1800
G01 Y651.8340 F1800
G03 X119.1258 Y650.7069 I1.5900 J0.0000 F1800
G02 X118.9156 Y650.4921 I-0.1162 J-0.0966 F1800
G03 X117.7860 Y650.9630 I-1.1295 J-1.1191 F1800
G01 X114.7473 F1800
G03 X113.1573 Y649.3730 I0.0000 J-1.5900 F1800
G01 Y581.1980 F1800
G00 Z-3.0000 F480
G01 Y574.0180 F1800
G01 Y572.5180 Z-4.5000 F90
G01 Y574.0180 Z-6.0000 F90
G01 Y505.8430 F1800
G03 X114.7473 Y504.2530 I1.5900 J0.0000 F1800
G01 X117.7860 F1800
G03 X118.9122 Y504.7205 I0.0000 J1.5900 F1800
G02 X119.1283 Y504.5116 I0.0981 J-0.1149 F1800
G03 X118.6573 Y503.3820 I1.1190 J-1.1296 F1800
G01 Y489.8040 F1800
G03 X119.1258 Y488.6769 I1.5900 J0.0000 F1800
G02 X118.9156 Y488.4621 I-0.1162 J-0.0966 F1800
G03 X117.7860 Y488.9330 I-1.1295 J-1.1191 F1800
G01 X114.7473 F1800
G03 X113.1573 Y487.3430 I0.0000 J-1.5900 F1800
G01 Y419.1680 F1800
G00 Z-3.0000 F480
G01 Y411.9880 F1800
G01 Y410.4880 Z-4.5000 F90
G01 Y411.9880 Z-6.0000 F90
G01 Y343.8130 F1800
G03 X114.7473 Y342.2230 I1.5900 J0.0000 F1800
G01 X117.7860 F1800
G03 X118.9122 Y342.6905 I0.0000 J1.5900 F1800
G02 X119.1283 Y342.4816 I0.0981 J-0.1149 F1800
G03 X118.6573 Y341.3520 I1.1190 J-1.1296 F1800
G01 Y327.7740 F1800
G03 X119.1258 Y326.6469 I1.5900 J0.0000 F1800
G02 X118.9156 Y326.4321 I-0.1162 J-0.0966 F1800
G03 X117.7860 Y326.9030 I-1.1295 J-1.1191 F1800
G01 X114.7473 F1800
G03 X113.1573 Y325.3130 I0.0000 J-1.5900 F1800
G01 Y257.1380 F1800
G00 Z-3.0000 F480
G01 Y249.9580 F1800
G01 Y248.4580 Z-4.5000 F90
G01 Y249.9580 Z-6.0000 F90
G01 Y181.7830 F1800
G03 X114.7473 Y180.1930 I1.5900 J0.0000 F1800
G01 X117.7860 F1800
G03 X118.9122 Y180.6605 I0.0000 J1.5900 F1800
G02 X119.1283 Y180.4516 I0.0981 J-0.1149 F1800
G03 X118.6573 Y179.3220 I1.1190 J-1.1296 F1800
G01 Y165.7440 F1800
G03 X119.1258 Y164.6169 I1.5900 J0.0000 F1800
G02 X118.9156 Y164.4021 I-0.1162 J-0.0966 F1800
G03 X117.7860 Y164.8730 I-1.1295 J-1.1191 F1800
G01 X114.7473 F1800
G03 X113.1573 Y163.2830 I0.0000 J-1.5900 F1800
G01 Y95.1080 F1800
G00 Z-3.0000 F480
G01 Y87.9280 F1800
G01 Y86.4280 Z-4.5000 F90
G01 Y87.9280 Z-6.0000 F90
G01 Y19.7530 F1800
G03 X114.7473 Y18.1630 I1.5900 J0.0000 F1800
G01 X117.7860 F1800
G03 X118.9103 Y18.6287 I0.0000 J1.5900 F1800
G02 X119.1274 Y18.4204 I0.0999 J-0.1132 F1800
G03 X118.6573 Y17.2917 I1.1200 J-1.1287 F1800
G01 Y1.7530 F1800
G03 X120.2473 Y0.1630 I1.5900 J0.0000 F1800
G01 X150.4073 F1800
G00 Z-3.0000 F480
G01 X157.5873 F1800
G01 X159.0873 Z-4.5000 F90
G01 X157.5873 Z-6.0000 F90
G01 X187.7473 F1800
G03 X189.3373 Y1.7530 I0.0000 J1.5900 F1800
G01 Y17.2917 F1800
G03 X188.8716 Y18.4160 I-1.5900 J0.0000 F1800
G02 X189.0800 Y18.6331 I0.1132 J0.0999 F1800
G03 X190.2086 Y18.1630 I1.1287 J1.1200 F1800
G01 X193.2473 F1800
G03 X194.8373 Y19.7530 I0.0000 J1.5900 F1800
G01 Y87.9280 F1800
G00 Z-3.0000 F480
G01 Y95.1080 F1800
G01 Y96.6080 Z-4.5000 F90
G01 Y95.1080 Z-6.0000 F90
G01 Y163.2830 F1800
G03 X193.2473 Y164.8730 I-1.5900 J0.0000 F1800
G01 X190.2086 F1800
G03 X189.0825 Y164.4055 I0.0000 J-1.5900 F1800
G02 X188.8664 Y164.6144 I-0.0981 J0.1149 F1800
G03 X189.3373 Y165.7440 I-1.1190 J1.1296 F1800
G01 Y179.3220 F1800
G03 X188.8689 Y180.4490 I-1.5900 J0.0000 F1800
G02 X189.0791 Y180.6639 I0.1162 J0.0966 F1800
G03 X190.2086 Y180.1930 I1.1295 J1.1191 F1800
G01 X193.2473 F1800
G03 X194.8373 Y181.7830 I0.0000 J1.5900 F1800
G01 Y249.9580 F1800
G00 Z-3.0000 F480
G01 Y257.1380 F1800
G01 Y258.6380 Z-4.5000 F90
G01 Y257.1380 Z-6.0000 F90
G01 Y325.3130 F1800
G03 X193.2473 Y326.9030 I-1.5900 J0.0000 F1800
G01 X190.2086 F1800
G03 X189.0825 Y326.4355 I0.0000 J-1.5900 F1800
G02 X188.8664 Y326.6444 I-0.0981 J0.1149 F1800
G03 X189.3373 Y327.7740 I-1.1190 J1.1296 F1800
G01 Y341.3520 F1800
G03 X188.8689 Y342.4790 I-1.5900 J0.0000 F1800
G02 X189.0791 Y342.6939 I0.1162 J0.0966 F1800
G03 X190.2086 Y342.2230 I1.1295 J1.1191 F1800
G01 X193.2473 F1800
G03 X194.8373 Y343.8130 I0.0000 J1.5900 F1800
G01 Y411.9880 F1800
G00 Z-3.0000 F480
G01 Y419.1680 F1800
G01 Y420.6680 Z-4.5000 F90
G01 Y419.1680 Z-6.0000 F90
G01 Y487.3430 F1800
G03 X193.2473 Y488.9330 I-1.5900 J0.0000 F1800
G01 X190.2086 F1800
G03 X189.0825 Y488.4655 I0.0000 J-1.5900 F1800
G02 X188.8664 Y488.6744 I-0.0981 J0.1149 F1800
G03 X189.3373 Y489.8040 I-1.1190 J1.1296 F1800
G01 Y503.3820 F1800
G03 X188.8689 Y504.5090 I-1.5900 J0.0000 F1800
G02 X189.0791 Y504.7239 I0.1162 J0.0966 F1800
G03 X190.2086 Y504.2530 I1.1295 J1.1191 F1800
G01 X193.2473 F1800
G03 X194.8373 Y505.8430 I0.0000 J1.5900 F1800
G01 Y574.0180 F1800
G00 Z-3.0000 F480
G01 Y581.1980 F1800
G01 Y582.6980 Z-4.5000 F90
G01 Y581.1980 Z-6.0000 F90
G01 Y649.3730 F1800
G03 X193.2473 Y650.9630 I-1.5900 J0.0000 F1800
G01 X190.2086 F1800
G03 X189.0825 Y650.4955 I0.0000 J-1.5900 F1800
G02 X188.8664 Y650.7044 I-0.0981 J0.1149 F1800
G03 X189.3373 Y651.8340 I-1.1190 J1.1296 F1800
G01 Y665.4120 F1800
G03 X188.8689 Y666.5390 I-1.5900 J0.0000 F1800
G02 X189.0791 Y666.7539 I0.1162 J0.0966 F1800
G03 X190.2086 Y666.2830 I1.1295 J1.1191 F1800
G01 X193.2473 F1800
G03 X194.8373 Y667.8730 I0.0000 J1.5900 F1800
G01 Y736.0480 F1800
G00 Z-3.0000 F480
G01 Y743.2280 F1800
G01 Y744.7280 Z-4.5000 F90
G01 Y743.2280 Z-6.0000 F90
G01 Y811.4030 F1800
G03 X193.2473 Y812.9930 I-1.5900 J0.0000 F1800
G01 X190.2086 F1800
G03 X189.0825 Y812.5255 I0.0000 J-1.5900 F1800
G02 X188.8664 Y812.7344 I-0.0981 J0.1149 F1800
G03 X189.3373 Y813.8640 I-1.1190 J1.1296 F1800
G01 Y829.4030 F1800
G03 X187.7473 Y830.9930 I-1.5900 J0.0000 F1800
G01 X157.5873 F1800
G00 Z-3.0000 F480
G01 X150.4073 F1800
G00 Z-5.5000 F480
G01 Z-6.0000 F90
G01 X150.1573 Z-6.2500 F90
G01 X150.4073 Z-6.5000 F90
G01 X120.2473 F1800
G03 X118.6573 Y829.4030 I0.0000 J-1.5900 F1800
G01 Y813.8640 F1800
G03 X119.1258 Y812.7369 I1.5900 J0.0000 F1800
G02 X118.9156 Y812.5221 I-0.1162 J-0.0966 F1800
G03 X117.7860 Y812.9930 I-1.1295 J-1.1191 F1800
G01 X114.7473 F1800
G03 X113.1573 Y811.4030 I0.0000 J-1.5900 F1800
G01 Y743.2280 F1800
G00 Z-3.0000 F480
G01 Y736.0480 F1800
G00 Z-5.5000 F480
G01 Z-6.0000 F90
G01 Y735.7980 Z-6.2500 F90
G01 Y736.0480 Z-6.5000 F90
G01 Y667.8730 F1800
G03 X114.7473 Y666.2830 I1.5900 J0.0000 F1800
G01 X117.7860 F1800
G03 X118.9122 Y666.7505 I0.0000 J1.5900 F1800
G02 X119.1283 Y666.5416 I0.0981 J-0.1149 F1800
G03 X118.6573 Y665.4120 I1.1190 J-1.1296 F1800
G01 Y651.8340 F1800
G03 X119.1258 Y650.7069 I1.5900 J0.0000 F1800
G02 X118.9156 Y650.4921 I-0.1162 J-0.0966 F1800
G03 X117.7860 Y650.9630 I-1.1295 J-1.1191 F1800
G01 X114.7473 F1800
G03 X113.1573 Y649.3730 I0.0000 J-1.5900 F1800
G01 Y581.1980 F1800
G00 Z-3.0000 F480
G01 Y574.0180 F1800
G00 Z-5.5000 F480
G01 Z-6.0000 F90
G01 Y573.7680 Z-6.2500 F90
G01 Y574.0180 Z-6.5000 F90
G01 Y505.8430 F1800
G03 X114.7473 Y504.2530 I1.5900 J0.0000 F1800
G01 X117.7860 F1800
G03 X118.9122 Y504.7205 I0.0000 J1.5900 F1800
G02 X119.1283 Y504.5116 I0.0981 J-0.1149 F1800
G03 X118.6573 Y503.3820 I1.1190 J-1.1296 F1800
G01 Y489.8040 F1800
G03 X119.1258 Y488.6769 I1.5900 J0.0000 F1800
G02 X118.9156 Y488.4621 I-0.1162 J-0.0966 F1800
G03 X117.7860 Y488.9330 I-1.1295 J-1.1191 F1800
G01 X114.7473 F1800
G03 X113.1573 Y487.3430 I0.0000 J-1.5900 F1800
G01 Y419.1680 F1800
G00 Z-3.0000 F480
G01 Y411.9880 F1800
G00 Z-5.5000 F480
G01 Z-6.0000 F90
G01 Y411.7380 Z-6.2500 F90
G01 Y411.9880 Z-6.5000 F90
G01 Y343.8130 F1800
G03 X114.7473 Y342.2230 I1.5900 J0.0000 F1800
G01 X117.7860 F1800
G03 X118.9122 Y342.6905 I0.0000 J1.5900 F1800
G02 X119.1283 Y342.4816 I0.0981 J-0.1149 F1800
G03 X118.6573 Y341.3520 I1.1190 J-1.1296 F1800
G01 Y327.7740 F1800
G03 X119.1258 Y326.6469 I1.5900 J0.0000 F1800
G02 X118.9156 Y326.4321 I-0.1162 J-0.0966 F1800
G03 X117.7860 Y326.9030 I-1.1295 J-1.1191 F1800
G01 X114.7473 F1800
G03 X113.1573 Y325.3130 I0.0000 J-1.5900 F1800
G01 Y257.1380 F1800
G00 Z-3.0000 F480
G01 Y249.9580 F1800
G00 Z-5.5000 F480
G01 Z-6.0000 F90
G01 Y249.7080 Z-6.2500 F90
G01 Y249.9580 Z-6.5000 F90
G01 Y181.7830 F1800
G03 X114.7473 Y180.1930 I1.5900 J0.0000 F1800
G01 X117.7860 F1800
G03 X118.9122 Y180.6605 I0.0000 J1.5900 F1800
G02 X119.1283 Y180.4516 I0.0981 J-0.1149 F1800
G03 X118.6573 Y179.3220 I1.1190 J-1.1296 F1800
G01 Y165.7440 F1800
G03 X119.1258 Y164.6169 I1.5900 J0.0000 F1800
G02 X118.9156 Y164.4021 I-0.1162 J-0.0966 F1800
G03 X117.7860 Y164.8730 I-1.1295 J-1.1191 F1800
G01 X114.7473 F1800
G03 X113.1573 Y163.2830 I0.0000 J-1.5900 F1800
G01 Y95.1080 F1800
G00 Z-3.0000 F480
G01 Y87.9280 F1800
G00 Z-5.5000 F480
G01 Z-6.0000 F90
G01 Y87.6780 Z-6.2500 F90
G01 Y87.9280 Z-6.5000 F90
G01 Y19.7530 F1800
G03 X114.7473 Y18.1630 I1.5900 J0.0000 F1800
G01 X117.7860 F1800
G03 X118.9103 Y18.6287 I0.0000 J1.5900 F1800
G02 X119.1274 Y18.4204 I0.0999 J-0.1132 F1800
G03 X118.6573 Y17.2917 I1.1200 J-1.1287 F1800
G01 Y1.7530 F1800
G03 X120.2473 Y0.1630 I1.5900 J0.0000 F1800
G01 X150.4073 F1800
G00 Z-3.0000 F480
G01 X157.5873 F1800
G00 Z-5.5000 F480
G01 Z-6.0000 F90
G01 X157.8373 Z-6.2500 F90
G01 X157.5873 Z-6.5000 F90
G01 X187.7473 F1800
G03 X189.3373 Y1.7530 I0.0000 J1.5900 F1800
G01 Y17.2917 F1800
G03 X188.8716 Y18.4160 I-1.5900 J0.0000 F1800
G02 X189.0800 Y18.6331 I0.1132 J0.0999 F1800
G03 X190.2086 Y18.1630 I1.1287 J1.1200 F1800
G01 X193.2473 F1800
G03 X194.8373 Y19.7530 I0.0000 J1.5900 F1800
G01 Y87.9280 F1800
G00 Z-3.0000 F480
G01 Y95.1080 F1800
G00 Z-5.5000 F480
G01 Z-6.0000 F90
G01 Y95.3580 Z-6.2500 F90
G01 Y95.1080 Z-6.5000 F90
G01 Y163.2830 F1800
G03 X193.2473 Y164.8730 I-1.5900 J0.0000 F1800
G01 X190.2086 F1800
G03 X189.0825 Y164.4055 I0.0000 J-1.5900 F1800
G02 X188.8664 Y164.6144 I-0.0981 J0.1149 F1800
G03 X189.3373 Y165.7440 I-1.1190 J1.1296 F1800
G01 Y179.3220 F1800
G03 X188.8689 Y180.4490 I-1.5900 J0.0000 F1800
G02 X189.0791 Y180.6639 I0.1162 J0.0966 F1800
G03 X190.2086 Y180.1930 I1.1295 J1.1191 F1800
G01 X193.2473 F1800
G03 X194.8373 Y181.7830 I0.0000 J1.5900 F1800
G01 Y249.9580 F1800
G00 Z-3.0000 F480
G01 Y257.1380 F1800
G00 Z-5.5000 F480
G01 Z-6.0000 F90
G01 Y257.3880 Z-6.2500 F90
G01 Y257.1380 Z-6.5000 F90
G01 Y325.3130 F1800
G03 X193.2473 Y326.9030 I-1.5900 J0.0000 F1800
G01 X190.2086 F1800
G03 X189.0825 Y326.4355 I0.0000 J-1.5900 F1800
G02 X188.8664 Y326.6444 I-0.0981 J0.1149 F1800
G03 X189.3373 Y327.7740 I-1.1190 J1.1296 F1800
G01 Y341.3520 F1800
G03 X188.8689 Y342.4790 I-1.5900 J0.0000 F1800
G02 X189.0791 Y342.6939 I0.1162 J0.0966 F1800
G03 X190.2086 Y342.2230 I1.1295 J1.1191 F1800
G01 X193.2473 F1800
G03 X194.8373 Y343.8130 I0.0000 J1.5900 F1800
G01 Y411.9880 F1800
G00 Z-3.0000 F480
G01 Y419.1680 F1800
G00 Z-5.5000 F480
G01 Z-6.0000 F90
G01 Y419.4180 Z-6.2500 F90
G01 Y419.1680 Z-6.5000 F90
G01 Y487.3430 F1800
G03 X193.2473 Y488.9330 I-1.5900 J0.0000 F1800
G01 X190.2086 F1800
G03 X189.0825 Y488.4655 I0.0000 J-1.5900 F1800
G02 X188.8664 Y488.6744 I-0.0981 J0.1149 F1800
G03 X189.3373 Y489.8040 I-1.1190 J1.1296 F1800
G01 Y503.3820 F1800
G03 X188.8689 Y504.5090 I-1.5900 J0.0000 F1800
G02 X189.0791 Y504.7239 I0.1162 J0.0966 F1800
G03 X190.2086 Y504.2530 I1.1295 J1.1191 F1800
G01 X193.2473 F1800
G03 X194.8373 Y505.8430 I0.0000 J1.5900 F1800
G01 Y574.0180 F1800
G00 Z-3.0000 F480
G01 Y581.1980 F1800
G00 Z-5.5000 F480
G01 Z-6.0000 F90
G01 Y581.4480 Z-6.2500 F90
G01 Y581.1980 Z-6.5000 F90
G01 Y649.3730 F1800
G03 X193.2473 Y650.9630 I-1.5900 J0.0000 F1800
G01 X190.2086 F1800
G03 X189.0825 Y650.4955 I0.0000 J-1.5900 F1800
G02 X188.8664 Y650.7044 I-0.0981 J0.1149 F1800
G03 X189.3373 Y651.8340 I-1.1190 J1.1296 F1800
G01 Y665.4120 F1800
G03 X188.8689 Y666.5390 I-1.5900 J0.0000 F1800
G02 X189.0791 Y666.7539 I0.1162 J0.0966 F1800
G03 X190.2086 Y666.2830 I1.1295 J1.1191 F1800
G01 X193.2473 F1800
G03 X194.8373 Y667.8730 I0.0000 J1.5900 F1800
G01 Y736.0480 F1800
G00 Z-3.0000 F480
G01 Y743.2280 F1800
G00 Z-5.5000 F480
G01 Z-6.0000 F90
G01 Y743.4780 Z-6.2500 F90
G01 Y743.2280 Z-6.5000 F90
G01 Y811.4030 F1800
G03 X193.2473 Y812.9930 I-1.5900 J0.0000 F1800
G01 X190.2086 F1800
G03 X189.0825 Y812.5255 I0.0000 J-1.5900 F1800
G02 X188.8664 Y812.7344 I-0.0981 J0.1149 F1800
G03 X189.3373 Y813.8640 I-1.1190 J1.1296 F1800
G01 Y829.4030 F1800
G03 X187.7473 Y830.9930 I-1.5900 J0.0000 F1800
G01 X157.5873 F1800
G00 Z-3.0000 F480
G01 X150.4073 F1800
G00 Z10.0000 F480

(No. 32 Part roughing and finishing: Part 1)
G00 X71.9823 Y831.1520 Z10.0000 F2100
G00 Z0.5000 F480
G01 Z0.0000 F90
G01 X70.1473 Z-1.8350 F90
G03 X69.0666 Y830.7781 Z-3.0000 I0.0000 J-1.7490 F90
G02 X70.1473 Y831.1520 Z-4.1650 I1.0807 J-1.3751 F90
G01 X71.9823 Z-6.0000 F90
G01 X70.1473 F1800
G03 X68.3983 Y829.4030 I0.0000 J-1.7490 F1800
G01 Y796.1520 F1800
G01 X52.7963 F1800
G01 Y829.4030 F1800
G03 X51.0473 Y831.1520 I-1.7490 J0.0000 F1800
G01 X35.8623 F1800
G00 Z-3.0000 F480
G01 X28.6823 F1800
G01 X27.1823 Z-4.5000 F90
G01 X28.6823 Z-6.0000 F90
G01 X13.4973 F1800
G03 X11.7483 Y829.4030 I0.0000 J-1.7490 F1800
G01 Y813.8640 F1800
G03 X12.1119 Y812.7964 I1.7490 J0.0000 F1800
G01 X12.1026 Y812.7891 F1800
G03 X11.0360 Y813.1520 I-1.0666 J-1.3861 F1800
G01 X1.7473 F1800
G03 X-0.0017 Y811.4030 I0.0000 J-1.7490 F1800
G01 Y743.2280 F1800
G00 Z-3.0000 F480
G01 Y736.0480 F1800
G01 Y734.5480 Z-4.5000 F90
G01 Y736.0480 Z-6.0000 F90
G01 Y667.8730 F1800
G03 X1.7473 Y666.1240 I1.7490 J0.0000 F1800
G01 X11.0360 F1800
G03 X12.1026 Y666.4869 I0.0000 J1.7490 F1800
G01 X12.1119 Y666.4796 F1800
G03 X11.7483 Y665.4120 I1.3854 J-1.0676 F1800
G01 Y651.8340 F1800
G03 X12.1119 Y650.7664 I1.7490 J0.0000 F1800
G01 X12.1026 Y650.7591 F1800
G03 X11.0360 Y651.1220 I-1.0666 J-1.3861 F1800
G01 X1.7473 F1800
G03 X-0.0017 Y649.3730 I0.0000 J-1.7490 F1800
G01 Y581.1980 F1800
G00 Z-3.0000 F480
G01 Y574.0180 F1800
G01 Y572.5180 Z-4.5000 F90
G01 Y574.0180 Z-6.0000 F90
G01 Y505.8430 F1800
G03 X1.7473 Y504.0940 I1.7490 J0.0000 F1800
G01 X11.0360 F1800
G03 X12.1026 Y504.4569 I0.0000 J1.7490 F1800
G01 X12.1119 Y504.4496 F1800
G03 X11.7483 Y503.3820 I1.3854 J-1.0676 F1800
G01 Y489.8040 F1800
G03 X12.1119 Y488.7364 I1.7490 J0.0000 F1800
G01 X12.1026 Y488.7291 F1800
G03 X11.0360 Y489.0920 I-1.0666 J-1.3861 F1800
G01 X1.7473 F1800
G03 X-0.0017 Y487.3430 I0.0000 J-1.7490 F1800
G01 Y343.8130 F1800
G03 X1.7473 Y342.0640 I1.7490 J0.0000 F1800
G01 X11.0360 F1800
G03 X12.1026 Y342.4269 I0.0000 J1.7490 F1800
G01 X12.1119 Y342.4196 F1800
G03 X11.7483 Y341.3520 I1.3854 J-1.0676 F1800
G01 Y327.7740 F1800
G03 X12.1119 Y326.7064 I1.7490 J0.0000 F1800
G01 X12.1026 Y326.6991 F1800
G03 X11.0360 Y327.0620 I-1.0666 J-1.3861 F1800
G01 X1.7473 F1800
G03 X-0.0017 Y325.3130 I0.0000 J-1.7490 F1800
G01 Y257.1380 F1800
G00 Z-3.0000 F480
G01 Y249.9580 F1800
G01 Y248.4580 Z-4.5000 F90
G01 Y249.9580 Z-6.0000 F90
G01 Y181.7830 F1800
G03 X1.7473 Y180.0340 I1.7490 J0.0000 F1800
G01 X11.0360 F1800
G03 X12.1026 Y180.3969 I0.0000 J1.7490 F1800
G01 X12.1119 Y180.3896 F1800
G03 X11.7483 Y179.3220 I1.3854 J-1.0676 F1800
G01 Y165.7440 F1800
G03 X12.1119 Y164.6764 I1.7490 J0.0000 F1800
G01 X12.1026 Y164.6691 F1800
G03 X11.0360 Y165.0320 I-1.0666 J-1.3861 F1800
G01 X1.7473 F1800
G03 X-0.0017 Y163.2830 I0.0000 J-1.7490 F1800
G01 Y95.1080 F1800
G00 Z-3.0000 F480
G01 Y87.9280 F1800
G01 Y86.4280 Z-4.5000 F90
G01 Y87.9280 Z-6.0000 F90
G01 Y19.7530 F1800
G03 X1.7473 Y18.0040 I1.7490 J0.0000 F1800
G01 X11.0360 F1800
G03 X12.1008 Y18.3654 I0.0000 J1.7490 F1800
G01 X12.1098 Y18.3564 F1800
G03 X11.7483 Y17.2917 I1.3876 J-1.0647 F1800
G01 Y1.7530 F1800
G03 X13.4973 Y0.0040 I1.7490 J0.0000 F1800
G01 X22.4123 F1800
G00 Z-3.0000 F480
G01 X29.5923 F1800
G01 X31.0923 Z-4.5000 F90
G01 X29.5923 Z-6.0000 F90
G01 X38.5073 F1800
G03 X40.2563 Y1.7530 I0.0000 J1.7490 F1800
G01 Y5.0040 F1800
G01 X48.7583 F1800
G01 Y1.7530 F1800
G03 X50.5073 Y0.0040 I1.7490 J0.0000 F1800
G01 X62.1623 F1800
G00 Z-3.0000 F480
G01 X69.3423 F1800
G01 X70.8423 Z-4.5000 F90
G01 X69.3423 Z-6.0000 F90
G01 X80.9973 F1800
G03 X82.7463 Y1.7530 I0.0000 J1.7490 F1800
G01 Y17.2917 F1800
G03 X82.3849 Y18.3564 I-1.7490 J0.0000 F1800
G01 X82.3937 Y18.3656 F1800
G03 X83.4586 Y18.0040 I1.0650 J1.3874 F1800
G01 X92.7473 F1800
G03 X94.4963 Y19.7530 I0.0000 J1.7490 F1800
G01 Y87.9280 F1800
G00 Z-3.0000 F480
G01 Y95.1080 F1800
G01 Y96.6080 Z-4.5000 F90
G01 Y95.1080 Z-6.0000 F90
G01 Y163.2830 F1800
G03 X92.7473 Y165.0320 I-1.7490 J0.0000 F1800
G01 X83.4586 F1800
G03 X82.3918 Y164.6689 I0.0000 J-1.7490 F1800
G01 X82.3827 Y164.6764 F1800
G03 X82.7463 Y165.7440 I-1.3854 J1.0676 F1800
G01 Y179.3220 F1800
G03 X82.3827 Y180.3896 I-1.7490 J0.0000 F1800
G01 X82.3918 Y180.3970 F1800
G03 X83.4586 Y180.0340 I1.0668 J1.3859 F1800
G01 X92.7473 F1800
G03 X94.4963 Y181.7830 I0.0000 J1.7490 F1800
G01 Y249.9580 F1800
G00 Z-3.0000 F480
G01 Y257.1380 F1800
G01 Y258.6380 Z-4.5000 F90
G01 Y257.1380 Z-6.0000 F90
G01 Y325.3130 F1800
G03 X92.7473 Y327.0620 I-1.7490 J0.0000 F1800
G01 X83.4586 F1800
G03 X82.3918 Y326.6989 I0.0000 J-1.7490 F1800
G01 X82.3827 Y326.7064 F1800
G03 X82.7463 Y327.7740 I-1.3854 J1.0676 F1800
G01 Y341.3520 F1800
G03 X82.3827 Y342.4196 I-1.7490 J0.0000 F1800
G01 X82.3918 Y342.4270 F1800
G03 X83.4586 Y342.0640 I1.0668 J1.3859 F1800
G01 X92.7473 F1800
G03 X94.4963 Y343.8130 I0.0000 J1.7490 F1800
G01 Y411.9880 F1800
G00 Z-3.0000 F480
G01 Y419.1680 F1800
G01 Y420.6680 Z-4.5000 F90
G01 Y419.1680 Z-6.0000 F90
G01 Y487.3430 F1800
G03 X92.7473 Y489.0920 I-1.7490 J0.0000 F1800
G01 X83.4586 F1800
G03 X82.3918 Y488.7289 I0.0000 J-1.7490 F1800
G01 X82.3827 Y488.7364 F1800
G03 X82.7463 Y489.8040 I-1.3854 J1.0676 F1800
G01 Y503.3820 F1800
G03 X82.3827 Y504.4496 I-1.7490 J0.0000 F1800
G01 X82.3918 Y504.4570 F1800
G03 X83.4586 Y504.0940 I1.0668 J1.3859 F1800
G01 X92.7473 F1800
G03 X94.4963 Y505.8430 I0.0000 J1.7490 F1800
G01 Y574.0180 F1800
G00 Z-3.0000 F480
G01 Y581.1980 F1800
G01 Y582.6980 Z-4.5000 F90
G01 Y581.1980 Z-6.0000 F90
G01 Y649.3730 F1800
G03 X92.7473 Y651.1220 I-1.7490 J0.0000 F1800
G01 X83.4586 F1800
G03 X82.3918 Y650.7589 I0.0000 J-1.7490 F1800
G01 X82.3827 Y650.7664 F1800
G03 X82.7463 Y651.8340 I-1.3854 J1.0676 F1800
G01 Y665.4120 F1800
G03 X82.3827 Y666.4796 I-1.7490 J0.0000 F1800
G01 X82.3918 Y666.4870 F1800
G03 X83.4586 Y666.1240 I1.0668 J1.3859 F1800
G01 X92.7473 F1800
G03 X94.4963 Y667.8730 I0.0000 J1.7490 F1800
G01 Y736.0480 F1800
G00 Z-3.0000 F480
G01 Y743.2280 F1800
G01 Y744.7280 Z-4.5000 F90
G01 Y743.2280 Z-6.0000 F90
G01 Y811.4030 F1800
G03 X92.7473 Y813.1520 I-1.7490 J0.0000 F1800
G01 X83.4586 F1800
G03 X82.3918 Y812.7889 I0.0000 J-1.7490 F1800
G01 X82.3827 Y812.7964 F1800
G03 X82.7463 Y813.8640 I-1.3854 J1.0676 F1800
G01 Y829.4030 F1800
G03 X80.9973 Y831.1520 I-1.7490 J0.0000 F1800
G01 X79.1623 F1800
G00 Z-3.0000 F480
G01 X71.9823 F1800
G00 Z-5.5000 F480
G01 Z-6.0000 F90
G01 X71.7323 Z-6.2500 F90
G01 X71.9823 Z-6.5000 F90
G01 X70.1473 F1800
G03 X68.3983 Y829.4030 I0.0000 J-1.7490 F1800
G01 Y796.1520 F1800
G01 X52.7963 F1800
G01 Y829.4030 F1800
G03 X51.0473 Y831.1520 I-1.7490 J0.0000 F1800
G01 X35.8623 F1800
G00 Z-3.0000 F480
G01 X28.6823 F1800
G00 Z-5.5000 F480
G01 Z-6.0000 F90
G01 X28.4323 Z-6.2500 F90
G01 X28.6823 Z-6.5000 F90
G01 X13.4973 F1800
G03 X11.7483 Y829.4030 I0.0000 J-1.7490 F1800
G01 Y813.8640 F1800
G03 X12.1119 Y812.7964 I1.7490 J0.0000 F1800
G01 X12.1026 Y812.7891 F1800
G03 X11.0360 Y813.1520 I-1.0666 J-1.3861 F1800
G01 X1.7473 F1800
G03 X-0.0017 Y811.4030 I0.0000 J-1.7490 F1800
G01 Y743.2280 F1800
G00 Z-3.0000 F480
G01 Y736.0480 F1800
G00 Z-5.5000 F480
G01 Z-6.0000 F90
G01 Y735.7980 Z-6.2500 F90
G01 Y736.0480 Z-6.5000 F90
G01 Y667.8730 F1800
G03 X1.7473 Y666.1240 I1.7490 J0.0000 F1800
G01 X11.0360 F1800
G03 X12.1026 Y666.4869 I0.0000 J1.7490 F1800
G01 X12.1119 Y666.4796 F1800
G03 X11.7483 Y665.4120 I1.3854 J-1.0676 F1800
G01 Y651.8340 F1800
G03 X12.1119 Y650.7664 I1.7490 J0.0000 F1800
G01 X12.1026 Y650.7591 F1800
G03 X11.0360 Y651.1220 I-1.0666 J-1.3861 F1800
G01 X1.7473 F1800
G03 X-0.0017 Y649.3730 I0.0000 J-1.7490 F1800
G01 Y581.1980 F1800
G00 Z-3.0000 F480
G01 Y574.0180 F1800
G00 Z-5.5000 F480
G01 Z-6.0000 F90
G01 Y573.7680 Z-6.2500 F90
G01 Y574.0180 Z-6.5000 F90
G01 Y505.8430 F1800
G03 X1.7473 Y504.0940 I1.7490 J0.0000 F1800
G01 X11.0360 F1800
G03 X12.1026 Y504.4569 I0.0000 J1.7490 F1800
G01 X12.1119 Y504.4496 F1800
G03 X11.7483 Y503.3820 I1.3854 J-1.0676 F1800
G01 Y489.8040 F1800
G03 X12.1119 Y488.7364 I1.7490 J0.0000 F1800
G01 X12.1026 Y488.7291 F1800
G03 X11.0360 Y489.0920 I-1.0666 J-1.3861 F1800
G01 X1.7473 F1800
G03 X-0.0017 Y487.3430 I0.0000 J-1.7490 F1800
G01 Y343.8130 F1800
G03 X1.7473 Y342.0640 I1.7490 J0.0000 F1800
G01 X11.0360 F1800
G03 X12.1026 Y342.4269 I0.0000 J1.7490 F1800
G01 X12.1119 Y342.4196 F1800
G03 X11.7483 Y341.3520 I1.3854 J-1.0676 F1800
G01 Y327.7740 F1800
G03 X12.1119 Y326.7064 I1.7490 J0.0000 F1800
G01 X12.1026 Y326.6991 F1800
G03 X11.0360 Y327.0620 I-1.0666 J-1.3861 F1800
G01 X1.7473 F1800
G03 X-0.0017 Y325.3130 I0.0000 J-1.7490 F1800
G01 Y257.1380 F1800
G00 Z-3.0000 F480
G01 Y249.9580 F1800
G00 Z-5.5000 F480
G01 Z-6.0000 F90
G01 Y249.7080 Z-6.2500 F90
G01 Y249.9580 Z-6.5000 F90
G01 Y181.7830 F1800
G03 X1.7473 Y180.0340 I1.7490 J0.0000 F1800
G01 X11.0360 F1800
G03 X12.1026 Y180.3969 I0.0000 J1.7490 F1800
G01 X12.1119 Y180.3896 F1800
G03 X11.7483 Y179.3220 I1.3854 J-1.0676 F1800
G01 Y165.7440 F1800
G03 X12.1119 Y164.6764 I1.7490 J0.0000 F1800
G01 X12.1026 Y164.6691 F1800
G03 X11.0360 Y165.0320 I-1.0666 J-1.3861 F1800
G01 X1.7473 F1800
G03 X-0.0017 Y163.2830 I0.0000 J-1.7490 F1800
G01 Y95.1080 F1800
G00 Z-3.0000 F480
G01 Y87.9280 F1800
G00 Z-5.5000 F480
G01 Z-6.0000 F90
G01 Y87.6780 Z-6.2500 F90
G01 Y87.9280 Z-6.5000 F90
G01 Y19.7530 F1800
G03 X1.7473 Y18.0040 I1.7490 J0.0000 F1800
G01 X11.0360 F1800
G03 X12.1008 Y18.3654 I0.0000 J1.7490 F1800
G01 X12.1098 Y18.3564 F1800
G03 X11.7483 Y17.2917 I1.3876 J-1.0647 F1800
G01 Y1.7530 F1800
G03 X13.4973 Y0.0040 I1.7490 J0.0000 F1800
G01 X22.4123 F1800
G00 Z-3.0000 F480
G01 X29.5923 F1800
G00 Z-5.5000 F480
G01 Z-6.0000 F90
G01 X29.8423 Z-6.2500 F90
G01 X29.5923 Z-6.5000 F90
G01 X38.5073 F1800
G03 X40.2563 Y1.7530 I0.0000 J1.7490 F1800
G01 Y5.0040 F1800
G01 X48.7583 F1800
G01 Y1.7530 F1800
G03 X50.5073 Y0.0040 I1.7490 J0.0000 F1800
G01 X62.1623 F1800
G00 Z-3.0000 F480
G01 X69.3423 F1800
G00 Z-5.5000 F480
G01 Z-6.0000 F90
G01 X69.5923 Z-6.2500 F90
G01 X69.3423 Z-6.5000 F90
G01 X80.9973 F1800
G03 X82.7463 Y1.7530 I0.0000 J1.7490 F1800
G01 Y17.2917 F1800
G03 X82.3849 Y18.3564 I-1.7490 J0.0000 F1800
G01 X82.3937 Y18.3656 F1800
G03 X83.4586 Y18.0040 I1.0650 J1.3874 F1800
G01 X92.7473 F1800
G03 X94.4963 Y19.7530 I0.0000 J1.7490 F1800
G01 Y87.9280 F1800
G00 Z-3.0000 F480
G01 Y95.1080 F1800
G00 Z-5.5000 F480
G01 Z-6.0000 F90
G01 Y95.3580 Z-6.2500 F90
G01 Y95.1080 Z-6.5000 F90
G01 Y163.2830 F1800
G03 X92.7473 Y165.0320 I-1.7490 J0.0000 F1800
G01 X83.4586 F1800
G03 X82.3918 Y164.6689 I0.0000 J-1.7490 F1800
G01 X82.3827 Y164.6764 F1800
G03 X82.7463 Y165.7440 I-1.3854 J1.0676 F1800
G01 Y179.3220 F1800
G03 X82.3827 Y180.3896 I-1.7490 J0.0000 F1800
G01 X82.3918 Y180.3970 F1800
G03 X83.4586 Y180.0340 I1.0668 J1.3859 F1800
G01 X92.7473 F1800
G03 X94.4963 Y181.7830 I0.0000 J1.7490 F1800
G01 Y249.9580 F1800
G00 Z-3.0000 F480
G01 Y257.1380 F1800
G00 Z-5.5000 F480
G01 Z-6.0000 F90
G01 Y257.3880 Z-6.2500 F90
G01 Y257.1380 Z-6.5000 F90
G01 Y325.3130 F1800
G03 X92.7473 Y327.0620 I-1.7490 J0.0000 F1800
G01 X83.4586 F1800
G03 X82.3918 Y326.6989 I0.0000 J-1.7490 F1800
G01 X82.3827 Y326.7064 F1800
G03 X82.7463 Y327.7740 I-1.3854 J1.0676 F1800
G01 Y341.3520 F1800
G03 X82.3827 Y342.4196 I-1.7490 J0.0000 F1800
G01 X82.3918 Y342.4270 F1800
G03 X83.4586 Y342.0640 I1.0668 J1.3859 F1800
G01 X92.7473 F1800
G03 X94.4963 Y343.8130 I0.0000 J1.7490 F1800
G01 Y411.9880 F1800
G00 Z-3.0000 F480
G01 Y419.1680 F1800
G00 Z-5.5000 F480
G01 Z-6.0000 F90
G01 Y419.4180 Z-6.2500 F90
G01 Y419.1680 Z-6.5000 F90
G01 Y487.3430 F1800
G03 X92.7473 Y489.0920 I-1.7490 J0.0000 F1800
G01 X83.4586 F1800
G03 X82.3918 Y488.7289 I0.0000 J-1.7490 F1800
G01 X82.3827 Y488.7364 F1800
G03 X82.7463 Y489.8040 I-1.3854 J1.0676 F1800
G01 Y503.3820 F1800
G03 X82.3827 Y504.4496 I-1.7490 J0.0000 F1800
G01 X82.3918 Y504.4570 F1800
G03 X83.4586 Y504.0940 I1.0668 J1.3859 F1800
G01 X92.7473 F1800
G03 X94.4963 Y505.8430 I0.0000 J1.7490 F1800
G01 Y574.0180 F1800
G00 Z-3.0000 F480
G01 Y581.1980 F1800
G00 Z-5.5000 F480
G01 Z-6.0000 F90
G01 Y581.4480 Z-6.2500 F90
G01 Y581.1980 Z-6.5000 F90
G01 Y649.3730 F1800
G03 X92.7473 Y651.1220 I-1.7490 J0.0000 F1800
G01 X83.4586 F1800
G03 X82.3918 Y650.7589 I0.0000 J-1.7490 F1800
G01 X82.3827 Y650.7664 F1800
G03 X82.7463 Y651.8340 I-1.3854 J1.0676 F1800
G01 Y665.4120 F1800
G03 X82.3827 Y666.4796 I-1.7490 J0.0000 F1800
G01 X82.3918 Y666.4870 F1800
G03 X83.4586 Y666.1240 I1.0668 J1.3859 F1800
G01 X92.7473 F1800
G03 X94.4963 Y667.8730 I0.0000 J1.7490 F1800
G01 Y736.0480 F1800
G00 Z-3.0000 F480
G01 Y743.2280 F1800
G00 Z-5.5000 F480
G01 Z-6.0000 F90
G01 Y743.4780 Z-6.2500 F90
G01 Y743.2280 Z-6.5000 F90
G01 Y811.4030 F1800
G03 X92.7473 Y813.1520 I-1.7490 J0.0000 F1800
G01 X83.4586 F1800
G03 X82.3918 Y812.7889 I0.0000 J-1.7490 F1800
G01 X82.3827 Y812.7964 F1800
G03 X82.7463 Y813.8640 I-1.3854 J1.0676 F1800
G01 Y829.4030 F1800
G03 X80.9973 Y831.1520 I-1.7490 J0.0000 F1800
G01 X79.1623 F1800
G00 Z-3.0000 F480
G01 X71.9823 F1800
G00 X71.9823 Y831.1520 Z10.0000 F480
G00 Z0.5000 F480
G01 Z0.0000 F90
G01 Y830.9930 F90
G01 X70.1473 Z-1.8350 F90
G03 X69.0838 Y830.5849 Z-3.0000 I0.0000 J-1.5900 F90
G02 X70.1473 Y830.9930 Z-4.1650 I1.0635 J-1.1820 F90
G01 X71.9823 Z-6.0000 F90
G01 X70.1473 F1800
G03 X68.5573 Y829.4030 I0.0000 J-1.5900 F1800
G01 Y795.9930 F1800
G01 X52.6373 F1800
G01 Y829.4030 F1800
G03 X51.0473 Y830.9930 I-1.5900 J0.0000 F1800
G01 X35.8623 F1800
G00 Z-3.0000 F480
G01 X28.6823 F1800
G01 X27.1823 Z-4.5000 F90
G01 X28.6823 Z-6.0000 F90
G01 X13.4973 F1800
G03 X11.9073 Y829.4030 I0.0000 J-1.5900 F1800
G01 Y813.8640 F1800
G03 X12.3758 Y812.7369 I1.5900 J0.0000 F1800
G02 X12.1656 Y812.5221 I-0.1162 J-0.0966 F1800
G03 X11.0360 Y812.9930 I-1.1295 J-1.1191 F1800
G01 X1.7473 F1800
G03 X0.1573 Y811.4030 I0.0000 J-1.5900 F1800
G01 Y743.2280 F1800
G00 Z-3.0000 F480
G01 Y736.0480 F1800
G01 Y734.5480 Z-4.5000 F90
G01 Y736.0480 Z-6.0000 F90
G01 Y667.8730 F1800
G03 X1.7473 Y666.2830 I1.5900 J0.0000 F1800
G01 X11.0360 F1800
G03 X12.1622 Y666.7505 I0.0000 J1.5900 F1800
G02 X12.3783 Y666.5416 I0.0981 J-0.1149 F1800
G03 X11.9073 Y665.4120 I1.1190 J-1.1296 F1800
G01 Y651.8340 F1800
G03 X12.3758 Y650.7069 I1.5900 J0.0000 F1800
G02 X12.1656 Y650.4921 I-0.1162 J-0.0966 F1800
G03 X11.0360 Y650.9630 I-1.1295 J-1.1191 F1800
G01 X1.7473 F1800
G03 X0.1573 Y649.3730 I0.0000 J-1.5900 F1800
G01 Y581.1980 F1800
G00 Z-3.0000 F480
G01 Y574.0180 F1800
G01 Y572.5180 Z-4.5000 F90
G01 Y574.0180 Z-6.0000 F90
G01 Y505.8430 F1800
G03 X1.7473 Y504.2530 I1.5900 J0.0000 F1800
G01 X11.0360 F1800
G03 X12.1622 Y504.7205 I0.0000 J1.5900 F1800
G02 X12.3783 Y504.5116 I0.0981 J-0.1149 F1800
G03 X11.9073 Y503.3820 I1.1190 J-1.1296 F1800
G01 Y489.8040 F1800
G03 X12.3758 Y488.6769 I1.5900 J0.0000 F1800
G02 X12.1656 Y488.4621 I-0.1162 J-0.0966 F1800
G03 X11.0360 Y488.9330 I-1.1295 J-1.1191 F1800
G01 X1.7473 F1800
G03 X0.1573 Y487.3430 I0.0000 J-1.5900 F1800
G01 Y343.8130 F1800
G03 X1.7473 Y342.2230 I1.5900 J0.0000 F1800
G01 X11.0360 F1800
G03 X12.1622 Y342.6905 I0.0000 J1.5900 F1800
G02 X12.3783 Y342.4816 I0.0981 J-0.1149 F1800
G03 X11.9073 Y341.3520 I1.1190 J-1.1296 F1800
G01 Y327.7740 F1800
G03 X12.3758 Y326.6469 I1.5900 J0.0000 F1800
G02 X12.1656 Y326.4321 I-0.1162 J-0.0966 F1800
G03 X11.0360 Y326.9030 I-1.1295 J-1.1191 F1800
G01 X1.7473 F1800
G03 X0.1573 Y325.3130 I0.0000 J-1.5900 F1800
G01 Y257.1380 F1800
G00 Z-3.0000 F480
G01 Y249.9580 F1800
G01 Y248.4580 Z-4.5000 F90
G01 Y249.9580 Z-6.0000 F90
G01 Y181.7830 F1800
G03 X1.7473 Y180.1930 I1.5900 J0.0000 F1800
G01 X11.0360 F1800
G03 X12.1622 Y180.6605 I0.0000 J1.5900 F1800
G02 X12.3783 Y180.4516 I0.0981 J-0.1149 F1800
G03 X11.9073 Y179.3220 I1.1190 J-1.1296 F1800
G01 Y165.7440 F1800
G03 X12.3758 Y164.6169 I1.5900 J0.0000 F1800
G02 X12.1656 Y164.4021 I-0.1162 J-0.0966 F1800
G03 X11.0360 Y164.8730 I-1.1295 J-1.1191 F1800
G01 X1.7473 F1800
G03 X0.1573 Y163.2830 I0.0000 J-1.5900 F1800
G01 Y95.1080 F1800
G00 Z-3.0000 F480
G01 Y87.9280 F1800
G01 Y86.4280 Z-4.5000 F90
G01 Y87.9280 Z-6.0000 F90
G01 Y19.7530 F1800
G03 X1.7473 Y18.1630 I1.5900 J0.0000 F1800
G01 X11.0360 F1800
G03 X12.1603 Y18.6287 I0.0000 J1.5900 F1800
G02 X12.3774 Y18.4204 I0.0999 J-0.1132 F1800
G03 X11.9073 Y17.2917 I1.1200 J-1.1287 F1800
G01 Y1.7530 F1800
G03 X13.4973 Y0.1630 I1.5900 J0.0000 F1800
G01 X22.4123 F1800
G00 Z-3.0000 F480
G01 X29.5923 F1800
G01 X31.0923 Z-4.5000 F90
G01 X29.5923 Z-6.0000 F90
G01 X38.5073 F1800
G03 X40.0973 Y1.7530 I0.0000 J1.5900 F1800
G01 Y5.1630 F1800
G01 X48.9173 F1800
G01 Y1.7530 F1800
G03 X50.5073 Y0.1630 I1.5900 J0.0000 F1800
G01 X62.1623 F1800
G00 Z-3.0000 F480
G01 X69.3423 F1800
G01 X70.8423 Z-4.5000 F90
G01 X69.3423 Z-6.0000 F90
G01 X80.9973 F1800
G03 X82.5873 Y1.7530 I0.0000 J1.5900 F1800
G01 Y17.2917 F1800
G03 X82.1216 Y18.4160 I-1.5900 J0.0000 F1800
G02 X82.3299 Y18.6331 I0.1132 J0.0999 F1800
G03 X83.4586 Y18.1630 I1.1287 J1.1199 F1800
G01 X92.7473 F1800
G03 X94.3373 Y19.7530 I0.0000 J1.5900 F1800
G01 Y87.9280 F1800
G00 Z-3.0000 F480
G01 Y95.1080 F1800
G01 Y96.6080 Z-4.5000 F90
G01 Y95.1080 Z-6.0000 F90
G01 Y163.2830 F1800
G03 X92.7473 Y164.8730 I-1.5900 J0.0000 F1800
G01 X83.4586 F1800
G03 X82.3323 Y164.4052 I0.0000 J-1.5900 F1800
G02 X82.1164 Y164.6144 I-0.0978 J0.1151 F1800
G03 X82.5873 Y165.7440 I-1.1190 J1.1296 F1800
G01 Y179.3220 F1800
G03 X82.1189 Y180.4490 I-1.5900 J0.0000 F1800
G02 X82.3291 Y180.6640 I0.1162 J0.0966 F1800
G03 X83.4586 Y180.1930 I1.1296 J1.1191 F1800
G01 X92.7473 F1800
G03 X94.3373 Y181.7830 I0.0000 J1.5900 F1800
G01 Y249.9580 F1800
G00 Z-3.0000 F480
G01 Y257.1380 F1800
G01 Y258.6380 Z-4.5000 F90
G01 Y257.1380 Z-6.0000 F90
G01 Y325.3130 F1800
G03 X92.7473 Y326.9030 I-1.5900 J0.0000 F1800
G01 X83.4586 F1800
G03 X82.3323 Y326.4352 I0.0000 J-1.5900 F1800
G02 X82.1164 Y326.6444 I-0.0978 J0.1151 F1800
G03 X82.5873 Y327.7740 I-1.1190 J1.1296 F1800
G01 Y341.3520 F1800
G03 X82.1189 Y342.4790 I-1.5900 J0.0000 F1800
G02 X82.3291 Y342.6940 I0.1162 J0.0966 F1800
G03 X83.4586 Y342.2230 I1.1296 J1.1191 F1800
G01 X92.7473 F1800
G03 X94.3373 Y343.8130 I0.0000 J1.5900 F1800
G01 Y411.9880 F1800
G00 Z-3.0000 F480
G01 Y419.1680 F1800
G01 Y420.6680 Z-4.5000 F90
G01 Y419.1680 Z-6.0000 F90
G01 Y487.3430 F1800
G03 X92.7473 Y488.9330 I-1.5900 J0.0000 F1800
G01 X83.4586 F1800
G03 X82.3323 Y488.4652 I0.0000 J-1.5900 F1800
G02 X82.1164 Y488.6744 I-0.0978 J0.1151 F1800
G03 X82.5873 Y489.8040 I-1.1190 J1.1296 F1800
G01 Y503.3820 F1800
G03 X82.1189 Y504.5090 I-1.5900 J0.0000 F1800
G02 X82.3291 Y504.7240 I0.1162 J0.0966 F1800
G03 X83.4586 Y504.2530 I1.1296 J1.1191 F1800
G01 X92.7473 F1800
G03 X94.3373 Y505.8430 I0.0000 J1.5900 F1800
G01 Y574.0180 F1800
G00 Z-3.0000 F480
G01 Y581.1980 F1800
G01 Y582.6980 Z-4.5000 F90
G01 Y581.1980 Z-6.0000 F90
G01 Y649.3730 F1800
G03 X92.7473 Y650.9630 I-1.5900 J0.0000 F1800
G01 X83.4586 F1800
G03 X82.3323 Y650.4952 I0.0000 J-1.5900 F1800
G02 X82.1164 Y650.7044 I-0.0978 J0.1151 F1800
G03 X82.5873 Y651.8340 I-1.1190 J1.1296 F1800
G01 Y665.4120 F1800
G03 X82.1189 Y666.5390 I-1.5900 J0.0000 F1800
G02 X82.3291 Y666.7540 I0.1162 J0.0966 F1800
G03 X83.4586 Y666.2830 I1.1296 J1.1191 F1800
G01 X92.7473 F1800
G03 X94.3373 Y667.8730 I0.0000 J1.5900 F1800
G01 Y736.0480 F1800
G00 Z-3.0000 F480
G01 Y743.2280 F1800
G01 Y744.7280 Z-4.5000 F90
G01 Y743.2280 Z-6.0000 F90
G01 Y811.4030 F1800
G03 X92.7473 Y812.9930 I-1.5900 J0.0000 F1800
G01 X83.4586 F1800
G03 X82.3323 Y812.5252 I0.0000 J-1.5900 F1800
G02 X82.1164 Y812.7344 I-0.0978 J0.1151 F1800
G03 X82.5873 Y813.8640 I-1.1190 J1.1296 F1800
G01 Y829.4030 F1800
G03 X80.9973 Y830.9930 I-1.5900 J0.0000 F1800
G01 X79.1623 F1800
G00 Z-3.0000 F480
G01 X71.9823 F1800
G00 Z-5.5000 F480
G01 Z-6.0000 F90
G01 X71.7323 Z-6.2500 F90
G01 X71.9823 Z-6.5000 F90
G01 X70.1473 F1800
G03 X68.5573 Y829.4030 I0.0000 J-1.5900 F1800
G01 Y795.9930 F1800
G01 X52.6373 F1800
G01 Y829.4030 F1800
G03 X51.0473 Y830.9930 I-1.5900 J0.0000 F1800
G01 X35.8623 F1800
G00 Z-3.0000 F480
G01 X28.6823 F1800
G00 Z-5.5000 F480
G01 Z-6.0000 F90
G01 X28.4323 Z-6.2500 F90
G01 X28.6823 Z-6.5000 F90
G01 X13.4973 F1800
G03 X11.9073 Y829.4030 I0.0000 J-1.5900 F1800
G01 Y813.8640 F1800
G03 X12.3758 Y812.7369 I1.5900 J0.0000 F1800
G02 X12.1656 Y812.5221 I-0.1162 J-0.0966 F1800
G03 X11.0360 Y812.9930 I-1.1295 J-1.1191 F1800
G01 X1.7473 F1800
G03 X0.1573 Y811.4030 I0.0000 J-1.5900 F1800
G01 Y743.2280 F1800
G00 Z-3.0000 F480
G01 Y736.0480 F1800
G00 Z-5.5000 F480
G01 Z-6.0000 F90
G01 Y735.7980 Z-6.2500 F90
G01 Y736.0480 Z-6.5000 F90
G01 Y667.8730 F1800
G03 X1.7473 Y666.2830 I1.5900 J0.0000 F1800
G01 X11.0360 F1800
G03 X12.1622 Y666.7505 I0.0000 J1.5900 F1800
G02 X12.3783 Y666.5416 I0.0981 J-0.1149 F1800
G03 X11.9073 Y665.4120 I1.1190 J-1.1296 F1800
G01 Y651.8340 F1800
G03 X12.3758 Y650.7069 I1.5900 J0.0000 F1800
G02 X12.1656 Y650.4921 I-0.1162 J-0.0966 F1800
G03 X11.0360 Y650.9630 I-1.1295 J-1.1191 F1800
G01 X1.7473 F1800
G03 X0.1573 Y649.3730 I0.0000 J-1.5900 F1800
G01 Y581.1980 F1800
G00 Z-3.0000 F480
G01 Y574.0180 F1800
G00 Z-5.5000 F480
G01 Z-6.0000 F90
G01 Y573.7680 Z-6.2500 F90
G01 Y574.0180 Z-6.5000 F90
G01 Y505.8430 F1800
G03 X1.7473 Y504.2530 I1.5900 J0.0000 F1800
G01 X11.0360 F1800
G03 X12.1622 Y504.7205 I0.0000 J1.5900 F1800
G02 X12.3783 Y504.5116 I0.0981 J-0.1149 F1800
G03 X11.9073 Y503.3820 I1.1190 J-1.1296 F1800
G01 Y489.8040 F1800
G03 X12.3758 Y488.6769 I1.5900 J0.0000 F1800
G02 X12.1656 Y488.4621 I-0.1162 J-0.0966 F1800
G03 X11.0360 Y488.9330 I-1.1295 J-1.1191 F1800
G01 X1.7473 F1800
G03 X0.1573 Y487.3430 I0.0000 J-1.5900 F1800
G01 Y343.8130 F1800
G03 X1.7473 Y342.2230 I1.5900 J0.0000 F1800
G01 X11.0360 F1800
G03 X12.1622 Y342.6905 I0.0000 J1.5900 F1800
G02 X12.3783 Y342.4816 I0.0981 J-0.1149 F1800
G03 X11.9073 Y341.3520 I1.1190 J-1.1296 F1800
G01 Y327.7740 F1800
G03 X12.3758 Y326.6469 I1.5900 J0.0000 F1800
G02 X12.1656 Y326.4321 I-0.1162 J-0.0966 F1800
G03 X11.0360 Y326.9030 I-1.1295 J-1.1191 F1800
G01 X1.7473 F1800
G03 X0.1573 Y325.3130 I0.0000 J-1.5900 F1800
G01 Y257.1380 F1800
G00 Z-3.0000 F480
G01 Y249.9580 F1800
G00 Z-5.5000 F480
G01 Z-6.0000 F90
G01 Y249.7080 Z-6.2500 F90
G01 Y249.9580 Z-6.5000 F90
G01 Y181.7830 F1800
G03 X1.7473 Y180.1930 I1.5900 J0.0000 F1800
G01 X11.0360 F1800
G03 X12.1622 Y180.6605 I0.0000 J1.5900 F1800
G02 X12.3783 Y180.4516 I0.0981 J-0.1149 F1800
G03 X11.9073 Y179.3220 I1.1190 J-1.1296 F1800
G01 Y165.7440 F1800
G03 X12.3758 Y164.6169 I1.5900 J0.0000 F1800
G02 X12.1656 Y164.4021 I-0.1162 J-0.0966 F1800
G03 X11.0360 Y164.8730 I-1.1295 J-1.1191 F1800
G01 X1.7473 F1800
G03 X0.1573 Y163.2830 I0.0000 J-1.5900 F1800
G01 Y95.1080 F1800
G00 Z-3.0000 F480
G01 Y87.9280 F1800
G00 Z-5.5000 F480
G01 Z-6.0000 F90
G01 Y87.6780 Z-6.2500 F90
G01 Y87.9280 Z-6.5000 F90
G01 Y19.7530 F1800
G03 X1.7473 Y18.1630 I1.5900 J0.0000 F1800
G01 X11.0360 F1800
G03 X12.1603 Y18.6287 I0.0000 J1.5900 F1800
G02 X12.3774 Y18.4204 I0.0999 J-0.1132 F1800
G03 X11.9073 Y17.2917 I1.1200 J-1.1287 F1800
G01 Y1.7530 F1800
G03 X13.4973 Y0.1630 I1.5900 J0.0000 F1800
G01 X22.4123 F1800
G00 Z-3.0000 F480
G01 X29.5923 F1800
G00 Z-5.5000 F480
G01 Z-6.0000 F90
G01 X29.8423 Z-6.2500 F90
G01 X29.5923 Z-6.5000 F90
G01 X38.5073 F1800
G03 X40.0973 Y1.7530 I0.0000 J1.5900 F1800
G01 Y5.1630 F1800
G01 X48.9173 F1800
G01 Y1.7530 F1800
G03 X50.5073 Y0.1630 I1.5900 J0.0000 F1800
G01 X62.1623 F1800
G00 Z-3.0000 F480
G01 X69.3423 F1800
G00 Z-5.5000 F480
G01 Z-6.0000 F90
G01 X69.5923 Z-6.2500 F90
G01 X69.3423 Z-6.5000 F90
G01 X80.9973 F1800
G03 X82.5873 Y1.7530 I0.0000 J1.5900 F1800
G01 Y17.2917 F1800
G03 X82.1216 Y18.4160 I-1.5900 J0.0000 F1800
G02 X82.3299 Y18.6331 I0.1132 J0.0999 F1800
G03 X83.4586 Y18.1630 I1.1287 J1.1199 F1800
G01 X92.7473 F1800
G03 X94.3373 Y19.7530 I0.0000 J1.5900 F1800
G01 Y87.9280 F1800
G00 Z-3.0000 F480
G01 Y95.1080 F1800
G00 Z-5.5000 F480
G01 Z-6.0000 F90
G01 Y95.3580 Z-6.2500 F90
G01 Y95.1080 Z-6.5000 F90
G01 Y163.2830 F1800
G03 X92.7473 Y164.8730 I-1.5900 J0.0000 F1800
G01 X83.4586 F1800
G03 X82.3323 Y164.4052 I0.0000 J-1.5900 F1800
G02 X82.1164 Y164.6144 I-0.0978 J0.1151 F1800
G03 X82.5873 Y165.7440 I-1.1190 J1.1296 F1800
G01 Y179.3220 F1800
G03 X82.1189 Y180.4490 I-1.5900 J0.0000 F1800
G02 X82.3291 Y180.6640 I0.1162 J0.0966 F1800
G03 X83.4586 Y180.1930 I1.1296 J1.1191 F1800
G01 X92.7473 F1800
G03 X94.3373 Y181.7830 I0.0000 J1.5900 F1800
G01 Y249.9580 F1800
G00 Z-3.0000 F480
G01 Y257.1380 F1800
G00 Z-5.5000 F480
G01 Z-6.0000 F90
G01 Y257.3880 Z-6.2500 F90
G01 Y257.1380 Z-6.5000 F90
G01 Y325.3130 F1800
G03 X92.7473 Y326.9030 I-1.5900 J0.0000 F1800
G01 X83.4586 F1800
G03 X82.3323 Y326.4352 I0.0000 J-1.5900 F1800
G02 X82.1164 Y326.6444 I-0.0978 J0.1151 F1800
G03 X82.5873 Y327.7740 I-1.1190 J1.1296 F1800
G01 Y341.3520 F1800
G03 X82.1189 Y342.4790 I-1.5900 J0.0000 F1800
G02 X82.3291 Y342.6940 I0.1162 J0.0966 F1800
G03 X83.4586 Y342.2230 I1.1296 J1.1191 F1800
G01 X92.7473 F1800
G03 X94.3373 Y343.8130 I0.0000 J1.5900 F1800
G01 Y411.9880 F1800
G00 Z-3.0000 F480
G01 Y419.1680 F1800
G00 Z-5.5000 F480
G01 Z-6.0000 F90
G01 Y419.4180 Z-6.2500 F90
G01 Y419.1680 Z-6.5000 F90
G01 Y487.3430 F1800
G03 X92.7473 Y488.9330 I-1.5900 J0.0000 F1800
G01 X83.4586 F1800
G03 X82.3323 Y488.4652 I0.0000 J-1.5900 F1800
G02 X82.1164 Y488.6744 I-0.0978 J0.1151 F1800
G03 X82.5873 Y489.8040 I-1.1190 J1.1296 F1800
G01 Y503.3820 F1800
G03 X82.1189 Y504.5090 I-1.5900 J0.0000 F1800
G02 X82.3291 Y504.7240 I0.1162 J0.0966 F1800
G03 X83.4586 Y504.2530 I1.1296 J1.1191 F1800
G01 X92.7473 F1800
G03 X94.3373 Y505.8430 I0.0000 J1.5900 F1800
G01 Y574.0180 F1800
G00 Z-3.0000 F480
G01 Y581.1980 F1800
G00 Z-5.5000 F480
G01 Z-6.0000 F90
G01 Y581.4480 Z-6.2500 F90
G01 Y581.1980 Z-6.5000 F90
G01 Y649.3730 F1800
G03 X92.7473 Y650.9630 I-1.5900 J0.0000 F1800
G01 X83.4586 F1800
G03 X82.3323 Y650.4952 I0.0000 J-1.5900 F1800
G02 X82.1164 Y650.7044 I-0.0978 J0.1151 F1800
G03 X82.5873 Y651.8340 I-1.1190 J1.1296 F1800
G01 Y665.4120 F1800
G03 X82.1189 Y666.5390 I-1.5900 J0.0000 F1800
G02 X82.3291 Y666.7540 I0.1162 J0.0966 F1800
G03 X83.4586 Y666.2830 I1.1296 J1.1191 F1800
G01 X92.7473 F1800
G03 X94.3373 Y667.8730 I0.0000 J1.5900 F1800
G01 Y736.0480 F1800
G00 Z-3.0000 F480
G01 Y743.2280 F1800
G00 Z-5.5000 F480
G01 Z-6.0000 F90
G01 Y743.4780 Z-6.2500 F90
G01 Y743.2280 Z-6.5000 F90
G01 Y811.4030 F1800
G03 X92.7473 Y812.9930 I-1.5900 J0.0000 F1800
G01 X83.4586 F1800
G03 X82.3323 Y812.5252 I0.0000 J-1.5900 F1800
G02 X82.1164 Y812.7344 I-0.0978 J0.1151 F1800
G03 X82.5873 Y813.8640 I-1.1190 J1.1296 F1800
G01 Y829.4030 F1800
G03 X80.9973 Y830.9930 I-1.5900 J0.0000 F1800
G01 X79.1623 F1800
G00 Z-3.0000 F480
G01 X71.9823 F1800
G00 Z10.0000 F480
G00 X0.0000 Y0.0000 F2100


M05
M30
