;FLAVOR:Marlin
;TIME:4609
;Filament used: 7.19813m
;Layer height: 0.3
;MINX:81.475
;MINY:82.801
;MINZ:0.2
;MAXX:118.525
;MAXY:114.88
;MAXZ:80.28
;TARGET_MACHINE.NAME:VORON2 250
;Generated with Cura_SteamEngine 5.6.0
M140 S60
M105
M190 S60
M104 S215
M105
M109 S215
M82 ;absolute extrusion mode
START_PRINT
G92 E0
G92 E0
G1 F300 E-0.5
;LAYER_COUNT:267
;LAYER:0
M107
M204 S1800
G1 F600 Z0.48
G0 F3600 X83.132 Y84.121 Z0.48
;TYPE:SKIRT
G1 F600 Z0.2
G1 F120 E0
G1 F1800 X83.74 Y83.643 E0.02894
G1 X84.177 Y83.385 E0.04793
G1 X84.885 Y83.084 E0.07671
G1 X85.781 Y82.868 E0.1112
G1 X86.371 Y82.811 E0.13338
G1 X86.74 Y82.802 E0.14719
G1 X112.869 Y82.801 E1.12488
G1 X113.72 Y82.819 E1.15673
G1 X114.361 Y82.891 E1.18086
G1 X115.125 Y83.089 E1.21039
G1 X115.909 Y83.436 E1.24247
G1 X116.507 Y83.822 E1.26911
G1 X117.099 Y84.344 E1.29864
G1 X117.602 Y84.953 E1.32819
G1 X118.004 Y85.635 E1.35782
G1 X118.25 Y86.231 E1.38194
G1 X118.468 Y87.178 E1.4183
G1 X118.515 Y87.697 E1.4378
G1 X118.524 Y88.065 E1.45158
G1 X118.525 Y102.171 E1.97939
G1 X118.508 Y103.014 E2.01094
G1 X118.422 Y103.756 E2.03889
G1 X118.26 Y104.384 E2.06316
G1 X117.903 Y105.215 E2.097
G1 X117.398 Y105.971 E2.13102
G1 X116.869 Y106.533 E2.1599
G1 X116.372 Y106.93 E2.1837
G1 X115.67 Y107.354 E2.21438
G1 X114.694 Y107.698 E2.25311
G1 X112.163 Y108.323 E2.35065
G1 X109.545 Y109.047 E2.45229
G1 X106.966 Y109.839 E2.55324
G1 X104.45 Y110.691 E2.65263
G1 X101.895 Y111.637 E2.75458
G1 X99.476 Y112.61 E2.85214
G1 X96.936 Y113.72 E2.95586
G1 X95.366 Y114.444 E3.02055
G1 X94.655 Y114.692 E3.04872
G1 X93.972 Y114.826 E3.07477
G1 X93.427 Y114.867 E3.09522
G1 X92.558 Y114.879 E3.12774
G1 X91.312 Y114.88 E3.17436
G1 X90.609 Y114.867 E3.20067
G1 X89.699 Y114.758 E3.23496
G1 X89.015 Y114.563 E3.26158
G1 X88.427 Y114.306 E3.28559
G1 X87.577 Y113.753 E3.32353
G1 X87.065 Y113.278 E3.34966
G1 X86.655 Y112.787 E3.3736
G1 X86.135 Y112.067 E3.40683
G1 X82.74 Y107.216 E3.62838
G1 X82.277 Y106.526 E3.65947
G1 X81.968 Y105.963 E3.6835
G1 X81.668 Y105.148 E3.716
G1 X81.514 Y104.358 E3.74612
G1 X81.487 Y103.975 E3.76048
G1 X81.476 Y103.541 E3.77673
G1 X81.475 Y99.813 E3.91622
G1 X81.483 Y99.24 E3.93766
G1 X81.475 Y91.958 E4.21014
G1 X81.481 Y91.53 E4.22615
G1 X81.475 Y88.427 E4.34226
G1 X81.488 Y87.687 E4.36995
G1 X81.577 Y86.896 E4.39974
G1 X81.776 Y86.157 E4.42837
G1 X82.031 Y85.565 E4.45249
G1 X82.513 Y84.779 E4.48699
G1 X83.132 Y84.121 E4.5208
G0 F3600 X83.412 Y84.473
G1 F1800 X83.969 Y84.031 E4.5474
G1 X84.406 Y83.773 E4.56639
G1 X85.059 Y83.499 E4.59289
G1 X85.884 Y83.306 E4.62459
G1 X86.382 Y83.261 E4.6433
G1 X86.74 Y83.252 E4.6567
G1 X112.86 Y83.251 E5.63405
G1 X113.673 Y83.267 E5.66448
G1 X114.248 Y83.327 E5.68611
G1 X115.012 Y83.525 E5.71564
G1 X115.668 Y83.816 E5.74249
G1 X116.209 Y84.16 E5.76648
G1 X116.801 Y84.682 E5.79601
G1 X117.214 Y85.182 E5.82028
G1 X117.616 Y85.864 E5.8499
G1 X117.833 Y86.4 E5.87154
G1 X118.029 Y87.276 E5.90513
G1 X118.065 Y87.708 E5.92135
G1 X118.074 Y88.065 E5.93471
G1 X118.075 Y102.162 E6.46219
G1 X118.058 Y103.005 E6.49374
G1 X117.986 Y103.644 E6.5178
G1 X117.824 Y104.272 E6.54207
G1 X117.507 Y104.998 E6.57171
G1 X117.069 Y105.664 E6.60153
G1 X116.586 Y106.183 E6.62806
G1 X116.139 Y106.545 E6.64958
G1 X115.476 Y106.946 E6.67858
G1 X114.586 Y107.261 E6.7139
G1 X112.043 Y107.889 E6.81192
G1 X109.425 Y108.613 E6.91355
G1 X106.834 Y109.409 E7.01497
G1 X104.294 Y110.269 E7.11531
G1 X101.739 Y111.215 E7.21726
G1 X99.296 Y112.198 E7.31579
G1 X96.748 Y113.311 E7.41983
G1 X95.178 Y114.035 E7.48452
G1 X94.568 Y114.25 E7.50872
G1 X93.885 Y114.384 E7.53477
G1 X93.421 Y114.417 E7.55217
G1 X92.558 Y114.429 E7.58447
G1 X91.32 Y114.43 E7.63079
G1 X90.617 Y114.417 E7.6571
G1 X89.822 Y114.325 E7.68704
G1 X89.138 Y114.13 E7.71366
G1 X88.61 Y113.895 E7.73528
G1 X87.881 Y113.421 E7.76782
G1 X87.41 Y112.989 E7.79173
G1 X87.02 Y112.523 E7.81447
G1 X86.504 Y111.809 E7.84743
G1 X83.113 Y106.965 E8.06868
G1 X82.67 Y106.306 E8.09839
G1 X82.389 Y105.804 E8.11992
G1 X82.109 Y105.06 E8.14967
G1 X81.963 Y104.326 E8.17767
G1 X81.937 Y103.963 E8.19129
G1 X81.926 Y103.541 E8.20708
G1 X81.925 Y99.819 E8.34635
G1 X81.933 Y99.246 E8.36779
G1 X81.925 Y91.964 E8.64027
G1 X81.931 Y91.536 E8.65628
G1 X81.925 Y88.435 E8.77232
G1 X81.938 Y87.695 E8.80001
G1 X82.024 Y86.947 E8.82818
G1 X82.191 Y86.332 E8.85203
G1 X82.415 Y85.8 E8.87363
G1 X82.873 Y85.053 E8.90641
G1 X83.412 Y84.473 E8.93604
G0 F3600 X83.694 Y84.824
G1 F1800 X84.198 Y84.419 E8.96023
G1 X84.635 Y84.161 E8.97922
G1 X85.231 Y83.915 E9.00335
G1 X85.925 Y83.754 E9.03
G1 X86.394 Y83.711 E9.04763
G1 X86.74 Y83.702 E9.06058
G1 X112.852 Y83.701 E10.03763
G1 X113.626 Y83.715 E10.06659
G1 X114.201 Y83.775 E10.08823
G1 X114.896 Y83.96 E10.11514
G1 X115.482 Y84.226 E10.13922
G1 X115.911 Y84.498 E10.15822
G1 X116.503 Y85.02 E10.18776
G1 X116.826 Y85.411 E10.20673
G1 X117.228 Y86.093 E10.23635
G1 X117.414 Y86.565 E10.25534
G1 X117.581 Y87.314 E10.28405
G1 X117.615 Y87.72 E10.2993
G1 X117.624 Y88.065 E10.31221
G1 X117.625 Y102.154 E10.83939
G1 X117.61 Y102.958 E10.86948
G1 X117.55 Y103.532 E10.89107
G1 X117.388 Y104.16 E10.91534
G1 X117.129 Y104.754 E10.93959
G1 X116.737 Y105.36 E10.96659
G1 X116.303 Y105.833 E10.99061
G1 X115.856 Y106.195 E11.01213
G1 X115.284 Y106.537 E11.03707
G1 X114.478 Y106.824 E11.06908
G1 X111.923 Y107.455 E11.16756
G1 X109.305 Y108.179 E11.26919
G1 X106.702 Y108.979 E11.37109
G1 X104.138 Y109.847 E11.47238
G1 X101.583 Y110.793 E11.57432
G1 X99.116 Y111.786 E11.67383
G1 X96.568 Y112.899 E11.77787
G1 X95.025 Y113.612 E11.84147
G1 X94.481 Y113.808 E11.8631
G1 X93.798 Y113.942 E11.88915
G1 X93.415 Y113.967 E11.90351
G1 X92.558 Y113.979 E11.93558
G1 X91.328 Y113.98 E11.9816
G1 X90.625 Y113.967 E12.00791
G1 X89.942 Y113.891 E12.03363
G1 X89.321 Y113.719 E12.05774
G1 X88.793 Y113.484 E12.07936
G1 X88.185 Y113.089 E12.10649
G1 X87.714 Y112.657 E12.13041
G1 X87.385 Y112.26 E12.1497
G1 X86.873 Y111.551 E12.18242
G1 X83.486 Y106.713 E12.4034
G1 X83.061 Y106.083 E12.43184
G1 X82.809 Y105.642 E12.45084
G1 X82.55 Y104.97 E12.47779
G1 X82.412 Y104.293 E12.50364
G1 X82.387 Y103.951 E12.51647
G1 X82.376 Y103.541 E12.53182
G1 X82.375 Y99.825 E12.67086
G1 X82.383 Y99.252 E12.69231
G1 X82.375 Y91.97 E12.96478
G1 X82.381 Y91.542 E12.9808
G1 X82.375 Y88.443 E13.09676
G1 X82.388 Y87.703 E13.12445
G1 X82.459 Y87.062 E13.14858
G1 X82.606 Y86.507 E13.17006
G1 X82.83 Y85.975 E13.19166
G1 X83.233 Y85.327 E13.22022
G1 X83.694 Y84.824 E13.24575
G0 F3600 X83.978 Y85.173
G1 F1800 X84.427 Y84.807 E13.26742
G1 X84.864 Y84.549 E13.28641
G1 X85.4 Y84.332 E13.30805
G1 X86.023 Y84.193 E13.33193
G1 X86.406 Y84.161 E13.34631
G1 X86.74 Y84.152 E13.35881
G1 X112.845 Y84.151 E14.3356
G1 X113.579 Y84.163 E14.36307
G1 X114.154 Y84.223 E14.3847
G1 X114.713 Y84.371 E14.40634
G1 X115.241 Y84.606 E14.42796
G1 X115.67 Y84.878 E14.44697
G1 X116.156 Y85.307 E14.47123
G1 X116.479 Y85.698 E14.4902
G1 X116.809 Y86.258 E14.51452
G1 X116.995 Y86.73 E14.53351
G1 X117.133 Y87.352 E14.55735
G1 X117.165 Y87.732 E14.57162
G1 X117.174 Y88.065 E14.58408
G1 X117.175 Y102.146 E15.11096
G1 X117.162 Y102.911 E15.13959
G1 X117.102 Y103.485 E15.16118
G1 X116.953 Y104.044 E15.18283
G1 X116.718 Y104.571 E15.20442
G1 X116.403 Y105.058 E15.22612
G1 X116.016 Y105.486 E15.24771
G1 X115.625 Y105.809 E15.26669
G1 X115.094 Y106.127 E15.28985
G1 X114.37 Y106.387 E15.31863
G1 X111.803 Y107.021 E15.41757
G1 X109.185 Y107.745 E15.51921
G1 X106.57 Y108.549 E15.62157
G1 X103.982 Y109.425 E15.72381
G1 X101.427 Y110.371 E15.82575
G1 X98.936 Y111.374 E15.92623
G1 X96.388 Y112.487 E16.03027
G1 X94.868 Y113.19 E16.09293
G1 X94.392 Y113.367 E16.11194
G1 X93.768 Y113.493 E16.13576
G1 X93.409 Y113.517 E16.14922
G1 X92.558 Y113.529 E16.18106
G1 X91.336 Y113.53 E16.22679
G1 X90.633 Y113.517 E16.2531
G1 X90.059 Y113.456 E16.2747
G1 X89.5 Y113.306 E16.29635
G1 X89.035 Y113.104 E16.31532
G1 X88.487 Y112.755 E16.33963
G1 X88.06 Y112.369 E16.36117
G1 X87.75 Y111.996 E16.37932
G1 X87.242 Y111.293 E16.41177
G1 X83.859 Y106.461 E16.63248
G1 X83.452 Y105.86 E16.65964
G1 X83.2 Y105.419 E16.67865
G1 X82.971 Y104.811 E16.70296
G1 X82.861 Y104.259 E16.72402
G1 X82.837 Y103.939 E16.73603
G1 X82.826 Y103.541 E16.75092
G1 X82.825 Y99.831 E16.88974
G1 X82.833 Y99.258 E16.91119
G1 X82.825 Y91.976 E17.18366
G1 X82.831 Y91.548 E17.19968
G1 X82.825 Y88.45 E17.3156
G1 X82.836 Y87.749 E17.34183
G1 X82.895 Y87.174 E17.36346
G1 X83.021 Y86.682 E17.38246
G1 X83.245 Y86.15 E17.40406
G1 X83.592 Y85.601 E17.42836
G1 X83.978 Y85.173 E17.44993
G0 F3600 X84.265 Y85.519
G1 F1800 X84.656 Y85.195 E17.46893
G1 X85.093 Y84.937 E17.48792
G1 X85.565 Y84.751 E17.5069
G1 X86.061 Y84.641 E17.52591
G1 X86.419 Y84.611 E17.53935
G1 X86.74 Y84.602 E17.55137
G1 X112.839 Y84.601 E18.52793
G1 X113.537 Y84.611 E18.55405
G1 X114.043 Y84.659 E18.57307
G1 X114.534 Y84.784 E18.59203
G1 X115 Y84.986 E18.61103
G1 X115.429 Y85.258 E18.63004
G1 X115.809 Y85.594 E18.64902
G1 X116.132 Y85.985 E18.668
G1 X116.39 Y86.423 E18.68702
G1 X116.576 Y86.895 E18.706
G1 X116.685 Y87.39 E18.72497
G1 X116.715 Y87.745 E18.7383
G1 X116.724 Y88.065 E18.75027
G1 X116.725 Y102.139 E19.27689
G1 X116.714 Y102.868 E19.30417
G1 X116.666 Y103.373 E19.32315
G1 X116.54 Y103.865 E19.34216
G1 X116.338 Y104.33 E19.36113
G1 X116.066 Y104.759 E19.38013
G1 X115.729 Y105.139 E19.39914
G1 X115.338 Y105.462 E19.41811
G1 X114.9 Y105.719 E19.43712
G1 X114.262 Y105.95 E19.4625
G1 X111.683 Y106.587 E19.5619
G1 X109.065 Y107.311 E19.66354
G1 X106.438 Y108.119 E19.76638
G1 X103.826 Y109.003 E19.86956
G1 X101.271 Y109.949 E19.97151
G1 X98.756 Y110.962 E20.07296
G1 X96.208 Y112.075 E20.177
G1 X94.711 Y112.768 E20.23872
G1 X94.235 Y112.945 E20.25773
G1 X93.737 Y113.044 E20.27672
G1 X93.403 Y113.067 E20.28925
G1 X92.558 Y113.079 E20.32087
G1 X91.343 Y113.08 E20.36633
G1 X90.676 Y113.069 E20.3913
G1 X90.171 Y113.02 E20.41028
G1 X89.679 Y112.893 E20.42929
G1 X89.214 Y112.691 E20.44826
G1 X88.786 Y112.418 E20.46726
G1 X88.406 Y112.081 E20.48626
G1 X88.115 Y111.732 E20.50327
G1 X87.611 Y111.035 E20.53545
G1 X84.231 Y106.208 E20.75594
G1 X83.843 Y105.637 E20.78177
G1 X83.591 Y105.196 E20.80078
G1 X83.412 Y104.721 E20.81977
G1 X83.31 Y104.224 E20.83876
G1 X83.287 Y103.926 E20.84994
G1 X83.276 Y103.541 E20.86435
G1 X83.275 Y99.837 E21.00295
G1 X83.283 Y99.264 E21.02439
G1 X83.275 Y91.982 E21.29686
G1 X83.281 Y91.554 E21.31288
G1 X83.275 Y88.456 E21.4288
G1 X83.284 Y87.791 E21.45369
G1 X83.331 Y87.286 E21.47266
G1 X83.457 Y86.794 E21.49167
G1 X83.658 Y86.328 E21.51066
G1 X83.929 Y85.899 E21.52964
G1 X84.265 Y85.519 E21.54862
G1 F300 E21.04862
G1 F600 Z0.48
;MESH:HCore Bottom.3mf
G0 F3600 X103.164 Y99.606 Z0.48
;TYPE:WALL-INNER
G1 F600 Z0.2
G1 F120 E21.54862
G1 F1800 X102.981 Y99.725 E21.55588
G1 X102.827 Y99.771 E21.56123
G1 X88.263 Y99.771 E22.04563
G1 X87.1 Y99.812 E22.08434
G1 X87.1 Y103.634 E22.21146
G1 X90.713 Y108.793 E22.42094
G1 X93.183 Y108.793 E22.50309
G1 X95.577 Y103.668 E22.69123
G1 X95.851 Y103.22 E22.7087
G1 X96.265 Y102.801 E22.72829
G1 X96.76 Y102.484 E22.74784
G1 X97.316 Y102.289 E22.76744
G1 X97.823 Y102.229 E22.78442
G1 X112.9 Y102.226 E23.28588
G1 X112.9 Y88.426 E23.74487
G1 X103.526 Y88.426 E24.05665
G1 F1860.5 X102.75 Y88.414 E24.08162
G1 F1920 X88.222 Y88.413 E24.53463
G1 F1967.2 X87.079 Y88.405 E24.56941
G1 F2016.8 X87.079 Y88.757 E24.57986
G1 F1967.2 X88.222 Y88.789 E24.61466
G1 F1920 X102.75 Y88.79 E25.06766
G1 F1860.5 X103.23 Y89.017 E25.08475
G1 F1800 X103.35 Y89.377 E25.09737
G1 X103.35 Y91.376 E25.16386
G1 X103.246 Y91.616 E25.17256
G1 X103.005 Y91.841 E25.18352
G1 X102.75 Y91.877 E25.19209
G1 X88.243 Y91.878 E25.67459
G1 X87.1 Y91.918 E25.71263
G1 X87.1 Y96.33 E25.85938
G1 X88.237 Y96.37 E25.89722
G1 X102.75 Y96.371 E26.37992
G1 X102.998 Y96.406 E26.38825
G1 X103.254 Y96.62 E26.39935
G1 X103.345 Y96.891 E26.40886
G1 X103.35 Y99.265 E26.48782
G1 X103.28 Y99.454 E26.49452
G1 X103.164 Y99.606 E26.50088
G0 F3600 X102.785 Y99.369
;TYPE:WALL-OUTER
G1 F1800 X88.256 Y99.371 E26.98412
G1 X86.7 Y99.426 E27.0359
G1 X86.7 Y103.76 E27.18005
G1 X90.505 Y109.193 E27.40066
G1 X93.438 Y109.193 E27.49821
G1 X95.908 Y103.896 E27.69261
G1 X96.184 Y103.452 E27.70999
G1 X96.535 Y103.103 E27.72646
G1 X96.958 Y102.839 E27.74304
G1 X97.421 Y102.679 E27.75933
G1 X97.869 Y102.627 E27.77434
G1 X113.3 Y102.626 E28.28757
G1 X113.3 Y88.026 E28.77317
G1 X86.701 Y88.027 E29.65786
G1 X86.701 Y89.122 E29.69428
G1 X88.222 Y89.176 E29.7449
G1 X102.75 Y89.177 E30.2281
G1 X102.95 Y89.277 E30.23554
G1 X102.946 Y91.321 E30.30352
G1 X102.832 Y91.477 E30.30995
G1 X88.229 Y91.478 E30.79565
G1 X86.7 Y91.532 E30.84653
G1 X86.7 Y96.716 E31.01895
G1 X88.23 Y96.77 E31.06987
G1 X102.792 Y96.771 E31.55421
G1 X102.949 Y96.881 E31.56058
G1 X102.946 Y99.215 E31.63821
G1 X102.785 Y99.369 E31.64562
G0 F3600 X102.585 Y99.369
G0 X103.442 Y99.905
;TYPE:SKIN
G1 F1800 X103.639 Y99.646 E31.6578
G1 X103.723 Y99.417 E31.66692
G1 X103.753 Y99.198 E31.6752
G1 X103.744 Y96.77 E31.76605
G1 X103.584 Y96.376 E31.78196
G1 X103.264 Y96.103 E31.7977
G1 X103.032 Y96.006 E31.80711
G1 X102.778 Y95.969 E31.81671
G1 X88.276 Y95.966 E32.35934
G1 X87.504 Y95.939 E32.38825
G1 X87.504 Y92.309 E32.52407
G1 X88.268 Y92.281 E32.55268
G1 X102.778 Y92.279 E33.09561
G1 X103.032 Y92.242 E33.10521
G1 X103.361 Y92.098 E33.11865
G1 X103.614 Y91.79 E33.13356
G1 X103.722 Y91.524 E33.14431
G1 X103.753 Y91.304 E33.15262
G1 X103.754 Y89.342 E33.22603
G1 X103.584 Y88.831 E33.24618
G1 X112.496 Y88.831 E33.57965
G1 X112.496 Y101.822 E34.06574
G1 X97.772 Y101.828 E34.61668
G1 X97.248 Y101.891 E34.63643
G1 X96.694 Y102.078 E34.65831
G1 X96.499 Y102.173 E34.66642
G1 X96.085 Y102.436 E34.68478
G1 X95.941 Y102.554 E34.69174
G1 X95.611 Y102.886 E34.70926
G1 X95.481 Y103.051 E34.71712
G1 X95.18 Y103.553 E34.73902
G1 X92.923 Y108.388 E34.93867
G1 X90.925 Y108.388 E35.01343
G1 X87.504 Y103.505 E35.23652
G1 X87.504 Y100.202 E35.36011
G1 X88.258 Y100.175 E35.38834
G1 X102.889 Y100.172 E35.9358
G1 X103.144 Y100.098 E35.94574
G1 X103.442 Y99.905 E35.95902
G1 F300 E35.45902
G1 F600 Z0.48
G0 F3600 X112.27 Y89.359 Z0.48
G1 F600 Z0.2
G1 F120 E35.95902
G1 F1800 X111.966 Y89.055 E35.97511
G0 F3600 X111.329 Y89.055
G1 F1800 X112.27 Y89.996 E36.0249
G0 F3600 X112.27 Y90.632
G1 F1800 X110.693 Y89.055 E36.10835
G0 F3600 X110.056 Y89.055
G1 F1800 X112.27 Y91.269 E36.22551
G0 F3600 X112.27 Y91.905
G1 F1800 X109.42 Y89.055 E36.37632
G0 F3600 X108.784 Y89.055
G1 F1800 X112.27 Y92.541 E36.56079
G0 F3600 X112.27 Y93.178
G1 F1800 X108.147 Y89.055 E36.77896
G0 F3600 X107.511 Y89.055
G1 F1800 X112.27 Y93.814 E37.03079
G0 F3600 X112.27 Y94.451
G1 F1800 X106.874 Y89.055 E37.31633
G0 F3600 X106.238 Y89.055
G1 F1800 X112.27 Y95.087 E37.63552
G0 F3600 X112.27 Y95.723
G1 F1800 X105.602 Y89.055 E37.98837
G0 F3600 X104.965 Y89.055
G1 F1800 X112.27 Y96.36 E38.37493
G0 F3600 X112.27 Y96.996
G1 F1800 X104.329 Y89.055 E38.79514
G0 F3600 X103.977 Y89.34
G1 F1800 X112.27 Y97.633 E39.23397
G0 F3600 X112.27 Y98.269
G1 F1800 X103.977 Y89.977 E39.67278
G0 F3600 X103.977 Y90.612
G1 F1800 X112.27 Y98.905 E40.11162
G0 F3600 X112.27 Y99.542
G1 F1800 X103.976 Y91.248 E40.55051
G0 F3600 X103.866 Y91.774
G1 F1800 X112.27 Y100.178 E40.99522
G0 F3600 X112.27 Y100.815
G1 F1800 X103.605 Y92.15 E41.45374
G0 F3600 X103.222 Y92.403
G1 F1800 X112.27 Y101.451 E41.93253
G0 F3600 X111.779 Y101.597
G1 F1800 X102.684 Y92.502 E42.41381
G0 F3600 X102.048 Y92.502
G1 F1800 X111.143 Y101.597 E42.89508
G0 F3600 X110.507 Y101.597
G1 F1800 X101.411 Y92.502 E43.37639
G0 F3600 X100.775 Y92.502
G1 F1800 X109.87 Y101.597 E43.85766
G0 F3600 X109.234 Y101.597
G1 F1800 X100.139 Y92.502 E44.33894
G0 F3600 X99.503 Y92.503
G1 F1800 X102.745 Y95.745 E44.51049
G0 F3600 X102.109 Y95.745
G1 F1800 X98.866 Y92.503 E44.68208
G0 F3600 X98.23 Y92.503
G1 F1800 X101.472 Y95.745 E44.85363
G0 F3600 X100.835 Y95.744
G1 F1800 X97.594 Y92.503 E45.02513
G0 F3600 X96.958 Y92.503
G1 F1800 X100.199 Y95.744 E45.19664
G0 F3600 X99.562 Y95.744
G1 F1800 X96.322 Y92.503 E45.36811
G0 F3600 X95.685 Y92.503
G1 F1800 X98.925 Y95.743 E45.53956
G0 F3600 X98.289 Y95.743
