;FLAVOR:Marlin
;TIME:457
;Filament used: 0.349373m
;Layer height: 0.32
;MINX:29.35
;MINY:135.24
;MINZ:0.24
;MAXX:71.75
;MAXY:164.759
;MAXZ:9.84
;Generated with Cura_SteamEngine 5.0.0
M140 S80
M105
M190 S80
M104 S245
M105
M109 S245
M82 ;absolute extrusion mode
; Ender 3 Max Custom Start G-code
G92 E0 ; Reset Extruder
G28 ; Home all axes
G1 Z2.0 F3000 ; Move Z Axis up little to prevent scratching of Heat Bed
G1 X0.1 Y20 Z0.3 F5000.0 ; Move to start position
G1 X0.1 Y200.0 Z0.3 F1500.0 E15 ; Draw the first line
G1 X0.4 Y200.0 Z0.3 F5000.0 ; Move to side a little
G1 X0.4 Y20 Z0.3 F1500.0 E30 ; Draw the second line
G92 E0 ; Reset Extruder
G1 Z2.0 F3000 ; Move Z Axis up little to prevent scratching of Heat Bed
G1 X5 Y20 Z0.3 F5000.0 ; Move over to prevent blob squish
G92 E0
G92 E0
G1 F2100 E-5
;LAYER_COUNT:30
;LAYER:0
M107
G1 F300 Z0.56
G0 F6000 X38.338 Y135.559 Z0.56
G1 F300 Z0.56
G0 F6000 X29.351 Y147.408
;TYPE:SKIRT
G1 F300 Z0.24
G1 F2100 E0
G1 F1800 X29.36 Y146.742 E0.0579
G1 X29.413 Y145.778 E0.14183
G1 X29.546 Y144.822 E0.22573
G1 X29.757 Y143.88 E0.30965
G1 X30.045 Y142.959 E0.39353
G1 X30.409 Y142.065 E0.47744
G1 X30.846 Y141.204 E0.56137
G1 X31.352 Y140.382 E0.64528
G1 X31.925 Y139.605 E0.72921
G1 X32.56 Y138.878 E0.81312
G1 X33.253 Y138.206 E0.89703
G1 X33.999 Y137.594 E0.98091
G1 X34.793 Y137.046 E1.06477
G1 X35.63 Y136.565 E1.14869
G1 X36.504 Y136.155 E1.23261
G1 X37.409 Y135.819 E1.31653
G1 X38.338 Y135.559 E1.40039
G1 X39.286 Y135.377 E1.4843
G1 X40.682 Y135.254 E1.60612
G1 X41.33 Y135.24 E1.66247
G1 X45.798 Y135.24 E2.05086
G1 X47.082 Y135.258 E2.16249
G1 X49.233 Y135.32 E2.34955
G1 X51.72 Y135.32 E2.56574
G1 X52.833 Y135.286 E2.66254
G1 X55.48 Y135.241 E2.89267
G1 X59.56 Y135.242 E3.24734
G1 X60.258 Y135.252 E3.30803
G1 X61.222 Y135.306 E3.39196
G1 X62.178 Y135.439 E3.47586
G1 X63.119 Y135.651 E3.55971
G1 X64.04 Y135.941 E3.64365
G1 X64.934 Y136.305 E3.72756
G1 X65.794 Y136.742 E3.81141
G1 X66.615 Y137.249 E3.89529
G1 X67.392 Y137.823 E3.97927
G1 X68.118 Y138.458 E4.06311
G1 X68.79 Y139.152 E4.14709
G1 X69.401 Y139.898 E4.23091
G1 X69.949 Y140.693 E4.31485
G1 X70.429 Y141.53 E4.39872
G1 X70.838 Y142.405 E4.48268
G1 X71.174 Y143.31 E4.5666
G1 X71.433 Y144.239 E4.65044
G1 X71.614 Y145.187 E4.73434
G1 X71.736 Y146.573 E4.85528
G1 X71.75 Y147.221 E4.91163
G1 X71.749 Y152.517 E5.372
G1 X71.74 Y153.244 E5.4352
G1 X71.688 Y154.208 E5.51913
G1 X71.557 Y155.164 E5.60301
G1 X71.346 Y156.106 E5.68692
G1 X71.059 Y157.028 E5.77086
G1 X70.696 Y157.922 E5.85474
G1 X70.261 Y158.783 E5.93859
G1 X69.755 Y159.606 E6.02258
G1 X69.184 Y160.383 E6.1064
G1 X68.549 Y161.111 E6.19037
G1 X67.857 Y161.784 E6.27429
G1 X67.112 Y162.397 E6.35815
G1 X66.318 Y162.946 E6.44207
G1 X65.482 Y163.428 E6.52595
G1 X64.608 Y163.839 E6.60991
G1 X63.704 Y164.176 E6.69378
G1 X62.775 Y164.437 E6.77766
G1 X61.827 Y164.62 E6.86159
G1 X60.415 Y164.745 E6.98481
G1 X59.771 Y164.759 E7.04081
G1 X55.075 Y164.759 E7.44902
G1 X54.074 Y164.743 E7.53605
G1 X51.863 Y164.68 E7.72833
G1 X49.382 Y164.68 E7.944
G1 X48.28 Y164.714 E8.03984
G1 X45.604 Y164.759 E8.27249
G1 X41.557 Y164.758 E8.62429
G1 X40.859 Y164.749 E8.68497
G1 X39.895 Y164.697 E8.7689
G1 X38.939 Y164.565 E8.85279
G1 X37.997 Y164.354 E8.9367
G1 X37.076 Y164.066 E9.02059
G1 X36.182 Y163.703 E9.10446
G1 X35.32 Y163.267 E9.18844
G1 X34.498 Y162.761 E9.27235
G1 X33.721 Y162.189 E9.35622
G1 X32.994 Y161.554 E9.44013
G1 X32.321 Y160.862 E9.52404
G1 X31.709 Y160.116 E9.60792
G1 X31.16 Y159.322 E9.69183
G1 X30.678 Y158.485 E9.77579
G1 X30.268 Y157.612 E9.85963
G1 X29.932 Y156.707 E9.94355
G1 X29.671 Y155.778 E10.02744
G1 X29.488 Y154.83 E10.11137
G1 X29.363 Y153.415 E10.23485
G1 X29.35 Y152.767 E10.29119
G1 X29.351 Y148.771 E10.63856
G0 F1620 X29.351 Y147.408
G0 F6000 X30.011 Y147.417
G1 F1800 X30.02 Y146.751 E10.69646
G1 X30.073 Y145.815 E10.77795
G1 X30.205 Y144.886 E10.85952
G1 X30.416 Y143.973 E10.94098
G1 X30.704 Y143.081 E11.02246
G1 X31.066 Y142.217 E11.10389
G1 X31.502 Y141.386 E11.18547
G1 X32.006 Y140.596 E11.26693
G1 X32.576 Y139.852 E11.3484
G1 X33.207 Y139.159 E11.42987
G1 X33.895 Y138.522 E11.51138
G1 X34.635 Y137.946 E11.5929
G1 X35.421 Y137.436 E11.67435
G1 X36.248 Y136.994 E11.75586
G1 X37.109 Y136.624 E11.83732
G1 X37.999 Y136.329 E11.91883
G1 X38.911 Y136.111 E12.00034
G1 X39.838 Y135.972 E12.08182
G1 X40.701 Y135.913 E12.15702
G1 X41.33 Y135.9 E12.21171
G1 X45.798 Y135.9 E12.60011
G1 X47.063 Y135.918 E12.71008
G1 X49.214 Y135.98 E12.89714
G1 X51.709 Y135.98 E13.11403
G1 X52.845 Y135.946 E13.21283
G1 X55.48 Y135.901 E13.44192
G1 X59.55 Y135.902 E13.79572
G1 X60.248 Y135.912 E13.8564
G1 X61.184 Y135.966 E13.9379
G1 X62.112 Y136.098 E14.01938
G1 X63.026 Y136.31 E14.10094
G1 X63.917 Y136.599 E14.18237
G1 X64.782 Y136.962 E14.26392
G1 X65.611 Y137.398 E14.34534
G1 X66.401 Y137.903 E14.42684
G1 X67.145 Y138.474 E14.50837
G1 X67.838 Y139.106 E14.5899
G1 X68.474 Y139.794 E14.67135
G1 X69.049 Y140.534 E14.75281
G1 X69.559 Y141.321 E14.83433
G1 X70 Y142.148 E14.91581
G1 X70.369 Y143.01 E14.99732
G1 X70.663 Y143.9 E15.07879
G1 X70.881 Y144.812 E15.16031
G1 X71.019 Y145.739 E15.24178
G1 X71.077 Y146.592 E15.3161
G1 X71.09 Y147.221 E15.37079
G1 X71.089 Y152.509 E15.83047
G1 X71.08 Y153.236 E15.89367
G1 X71.029 Y154.172 E15.97516
G1 X70.897 Y155.1 E16.05664
G1 X70.688 Y156.014 E16.13814
G1 X70.401 Y156.906 E16.2196
G1 X70.039 Y157.771 E16.30111
G1 X69.605 Y158.602 E16.3826
G1 X69.101 Y159.393 E16.46414
G1 X68.532 Y160.138 E16.54563
G1 X67.902 Y160.831 E16.62704
G1 X67.214 Y161.469 E16.70861
G1 X66.475 Y162.046 E16.79011
G1 X65.69 Y162.557 E16.87153
G1 X64.863 Y163 E16.95309
G1 X64.002 Y163.37 E17.03455
G1 X63.113 Y163.666 E17.116
G1 X62.201 Y163.886 E17.19755
G1 X61.274 Y164.026 E17.27905
G1 X60.397 Y164.086 E17.35546
G1 X59.77 Y164.099 E17.40998
G1 X55.084 Y164.099 E17.81733
G1 X54.093 Y164.084 E17.90348
G1 X51.847 Y164.02 E18.09881
G1 X49.361 Y164.02 E18.31491
G1 X48.268 Y164.054 E18.40997
G1 X45.604 Y164.099 E18.64158
G1 X41.565 Y164.098 E18.99269
G1 X40.867 Y164.089 E19.05337
G1 X39.931 Y164.037 E19.13486
G1 X39.003 Y163.905 E19.21634
G1 X38.09 Y163.695 E19.29778
G1 X37.197 Y163.408 E19.37932
G1 X36.333 Y163.045 E19.46078
G1 X35.502 Y162.611 E19.54228
G1 X34.712 Y162.107 E19.62374
G1 X33.967 Y161.537 E19.70528
G1 X33.274 Y160.907 E19.78669
G1 X32.636 Y160.219 E19.86826
G1 X32.06 Y159.48 E19.94971
G1 X31.549 Y158.694 E20.0312
G1 X31.107 Y157.867 E20.11272
G1 X30.737 Y157.006 E20.19418
G1 X30.441 Y156.116 E20.27571
G1 X30.222 Y155.205 E20.35716
G1 X30.082 Y154.278 E20.43866
G1 X30.023 Y153.397 E20.51541
G1 X30.01 Y152.767 E20.57019
G1 X30.011 Y148.78 E20.91678
G0 F1620 X30.011 Y147.417
G0 F6000 X30.671 Y147.425
G1 F1800 X30.68 Y146.759 E20.97468
G1 X30.732 Y145.852 E21.05365
G1 X30.864 Y144.953 E21.13264
G1 X31.074 Y144.069 E21.21162
G1 X31.362 Y143.206 E21.29071
G1 X31.723 Y142.373 E21.36963
G1 X32.157 Y141.574 E21.44867
G1 X32.66 Y140.817 E21.52767
G1 X33.226 Y140.106 E21.60667
G1 X33.854 Y139.449 E21.68568
G1 X34.536 Y138.848 E21.7647
G1 X35.269 Y138.311 E21.84369
G1 X36.046 Y137.839 E21.92272
G1 X36.861 Y137.438 E22.00168
G1 X37.709 Y137.11 E22.08071
G1 X38.582 Y136.858 E22.1597
G1 X39.474 Y136.684 E22.2387
G1 X40.719 Y136.573 E22.34736
G1 X41.33 Y136.56 E22.40048
G1 X45.798 Y136.56 E22.78888
G1 X47.044 Y136.577 E22.8972
G1 X49.229 Y136.64 E23.08722
G1 X51.73 Y136.64 E23.30463
G1 X52.856 Y136.606 E23.40256
G1 X55.48 Y136.561 E23.63069
G1 X59.541 Y136.562 E23.98371
G1 X60.239 Y136.572 E24.04439
G1 X61.146 Y136.625 E24.12337
G1 X62.045 Y136.758 E24.20237
G1 X62.929 Y136.969 E24.28137
G1 X63.791 Y137.257 E24.36038
G1 X64.625 Y137.619 E24.43941
G1 X65.423 Y138.054 E24.51842
G1 X66.18 Y138.556 E24.59738
G1 X66.89 Y139.124 E24.67642
G1 X67.547 Y139.752 E24.75542
G1 X68.147 Y140.435 E24.83445
G1 X68.684 Y141.168 E24.91344
G1 X69.155 Y141.945 E24.99242
G1 X69.555 Y142.761 E25.07142
G1 X69.882 Y143.609 E25.15043
G1 X70.134 Y144.482 E25.22941
G1 X70.308 Y145.374 E25.30842
G1 X70.417 Y146.611 E25.41636
G1 X70.43 Y147.221 E25.4694
G1 X70.429 Y152.501 E25.92838
G1 X70.42 Y153.228 E25.99159
G1 X70.369 Y154.135 E26.07056
G1 X70.238 Y155.035 E26.14962
G1 X70.029 Y155.919 E26.22858
G1 X69.743 Y156.782 E26.30761
G1 X69.382 Y157.616 E26.38661
G1 X68.949 Y158.415 E26.46561
G1 X68.447 Y159.173 E26.54464
G1 X67.881 Y159.884 E26.62364
G1 X67.255 Y160.542 E26.70259
G1 X66.573 Y161.143 E26.78161
G1 X65.841 Y161.682 E26.86063
G1 X65.064 Y162.154 E26.93966
G1 X64.249 Y162.556 E27.01866
G1 X63.402 Y162.885 E27.09764
G1 X62.529 Y163.138 E27.17666
G1 X61.637 Y163.314 E27.25569
G1 X60.379 Y163.426 E27.36548
G1 X59.77 Y163.439 E27.41843
G1 X55.094 Y163.439 E27.82491
G1 X54.112 Y163.424 E27.91028
G1 X51.866 Y163.36 E28.10561
G1 X49.37 Y163.36 E28.32258
G1 X48.257 Y163.394 E28.41938
G1 X45.604 Y163.439 E28.65003
G1 X41.574 Y163.438 E29.00035
G1 X40.876 Y163.429 E29.06104
G1 X39.968 Y163.377 E29.1401
G1 X39.069 Y163.246 E29.21907
G1 X38.185 Y163.036 E29.29805
G1 X37.322 Y162.75 E29.37709
G1 X36.488 Y162.388 E29.45612
G1 X35.69 Y161.955 E29.53504
G1 X34.932 Y161.453 E29.61407
G1 X34.221 Y160.887 E29.69307
G1 X33.563 Y160.26 E29.77208
G1 X32.962 Y159.578 E29.8511
G1 X32.424 Y158.845 E29.93014
G1 X31.952 Y158.069 E30.0091
G1 X31.551 Y157.253 E30.08813
G1 X31.222 Y156.406 E30.16712
G1 X30.97 Y155.533 E30.24611
G1 X30.795 Y154.641 E30.32513
G1 X30.683 Y153.379 E30.43526
G1 X30.67 Y152.767 E30.48847
G1 X30.671 Y148.788 E30.83436
G0 F1620 X30.671 Y147.425
G1 F2100 E25.83436
G1 F300 Z0.56
;MESH:v2 flush.stl
G0 F6000 X42.785 Y148.675 Z0.56
;TYPE:WALL-INNER
G1 F300 Z0.24
G1 F2100 E30.83436
G1 F1281.6 X42.785 Y149.139 E30.88175
G1 F1294.1 X42.774 Y149.533 E30.9216
G1 F1312.7 X42.771 Y150.112 E30.97933
G1 X42.774 Y150.398 E31.00784
G1 F1301.2 X42.778 Y150.684 E31.03661
G1 F1288.5 X42.784 Y151.325 E31.10171
G1 F1280.2 X43.789 Y151.324 E31.20445
G1 X43.735 Y151.029 E31.23511
G1 F1288.5 X43.692 Y150.629 E31.27597
G1 F1301.2 X43.682 Y150.361 E31.30294
G1 F1312.7 X43.672 Y150.093 E31.32968
G1 X43.683 Y149.549 E31.38392
G1 F1294.1 X43.71 Y149.192 E31.42013
G1 F1281.6 X43.751 Y148.878 E31.45246
G1 X43.791 Y148.673 E31.47379
G1 X43.043 Y148.675 E31.55017
G0 F1620 X42.785 Y148.675
G1 F2100 E26.55017
G1 F300 Z0.56
G0 F6000 X44.834 Y152.119 Z0.56
G1 F300 Z0.24
G1 F2100 E31.55017
G1 F1800 X44.749 Y151.88 E31.56862
G1 X44.635 Y151.482 E31.59872
G1 X44.537 Y151.016 E31.63334
G1 X44.497 Y150.712 E31.65563
G1 X44.469 Y150.459 E31.67414
G1 X44.452 Y150.06 E31.70317
G1 X44.467 Y149.579 E31.73816
G1 X44.498 Y149.283 E31.7598
G1 X44.53 Y149.028 E31.77848
G1 X44.608 Y148.623 E31.80847
G1 X44.737 Y148.162 E31.84327
G1 X44.837 Y147.881 E31.86496
G1 X41.991 Y147.881 E32.07187
G1 X41.99 Y152.119 E32.37999
G1 X43.471 Y152.119 E32.48767
G0 F1620 X44.834 Y152.119
G1 F2100 E27.48767
G1 F300 Z0.56
G0 F6000 X45.88 Y147.22 Z0.56
;TYPE:WALL-OUTER
G1 F300 Z0.24
G1 F2100 E32.48767
G1 F1800 X41.331 Y147.221 E32.8148
G1 X41.33 Y152.779 E33.2145
G1 X45.879 Y152.779 E33.54164
G1 X45.707 Y152.475 E33.56675
G1 X45.514 Y152.059 E33.59973
G1 X45.384 Y151.698 E33.62733
G1 X45.264 Y151.276 E33.65888
G1 X45.183 Y150.883 E33.68773
G1 X45.129 Y150.431 E33.72047
G1 X45.112 Y150.004 E33.7512
G1 X45.129 Y149.578 E33.78186
G1 X45.178 Y149.153 E33.81263
G1 X45.263 Y148.719 E33.84443
G1 X45.337 Y148.467 E33.86332
G0 F1620 X45.378 Y148.325
G0 X45.525 Y147.923
G0 X45.705 Y147.532
G0 X45.88 Y147.22
G0 F6000 X45.56 Y147.22
G1 F2100 E28.86332
G1 F300 Z0.56
G0 F6000 X57.299 Y148.68 Z0.56
;TYPE:WALL-INNER
G1 F300 Z0.24
G1 F2100 E33.86332
G1 F1269.2 X57.353 Y148.969 E33.89363
G1 F1276 X57.395 Y149.366 E33.93457
G1 F1288.5 X57.405 Y149.637 E33.96212
G1 F1299.8 X57.416 Y149.908 E33.98942
G1 F1301.2 X57.405 Y150.451 E34.04405
G1 F1282.9 X57.38 Y150.8 E34.07974
G1 F1269.2 X57.337 Y151.125 E34.11354
G1 X57.299 Y151.321 E34.13412
G1 X58.312 Y151.321 E34.23857
G1 X58.312 Y150.853 E34.28683
G1 F1282.9 X58.322 Y150.468 E34.32611
G1 F1301.2 X58.325 Y149.889 E34.38435
G1 F1299.8 X58.321 Y149.486 E34.42492
G1 F1281.6 X58.312 Y149.147 E34.45955
G1 F1269.2 X58.312 Y148.679 E34.50781
G1 X57.613 Y148.68 E34.57988
G0 F1620 X57.299 Y148.68
G1 F2100 E29.57988
G1 F300 Z0.56
G0 F6000 X56.247 Y152.118 Z0.56
G1 F300 Z0.24
G1 F2100 E34.57988
G1 F1800 X59.11 Y152.119 E34.78803
G1 X59.11 Y149.147 E35.00411
G1 X59.11 Y147.881 E35.09615
G1 X56.25 Y147.881 E35.30408
G1 X56.335 Y148.12 E35.32253
G1 X56.449 Y148.518 E35.35263
G1 X56.547 Y148.984 E35.38725
G1 X56.588 Y149.298 E35.41027
G1 X56.615 Y149.538 E35.42783
G1 X56.632 Y149.941 E35.45715
G1 X56.617 Y150.422 E35.49214
G1 X56.587 Y150.708 E35.51305
G1 X56.575 Y150.798 E35.51965
G0 F1620 X56.554 Y150.973
G0 X56.478 Y151.365
G0 X56.357 Y151.808
G0 X56.247 Y152.118
G0 F6000 X55.206 Y152.779
;TYPE:WALL-OUTER
G1 F1800 X59.77 Y152.779 E35.84787
G1 X59.77 Y149.147 E36.10906
G1 X59.77 Y147.221 E36.24756
G1 X55.205 Y147.221 E36.57585
G1 X55.364 Y147.502 E36.59907
G1 X55.558 Y147.912 E36.63169
G1 X55.693 Y148.28 E36.65987
G1 X55.814 Y148.7 E36.69131
G1 X55.901 Y149.117 E36.72194
G1 X55.953 Y149.541 E36.75266
G1 X55.972 Y149.969 E36.78347
G1 X55.957 Y150.397 E36.81427
G1 X55.906 Y150.847 E36.84684
G1 X55.83 Y151.239 E36.87555
G1 X55.748 Y151.532 E36.89743
G0 F1620 X55.714 Y151.653
G0 X55.56 Y152.076
G0 X55.38 Y152.466
G0 X55.206 Y152.779
G0 F6000 X55.526 Y152.779
G1 F2100 E31.89743
G1 F300 Z0.56
;MESH:NONMESH
G0 F6000 X57.425 Y151.453 Z0.56
;TIME_ELAPSED:28.299678
;LAYER:1
M140 S75
M106 S21.2
;TYPE:WALL-INNER
;MESH:v2 flush.stl
G1 F300 Z0.56
G1 F2100 E36.89743
G1 F769.8 X58.164 Y151.453 E36.95821
G1 X58.164 Y151.117 E36.98585
G1 F777.9 X58.171 Y150.871 E37.00588
G1 F794.6 X58.178 Y150.625 E37.02549
G1 F812.1 X58.185 Y150.059 E37.06962
G1 F815.9 X58.181 Y149.471 E37.11525
G1 F799.5 X58.173 Y149.177 E37.13854
G1 F780.2 X58.164 Y148.883 E37.16241
G1 F769.8 X58.164 Y148.547 E37.19005
G1 X57.422 Y148.548 E37.25108
G1 X57.495 Y148.926 E37.28275
G1 F783.8 X57.531 Y149.319 E37.31463
G1 F804.5 X57.543 Y149.595 E37.33637
G1 F815.9 X57.556 Y149.871 E37.35781
G1 F817.2 X57.545 Y150.432 E37.40128
G1 F803.2 X57.525 Y150.704 E37.42278
G1 F786.1 X57.505 Y150.977 E37.44483
G1 F774.4 X57.425 Y151.453 E37.48429
G0 F6960 X56.588 Y152.089
G1 F862.1 X58.8 Y152.089 E37.64674
G1 X58.8 Y148.883 E37.88218
G1 X58.8 Y147.911 E37.95356
G1 X56.59 Y147.911 E38.11586
G1 X56.736 Y148.399 E38.15327
G1 X56.845 Y148.895 E38.19056
G1 X56.912 Y149.397 E38.22776
G1 X56.941 Y149.899 E38.26468
G1 X56.927 Y150.409 E38.30215
G1 X56.876 Y150.907 E38.33891
G1 X56.859 Y150.998 E38.34571
G0 F775.9 X56.785 Y151.41
G0 X56.654 Y151.896
G0 X56.588 Y152.089
G0 F6960 X55.676 Y152.689
G1 F862.1 X59.4 Y152.689 E38.6192
G1 X59.4 Y148.883 E38.8987
G1 X59.4 Y147.311 E39.01415
G1 X55.682 Y147.312 E39.28719
G1 X55.885 Y147.737 E39.32178
G1 X56.038 Y148.149 E39.35406
G1 X56.16 Y148.565 E39.38589
G1 X56.257 Y149.018 E39.41992
G1 X56.317 Y149.472 E39.45355
G1 X56.342 Y149.927 E39.48701
G1 X56.328 Y150.387 E39.52081
G1 X56.28 Y150.84 E39.55426
G1 X56.196 Y151.298 E39.58846
G1 X56.1 Y151.648 E39.61511
G0 F775.9 X56.077 Y151.733
G0 X55.926 Y152.156
G0 X55.749 Y152.549
G0 X55.676 Y152.689
G1 F2100 E34.61511
G1 F300 Z0.88
G0 F6960 X54.566 Y146.712 Z0.88
;TYPE:WALL-OUTER
G1 F300 Z0.56
G1 F2100 E39.61511
G1 F747.2 X54.722 Y146.908 E39.63331
G1 X54.963 Y147.263 E39.66448
G1 X55.166 Y147.619 E39.69424
G1 X55.353 Y148.018 E39.72625
G1 X55.48 Y148.373 E39.75364
G1 X55.588 Y148.752 E39.78227
G1 X55.674 Y149.166 E39.81298
G1 X55.724 Y149.57 E39.84255
G1 X55.742 Y149.981 E39.87244
G1 X55.727 Y150.388 E39.90202
G1 X55.682 Y150.786 E39.93112
G1 X55.6 Y151.212 E39.96263
G1 X55.493 Y151.59 E39.99117
G1 X55.353 Y151.973 E40.02079
G1 X55.194 Y152.319 E40.04845
G1 X55.038 Y152.607 E40.07224
G1 X54.998 Y152.681 E40.07835
G1 X54.757 Y153.044 E40.11
G1 X54.568 Y153.289 E40.13248
G1 X55.298 Y153.29 E40.18551
G1 X55.426 Y153.29 E40.1948
G1 X60 Y153.289 E40.52706
G1 X60 Y148.883 E40.84711
G1 X60 Y146.711 E41.00489
G1 X55.691 Y146.712 E41.31789
G0 F672.5 X54.566 Y146.712
G0 F6960 X54.722 Y146.908
G0 X54.761 Y146.965
G1 F2100 E36.31789
G1 F300 Z0.88
