;FLAVOR:Marlin
;TIME:4852
;Filament used: 5.82703m
;Layer height: 0.32
;MINX:35.317
;MINY:78.274
;MINZ:0.24
;MAXX:180.547
;MAXY:182.614
;MAXZ:39.92
;Generated with Cura_SteamEngine 5.0.0
M140 S70
M105
M190 S70
M104 S245
M105
M109 S245
M82 ;absolute extrusion mode
; Ender 3 Max Custom Start G-code
G92 E0 ; Reset Extruder
G28 ; Home all axes
G1 Z2.0 F3000 ; Move Z Axis up little to prevent scratching of Heat Bed
G1 X0.1 Y20 Z0.3 F5000.0 ; Move to start position
G1 X0.1 Y200.0 Z0.3 F1500.0 E15 ; Draw the first line
G1 X0.4 Y200.0 Z0.3 F5000.0 ; Move to side a little
G1 X0.4 Y20 Z0.3 F1500.0 E30 ; Draw the second line
G92 E0 ; Reset Extruder
G1 Z2.0 F3000 ; Move Z Axis up little to prevent scratching of Heat Bed
G1 X5 Y20 Z0.3 F5000.0 ; Move over to prevent blob squish
G92 E0
G92 E0
G1 F2100 E-5
;LAYER_COUNT:125
;LAYER:0
M107
G1 F300 Z0.56
G0 F6000 X55.02 Y80.224 Z0.56
G1 F300 Z0.56
G0 F6000 X47.255 Y93.048
;TYPE:SKIRT
G1 F300 Z0.24
G1 F2100 E0
G1 F1800 X47.348 Y92.251 E0.05813
G1 X47.502 Y91.275 E0.1297
G1 X47.735 Y90.316 E0.2012
G1 X47.951 Y89.559 E0.25822
G1 X48.26 Y88.62 E0.32983
G1 X48.64 Y87.719 E0.40067
G1 X48.98 Y86.995 E0.45861
G1 X49.436 Y86.118 E0.53022
G1 X49.934 Y85.32 E0.59836
G1 X50.382 Y84.661 E0.65608
G1 X50.971 Y83.867 E0.7277
G1 X51.648 Y83.095 E0.80208
G1 X52.195 Y82.522 E0.85946
G1 X52.906 Y81.835 E0.93108
G1 X53.6 Y81.262 E0.99628
G1 X54.212 Y80.793 E1.05213
G1 X55.02 Y80.224 E1.12372
G1 X55.871 Y79.722 E1.1953
G1 X56.76 Y79.291 E1.26687
G1 X57.682 Y78.933 E1.33851
G1 X58.629 Y78.651 E1.41009
G1 X59.595 Y78.446 E1.48163
G1 X60.575 Y78.32 E1.5532
G1 X61.642 Y78.274 E1.63057
G1 X66.389 Y78.275 E1.97445
G1 X67.376 Y78.315 E2.046
G1 X67.965 Y78.378 E2.08891
G1 X68.448 Y78.441 E2.1242
G1 X69.422 Y78.608 E2.19579
G1 X70.379 Y78.853 E2.26735
G1 X71.395 Y79.208 E2.34531
G1 X71.851 Y79.39 E2.38088
G1 X72.753 Y79.793 E2.45244
G1 X73.62 Y80.268 E2.52406
G1 X74.489 Y80.842 E2.5995
G1 X74.881 Y81.126 E2.63457
G1 X75.657 Y81.738 E2.70616
G1 X76.396 Y82.425 E2.77925
G1 X76.682 Y82.714 E2.80871
G1 X76.899 Y82.953 E2.83209
G1 X79.367 Y84.708 E3.05147
G1 X79.827 Y84.421 E3.09075
G1 X80.681 Y83.977 E3.16047
G1 X82.601 Y83.074 E3.31417
G1 X83.511 Y82.69 E3.38572
G1 X84.449 Y82.381 E3.45726
G1 X84.729 Y82.313 E3.47814
G1 X84.989 Y82.12 E3.50159
G1 X85.827 Y81.597 E3.57315
G1 X86.682 Y81.152 E3.64297
G1 X89.934 Y79.623 E3.90329
G1 X90.724 Y79.285 E3.96554
G1 X90.998 Y79.179 E3.98682
G1 X91.933 Y78.861 E4.05836
G1 X92.785 Y78.641 E4.1221
G1 X93.072 Y78.578 E4.14339
G1 X94.045 Y78.405 E4.21498
G1 X94.795 Y78.327 E4.2696
G1 X95.067 Y78.307 E4.28936
G1 X95.965 Y78.274 E4.35446
G1 X99.845 Y78.275 E4.63552
G1 X101.197 Y78.35 E4.73361
G1 X101.627 Y78.398 E4.76496
G1 X102.603 Y78.548 E4.83649
G1 X103.565 Y78.775 E4.90809
G1 X104.314 Y79.011 E4.96498
G1 X104.733 Y79.158 E4.99715
G1 X105.652 Y79.523 E5.06878
G1 X106.537 Y79.961 E5.14031
G1 X107.177 Y80.335 E5.19401
G1 X107.547 Y80.567 E5.22564
G1 X108.363 Y81.126 E5.29729
G1 X109.13 Y81.748 E5.36883
G1 X109.695 Y82.278 E5.42495
G1 X110.003 Y82.586 E5.4565
G1 X110.673 Y83.313 E5.52812
G1 X111.282 Y84.091 E5.59969
G1 X111.717 Y84.739 E5.65623
G1 X111.95 Y85.111 E5.68803
G1 X112.44 Y85.969 E5.7596
G1 X112.859 Y86.863 E5.83112
G1 X113.15 Y87.626 E5.89028
G1 X113.297 Y88.054 E5.92306
G1 X113.58 Y89.001 E5.99466
G1 X113.785 Y89.967 E6.0662
G1 X113.883 Y90.656 E6.11661
G1 X113.931 Y91.083 E6.14774
G1 X114.007 Y92.45 E6.24692
G1 X114.006 Y97.251 E6.5947
G1 X113.947 Y98.392 E6.67747
G1 X143.052 Y98.392 E8.78585
G1 X144.039 Y98.432 E8.85741
G1 X145.02 Y98.552 E8.929
G1 X145.988 Y98.75 E9.00058
G1 X146.937 Y99.027 E9.07219
G1 X148.089 Y99.479 E9.16184
G1 X148.301 Y99.575 E9.1787
G1 X149.184 Y100.019 E9.25029
G1 X150.028 Y100.533 E9.32188
G1 X150.828 Y101.113 E9.39346
G1 X151.578 Y101.756 E9.46502
G1 X152.274 Y102.457 E9.53658
G1 X152.911 Y103.213 E9.6082
G1 X153.484 Y104.017 E9.67972
G1 X153.991 Y104.866 E9.75135
G1 X154.618 Y106.206 E9.85852
G1 X154.69 Y106.388 E9.8727
G1 X155.016 Y107.321 E9.94429
G1 X155.265 Y108.277 E10.01586
G1 X155.437 Y109.25 E10.08744
G1 X155.529 Y110.234 E10.15903
G1 X155.546 Y110.88 E10.20584
G1 X155.546 Y115.391 E10.53262
G1 X163.55 Y115.392 E11.11243
G1 X164.317 Y115.416 E11.16802
G1 X164.952 Y115.456 E11.21411
G1 X165.934 Y115.558 E11.28563
G1 X166.582 Y115.67 E11.33327
G1 X167.196 Y115.793 E11.37863
G1 X168.157 Y116.026 E11.45027
G1 X168.712 Y116.199 E11.49238
G1 X169.297 Y116.397 E11.53712
G1 X170.22 Y116.752 E11.60876
G1 X170.797 Y117.019 E11.65481
G1 X171.361 Y117.298 E11.70039
G1 X172.228 Y117.771 E11.77194
G1 X172.724 Y118.086 E11.8145
G1 X173.244 Y118.433 E11.85979
G1 X174.043 Y119.014 E11.93135
G1 X174.535 Y119.424 E11.97775
G1 X175.003 Y119.836 E12.02291
G1 X175.718 Y120.519 E12.09454
G1 X176.097 Y120.93 E12.13504
G1 X176.511 Y121.4 E12.18042
G1 X177.134 Y122.168 E12.25205
G1 X177.502 Y122.689 E12.29826
G1 X177.848 Y123.207 E12.34338
G1 X178.363 Y124.05 E12.41495
G1 X178.635 Y124.567 E12.45727
G1 X178.914 Y125.13 E12.50278
G1 X179.317 Y126.033 E12.57441
G1 X179.54 Y126.638 E12.62112
G1 X179.739 Y127.226 E12.66609
G1 X180.017 Y128.174 E12.73766
G1 X180.145 Y128.742 E12.77984
G1 X180.268 Y129.356 E12.8252
G1 X180.423 Y130.332 E12.89679
G1 X180.481 Y130.966 E12.94291
G1 X180.522 Y131.6 E12.98893
G1 X180.547 Y132.389 E13.04611
G1 X180.546 Y142.374 E13.76943
G1 X180.522 Y143.139 E13.82488
G1 X180.482 Y143.775 E13.87104
G1 X180.38 Y144.758 E13.94263
G1 X180.268 Y145.407 E13.99034
G1 X180.145 Y146.021 E14.0357
G1 X179.912 Y146.982 E14.10733
G1 X179.739 Y147.537 E14.14945
G1 X179.541 Y148.122 E14.19419
G1 X179.186 Y149.045 E14.26582
G1 X178.919 Y149.622 E14.31188
G1 X178.64 Y150.186 E14.35746
G1 X178.167 Y151.053 E14.42901
G1 X177.852 Y151.549 E14.47157
G1 X177.505 Y152.069 E14.51686
G1 X176.924 Y152.868 E14.58842
G1 X176.514 Y153.36 E14.63482
G1 X176.102 Y153.828 E14.67998
G1 X175.419 Y154.543 E14.75161
G1 X175.008 Y154.922 E14.79211
G1 X174.538 Y155.336 E14.83748
G1 X173.77 Y155.959 E14.90912
G1 X173.244 Y156.33 E14.95575
G1 X172.724 Y156.677 E15.00104
G1 X171.881 Y157.192 E15.0726
G1 X171.361 Y157.465 E15.11514
G1 X170.797 Y157.744 E15.16072
G1 X169.894 Y158.146 E15.23233
G1 X169.297 Y158.366 E15.27842
G1 X168.712 Y158.564 E15.32316
G1 X167.764 Y158.842 E15.39472
G1 X167.178 Y158.974 E15.43824
G1 X166.564 Y159.096 E15.48358
G1 X165.587 Y159.249 E15.55522
G1 X164.99 Y159.303 E15.59864
G1 X164.355 Y159.345 E15.64474
G1 X163.549 Y159.372 E15.70316
G1 X114.657 Y159.373 E19.24493
G1 X114.656 Y167.452 E19.83018
G1 X114.594 Y168.678 E19.9191
G1 X114.535 Y169.262 E19.96162
G1 X114.396 Y170.241 E20.03325
G1 X114.054 Y171.635 E20.13723
G1 X113.884 Y172.186 E20.179
G1 X113.555 Y173.117 E20.25053
G1 X112.947 Y174.412 E20.35417
G1 X112.669 Y174.924 E20.39637
G1 X112.163 Y175.773 E20.46797
G1 X111.345 Y176.884 E20.56791
G1 X110.975 Y177.331 E20.60994
G1 X110.314 Y178.066 E20.68155
G1 X109.273 Y179.017 E20.78369
G1 X108.823 Y179.383 E20.82571
G1 X108.032 Y179.975 E20.89728
G1 X106.831 Y180.703 E20.99902
G1 X106.319 Y180.974 E21.04098
G1 X105.428 Y181.4 E21.11253
G1 X104.1 Y181.882 E21.21487
G1 X103.544 Y182.048 E21.2569
G1 X102.587 Y182.292 E21.32845
G1 X101.251 Y182.499 E21.42638
G1 X100.684 Y182.555 E21.46766
G1 X99.484 Y182.614 E21.55469
G1 X50.477 Y182.613 E25.10478
G1 X49.225 Y182.549 E25.1956
G1 X48.643 Y182.489 E25.23798
G1 X47.665 Y182.348 E25.30956
G1 X46.289 Y182.008 E25.41224
G1 X45.739 Y181.838 E25.45394
G1 X44.808 Y181.509 E25.52547
G1 X43.519 Y180.903 E25.62865
G1 X43.007 Y180.625 E25.67085
G1 X42.158 Y180.119 E25.74245
G1 X41.047 Y179.301 E25.84239
G1 X40.6 Y178.931 E25.88443
G1 X39.865 Y178.27 E25.95604
G1 X38.91 Y177.225 E26.05859
G1 X38.546 Y176.777 E26.1004
G1 X37.954 Y175.985 E26.17203
G1 X37.243 Y174.812 E26.27139
G1 X36.969 Y174.297 E26.31365
G1 X36.54 Y173.407 E26.38522
G1 X36.044 Y172.041 E26.4905
G1 X35.879 Y171.486 E26.53244
G1 X35.636 Y170.529 E26.60397
G1 X35.433 Y169.213 E26.70043
G1 X35.377 Y168.649 E26.74149
G1 X35.317 Y167.442 E26.82903
G1 X35.323 Y154.52 E27.76511
G1 X35.388 Y152.285 E27.92708
G1 X35.427 Y151.599 E27.97685
G1 X35.616 Y149.391 E28.13739
G1 X35.692 Y148.726 E28.18587
G1 X36.003 Y146.522 E28.34711
G1 X36.117 Y145.85 E28.39649
G1 X36.551 Y143.664 E28.55794
G1 X36.704 Y142.992 E28.60786
G1 X37.26 Y140.837 E28.76908
G1 X37.448 Y140.185 E28.81824
G1 X38.127 Y138.051 E28.98046
G1 X38.349 Y137.413 E29.0294
G1 X39.137 Y135.341 E29.18998
G1 X39.399 Y134.706 E29.23975
G1 X40.31 Y132.664 E29.40172
G1 X40.601 Y132.058 E29.45042
G1 X41.619 Y130.077 E29.61176
G1 X41.949 Y129.478 E29.66131
G1 X43.114 Y127.493 E29.82804
G1 X43.67 Y126.633 E29.90222
G1 X44.671 Y125.126 E30.03328
G1 X45.062 Y124.571 E30.08246
G1 X46.388 Y122.798 E30.24284
G1 X46.811 Y122.264 E30.29219
G1 X48.242 Y120.558 E30.45349
G1 X48.691 Y120.052 E30.5025
G1 X50.216 Y118.426 E30.66399
G1 X50.684 Y117.954 E30.71214
G1 X52.257 Y116.45 E30.86979
G1 X52.998 Y115.796 E30.94139
G1 X53.629 Y115.317 E30.99877
G1 X56.638 Y113.182 E31.26604
G1 X56.637 Y110.314 E31.4738
G1 X54.082 Y108.413 E31.7045
G1 X53.285 Y107.766 E31.77886
G1 X52.684 Y107.235 E31.83696
G1 X51.97 Y106.552 E31.90853
G1 X51.321 Y105.82 E31.9794
G1 X50.815 Y105.202 E32.03726
G1 X50.22 Y104.413 E32.10885
G1 X49.71 Y103.611 E32.1777
G1 X49.31 Y102.924 E32.23528
G1 X48.848 Y102.05 E32.3069
G1 X48.45 Y101.121 E32.38011
G1 X48.167 Y100.377 E32.43777
G1 X47.853 Y99.44 E32.50936
G1 X47.623 Y98.516 E32.57834
G1 X47.461 Y97.735 E32.63612
G1 X47.3 Y96.76 E32.7077
G1 X47.218 Y95.779 E32.77902
G1 X47.184 Y94.987 E32.83644
G1 X47.182 Y94.409 E32.87831
G0 F1620 X47.182 Y93.999
G0 X47.255 Y93.048
G0 F6000 X47.842 Y93.997
G1 F1800 X47.911 Y93.124 E32.94175
G1 X48.004 Y92.327 E32.99988
G1 X48.155 Y91.378 E33.06949
G1 X48.369 Y90.497 E33.13517
G1 X48.585 Y89.74 E33.19219
G1 X48.887 Y88.827 E33.26185
G1 X49.237 Y87.999 E33.32697
G1 X49.577 Y87.275 E33.38492
G1 X50.022 Y86.423 E33.45455
G1 X50.48 Y85.692 E33.51704
G1 X50.928 Y85.033 E33.57476
G1 X51.501 Y84.261 E33.64441
G1 X52.126 Y83.551 E33.71293
G1 X52.673 Y82.978 E33.77031
G1 X53.365 Y82.311 E33.83994
G1 X54.002 Y81.785 E33.89978
G1 X54.614 Y81.316 E33.95563
G1 X55.4 Y80.764 E34.02521
G1 X56.23 Y80.279 E34.09485
G1 X57.097 Y79.865 E34.16445
G1 X57.995 Y79.524 E34.23403
G1 X58.919 Y79.259 E34.30367
G1 X59.862 Y79.072 E34.37331
G1 X60.817 Y78.963 E34.44294
G1 X61.641 Y78.934 E34.50267
G1 X66.388 Y78.935 E34.84654
G1 X67.349 Y78.975 E34.91622
G1 X67.88 Y79.032 E34.9549
G1 X68.363 Y79.095 E34.99019
G1 X69.31 Y79.259 E35.05981
G1 X70.24 Y79.501 E35.12942
G1 X71.15 Y79.821 E35.1993
G1 X71.606 Y80.003 E35.23487
G1 X72.483 Y80.396 E35.30449
G1 X73.325 Y80.861 E35.37416
G1 X74.101 Y81.377 E35.44167
G1 X74.493 Y81.661 E35.47674
G1 X75.247 Y82.256 E35.54632
G1 X75.927 Y82.89 E35.61367
G1 X76.213 Y83.179 E35.64312
G1 X76.462 Y83.452 E35.66989
G1 X79.352 Y85.507 E35.92677
G1 X79.625 Y85.315 E35.95095
G1 X80.454 Y84.829 E36.02056
G1 X80.961 Y84.574 E36.06167
G1 X82.881 Y83.671 E36.21537
G1 X83.767 Y83.299 E36.28498
G1 X84.681 Y83.001 E36.35462
G1 X85.01 Y82.924 E36.3791
G1 X85.625 Y82.491 E36.43359
G1 X86.454 Y82.005 E36.5032
G1 X86.963 Y81.75 E36.54444
G1 X90.215 Y80.221 E36.80475
G1 X90.962 Y79.901 E36.86362
G1 X91.236 Y79.795 E36.88491
G1 X92.146 Y79.486 E36.95452
G1 X92.927 Y79.286 E37.01293
G1 X93.214 Y79.223 E37.03421
G1 X94.16 Y79.056 E37.1038
G1 X94.843 Y78.985 E37.15354
G1 X95.115 Y78.965 E37.1733
G1 X95.965 Y78.934 E37.23491
G1 X99.845 Y78.935 E37.51598
G1 X101.123 Y79.006 E37.60871
G1 X101.553 Y79.054 E37.64005
G1 X102.503 Y79.201 E37.70969
G1 X103.438 Y79.425 E37.77934
G1 X104.096 Y79.634 E37.82935
G1 X104.515 Y79.781 E37.86151
G1 X105.407 Y80.137 E37.93109
G1 X106.268 Y80.565 E38.00074
G1 X106.827 Y80.895 E38.04776
G1 X107.197 Y81.127 E38.0794
G1 X107.989 Y81.671 E38.149
G1 X108.733 Y82.278 E38.21856
G1 X109.228 Y82.745 E38.26786
G1 X109.536 Y83.053 E38.29941
G1 X110.187 Y83.76 E38.36903
G1 X110.776 Y84.519 E38.43863
G1 X111.157 Y85.089 E38.48829
G1 X111.39 Y85.461 E38.52009
G1 X111.866 Y86.296 E38.58972
G1 X112.271 Y87.168 E38.65937
G1 X112.526 Y87.84 E38.71143
G1 X112.673 Y88.268 E38.74422
G1 X112.947 Y89.189 E38.81382
G1 X113.143 Y90.13 E38.88345
G1 X113.227 Y90.73 E38.92734
G1 X113.275 Y91.157 E38.95847
G1 X113.347 Y92.449 E39.05221
G1 X113.346 Y97.25 E39.39999
G1 X113.284 Y98.442 E39.48646
G1 X113.242 Y98.846 E39.51588
G1 X113.212 Y99.052 E39.53096
G1 X143.052 Y99.052 E41.69259
G1 X144.012 Y99.092 E41.76219
G1 X144.966 Y99.212 E41.83185
G1 X145.906 Y99.41 E41.90143
G1 X146.827 Y99.686 E41.97108
G1 X147.816 Y100.08 E42.0482
G1 X148.028 Y100.176 E42.06506
G1 X148.887 Y100.609 E42.13475
G1 X149.706 Y101.111 E42.20433
G1 X150.481 Y101.68 E42.27398
G1 X151.205 Y102.311 E42.34355
G1 X151.875 Y103.001 E42.41322
G1 X152.485 Y103.743 E42.48281
G1 X153.032 Y104.534 E42.55247
G1 X153.51 Y105.367 E42.62205
G1 X154.004 Y106.449 E42.70821
G1 X154.076 Y106.631 E42.72239
G1 X154.392 Y107.539 E42.79203
G1 X154.632 Y108.469 E42.86161
G1 X154.793 Y109.417 E42.93127
G1 X154.875 Y110.374 E43.00085
G1 X154.886 Y110.88 E43.03751
G1 X154.886 Y116.051 E43.4121
G1 X163.55 Y116.052 E44.03973
G1 X164.275 Y116.075 E44.09227
G1 X164.91 Y116.115 E44.13836
G1 X165.866 Y116.215 E44.20799
G1 X166.453 Y116.317 E44.25115
G1 X167.067 Y116.44 E44.29652
G1 X168 Y116.668 E44.36609
G1 X168.501 Y116.825 E44.40412
G1 X169.086 Y117.023 E44.44886
G1 X169.983 Y117.368 E44.51848
G1 X170.504 Y117.61 E44.5601
G1 X171.068 Y117.889 E44.60568
G1 X171.911 Y118.351 E44.67532
G1 X172.358 Y118.635 E44.71368
G1 X172.878 Y118.982 E44.75897
G1 X173.655 Y119.548 E44.8286
G1 X174.099 Y119.92 E44.87056
G1 X174.567 Y120.332 E44.91573
G1 X175.261 Y120.996 E44.98531
G1 X175.602 Y121.367 E45.02181
G1 X176.016 Y121.837 E45.06718
G1 X176.621 Y122.584 E45.13682
G1 X176.953 Y123.056 E45.17862
G1 X177.299 Y123.574 E45.22375
G1 X177.8 Y124.394 E45.29336
G1 X178.044 Y124.86 E45.33146
G1 X178.323 Y125.423 E45.37698
G1 X178.713 Y126.302 E45.44664
G1 X178.914 Y126.849 E45.48886
G1 X179.113 Y127.437 E45.53383
G1 X179.383 Y128.36 E45.60349
G1 X179.498 Y128.871 E45.64143
G1 X179.621 Y129.485 E45.6868
G1 X179.77 Y130.435 E45.75646
G1 X179.822 Y131.009 E45.79821
G1 X179.863 Y131.643 E45.84423
G1 X179.887 Y132.389 E45.8983
G1 X179.886 Y142.374 E46.62162
G1 X179.863 Y143.098 E46.67409
G1 X179.823 Y143.734 E46.72025
G1 X179.723 Y144.69 E46.78989
G1 X179.621 Y145.278 E46.83312
G1 X179.498 Y145.892 E46.87848
G1 X179.27 Y146.825 E46.94806
G1 X179.113 Y147.326 E46.98609
G1 X178.915 Y147.911 E47.03083
G1 X178.57 Y148.808 E47.10045
G1 X178.328 Y149.329 E47.14206
G1 X178.049 Y149.893 E47.18764
G1 X177.587 Y150.736 E47.25728
G1 X177.303 Y151.183 E47.29564
G1 X176.956 Y151.703 E47.34093
G1 X176.39 Y152.48 E47.41057
G1 X176.018 Y152.924 E47.45253
G1 X175.606 Y153.392 E47.4977
G1 X174.942 Y154.086 E47.56727
G1 X174.571 Y154.427 E47.60378
G1 X174.101 Y154.841 E47.64915
G1 X173.354 Y155.446 E47.71878
G1 X172.878 Y155.781 E47.76095
G1 X172.358 Y156.128 E47.80623
G1 X171.537 Y156.628 E47.87587
G1 X171.068 Y156.874 E47.91423
G1 X170.504 Y157.153 E47.95982
G1 X169.626 Y157.542 E48.02938
G1 X169.086 Y157.74 E48.07105
G1 X168.501 Y157.938 E48.11579
G1 X167.579 Y158.208 E48.18538
G1 X167.049 Y158.327 E48.22473
G1 X166.435 Y158.449 E48.27008
G1 X165.485 Y158.596 E48.33972
G1 X164.946 Y158.645 E48.37892
G1 X164.311 Y158.687 E48.42502
G1 X163.549 Y158.712 E48.48025
G1 X113.997 Y158.713 E52.06983
G1 X113.996 Y167.452 E52.70289
G1 X113.938 Y168.612 E52.78702
G1 X113.879 Y169.196 E52.82954
G1 X113.742 Y170.147 E52.89914
G1 X113.424 Y171.44 E52.9956
G1 X113.254 Y171.991 E53.03737
G1 X112.932 Y172.897 E53.10703
G1 X112.367 Y174.097 E53.20311
G1 X112.089 Y174.609 E53.24531
G1 X111.596 Y175.434 E53.31493
G1 X110.836 Y176.463 E53.4076
G1 X110.466 Y176.91 E53.44964
G1 X109.823 Y177.624 E53.51924
G1 X108.857 Y178.505 E53.61395
G1 X108.407 Y178.871 E53.65597
G1 X107.637 Y179.446 E53.72559
G1 X106.522 Y180.119 E53.81993
G1 X106.01 Y180.39 E53.86189
G1 X105.143 Y180.804 E53.93149
G1 X103.911 Y181.249 E54.02638
G1 X103.355 Y181.415 E54.06842
