(Project 250x250-panel-front-door)
(Created by Estlcam version 11 build 11.245)
(Machining time about 00:02:22 hours)

(Required tools:)
(1/4" V 90deg)
G21
G90
G94
M03 S10000
G00 X0.0000 Y0.0000 Z0.0000
G00 Z8.0000


(No. 1: Engraving 3)
G00
G00 Z0.5000
G01 Z0.0000 F180 S10000
G01 Z-2.0000
G01 Y90.0000 F1200
G00 Z8.0000
G00 Y0.0000
G00 Z-1.5000
G01 Z-2.0000 F180
G01 Z-2.5000
G01 Y90.0000 F1200
G00 Z8.0000


(No. 2: Engraving 3)
G00 X0.0000 Y0.0000 Z8.0000
G00 Z0.5000
G01 Z-2.0000 F180
G01 Y90.0000 F1200
G00 Z0.0000
G00 Z8.0000
G00 Y0.0000
G01 Z-2.5000 F180
G01 Y90.0000 F1200
G00 Z0.0000
G00 Z8.0000
G00 Y0.0000

M05
M30
