;FLAVOR:Marlin
;TIME:2307
;Filament used: 2.63661m
;Layer height: 0.2
;MINX:93.467
;MINY:116.61
;MINZ:0.24
;MAXX:168.998
;MAXY:183.389
;MAXZ:11.72
;Generated with Cura_SteamEngine 5.0.0
M140 S80
M105
M190 S80
M104 S250
M105
M109 S250
M82 ;absolute extrusion mode
; Ender 3 Max Custom Start G-code
G92 E0 ; Reset Extruder
G28 ; Home all axes
G1 Z2.0 F3000 ; Move Z Axis up little to prevent scratching of Heat Bed
G1 X0.1 Y20 Z0.3 F5000.0 ; Move to start position
G1 X0.1 Y200.0 Z0.3 F1500.0 E15 ; Draw the first line
G1 X0.4 Y200.0 Z0.3 F5000.0 ; Move to side a little
G1 X0.4 Y20 Z0.3 F1500.0 E30 ; Draw the second line
G92 E0 ; Reset Extruder
G1 Z2.0 F3000 ; Move Z Axis up little to prevent scratching of Heat Bed
G1 X5 Y20 Z0.3 F5000.0 ; Move over to prevent blob squish
G92 E0
G92 E0
G1 F1800 E-6
;LAYER_COUNT:56
;LAYER:0
M107
G1 F300 Z0.72
G0 F6000 X98.05 Y119.611 Z0.72
G1 F300 Z0.72
G0 F6000 X93.468 Y129.98
;TYPE:SKIRT
G1 F300 Z0.24
G1 F1800 E0
G1 X93.478 Y129.216 E0.05535
G1 X93.511 Y128.496 E0.10756
G1 X93.527 Y128.293 E0.12231
G1 X93.64 Y127.363 E0.19018
G1 X93.772 Y126.698 E0.23929
G1 X93.845 Y126.38 E0.26293
G1 X94.093 Y125.476 E0.33083
G1 X94.41 Y124.615 E0.3973
G1 X94.512 Y124.37 E0.41652
G1 X94.909 Y123.521 E0.48441
G1 X95.306 Y122.822 E0.54265
G1 X95.464 Y122.566 E0.56444
G1 X95.99 Y121.79 E0.63235
G1 X96.407 Y121.262 E0.68109
G1 X96.561 Y121.079 E0.69842
G1 X97.195 Y120.388 E0.76635
G1 X97.809 Y119.818 E0.82704
G1 X98.05 Y119.611 E0.85005
G1 X98.787 Y119.031 E0.91799
G1 X99.36 Y118.645 E0.96804
G1 X99.554 Y118.523 E0.98464
G1 X100.369 Y118.058 E1.05261
G1 X101.024 Y117.747 E1.10514
G1 X101.307 Y117.624 E1.12749
G1 X102.182 Y117.287 E1.19542
G1 X103.009 Y117.043 E1.25788
G1 X104.326 Y116.77 E1.35531
G1 X104.556 Y116.737 E1.37214
G1 X105.881 Y116.629 E1.46844
G1 X106.862 Y116.61 E1.53952
G1 X109.175 Y116.61 E1.70708
G1 X110.091 Y116.622 E1.77344
G1 X110.991 Y116.67 E1.83873
G1 X111.922 Y116.783 E1.90667
G1 X112.504 Y116.895 E1.9496
G1 X113.22 Y117.056 E2.00276
G1 X115.86 Y117.696 E2.19954
G1 X118.32 Y118.221 E2.38176
G1 X120.804 Y118.674 E2.56467
G1 X123.277 Y119.055 E2.74593
G1 X125.8 Y119.371 E2.93013
G1 X128.302 Y119.613 E3.11222
G1 X130.803 Y119.784 E3.29381
G1 X133.272 Y119.882 E3.47281
G1 X136.695 Y119.908 E3.72078
G1 X137.321 Y119.901 E3.76613
G1 X150.375 Y119.905 E4.71177
G1 X151.079 Y119.915 E4.76278
G1 X152.058 Y119.973 E4.83382
G1 X152.472 Y120.016 E4.86397
G1 X153.203 Y120.117 E4.91743
G1 X153.557 Y120.178 E4.94345
G1 X154.473 Y120.376 E5.01134
G1 X155.097 Y120.559 E5.05845
G1 X155.37 Y120.648 E5.07925
G1 X156.065 Y120.901 E5.13282
G1 X156.336 Y121.01 E5.15398
G1 X157.004 Y121.305 E5.20688
G1 X157.276 Y121.436 E5.22875
G1 X157.986 Y121.81 E5.28688
G1 X158.292 Y121.986 E5.31246
G1 X159.084 Y122.488 E5.38038
G1 X159.57 Y122.846 E5.42411
G1 X159.874 Y123.083 E5.45203
G1 X160.746 Y123.839 E5.53564
G1 X161.762 Y124.822 E5.63805
G1 X164.434 Y127.498 E5.91199
G1 X165.041 Y128.126 E5.97526
G1 X165.663 Y128.827 E6.04315
G1 X166.099 Y129.4 E6.09531
G1 X166.457 Y129.904 E6.14009
G1 X166.966 Y130.69 E6.20792
G1 X167.282 Y131.266 E6.25552
G1 X167.51 Y131.712 E6.2918
G1 X167.901 Y132.564 E6.35971
G1 X168.195 Y133.361 E6.42125
G1 X168.413 Y134.062 E6.47443
G1 X168.533 Y134.498 E6.50719
G1 X168.743 Y135.411 E6.57505
G1 X168.843 Y136.061 E6.62269
G1 X168.894 Y136.472 E6.65269
G1 X168.976 Y137.631 E6.73686
G1 X168.998 Y138.956 E6.83286
G1 X168.994 Y162.27 E8.52174
G1 X168.984 Y163.003 E8.57484
G1 X168.929 Y163.964 E8.64457
G1 X168.879 Y164.456 E8.6804
G1 X168.744 Y165.384 E8.74833
G1 X168.615 Y165.976 E8.79222
G1 X168.488 Y166.491 E8.83064
G1 X168.225 Y167.391 E8.89857
G1 X168.007 Y167.978 E8.94393
G1 X167.832 Y168.411 E8.97776
G1 X167.444 Y169.264 E9.04564
G1 X167.136 Y169.831 E9.09239
G1 X166.87 Y170.287 E9.13063
G1 X166.363 Y171.075 E9.19851
G1 X165.913 Y171.675 E9.25284
G1 X165.455 Y172.224 E9.30463
G1 X164.939 Y172.791 E9.36016
G1 X164.015 Y173.748 E9.45653
G1 X161.098 Y176.654 E9.7548
G1 X160.462 Y177.248 E9.81784
G1 X159.586 Y177.967 E9.89994
G1 X159.342 Y178.147 E9.9219
G1 X158.487 Y178.718 E9.99638
G1 X158.11 Y178.945 E10.02826
G1 X157.287 Y179.394 E10.09618
G1 X156.734 Y179.647 E10.14023
G1 X156.364 Y179.804 E10.16935
G1 X155.648 Y180.078 E10.22488
G1 X155.343 Y180.183 E10.24825
G1 X154.445 Y180.451 E10.31613
G1 X153.929 Y180.567 E10.35445
G1 X153.401 Y180.673 E10.39346
G1 X152.475 Y180.818 E10.46136
G1 X151.49 Y180.885 E10.53288
G1 X149.889 Y180.919 E10.64888
G1 X137.349 Y180.92 E11.55728
G1 X136.466 Y180.907 E11.62126
G1 X133.794 Y180.832 E11.81489
G1 X131.271 Y180.832 E11.99766
G1 X128.786 Y180.903 E12.17775
G1 X126.251 Y181.048 E12.36169
G1 X123.752 Y181.261 E12.54337
G1 X121.279 Y181.542 E12.72367
G1 X118.75 Y181.903 E12.90873
G1 X116.272 Y182.328 E13.09086
G1 X113.132 Y182.97 E13.32303
G1 X112.548 Y183.098 E13.36634
G1 X111.625 Y183.26 E13.43422
G1 X110.97 Y183.326 E13.48191
G1 X110.516 Y183.358 E13.51488
G1 X109.763 Y183.385 E13.56946
G1 X106.813 Y183.389 E13.78316
G1 X106.057 Y183.378 E13.83793
G1 X105.157 Y183.33 E13.90322
G1 X103.847 Y183.148 E13.99903
G1 X103.643 Y183.107 E14.0141
G1 X102.732 Y182.883 E14.08206
G1 X102.123 Y182.686 E14.12843
G1 X101.828 Y182.581 E14.15111
G1 X100.959 Y182.229 E14.21903
G1 X100.371 Y181.94 E14.26649
G1 X100.167 Y181.832 E14.28322
G1 X99.358 Y181.358 E14.35114
G1 X98.721 Y180.915 E14.40734
G1 X98.474 Y180.73 E14.4297
G1 X97.748 Y180.137 E14.49761
G1 X97.164 Y179.576 E14.55627
G1 X96.985 Y179.391 E14.57492
G1 X96.362 Y178.69 E14.64285
G1 X95.85 Y178.008 E14.70463
G1 X95.665 Y177.741 E14.72816
G1 X95.164 Y176.949 E14.79605
G1 X94.82 Y176.298 E14.84939
G1 X94.722 Y176.097 E14.86559
G1 X94.347 Y175.238 E14.93348
G1 X94.096 Y174.513 E14.98906
G1 X94 Y174.201 E15.01271
G1 X93.763 Y173.294 E15.08062
G1 X93.609 Y172.425 E15.14455
G1 X93.492 Y171.219 E15.23232
G1 X93.47 Y170.456 E15.28762
G1 X93.467 Y160.536 E16.00623
G1 X93.477 Y159.792 E16.06013
G1 X93.517 Y158.988 E16.11844
G1 X93.591 Y158.137 E16.18032
G1 X93.788 Y155.586 E16.36567
G1 X93.91 Y153.08 E16.54742
G1 X93.962 Y150.547 E16.73095
G1 X93.942 Y148.022 E16.91387
G1 X93.852 Y145.51 E17.09596
G1 X93.687 Y142.97 E17.28034
G1 X93.527 Y141.165 E17.41161
G1 X93.485 Y140.354 E17.47044
G1 X93.474 Y139.51 E17.53159
G1 X93.468 Y131.495 E18.1122
G0 F1620 X93.468 Y129.98
G0 F6000 X94.128 Y129.989
G1 F1800 X94.138 Y129.225 E18.16755
G1 X94.169 Y128.548 E18.21664
G1 X94.185 Y128.345 E18.23139
G1 X94.296 Y127.443 E18.29723
G1 X94.415 Y126.846 E18.34132
G1 X94.488 Y126.528 E18.36496
G1 X94.73 Y125.652 E18.43079
G1 X95.019 Y124.869 E18.49125
G1 X95.121 Y124.624 E18.51048
G1 X95.507 Y123.801 E18.57633
G1 X95.867 Y123.169 E18.62902
G1 X96.025 Y122.913 E18.65081
G1 X96.536 Y122.161 E18.71667
G1 X97.066 Y121.504 E18.77782
G1 X97.681 Y120.835 E18.84365
G1 X98.239 Y120.319 E18.89871
G1 X98.48 Y120.112 E18.92172
G1 X99.195 Y119.55 E18.9876
G1 X99.906 Y119.081 E19.0493
G1 X100.696 Y118.632 E19.11513
G1 X101.287 Y118.352 E19.1625
G1 X101.57 Y118.229 E19.18485
G1 X102.419 Y117.904 E19.25071
G1 X103.182 Y117.68 E19.30831
G1 X104.42 Y117.424 E19.39989
G1 X104.65 Y117.391 E19.41672
G1 X105.895 Y117.288 E19.50722
G1 X106.862 Y117.27 E19.57728
G1 X109.175 Y117.27 E19.74484
G1 X110.081 Y117.282 E19.81047
G1 X110.94 Y117.328 E19.87279
G1 X111.842 Y117.439 E19.93862
G1 X112.362 Y117.54 E19.977
G1 X113.064 Y117.697 E20.02911
G1 X115.709 Y118.338 E20.22626
G1 X118.193 Y118.868 E20.41025
G1 X120.7 Y119.326 E20.59487
G1 X123.198 Y119.71 E20.77795
G1 X125.723 Y120.027 E20.9623
G1 X128.231 Y120.27 E21.14483
G1 X130.767 Y120.443 E21.32896
G1 X133.272 Y120.542 E21.51057
G1 X136.697 Y120.568 E21.75869
G1 X137.32 Y120.561 E21.80382
G1 X150.366 Y120.565 E22.74888
G1 X151.07 Y120.575 E22.79988
G1 X151.99 Y120.629 E22.86664
G1 X152.404 Y120.672 E22.89679
G1 X153.091 Y120.767 E22.94703
G1 X153.445 Y120.828 E22.97306
G1 X154.333 Y121.022 E23.0389
G1 X154.893 Y121.187 E23.08119
G1 X155.166 Y121.276 E23.10199
G1 X155.819 Y121.513 E23.15232
G1 X156.09 Y121.622 E23.17348
G1 X156.717 Y121.899 E23.22313
G1 X156.989 Y122.03 E23.245
G1 X157.657 Y122.382 E23.2997
G1 X157.963 Y122.558 E23.32527
G1 X158.73 Y123.046 E23.39112
G1 X159.164 Y123.366 E23.43019
G1 X159.468 Y123.603 E23.45811
G1 X160.288 Y124.314 E23.53673
G1 X161.295 Y125.288 E23.63822
G1 X163.96 Y127.957 E23.91144
G1 X164.567 Y128.585 E23.97471
G1 X165.169 Y129.265 E24.0405
G1 X165.561 Y129.782 E24.0875
G1 X165.919 Y130.286 E24.13228
G1 X166.412 Y131.049 E24.19809
G1 X166.695 Y131.566 E24.24079
G1 X166.923 Y132.012 E24.27707
G1 X167.301 Y132.839 E24.34294
G1 X167.572 Y133.579 E24.40003
G1 X167.777 Y134.237 E24.44996
G1 X167.897 Y134.673 E24.48271
G1 X168.099 Y135.559 E24.54854
G1 X168.188 Y136.142 E24.59127
G1 X168.239 Y136.553 E24.62127
G1 X168.316 Y137.642 E24.70035
G1 X168.338 Y138.956 E24.79555
G1 X168.334 Y162.261 E26.48378
G1 X168.324 Y162.994 E26.53688
G1 X168.272 Y163.897 E26.60241
G1 X168.222 Y164.389 E26.63823
G1 X168.09 Y165.289 E26.70412
G1 X167.975 Y165.818 E26.74334
G1 X167.848 Y166.333 E26.78176
G1 X167.591 Y167.205 E26.84762
G1 X167.395 Y167.731 E26.88828
G1 X167.22 Y168.164 E26.92211
G1 X166.843 Y168.991 E26.98795
G1 X166.566 Y169.498 E27.0298
G1 X166.3 Y169.954 E27.06805
G1 X165.808 Y170.718 E27.13387
G1 X165.392 Y171.269 E27.18389
G1 X164.962 Y171.786 E27.2326
G1 X164.463 Y172.334 E27.28629
G1 X163.55 Y173.28 E27.38153
G1 X160.633 Y176.186 E27.6798
G1 X160.017 Y176.76 E27.7408
G1 X159.194 Y177.436 E27.81795
G1 X158.95 Y177.616 E27.83991
G1 X158.147 Y178.153 E27.90989
G1 X157.77 Y178.38 E27.94177
G1 X156.971 Y178.814 E28.00764
G1 X156.476 Y179.039 E28.04703
G1 X156.106 Y179.196 E28.07614
G1 X155.434 Y179.454 E28.12829
G1 X155.129 Y179.559 E28.15165
G1 X154.257 Y179.817 E28.21753
G1 X153.799 Y179.92 E28.25153
G1 X153.271 Y180.026 E28.29055
G1 X152.373 Y180.165 E28.35637
G1 X151.475 Y180.225 E28.42157
G1 X149.889 Y180.259 E28.53649
G1 X137.358 Y180.26 E29.44424
G1 X136.484 Y180.247 E29.50756
G1 X133.812 Y180.172 E29.7012
G1 X131.287 Y180.172 E29.88411
G1 X128.729 Y180.245 E30.06949
G1 X126.23 Y180.388 E30.25081
G1 X123.69 Y180.604 E30.43548
G1 X121.145 Y180.894 E30.62103
G1 X118.653 Y181.25 E30.80339
G1 X116.188 Y181.673 E30.98456
G1 X113.002 Y182.324 E31.22013
G1 X112.407 Y182.454 E31.26424
G1 X111.512 Y182.609 E31.33004
G1 X110.923 Y182.667 E31.37292
G1 X110.469 Y182.699 E31.40589
G1 X109.762 Y182.725 E31.45714
G1 X106.823 Y182.729 E31.67004
G1 X106.067 Y182.718 E31.72481
G1 X105.208 Y182.672 E31.78713
G1 X103.977 Y182.5 E31.87717
G1 X103.773 Y182.459 E31.89224
G1 X102.89 Y182.241 E31.95813
G1 X102.344 Y182.064 E31.99971
G1 X102.049 Y181.959 E32.02239
G1 X101.207 Y181.617 E32.08822
G1 X100.476 Y181.249 E32.14751
G1 X99.692 Y180.788 E32.21339
G1 X99.116 Y180.387 E32.26423
G1 X98.869 Y180.202 E32.28659
G1 X98.167 Y179.626 E32.35237
G1 X97.638 Y179.117 E32.40555
G1 X97.459 Y178.932 E32.4242
G1 X96.857 Y178.252 E32.48999
G1 X96.392 Y177.632 E32.54613
G1 X96.207 Y177.365 E32.56966
G1 X95.723 Y176.596 E32.63548
G1 X95.413 Y176.009 E32.68357
G1 X95.315 Y175.808 E32.69977
G1 X94.953 Y174.974 E32.76563
G1 X94.727 Y174.319 E32.81582
G1 X94.631 Y174.007 E32.83947
G1 X94.402 Y173.127 E32.90534
G1 X94.261 Y172.325 E32.96433
G1 X94.152 Y171.192 E33.04678
G1 X94.13 Y170.455 E33.1002
G1 X94.127 Y160.545 E33.81808
G1 X94.137 Y159.801 E33.87198
G1 X94.175 Y159.045 E33.92682
G1 X94.249 Y158.194 E33.9887
G1 X94.447 Y155.634 E34.1747
G1 X94.57 Y153.09 E34.3592
G1 X94.622 Y150.555 E34.54288
G1 X94.602 Y147.993 E34.72848
G1 X94.511 Y145.48 E34.91064
G1 X94.347 Y142.953 E35.09408
G1 X94.184 Y141.107 E35.22833
G1 X94.145 Y140.345 E35.2836
G1 X94.134 Y139.51 E35.34409
G1 X94.128 Y131.504 E35.92405
G0 F1620 X94.128 Y129.989
G1 F1800 E29.92405
G1 F300 Z0.72
;MESH:side_mount_with_brim.stl
G0 F6000 X116.622 Y161.999 Z0.72
;TYPE:WALL-INNER
G1 F300 Z0.24
G1 F1800 E35.92405
G1 X116.865 Y161.79 E35.94588
G1 X116.982 Y161.752 E35.95425
G1 X117.496 Y161.671 E35.98969
G1 X129.891 Y161.671 E36.83371
G1 X129.891 Y138.33 E38.4231
G1 X117.498 Y138.33 E39.26699
G1 X116.749 Y138.15 E39.31944
G1 X116.623 Y138.086 E39.32907
G1 X116.622 Y160.484 E40.85424
G0 F1620 X116.622 Y161.999
G0 F6000 X116.304 Y136.93
G1 F1267.9 X116.143 Y136.681 E40.8829
G1 X116.057 Y136.968 E40.91187
G1 F1440 X116.034 Y137.237 E40.93485
G1 F1527 X116.01 Y137.507 E40.95661
G1 F1627.4 X115.987 Y137.777 E40.97702
G1 F1739.4 X115.963 Y138.047 E40.99612
G1 F1800 X115.963 Y162.781 E42.68036
G1 F1770.5 X115.974 Y162.962 E42.69291
G1 F1557 X116.054 Y163.24 E42.71568
G1 F1284.3 X116.135 Y163.519 E42.74341
G1 X116.27 Y163.292 E42.76861
G1 F1557 X116.405 Y163.065 E42.78941
G1 F1770.5 X116.497 Y162.909 E42.80194
G1 F1800 X117.071 Y162.418 E42.85338
G1 X117.496 Y162.331 E42.88292
G1 X130.551 Y162.331 E43.77189
G1 X130.551 Y137.67 E45.45116
G1 X117.498 Y137.67 E46.33999
G1 X117.048 Y137.562 E46.3715
G1 X116.887 Y137.48 E46.38381
G1 F1719.2 X116.693 Y137.297 E46.40282
G1 F1575.6 X116.499 Y137.114 E46.42357
G1 F1454.1 X116.304 Y136.93 E46.44616
G1 F1800 E40.44616
G0 F6000 X115.953 Y131.18
G1 F1800 E46.44616
G0 F6000 X115.304 Y130.531
;TYPE:WALL-OUTER
G1 F1800 X115.303 Y138.227 E46.97022
G1 X115.302 Y169.467 E49.09748
G1 X116.175 Y169.465 E49.15692
G1 X116.455 Y169.417 E49.17627
G1 X116.703 Y169.314 E49.19456
G1 X116.895 Y169.152 E49.21166
G1 X116.962 Y168.842 E49.23326
G1 X116.968 Y163.519 E49.59572
G1 X117.085 Y163.209 E49.61829
G1 X117.277 Y163.045 E49.63548
G1 X117.496 Y162.991 E49.65084
G1 X130.971 Y162.991 E50.56841
G1 X131.211 Y162.965 E50.58485
G1 X131.211 Y137.033 E52.35066
G1 X130.949 Y137.01 E52.36857
G1 X117.498 Y137.01 E53.28451
G1 X117.187 Y136.892 E53.30716
G1 F1802.7 X117.023 Y136.698 E53.32443
G1 X116.969 Y136.479 E53.33976
G1 F1800 X116.969 Y131.018 E53.71163
G1 X116.822 Y130.785 E53.73039
G1 X116.616 Y130.647 E53.74727
G1 X116.254 Y130.557 E53.77267
G1 X116.021 Y130.531 E53.78864
G1 X115.73 Y130.531 E53.80845
G0 F1620 X115.304 Y130.531
G0 F6000 X115.304 Y130.851
G0 X116.136 Y131.381
;TYPE:WALL-INNER
G1 F1180.9 X116.136 Y136.479 E54.33758
G1 F1169.3 X116.143 Y136.681 E54.35877
G0 F6000 X116.135 Y163.519
G1 F1182.1 X116.135 Y164.797 E54.49128
G1 F1184.4 X116.134 Y166.075 E54.62353
G1 F1185.6 X116.133 Y167.353 E54.75565
G1 F1188 X116.132 Y168.631 E54.88751
G0 F6000 X117.124 Y138.745
;TYPE:SKIN
G1 F1800 X117.123 Y161.227 E56.51612
G1 X117.46 Y161.174 E56.54083
G1 X117.512 Y161.171 E56.5446
G1 X129.391 Y161.171 E57.40512
G1 X129.391 Y144.964 E58.57917
G1 X129.391 Y138.83 E59.02352
G1 X118.63 Y138.83 E59.80305
G0 F1620 X117.519 Y138.83
G0 X117.124 Y138.745
G0 F6000 X129.061 Y139.328
G1 F1800 X128.892 Y139.159 E59.82037
G0 F6000 X127.958 Y139.159
G1 F1800 X129.061 Y140.261 E59.93331
G0 F6000 X129.061 Y141.195
G1 F1800 X127.025 Y139.159 E60.14189
G0 F6000 X126.091 Y139.159
G1 F1800 X129.061 Y142.128 E60.44611
G0 F6000 X129.061 Y143.061
G1 F1800 X125.158 Y139.159 E60.84591
G0 F6000 X124.225 Y139.159
G1 F1800 X129.061 Y143.995 E61.34134
G0 F6000 X129.061 Y144.928
G1 F1800 X123.291 Y139.159 E61.9324
G0 F6000 X122.358 Y139.159
G1 F1800 X129.061 Y145.861 E62.61905
G0 F6000 X129.061 Y146.795
G1 F1800 X121.425 Y139.159 E63.40133
G0 F6000 X120.491 Y139.159
G1 F1800 X129.061 Y147.728 E64.27924
G0 F6000 X129.061 Y148.662
G1 F1800 X119.558 Y139.159 E65.25279
G0 F6000 X118.624 Y139.159
G1 F1800 X129.061 Y149.595 E66.32198
G0 F6000 X129.061 Y150.528
G1 F1800 X117.691 Y139.159 E67.48674
G0 F6000 X117.453 Y139.854
G1 F1800 X129.061 Y151.462 E68.67594
G0 F6000 X129.061 Y152.395
G1 F1800 X117.453 Y140.787 E69.86514
G0 F6000 X117.453 Y141.721
G1 F1800 X129.061 Y153.329 E71.05434
G0 F6000 X129.061 Y154.262
G1 F1800 X117.453 Y142.654 E72.24353
G0 F6000 X117.453 Y143.587
G1 F1800 X129.061 Y155.195 E73.43273
G0 F6000 X129.061 Y156.129
G1 F1800 X117.453 Y144.521 E74.62193
G0 F6000 X117.453 Y145.454
G1 F1800 X129.061 Y157.062 E75.81113
G0 F6000 X129.061 Y157.995
G1 F1800 X117.453 Y146.388 E77.00028
G0 F6000 X117.453 Y147.321
G1 F1800 X129.061 Y158.929 E78.18947
G0 F6000 X129.061 Y159.862
G1 F1800 X117.453 Y148.254 E79.37867
G0 F6000 X117.453 Y149.188
