;FLAVOR:Marlin
;TIME:3235
;Filament used: 3.63785m
;Layer height: 0.2
;MINX:82.094
;MINY:119.844
;MINZ:0.24
;MAXX:182.666
;MAXY:178.85
;MAXZ:9.52
;Generated with Cura_SteamEngine 5.0.0
M140 S80
M105
M190 S80
M104 S250
M105
M109 S250
M82 ;absolute extrusion mode
; Ender 3 Max Custom Start G-code
G92 E0 ; Reset Extruder
G28 ; Home all axes
G1 Z2.0 F3000 ; Move Z Axis up little to prevent scratching of Heat Bed
G1 X0.1 Y20 Z0.3 F5000.0 ; Move to start position
G1 X0.1 Y200.0 Z0.3 F1500.0 E15 ; Draw the first line
G1 X0.4 Y200.0 Z0.3 F5000.0 ; Move to side a little
G1 X0.4 Y20 Z0.3 F1500.0 E30 ; Draw the second line
G92 E0 ; Reset Extruder
G1 Z2.0 F3000 ; Move Z Axis up little to prevent scratching of Heat Bed
G1 X5 Y20 Z0.3 F5000.0 ; Move over to prevent blob squish
G92 E0
G92 E0
G1 F1800 E-6
;LAYER_COUNT:45
;LAYER:0
M107
G1 F300 Z0.72
G0 F6000 X86.692 Y122.901 Z0.72
G1 F300 Z0.72
G0 F6000 X82.095 Y132.019
;TYPE:SKIRT
G1 F300 Z0.24
G1 F1800 E0
G1 X82.104 Y131.35 E0.04847
G1 X82.156 Y130.443 E0.11428
G1 X82.288 Y129.543 E0.18017
G1 X82.498 Y128.659 E0.24599
G1 X82.785 Y127.797 E0.31181
G1 X83.147 Y126.963 E0.37767
G1 X83.581 Y126.165 E0.44347
G1 X84.083 Y125.407 E0.50933
G1 X84.65 Y124.697 E0.57515
G1 X85.277 Y124.039 E0.64099
G1 X85.96 Y123.439 E0.70685
G1 X86.692 Y122.901 E0.77266
G1 X87.469 Y122.43 E0.83848
G1 X88.285 Y122.028 E0.90437
G1 X89.132 Y121.7 E0.97017
G1 X90.006 Y121.448 E1.03606
G1 X90.898 Y121.274 E1.1019
G1 X92.123 Y121.164 E1.19099
G1 X92.765 Y121.149 E1.23751
G1 X122.816 Y121.146 E3.41443
G1 X125.371 Y121.071 E3.59959
G1 X127.902 Y120.925 E3.78324
G1 X130.412 Y120.709 E3.96574
G1 X132.914 Y120.423 E4.14817
G1 X134.668 Y120.16 E4.27665
G1 X134.87 Y120.139 E4.29136
G1 X136.146 Y119.957 E4.38473
G1 X137.317 Y119.858 E4.46986
G1 X137.965 Y119.844 E4.51681
G1 X165.617 Y119.847 E6.51994
G1 X166.389 Y119.858 E6.57587
G1 X167.041 Y119.888 E6.62315
G1 X167.26 Y119.905 E6.63906
G1 X168.337 Y120.046 E6.71775
G1 X168.624 Y120.099 E6.73889
G1 X169.706 Y120.36 E6.81952
G1 X169.967 Y120.438 E6.83925
G1 X170.955 Y120.788 E6.91518
G1 X171.789 Y121.165 E6.98148
G1 X172.154 Y121.35 E7.01113
G1 X172.946 Y121.796 E7.07697
G1 X173.636 Y122.262 E7.13729
G1 X174.187 Y122.676 E7.18721
G1 X174.933 Y123.329 E7.25903
G1 X175.925 Y124.287 E7.35893
G1 X178.553 Y126.919 E7.62837
G1 X179.176 Y127.568 E7.69354
G1 X179.976 Y128.508 E7.78295
G1 X180.165 Y128.759 E7.80571
G1 X180.679 Y129.509 E7.87158
G1 X180.947 Y129.964 E7.90983
G1 X181.115 Y130.267 E7.93493
G1 X181.573 Y131.201 E8.01028
G1 X181.652 Y131.385 E8.02479
G1 X182.023 Y132.389 E8.10233
G1 X182.122 Y132.707 E8.12645
G1 X182.413 Y133.877 E8.21379
G1 X182.454 Y134.096 E8.22993
G1 X182.594 Y135.136 E8.30595
G1 X182.649 Y135.976 E8.36693
G1 X182.666 Y136.725 E8.4212
G1 X182.664 Y160.485 E10.14239
G1 X182.653 Y161.252 E10.19796
G1 X182.624 Y161.886 E10.24393
G1 X182.606 Y162.123 E10.26115
G1 X182.512 Y162.939 E10.32065
G1 X182.481 Y163.137 E10.33517
G1 X182.291 Y164.068 E10.404
G1 X182.241 Y164.266 E10.4188
G1 X181.824 Y165.554 E10.51687
G1 X181.651 Y165.989 E10.55078
G1 X181.278 Y166.818 E10.61663
G1 X180.942 Y167.438 E10.66772
G1 X180.354 Y168.368 E10.74742
G1 X180.202 Y168.582 E10.76644
G1 X179.603 Y169.346 E10.83676
G1 X179.158 Y169.845 E10.8852
G1 X178.598 Y170.43 E10.94386
G1 X175.649 Y173.375 E11.24577
G1 X175.097 Y173.913 E11.30161
G1 X174.463 Y174.482 E11.36332
G1 X174.211 Y174.69 E11.38699
G1 X173.301 Y175.361 E11.4689
G1 X173.083 Y175.504 E11.48778
G1 X172.249 Y175.996 E11.55793
G1 X171.394 Y176.407 E11.62665
G1 X170.966 Y176.589 E11.66034
G1 X169.722 Y177.027 E11.75588
G1 X169.523 Y177.083 E11.77085
G1 X168.375 Y177.336 E11.85601
G1 X168.035 Y177.391 E11.88096
G1 X166.728 Y177.518 E11.97609
G1 X165.752 Y177.545 E12.04682
G1 X137.749 Y177.546 E14.07537
G1 X137.59 Y177.552 E14.0869
G1 X136.06 Y177.552 E14.19773
G1 X133.505 Y177.623 E14.38289
G1 X131.007 Y177.765 E14.56414
G1 X128.462 Y177.981 E14.74916
G1 X125.949 Y178.266 E14.93237
G1 X124.46 Y178.477 E15.04131
G1 X124.292 Y178.493 E15.05354
G1 X122.676 Y178.726 E15.17181
G1 X121.563 Y178.825 E15.25276
G1 X120.658 Y178.85 E15.31834
G1 X92.985 Y178.85 E17.32299
G1 X92.286 Y178.84 E17.37363
G1 X91.379 Y178.787 E17.43944
G1 X90.48 Y178.654 E17.50528
G1 X89.596 Y178.443 E17.57111
G1 X88.734 Y178.156 E17.63693
G1 X87.9 Y177.793 E17.70282
G1 X87.102 Y177.359 E17.76862
G1 X86.345 Y176.856 E17.83446
G1 X85.635 Y176.288 E17.90033
G1 X84.978 Y175.66 E17.96617
G1 X84.378 Y174.977 E18.03202
G1 X83.841 Y174.244 E18.09785
G1 X83.37 Y173.467 E18.16367
G1 X82.97 Y172.651 E18.2295
G1 X82.643 Y171.803 E18.29534
G1 X82.391 Y170.93 E18.36116
G1 X82.217 Y170.038 E18.42699
G1 X82.107 Y168.741 E18.52129
G1 X82.094 Y168.055 E18.57099
G1 X82.097 Y165.062 E18.7878
G1 X82.108 Y164.385 E18.83685
G1 X82.192 Y163.231 E18.92067
G1 X82.339 Y162.095 E19.00365
G1 X82.44 Y161.385 E19.0556
G1 X82.729 Y158.844 E19.24086
G1 X82.943 Y156.342 E19.42277
G1 X83.085 Y153.836 E19.60459
G1 X83.159 Y151.268 E19.7907
G1 X83.159 Y148.741 E19.97376
G1 X83.088 Y146.214 E20.15689
G1 X82.945 Y143.671 E20.34139
G1 X82.728 Y141.119 E20.52693
G1 X82.445 Y138.616 E20.7094
G1 X82.201 Y136.833 E20.83977
G1 X82.11 Y135.724 E20.92037
G1 X82.096 Y135.085 E20.96667
G1 X82.095 Y133.534 E21.07903
G0 F1620 X82.095 Y132.019
G1 F1800 E15.07903
G1 F300 Z0.72
;MESH:face_plate_no_logo.stl
G0 F6000 X106.063 Y135.619 Z0.72
;TYPE:WALL-INNER
G1 F300 Z0.24
G1 F1800 E21.07903
G1 F1507.6 X106.155 Y135.336 E21.10322
G1 F1687.5 X106.259 Y135.085 E21.12296
G1 F1797.3 X106.344 Y134.791 E21.14383
G1 F1800 X106.441 Y134.515 E21.16375
G1 X106.592 Y134.164 E21.18977
G1 X106.812 Y133.744 E21.22205
G1 X107.054 Y133.374 E21.25216
G1 X107.24 Y133.131 E21.273
G1 X105.099 Y133.131 E21.41879
G1 F1786.5 X104.857 Y133.135 E21.43539
G1 F1760 X104.615 Y133.14 E21.45225
G1 F1734.3 X104.373 Y133.145 E21.46936
G1 F1709.4 X104.131 Y133.149 E21.48671
G1 F1699.6 X99.112 Y133.15 E21.84867
G1 X94.094 Y133.149 E22.21056
G1 X94.095 Y133.849 E22.26104
G1 X99.113 Y133.849 E22.62293
G1 X104.131 Y133.849 E22.98482
G1 F1714.3 X104.379 Y133.915 E23.00316
G1 F1747.1 X104.629 Y133.981 E23.02131
G1 F1783.8 X104.879 Y134.048 E23.03909
G1 F1800 X105.422 Y134.398 E23.08308
G1 X105.629 Y134.633 E23.10441
G1 X105.803 Y134.94 E23.12843
G1 F1754.8 X105.911 Y135.19 E23.14746
G1 F1557 X106.063 Y135.619 E23.18328
G0 F6000 X106.239 Y137.753
G1 F1517.2 X106.077 Y137.355 E23.218
G1 F1473.9 X106.028 Y137.647 E23.24262
G1 F1675.6 X105.979 Y138.078 E23.27435
G1 F1800 X105.98 Y139.14 E23.34667
G1 X105.98 Y161.929 E24.89846
G1 F1609.8 X106.057 Y162.354 E24.93135
G1 F1400.9 X106.089 Y162.525 E24.94657
G1 F1496.2 X106.286 Y162.097 E24.98517
G1 F1736.8 X106.441 Y161.715 E25.01426
G1 F1800 X106.613 Y161.319 E25.04366
G1 X106.813 Y160.944 E25.0726
G1 X107.054 Y160.574 E25.10267
G1 X107.308 Y160.244 E25.13102
G1 X107.598 Y159.925 E25.16038
G1 X107.908 Y159.636 E25.18924
G1 X108.236 Y159.374 E25.21783
G1 X108.609 Y159.128 E25.24825
G1 X108.969 Y158.928 E25.27629
G1 X109.359 Y158.75 E25.30549
G1 X109.774 Y158.604 E25.33544
G1 X110.163 Y158.5 E25.36286
G1 X110.612 Y158.417 E25.39395
G1 X111.06 Y158.377 E25.42458
G1 X111.239 Y158.373 E25.43677
G1 X111.727 Y158.39 E25.47002
G1 X112.156 Y158.441 E25.49944
G1 X112.592 Y158.53 E25.52974
G1 X113.002 Y158.65 E25.55883
G1 X113.414 Y158.81 E25.58893
G1 X113.787 Y158.99 E25.61713
G1 X114.165 Y159.215 E25.64709
G1 X114.497 Y159.447 E25.67467
G1 X114.842 Y159.736 E25.70531
G1 X115.14 Y160.03 E25.73382
G1 X115.416 Y160.351 E25.76264
G1 X115.672 Y160.704 E25.79234
G1 X115.893 Y161.067 E25.82128
G1 X116.083 Y161.446 E25.85014
G1 X116.243 Y161.838 E25.87898
G1 X116.325 Y162.094 E25.89728
G1 X116.404 Y162.378 E25.91735
G1 X116.465 Y162.663 E25.9372
G1 X116.525 Y163.097 E25.96703
G1 X116.548 Y163.545 E25.99758
G1 X116.544 Y163.731 E26.01025
G1 X116.508 Y164.218 E26.0435
G1 X116.436 Y164.678 E26.07521
G1 X116.331 Y165.084 E26.10376
G1 X116.199 Y165.476 E26.13193
G1 X116.023 Y165.883 E26.16212
G1 X115.825 Y166.256 E26.19088
G1 X115.583 Y166.626 E26.22098
G1 X115.397 Y166.869 E26.24182
G1 X120.874 Y166.87 E26.61477
G1 X121.126 Y166.85 E26.63199
G1 X121.358 Y166.781 E26.64847
G1 X121.57 Y166.637 E26.66592
G1 X121.689 Y166.532 E26.67672
G1 X125.206 Y163.017 E27.01531
G1 X125.389 Y162.779 E27.03576
G1 X125.496 Y162.51 E27.05547
G1 X125.519 Y162.221 E27.07521
G1 X125.519 Y137.782 E28.73937
G1 X125.5 Y137.513 E28.75773
G1 X125.399 Y137.231 E28.77813
G1 X125.256 Y137.038 E28.79448
G1 X125.177 Y136.956 E28.80224
G1 X121.663 Y133.442 E29.14063
G1 X121.426 Y133.257 E29.16111
G1 X121.156 Y133.153 E29.18081
G1 X120.877 Y133.131 E29.19986
G1 X119.64 Y133.132 E29.2841
G1 X117.512 Y133.131 E29.429
G1 X115.4 Y133.131 E29.57282
G1 X115.673 Y133.504 E29.60429
G1 X115.893 Y133.867 E29.63319
G1 X116.083 Y134.246 E29.66206
G1 X116.243 Y134.638 E29.69089
G1 X116.372 Y135.054 E29.72055
G1 X116.465 Y135.463 E29.74911
G1 X116.524 Y135.897 E29.77894
G1 X116.547 Y136.345 E29.80949
G1 X116.544 Y136.531 E29.82215
G1 X116.508 Y137.018 E29.8554
G1 X116.436 Y137.478 E29.88711
G1 X116.331 Y137.883 E29.9156
G1 X116.199 Y138.276 E29.94383
G1 X116.023 Y138.683 E29.97402
G1 X115.824 Y139.055 E30.00275
G1 X115.583 Y139.426 E30.03288
G1 X115.329 Y139.756 E30.06123
G1 X115.039 Y140.074 E30.09054
G1 X114.729 Y140.364 E30.11945
G1 X114.405 Y140.624 E30.14773
G1 X114.035 Y140.87 E30.17799
G1 X113.656 Y141.078 E30.20743
G1 X113.277 Y141.25 E30.23577
G1 X112.863 Y141.396 E30.26566
G1 X112.621 Y141.462 E30.28274
G1 X112.35 Y141.526 E30.3017
G1 X112.026 Y141.582 E30.32409
G1 X111.577 Y141.623 E30.35479
G1 X111.398 Y141.627 E30.36699
G1 X110.91 Y141.61 E30.40024
G1 X110.481 Y141.56 E30.42965
G1 X110.045 Y141.47 E30.45996
G1 X109.635 Y141.351 E30.48903
G1 X109.223 Y141.19 E30.51915
G1 X108.848 Y141.009 E30.54751
G1 X108.474 Y140.787 E30.57712
G1 X108.135 Y140.549 E30.60533
G1 X107.792 Y140.261 E30.63583
G1 X107.496 Y139.968 E30.66419
G1 X107.22 Y139.649 E30.69291
G1 X106.962 Y139.293 E30.72285
G1 X106.743 Y138.932 E30.7516
G1 X106.553 Y138.554 E30.78041
G1 X106.393 Y138.158 E30.80949
G1 F1731.8 X106.239 Y137.753 E30.84016
G0 F6000 X106.114 Y164.547
G1 F1483.1 X106.063 Y164.379 E30.85467
G1 F1565.2 X105.912 Y164.807 E30.89021
G1 F1757.4 X105.801 Y165.032 E30.90771
G1 F1800 X105.66 Y165.296 E30.92809
G1 X105.442 Y165.582 E30.95257
G1 X105.408 Y165.616 E30.95585
G1 F1789.2 X105.082 Y165.819 E30.98216
G1 F1767.9 X104.756 Y166.022 E31.00878
G1 F1706.9 X104.419 Y166.134 E31.03428
G1 F1680.3 X104.129 Y166.151 E31.05547
G1 F1697.1 X94.096 Y166.151 E31.78007
G1 X94.095 Y166.851 E31.83062
G1 X104.129 Y166.851 E32.55529
G1 F1680.3 X104.48 Y166.844 E32.5809
G1 F1694.7 X104.763 Y166.857 E32.60139
G1 F1741.9 X104.887 Y166.861 E32.61012
G1 F1762.6 X105.233 Y166.864 E32.63418
G1 F1778.4 X105.579 Y166.867 E32.65802
G1 F1794.6 X105.925 Y166.871 E32.68166
G1 F1800 X107.238 Y166.87 E32.77107
G1 X106.961 Y166.493 E32.80292
G1 X106.743 Y166.132 E32.83164
G1 X106.584 Y165.817 E32.85567
G1 X106.392 Y165.358 E32.88954
G1 X106.303 Y165.078 E32.90955
G1 F1757.4 X106.217 Y164.824 E32.92825
G1 F1618.5 X106.114 Y164.547 E32.95063
G0 F6000 X108.031 Y166.686
G0 X108.981 Y167.546
G0 X108.992 Y167.529
G1 F1800 X108.758 Y167.384 E32.96938
G1 X108.519 Y167.213 E32.98939
G1 X108.225 Y166.963 E33.01567
G1 X107.965 Y166.704 E33.04066
G1 X107.725 Y166.424 E33.06577
G1 X107.502 Y166.114 E33.09177
G1 X107.311 Y165.796 E33.11703
G1 X107.178 Y165.528 E33.13741
G1 X107.007 Y165.117 E33.16772
G1 X106.897 Y164.758 E33.19329
G1 X106.817 Y164.397 E33.21847
G1 X106.766 Y164.001 E33.24565
G1 X106.76 Y163.894 E33.25295
G1 X106.756 Y163.397 E33.2868
G1 X106.788 Y163.016 E33.31283
G1 X106.848 Y162.655 E33.33775
G1 F1802.7 X106.947 Y162.277 E33.36432
G1 X107.064 Y161.934 E33.38896
G1 F1800 X107.215 Y161.589 E33.4146
G1 X107.391 Y161.262 E33.43989
G1 X107.602 Y160.942 E33.46599
G1 X107.826 Y160.653 E33.49089
G1 X108.08 Y160.376 E33.51648
G1 X108.352 Y160.124 E33.54173
G1 X108.641 Y159.896 E33.56679
G1 X108.964 Y159.684 E33.5931
G1 X109.283 Y159.509 E33.61788
G1 X109.625 Y159.354 E33.64345
G1 X109.984 Y159.229 E33.66933
G1 X110.325 Y159.14 E33.69333
G1 X110.724 Y159.068 E33.72094
G1 X111.108 Y159.035 E33.74718
G1 X111.216 Y159.033 E33.75454
G1 X111.704 Y159.05 E33.78779
G1 X112.067 Y159.095 E33.8127
G1 X112.452 Y159.175 E33.83947
G1 X112.809 Y159.281 E33.86483
G1 X113.165 Y159.421 E33.89088
G1 X113.493 Y159.581 E33.91573
G1 X113.82 Y159.778 E33.94173
G1 X114.113 Y159.984 E33.96611
G1 X114.41 Y160.235 E33.99259
G1 X114.671 Y160.495 E34.01768
G1 X114.912 Y160.776 E34.04289
G1 X115.132 Y161.083 E34.06861
G1 X115.325 Y161.403 E34.09405
G1 X115.49 Y161.734 E34.11924
G1 X115.628 Y162.079 E34.14454
G1 X115.74 Y162.442 E34.17041
G1 X115.82 Y162.801 E34.19545
G1 X115.869 Y163.177 E34.22127
G1 X115.888 Y163.57 E34.24806
G1 X115.886 Y163.682 E34.25569
G1 X115.85 Y164.17 E34.28901
G1 X115.786 Y164.564 E34.31619
G1 X115.695 Y164.906 E34.34029
G1 X115.575 Y165.261 E34.36581
G1 X115.421 Y165.612 E34.39191
G1 X115.246 Y165.938 E34.4171
G1 X115.035 Y166.258 E34.4432
G1 X114.811 Y166.547 E34.4681
G1 X114.557 Y166.824 E34.49369
G1 X114.285 Y167.077 E34.51899
G1 X113.998 Y167.303 E34.54386
G1 X113.678 Y167.515 E34.57
G1 X113.975 Y167.529 E34.59025
G1 X114.46 Y167.53 E34.62328
G1 X120.961 Y167.529 E35.06596
G1 X121.212 Y167.505 E35.08312
G1 X121.498 Y167.432 E35.10322
G1 X121.749 Y167.318 E35.122
G1 X121.96 Y167.172 E35.13947
G1 X122.155 Y167 E35.15717
G1 X125.694 Y163.463 E35.49788
G1 X125.895 Y163.222 E35.51925
G1 X126.037 Y162.979 E35.53842
G1 X126.122 Y162.726 E35.55659
G1 X126.169 Y162.396 E35.57929
G1 X126.179 Y162.211 E35.5919
G1 X126.179 Y137.782 E37.25538
G1 X126.164 Y137.529 E37.27263
G1 X126.12 Y137.273 E37.29032
G1 X126.031 Y137.023 E37.30839
G1 X125.9 Y136.795 E37.3263
G1 X125.748 Y136.597 E37.34329
G1 X125.644 Y136.489 E37.3535
G1 X122.11 Y132.955 E37.69383
G1 X121.87 Y132.752 E37.71523
G1 X121.636 Y132.616 E37.73366
G1 X121.376 Y132.528 E37.75235
G1 X121.043 Y132.479 E37.77527
G1 X120.867 Y132.472 E37.78727
G1 X113.646 Y132.471 E38.27897
G1 X113.879 Y132.616 E38.29766
G1 X114.113 Y132.784 E38.31728
G1 X114.41 Y133.035 E38.34376
G1 X114.671 Y133.295 E38.36884
G1 X114.912 Y133.576 E38.39405
G1 X115.133 Y133.883 E38.41981
G1 X115.325 Y134.203 E38.44522
G1 X115.49 Y134.534 E38.4704
G1 X115.629 Y134.879 E38.49573
G1 X115.74 Y135.242 E38.52158
G1 X115.82 Y135.601 E38.54662
G1 X115.869 Y135.977 E38.57244
G1 X115.888 Y136.371 E38.5993
G1 X115.886 Y136.483 E38.60693
G1 X115.85 Y136.969 E38.64012
G1 X115.786 Y137.364 E38.66736
G1 X115.695 Y137.706 E38.69146
G1 X115.575 Y138.061 E38.71698
G1 X115.421 Y138.412 E38.74308
G1 X115.245 Y138.738 E38.76831
G1 X115.035 Y139.058 E38.79437
G1 X114.811 Y139.347 E38.81927
G1 X114.557 Y139.624 E38.84486
G1 X114.285 Y139.876 E38.87011
G1 X113.998 Y140.104 E38.89507
G1 X113.677 Y140.315 E38.92123
G1 X113.346 Y140.495 E38.94688
G1 X113.011 Y140.646 E38.9719
G1 X112.653 Y140.771 E38.99773
G1 X112.312 Y140.86 E39.02172
G1 X111.913 Y140.932 E39.04933
G1 X111.529 Y140.965 E39.07558
G1 X111.421 Y140.967 E39.08293
G1 X110.933 Y140.95 E39.11618
G1 X110.57 Y140.906 E39.14108
G1 X110.185 Y140.825 E39.16787
G1 X109.828 Y140.719 E39.19323
G1 X109.472 Y140.579 E39.21928
G1 X109.144 Y140.418 E39.24416
G1 X108.818 Y140.223 E39.27003
G1 X108.519 Y140.013 E39.29491
G1 X108.225 Y139.763 E39.32119
G1 X107.965 Y139.504 E39.34617
G1 X107.725 Y139.224 E39.37129
G1 X107.502 Y138.914 E39.39729
G1 X107.311 Y138.597 E39.42249
G1 X107.147 Y138.266 E39.44765
G1 X107.007 Y137.917 E39.47325
G1 F1802.7 X106.897 Y137.558 E39.49878
G1 X106.817 Y137.197 E39.52392
G1 F1800 X106.766 Y136.801 E39.55111
G1 X106.76 Y136.694 E39.55841
G1 X106.756 Y136.197 E39.59225
G1 X106.788 Y135.816 E39.61828
G1 F1802.7 X106.848 Y135.455 E39.64317
G1 X106.947 Y135.077 E39.66973
G1 F1800 X107.064 Y134.734 E39.69441
G1 X107.194 Y134.435 E39.71661
G1 X107.391 Y134.062 E39.74534
G1 X107.602 Y133.742 E39.77144
G1 X107.826 Y133.453 E39.79634
G1 X108.08 Y133.176 E39.82193
G1 X108.352 Y132.923 E39.84722
G1 X108.64 Y132.695 E39.87224
