;FLAVOR:Marlin
;TIME:2345
;Filament used: 1.80222m
;Layer height: 0.2
;MINX:127.024
;MINY:126.276
;MINZ:0.24
;MAXX:178.619
;MAXY:180.827
;MAXZ:20.52
;Generated with Cura_SteamEngine 5.0.0
M140 S80
M105
M190 S80
M104 S250
M105
M109 S250
M82 ;absolute extrusion mode
; Ender 3 Max Custom Start G-code
G92 E0 ; Reset Extruder
G28 ; Home all axes
G1 Z2.0 F3000 ; Move Z Axis up little to prevent scratching of Heat Bed
G1 X0.1 Y20 Z0.3 F5000.0 ; Move to start position
G1 X0.1 Y200.0 Z0.3 F1500.0 E15 ; Draw the first line
G1 X0.4 Y200.0 Z0.3 F5000.0 ; Move to side a little
G1 X0.4 Y20 Z0.3 F1500.0 E30 ; Draw the second line
G92 E0 ; Reset Extruder
G1 Z2.0 F3000 ; Move Z Axis up little to prevent scratching of Heat Bed
G1 X5 Y20 Z0.3 F5000.0 ; Move over to prevent blob squish
G92 E0
G92 E0
G1 F1800 E-6
;LAYER_COUNT:100
;LAYER:0
M107
G1 F300 Z0.72
G0 F6000 X136.758 Y138.095 Z0.72
G1 F300 Z0.72
G0 F6000 X130.753 Y152.223
;TYPE:SKIRT
G1 F300 Z0.24
G1 F1800 E0
G1 X131.002 Y151.911 E0.02892
G1 X131.552 Y151.268 E0.09021
G1 X131.894 Y150.9 E0.1266
G1 X131.896 Y150.319 E0.16869
G1 X131.883 Y150.17 E0.17953
G1 X131.878 Y149.182 E0.2511
G1 X131.951 Y148.213 E0.32149
G1 X131.99 Y147.876 E0.34607
G1 X132.142 Y146.904 E0.41734
G1 X132.215 Y146.536 E0.44451
G1 X132.417 Y145.68 E0.50823
G1 X132.504 Y145.363 E0.53204
G1 X132.796 Y144.445 E0.60182
G1 X132.955 Y144.005 E0.63571
G1 X133.328 Y143.09 E0.70729
G1 X133.774 Y142.209 E0.77883
G1 X134.002 Y141.836 E0.81049
G1 X134.105 Y141.621 E0.82776
G1 X134.602 Y140.767 E0.89934
G1 X135.059 Y140.1 E0.95791
G1 X135.25 Y139.84 E0.98128
G1 X135.897 Y139.033 E1.05621
G1 X136.161 Y138.731 E1.08527
G1 X136.758 Y138.095 E1.14846
G1 X136.987 Y137.868 E1.17182
G1 X137.704 Y137.212 E1.24222
G1 X138.058 Y136.913 E1.27578
G1 X138.838 Y136.307 E1.34734
G1 X139.665 Y135.765 E1.41896
G1 X140.078 Y135.54 E1.45303
G1 X140.283 Y135.4 E1.47102
G1 X141.142 Y134.911 E1.54262
G1 X141.91 Y134.547 E1.60419
G1 X142.211 Y134.417 E1.62794
G1 X143.134 Y134.062 E1.69957
G1 X143.5 Y133.938 E1.72757
G1 X144.412 Y133.668 E1.79647
G1 X144.782 Y133.574 E1.82412
G1 X145.651 Y133.386 E1.88853
G1 X146.056 Y133.314 E1.91833
G1 X146.827 Y133.209 E1.9747
G1 X147.205 Y132.705 E2.02033
G1 X147.348 Y132.526 E2.03693
G1 X147.996 Y131.78 E2.10851
G1 X148.702 Y131.088 E2.18012
G1 X148.944 Y130.847 E2.20487
G1 X149.672 Y130.178 E2.27649
G1 X150.564 Y129.489 E2.35814
G1 X151.008 Y129.178 E2.39741
G1 X151.996 Y128.555 E2.48202
G1 X152.305 Y128.38 E2.50774
G1 X153.216 Y127.913 E2.5819
G1 X153.557 Y127.756 E2.6091
G1 X154.216 Y127.476 E2.66097
G1 X154.441 Y127.388 E2.67847
G1 X155.375 Y127.065 E2.75006
G1 X156.332 Y126.82 E2.82162
G1 X156.481 Y126.794 E2.83258
G1 X156.957 Y126.659 E2.86842
G1 X157.927 Y126.468 E2.94003
G1 X158.752 Y126.368 E3.00024
G1 X159.282 Y126.322 E3.03877
G1 X160.44 Y126.276 E3.12273
G1 X160.799 Y126.279 E3.14873
G1 X161.793 Y126.328 E3.22083
G1 X162.159 Y126.361 E3.24745
G1 X162.923 Y126.455 E3.30321
G1 X163.163 Y126.492 E3.3208
G1 X164.133 Y126.682 E3.3924
G1 X165.084 Y126.949 E3.46396
G1 X165.156 Y126.976 E3.46953
G1 X165.966 Y127.201 E3.53043
G1 X166.893 Y127.541 E3.60195
G1 X167.374 Y127.752 E3.64
G1 X167.845 Y127.971 E3.67763
G1 X168.943 Y128.552 E3.76762
G1 X169.247 Y128.733 E3.79325
G1 X170.045 Y129.251 E3.86217
G1 X170.365 Y129.477 E3.89055
G1 X170.974 Y129.936 E3.94579
G1 X171.153 Y130.08 E3.96243
G1 X171.898 Y130.73 E4.03405
G1 X172.587 Y131.438 E4.10562
G1 X172.66 Y131.526 E4.1139
G1 X173.118 Y131.981 E4.16067
G1 X173.76 Y132.733 E4.2323
G1 X174.151 Y133.259 E4.27977
G1 X174.452 Y133.687 E4.31768
G1 X175.066 Y134.657 E4.40084
G1 X175.248 Y134.833 E4.41918
G1 X175.901 Y135.575 E4.49078
G1 X176.491 Y136.368 E4.56238
G1 X177.014 Y137.206 E4.63394
G1 X177.469 Y138.083 E4.70551
G1 X177.851 Y138.994 E4.77707
G1 X178.158 Y139.933 E4.84864
G1 X178.388 Y140.894 E4.92022
G1 X178.54 Y141.871 E4.99184
G1 X178.619 Y143.256 E5.09234
G1 X178.619 Y150.096 E5.58783
G1 X178.579 Y151.083 E5.65939
G1 X178.459 Y152.064 E5.73098
G1 X178.261 Y153.032 E5.80256
G1 X177.984 Y153.981 E5.87417
G1 X177.632 Y154.904 E5.94573
G1 X177.207 Y155.796 E6.01731
G1 X176.711 Y156.65 E6.08885
G1 X176.147 Y157.462 E6.16047
G1 X175.519 Y158.225 E6.23205
G1 X174.832 Y158.935 E6.30362
G1 X174.09 Y159.588 E6.37522
G1 X173.297 Y160.178 E6.44683
G1 X172.783 Y160.499 E6.49072
G1 X172.812 Y160.69 E6.50472
G1 X172.915 Y161.628 E6.57308
G1 X172.945 Y162.051 E6.6038
G1 X172.976 Y162.945 E6.6686
G1 X172.975 Y163.354 E6.69822
G1 X172.94 Y164.253 E6.7634
G1 X172.91 Y164.646 E6.79195
G1 X172.803 Y165.574 E6.85962
G1 X172.739 Y165.99 E6.89011
G1 X172.576 Y166.846 E6.95323
G1 X172.486 Y167.241 E6.98258
G1 X172.247 Y168.131 E7.04934
G1 X172.125 Y168.526 E7.07929
G1 X171.846 Y169.329 E7.14087
G1 X171.704 Y169.696 E7.16937
G1 X171.332 Y170.559 E7.23745
G1 X171.155 Y170.929 E7.26716
G1 X170.73 Y171.737 E7.3333
G1 X170.524 Y172.096 E7.36328
G1 X170.066 Y172.833 E7.42614
G1 X169.836 Y173.175 E7.45599
G1 X169.247 Y173.977 E7.52808
G1 X168.998 Y174.289 E7.55699
G1 X168.448 Y174.932 E7.61829
G1 X168.167 Y175.238 E7.64838
G1 X167.56 Y175.853 E7.71098
G1 X167.269 Y176.128 E7.73998
G1 X166.577 Y176.735 E7.80666
G1 X166.248 Y177.002 E7.83736
G1 X165.541 Y177.534 E7.90145
G1 X165.22 Y177.758 E7.92981
G1 X164.43 Y178.266 E7.99785
G1 X164.065 Y178.481 E8.02853
G1 X163.256 Y178.917 E8.09511
G1 X162.892 Y179.096 E8.12449
G1 X162.076 Y179.461 E8.18925
G1 X161.707 Y179.61 E8.21808
G1 X160.841 Y179.922 E8.28476
G1 X160.436 Y180.051 E8.31555
G1 X159.605 Y180.284 E8.37807
G1 X159.217 Y180.378 E8.40699
G1 X158.315 Y180.56 E8.47364
G1 X157.912 Y180.626 E8.50323
G1 X156.99 Y180.742 E8.57054
G1 X156.585 Y180.777 E8.59999
G1 X155.714 Y180.821 E8.66317
G1 X155.308 Y180.827 E8.69258
G1 X154.402 Y180.806 E8.75823
G1 X153.982 Y180.781 E8.78871
G1 X153.072 Y180.693 E8.85494
G1 X152.68 Y180.64 E8.88359
G1 X151.782 Y180.484 E8.94962
G1 X151.372 Y180.397 E8.97998
G1 X150.515 Y180.183 E9.04397
G1 X149.997 Y180.028 E9.08314
G1 X149.431 Y180.197 E9.12593
G1 X148.539 Y180.416 E9.19246
G1 X148.122 Y180.502 E9.22331
G1 X147.27 Y180.647 E9.28591
G1 X146.88 Y180.699 E9.31442
G1 X145.935 Y180.788 E9.38317
G1 X145.516 Y180.811 E9.41357
G1 X144.606 Y180.827 E9.4795
G1 X144.2 Y180.819 E9.50892
G1 X143.33 Y180.77 E9.57204
G1 X142.925 Y180.733 E9.6015
G1 X142.029 Y180.618 E9.66694
G1 X141.627 Y180.551 E9.69647
G1 X140.68 Y180.354 E9.76654
G1 X140.283 Y180.255 E9.79618
G1 X139.466 Y180.021 E9.85774
G1 X139.081 Y179.896 E9.88706
G1 X138.22 Y179.58 E9.9535
G1 X137.842 Y179.425 E9.9831
G1 X137.014 Y179.049 E10.04897
G1 X136.638 Y178.861 E10.07942
G1 X135.888 Y178.453 E10.14127
G1 X135.546 Y178.251 E10.17005
G1 X134.744 Y177.734 E10.23917
G1 X134.409 Y177.499 E10.26881
G1 X133.648 Y176.919 E10.33813
G1 X133.327 Y176.654 E10.36828
G1 X132.707 Y176.106 E10.42822
G1 X132.408 Y175.823 E10.45805
G1 X131.765 Y175.167 E10.52459
G1 X131.496 Y174.871 E10.55356
G1 X130.921 Y174.19 E10.61813
G1 X130.664 Y173.862 E10.64831
G1 X130.116 Y173.104 E10.71607
G1 X129.894 Y172.771 E10.74506
G1 X129.433 Y172.023 E10.80871
G1 X129.235 Y171.674 E10.83778
G1 X128.819 Y170.873 E10.90316
G1 X128.641 Y170.497 E10.9333
G1 X128.285 Y169.666 E10.99879
G1 X128.135 Y169.277 E11.02899
G1 X127.829 Y168.384 E11.09737
G1 X127.715 Y168.003 E11.12618
G1 X127.503 Y167.193 E11.18683
G1 X127.414 Y166.799 E11.21609
G1 X127.244 Y165.885 E11.28344
G1 X127.184 Y165.477 E11.31331
G1 X127.086 Y164.579 E11.37875
G1 X127.056 Y164.163 E11.40896
G1 X127.024 Y163.255 E11.47478
G1 X127.025 Y162.846 E11.50441
G1 X127.06 Y161.947 E11.56958
G1 X127.09 Y161.554 E11.59814
G1 X127.191 Y160.668 E11.66273
G1 X127.254 Y160.249 E11.69343
G1 X127.431 Y159.318 E11.76208
G1 X127.521 Y158.928 E11.79107
G1 X127.755 Y158.061 E11.85613
G1 X127.878 Y157.664 E11.88623
G1 X128.154 Y156.871 E11.94706
G1 X128.296 Y156.504 E11.97556
G1 X128.668 Y155.641 E12.04364
G1 X128.845 Y155.271 E12.07335
G1 X129.27 Y154.463 E12.13949
G1 X129.476 Y154.104 E12.16947
G1 X129.877 Y153.458 E12.22455
G0 F1620 X129.934 Y153.367
G0 X130.164 Y153.025
G0 X130.753 Y152.223
G1 F1800 E6.22455
G1 F300 Z0.72
G0 F6000 X130.984 Y163.265 Z0.72
G1 F300 Z0.24
G1 F1800 E12.22455
G1 X130.985 Y162.856 E12.25418
G1 X131.009 Y162.248 E12.29826
G1 X131.039 Y161.855 E12.32681
G1 X131.107 Y161.256 E12.37048
G1 X131.17 Y160.837 E12.40117
G1 X131.289 Y160.209 E12.44748
G1 X131.379 Y159.819 E12.47647
G1 X131.538 Y159.232 E12.52053
G1 X131.661 Y158.835 E12.55063
G1 X131.847 Y158.3 E12.59166
G1 X131.989 Y157.933 E12.62017
G1 X132.241 Y157.35 E12.66618
G1 X132.418 Y156.98 E12.69589
G1 X132.704 Y156.434 E12.74054
G1 X132.91 Y156.075 E12.77053
G1 X133.22 Y155.577 E12.81302
G1 X133.45 Y155.235 E12.84288
G1 X133.848 Y154.693 E12.89159
G1 X134.097 Y154.381 E12.9205
G1 X134.468 Y153.947 E12.96186
G1 X134.749 Y153.641 E12.99196
G1 X135.16 Y153.225 E13.03432
G1 X135.451 Y152.95 E13.06333
G1 X135.918 Y152.54 E13.10834
G1 X136.043 Y152.405 E13.12167
G1 X135.972 Y152.006 E13.15103
G1 X135.869 Y151.201 E13.20982
G1 X135.846 Y150.389 E13.26867
G1 X135.858 Y150.212 E13.28152
G1 X135.83 Y149.591 E13.32655
G1 X135.885 Y148.669 E13.39346
G1 X135.924 Y148.332 E13.41803
G1 X136.027 Y147.675 E13.46621
G1 X136.1 Y147.307 E13.49338
G1 X136.236 Y146.729 E13.5364
G1 X136.323 Y146.412 E13.56021
G1 X136.52 Y145.791 E13.60741
G1 X136.679 Y145.351 E13.6413
G1 X136.992 Y144.602 E13.7001
G1 X137.378 Y143.887 E13.75896
G1 X137.471 Y143.749 E13.77102
G1 X137.801 Y143.124 E13.82222
G1 X138.25 Y142.445 E13.88119
G1 X138.441 Y142.185 E13.90456
G1 X138.879 Y141.639 E13.95526
G1 X139.143 Y141.337 E13.98432
G1 X139.546 Y140.908 E14.02696
G1 X139.775 Y140.681 E14.05032
G1 X140.26 Y140.237 E14.09795
G1 X140.614 Y139.938 E14.13152
G1 X141.259 Y139.445 E14.19033
G1 X141.95 Y139.018 E14.24917
G1 X142.115 Y138.937 E14.26248
G1 X142.725 Y138.555 E14.31462
G1 X143.48 Y138.182 E14.37563
G1 X143.781 Y138.052 E14.39938
G1 X144.405 Y137.812 E14.44781
G1 X144.771 Y137.688 E14.4758
G1 X145.387 Y137.506 E14.52233
G1 X145.757 Y137.412 E14.54999
G1 X146.344 Y137.285 E14.59349
G1 X146.749 Y137.213 E14.62329
G1 X147.555 Y137.111 E14.68214
G1 X148.366 Y137.088 E14.74092
G1 X148.519 Y137.097 E14.75202
G1 X149.064 Y137.082 E14.79151
G1 X149.232 Y136.763 E14.81763
G1 X149.413 Y136.456 E14.84345
G1 X149.771 Y135.901 E14.89129
G1 X149.996 Y135.581 E14.91963
G1 X150.442 Y134.998 E14.9728
G1 X150.98 Y134.389 E15.03167
G1 X151.505 Y133.901 E15.08359
G1 X152.032 Y133.375 E15.13753
G1 X152.836 Y132.733 E15.21206
G1 X153.28 Y132.422 E15.25133
G1 X153.947 Y132 E15.30851
G1 X154.256 Y131.825 E15.33423
G1 X154.872 Y131.51 E15.38435
G1 X155.213 Y131.353 E15.41155
G1 X155.883 Y131.076 E15.46407
G1 X156.653 Y130.818 E15.52289
G1 X157.388 Y130.649 E15.57753
G1 X157.483 Y130.616 E15.58481
G1 X158.273 Y130.426 E15.64367
G1 X159.095 Y130.313 E15.70378
G1 X159.625 Y130.267 E15.74232
G1 X160.407 Y130.236 E15.79901
G1 X160.766 Y130.239 E15.82502
G1 X161.438 Y130.272 E15.87375
G1 X161.804 Y130.305 E15.90038
G1 X162.32 Y130.368 E15.93803
G1 X162.56 Y130.405 E15.95562
G1 X163.356 Y130.568 E16.01448
G1 X164.093 Y130.797 E16.07039
G1 X164.357 Y130.854 E16.08995
G1 X165.13 Y131.102 E16.14876
G1 X165.704 Y131.343 E16.19386
G1 X166.175 Y131.562 E16.23149
G1 X166.918 Y131.954 E16.29234
G1 X167.222 Y132.135 E16.31797
G1 X167.76 Y132.485 E16.36447
G1 X168.08 Y132.711 E16.39285
G1 X168.671 Y133.166 E16.44688
G1 X169.278 Y133.705 E16.50568
G1 X169.785 Y134.254 E16.55982
G1 X169.926 Y134.379 E16.57347
G1 X170.479 Y134.974 E16.63231
G1 X170.912 Y135.537 E16.68376
G1 X171.213 Y135.965 E16.72166
G1 X171.643 Y136.645 E16.77995
G1 X171.899 Y137.111 E16.81846
G1 X172.257 Y137.437 E16.85354
G1 X172.801 Y138.04 E16.91237
G1 X173.283 Y138.694 E16.97122
G1 X173.698 Y139.392 E17.03005
G1 X174.043 Y140.127 E17.08886
G1 X174.313 Y140.893 E17.1477
G1 X174.507 Y141.681 E17.20649
G1 X174.623 Y142.485 E17.26533
G1 X174.659 Y143.256 E17.32124
G1 X174.659 Y150.096 E17.81674
G1 X174.619 Y150.907 E17.87556
G1 X174.499 Y151.71 E17.93437
G1 X174.302 Y152.498 E17.99321
G1 X174.027 Y153.263 E18.0521
G1 X173.679 Y153.996 E18.11088
G1 X173.26 Y154.692 E18.16973
G1 X172.775 Y155.343 E18.22854
G1 X172.228 Y155.944 E18.28741
G1 X171.625 Y156.488 E18.34624
G1 X170.971 Y156.97 E18.40509
G1 X170.273 Y157.385 E18.46392
G1 X169.538 Y157.73 E18.52274
G1 X168.772 Y158 E18.58157
G1 X168.1 Y158.165 E18.6317
G1 X168.166 Y158.336 E18.64498
G1 X168.378 Y158.956 E18.69244
G1 X168.492 Y159.338 E18.72132
G1 X168.633 Y159.875 E18.76154
G1 X168.722 Y160.268 E18.79073
G1 X168.836 Y160.872 E18.83526
G1 X168.896 Y161.274 E18.8647
G1 X168.965 Y161.908 E18.9109
G1 X168.995 Y162.331 E18.94162
G1 X169.016 Y162.935 E18.9854
G1 X169.015 Y163.344 E19.01503
G1 X168.991 Y163.952 E19.0591
G1 X168.961 Y164.345 E19.08766
G1 X168.889 Y164.971 E19.1333
G1 X168.825 Y165.387 E19.16379
G1 X168.715 Y165.966 E19.20649
G1 X168.625 Y166.361 E19.23583
G1 X168.464 Y166.963 E19.28098
G1 X168.342 Y167.358 E19.31092
G1 X168.153 Y167.9 E19.3525
G1 X168.011 Y168.267 E19.38101
G1 X167.759 Y168.85 E19.42702
G1 X167.582 Y169.22 E19.45673
G1 X167.296 Y169.766 E19.50138
G1 X167.09 Y170.125 E19.53137
G1 X166.78 Y170.623 E19.57386
G1 X166.55 Y170.965 E19.60372
G1 X166.152 Y171.507 E19.65243
G1 X165.903 Y171.819 E19.68134
G1 X165.532 Y172.253 E19.72271
G1 X165.251 Y172.559 E19.7528
G1 X164.84 Y172.975 E19.79516
G1 X164.549 Y173.25 E19.82417
G1 X164.082 Y173.66 E19.86918
G1 X163.753 Y173.927 E19.89988
G1 X163.275 Y174.287 E19.94323
G1 X162.954 Y174.511 E19.97158
G1 X162.42 Y174.853 E20.01752
G1 X162.055 Y175.068 E20.04821
G1 X161.509 Y175.363 E20.09316
G1 X161.145 Y175.542 E20.12255
G1 X160.593 Y175.789 E20.16635
G1 X160.224 Y175.938 E20.19518
G1 X159.639 Y176.149 E20.24023
G1 X159.234 Y176.278 E20.27102
G1 X158.673 Y176.435 E20.31322
G1 X158.285 Y176.529 E20.34214
G1 X157.675 Y176.653 E20.38724
G1 X157.272 Y176.719 E20.41682
G1 X156.649 Y176.796 E20.46229
G1 X156.244 Y176.831 E20.49174
G1 X155.656 Y176.861 E20.53439
G1 X155.25 Y176.867 E20.5638
G1 X154.638 Y176.853 E20.60815
G1 X154.218 Y176.828 E20.63863
G1 X153.603 Y176.769 E20.68338
G1 X153.211 Y176.716 E20.71204
G1 X152.604 Y176.61 E20.75668
G1 X152.194 Y176.523 E20.78704
G1 X151.615 Y176.379 E20.83026
G1 X151.231 Y176.268 E20.85921
G1 X150.656 Y176.078 E20.90308
G1 X150.27 Y175.935 E20.9329
G1 X150 Y175.823 E20.95408
G1 X149.665 Y175.96 E20.9803
G1 X149.278 Y176.101 E21.01013
G1 X148.723 Y176.281 E21.0524
G1 X148.342 Y176.39 E21.08111
G1 X147.739 Y176.538 E21.12608
G1 X147.322 Y176.624 E21.15693
G1 X146.746 Y176.722 E21.19925
G1 X146.356 Y176.774 E21.22776
G1 X145.718 Y176.834 E21.27418
G1 X145.299 Y176.857 E21.30457
G1 X144.684 Y176.867 E21.34913
G1 X144.278 Y176.859 E21.37855
G1 X143.69 Y176.827 E21.42121
G1 X143.285 Y176.79 E21.45067
G1 X142.68 Y176.712 E21.49486
G1 X142.278 Y176.645 E21.52438
G1 X141.638 Y176.512 E21.57173
G1 X141.241 Y176.413 E21.60137
G1 X140.689 Y176.255 E21.64296
G1 X140.304 Y176.13 E21.67229
G1 X139.722 Y175.916 E21.71721
G1 X139.344 Y175.761 E21.7468
G1 X138.784 Y175.507 E21.79135
G1 X138.408 Y175.319 E21.8218
G1 X137.902 Y175.043 E21.86355
G1 X137.56 Y174.841 E21.89233
G1 X137.018 Y174.492 E21.93902
G1 X136.683 Y174.257 E21.96867
G1 X136.169 Y173.865 E22.01549
G1 X135.848 Y173.6 E22.04565
G1 X135.429 Y173.23 E22.08614
G1 X135.13 Y172.947 E22.11596
G1 X134.696 Y172.504 E22.16089
G1 X134.427 Y172.208 E22.18986
G1 X134.038 Y171.747 E22.23356
G1 X133.781 Y171.419 E22.26374
G1 X133.411 Y170.907 E22.30951
G1 X133.189 Y170.574 E22.3385
G1 X132.877 Y170.069 E22.3815
G1 X132.679 Y169.72 E22.41057
G1 X132.398 Y169.179 E22.45473
G1 X132.22 Y168.803 E22.48486
G1 X131.979 Y168.241 E22.52916
G1 X131.829 Y167.852 E22.55936
G1 X131.623 Y167.249 E22.60552
G1 X131.509 Y166.868 E22.63433
G1 X131.366 Y166.321 E22.67529
G1 X131.277 Y165.927 E22.70455
G1 X131.162 Y165.309 E22.75008
G1 X131.102 Y164.901 E22.77996
G1 X131.088 Y164.776 E22.78907
G0 F1620 X131.035 Y164.294
G0 X131.005 Y163.878
G0 X130.984 Y163.265
G0 F6000 X131.644 Y163.266
G1 F1800 X131.645 Y162.857 E22.8187
G1 X131.667 Y162.298 E22.85922
G1 X131.697 Y161.905 E22.88778
