;FLAVOR:Marlin
;TIME:650
;Filament used: 1.19469m
;Layer height: 0.32
;MINX:123.59
;MINY:123.591
;MINZ:0.24
;MAXX:176.41
;MAXY:176.409
;MAXZ:7.28
;Generated with Cura_SteamEngine 5.4.0
M140 S80
M105
M190 S80
M104 S250
M105
M109 S250
M82 ;absolute extrusion mode
; Ender 3 Max Custom Start G-code
G92 E0 ; Reset Extruder
G28 ; Home all axes
G1 Z2.0 F3000 ; Move Z Axis up little to prevent scratching of Heat Bed
G1 X0.1 Y20 Z0.3 F5000.0 ; Move to start position
G1 X0.1 Y200.0 Z0.24 F1500.0 E15 ; Draw the first line
G1 X0.4 Y200.0 Z0.24 F5000.0 ; Move to side a little
G1 X0.4 Y20 Z0.24 F1500.0 E30 ; Draw the second line
G92 E0 ; Reset Extruder
G1 Z2.0 F3000 ; Move Z Axis up little to prevent scratching of Heat Bed
G1 X5 Y20 Z0.3 F5000.0 ; Move over to prevent blob squish
G92 E0
G92 E0
G1 F2100 E-5
;LAYER_COUNT:22
;LAYER:0
M107
G1 F300 Z0.56
G0 F6000 X127.386 Y127.387 Z0.56
;TYPE:SKIRT
G1 F300 Z0.24
G1 F2100 E0
G1 F1800 X128.097 Y126.715 E0.08504
G1 X129.134 Y125.918 E0.19874
G1 X129.449 Y125.706 E0.23174
G1 X130.223 Y125.231 E0.31069
G1 X131.228 Y124.736 E0.40807
G1 X131.661 Y124.55 E0.44904
G1 X132.566 Y124.209 E0.53311
G1 X133.503 Y123.947 E0.61768
G1 X134.599 Y123.751 E0.71447
G1 X135.181 Y123.679 E0.76545
G1 X136.153 Y123.604 E0.85019
G1 X136.734 Y123.591 E0.90071
G1 X163.052 Y123.591 E3.1885
G1 X163.921 Y123.603 E3.26405
G1 X164.886 Y123.662 E3.34809
G1 X165.841 Y123.806 E3.43205
G1 X166.736 Y124.02 E3.51204
G1 X167.284 Y124.177 E3.56159
G1 X168.146 Y124.466 E3.64063
G1 X169.375 Y125.025 E3.75799
G1 X169.791 Y125.246 E3.79894
G1 X170.574 Y125.707 E3.87793
G1 X171.41 Y126.305 E3.96728
G1 X172.19 Y126.979 E4.05689
G1 X172.564 Y127.335 E4.10178
G1 X173.194 Y127.99 E4.18078
G1 X174.055 Y129.096 E4.30262
G1 X174.277 Y129.423 E4.33698
G1 X174.754 Y130.196 E4.41594
G1 X175.261 Y131.219 E4.51519
G1 X175.447 Y131.651 E4.55607
G1 X175.788 Y132.555 E4.64006
G1 X176.051 Y133.493 E4.72474
G1 X176.249 Y134.598 E4.82233
G1 X176.321 Y135.182 E4.87348
G1 X176.398 Y136.221 E4.96405
G1 X176.41 Y136.849 E5.01865
G1 X176.408 Y163.203 E7.30957
G1 X176.397 Y163.918 E7.37173
G1 X176.338 Y164.885 E7.45594
G1 X176.194 Y165.84 E7.5399
G1 X175.976 Y166.752 E7.62141
G1 X175.826 Y167.273 E7.66854
G1 X175.513 Y168.199 E7.75351
G1 X174.993 Y169.34 E7.86251
G1 X174.754 Y169.791 E7.90688
G1 X174.293 Y170.574 E7.98587
G1 X173.695 Y171.412 E8.07536
G1 X173.007 Y172.205 E8.16662
G1 X172.615 Y172.612 E8.21574
G1 X171.905 Y173.284 E8.30073
G1 X170.874 Y174.076 E8.41374
G1 X170.559 Y174.288 E8.44675
G1 X169.785 Y174.764 E8.52573
G1 X168.772 Y175.264 E8.62394
G1 X168.339 Y175.45 E8.6649
G1 X167.434 Y175.791 E8.74897
G1 X166.497 Y176.053 E8.83355
G1 X165.401 Y176.249 E8.93033
G1 X164.819 Y176.321 E8.98131
G1 X163.847 Y176.396 E9.06606
G1 X163.251 Y176.409 E9.11788
G1 X156.872 Y176.408 E9.6724
G1 X156.047 Y176.395 E9.74412
G1 X155.074 Y176.334 E9.82887
G1 X153.93 Y176.15 E9.92959
G1 X153.203 Y175.991 E9.99429
G1 X152.325 Y175.758 E10.07325
G1 X151.1 Y175.298 E10.187
G1 X150.867 Y175.194 E10.20918
G1 X149.801 Y174.646 E10.31337
G1 X149.404 Y174.413 E10.35339
G1 X148.598 Y173.892 E10.43682
G1 X148.07 Y173.492 E10.4944
G1 X147.65 Y173.153 E10.54132
G1 X146.883 Y172.473 E10.63042
G1 X146.411 Y172.013 E10.68771
G1 X127.879 Y153.479 E12.96608
G1 X127.385 Y152.969 E13.0278
G1 X126.599 Y152.071 E13.13154
G1 X125.862 Y151.037 E13.24192
G1 X125.545 Y150.535 E13.29353
G1 X125.093 Y149.746 E13.37258
G1 X124.55 Y148.525 E13.48874
G1 X124.426 Y148.19 E13.51979
G1 X124.079 Y147.075 E13.6213
G1 X123.963 Y146.612 E13.6628
G1 X123.77 Y145.67 E13.74638
G1 X123.663 Y144.803 E13.82232
G1 X123.601 Y143.793 E13.91029
G1 X123.59 Y142.938 E13.98462
G1 X123.592 Y136.791 E14.51897
G1 X123.603 Y136.076 E14.58113
G1 X123.662 Y135.111 E14.66517
G1 X123.806 Y134.154 E14.7493
G1 X124.026 Y133.241 E14.83094
G1 X124.185 Y132.694 E14.88045
G1 X124.5 Y131.77 E14.96532
G1 X125.026 Y130.622 E15.07509
G1 X125.246 Y130.208 E15.11584
G1 X125.707 Y129.425 E15.19483
G1 X126.306 Y128.587 E15.28437
G1 X126.471 Y128.397 E15.30624
G0 F1620 X127.016 Y127.771
G0 X127.386 Y127.387
G0 F6000 X127.841 Y127.865
G1 F1800 X128.5 Y127.238 E15.38532
G1 X129.504 Y126.465 E15.49546
G1 X129.794 Y126.269 E15.52589
G1 X130.568 Y125.794 E15.60483
G1 X131.489 Y125.342 E15.69402
G1 X131.895 Y125.167 E15.73245
G1 X132.745 Y124.844 E15.81149
G1 X133.619 Y124.597 E15.89044
G1 X134.715 Y124.401 E15.98723
G1 X135.232 Y124.337 E16.03251
G1 X136.168 Y124.264 E16.11413
G1 X136.749 Y124.251 E16.16465
G1 X163.043 Y124.251 E18.45035
G1 X163.882 Y124.262 E18.52329
G1 X164.789 Y124.315 E18.60227
G1 X165.688 Y124.448 E18.68127
G1 X166.583 Y124.662 E18.76126
G1 X167.074 Y124.803 E18.80567
G1 X167.936 Y125.092 E18.8847
G1 X169.066 Y125.608 E18.99269
G1 X169.456 Y125.815 E19.03107
G1 X170.239 Y126.276 E19.11005
G1 X170.979 Y126.804 E19.18908
G1 X171.735 Y127.457 E19.27592
G1 X172.088 Y127.793 E19.31828
G1 X172.718 Y128.448 E19.39728
G1 X173.509 Y129.467 E19.50942
G1 X173.715 Y129.77 E19.54127
G1 X174.192 Y130.543 E19.62023
G1 X174.655 Y131.481 E19.71116
G1 X174.83 Y131.886 E19.74951
G1 X175.153 Y132.735 E19.82847
G1 X175.401 Y133.609 E19.90745
G1 X175.599 Y134.714 E20.00503
G1 X175.663 Y135.231 E20.05032
G1 X175.738 Y136.234 E20.13775
G1 X175.75 Y136.849 E20.19122
G1 X175.748 Y163.193 E22.48127
G1 X175.738 Y163.88 E22.541
G1 X175.685 Y164.788 E22.62007
G1 X175.552 Y165.687 E22.69906
G1 X175.341 Y166.571 E22.77807
G1 X175.2 Y167.064 E22.82264
G1 X174.912 Y167.925 E22.90156
G1 X174.392 Y169.066 E23.01056
G1 X174.185 Y169.456 E23.04895
G1 X173.724 Y170.239 E23.12793
G1 X173.196 Y170.979 E23.20696
G1 X172.508 Y171.772 E23.29822
G1 X172.16 Y172.134 E23.34187
G1 X171.502 Y172.761 E23.42088
G1 X170.504 Y173.529 E23.53035
G1 X170.213 Y173.726 E23.56089
G1 X169.439 Y174.202 E23.63988
G1 X168.511 Y174.658 E23.72977
G1 X168.105 Y174.833 E23.7682
G1 X167.255 Y175.156 E23.84724
G1 X166.381 Y175.403 E23.92619
G1 X165.285 Y175.599 E24.02298
G1 X164.768 Y175.663 E24.06826
G1 X163.832 Y175.736 E24.14988
G1 X163.251 Y175.749 E24.20039
G1 X156.882 Y175.748 E24.75404
G1 X156.086 Y175.736 E24.82325
G1 X155.179 Y175.682 E24.90223
G1 X154.035 Y175.498 E25.00295
G1 X153.372 Y175.353 E25.06195
G1 X152.494 Y175.12 E25.14092
G1 X151.369 Y174.695 E25.24546
G1 X151.136 Y174.591 E25.26764
G1 X150.134 Y174.076 E25.36557
G1 X149.761 Y173.858 E25.40313
G1 X148.997 Y173.366 E25.48212
G1 X148.485 Y172.978 E25.53796
G1 X148.065 Y172.639 E25.58488
G1 X147.344 Y172 E25.66863
G1 X146.878 Y171.546 E25.72519
G1 X128.352 Y153.019 E28.00276
G1 X127.88 Y152.533 E28.06165
G1 X127.136 Y151.688 E28.15952
G1 X126.42 Y150.684 E28.26671
G1 X126.118 Y150.207 E28.31579
G1 X125.666 Y149.418 E28.39483
G1 X125.168 Y148.294 E28.5017
G1 X125.056 Y147.994 E28.52954
G1 X124.719 Y146.913 E28.62797
G1 X124.609 Y146.478 E28.66697
G1 X124.425 Y145.588 E28.74598
G1 X124.322 Y144.762 E28.81834
G1 X124.261 Y143.784 E28.90352
G1 X124.25 Y142.938 E28.97707
G1 X124.252 Y136.801 E29.51055
G1 X124.262 Y136.115 E29.57019
G1 X124.315 Y135.208 E29.64917
G1 X124.448 Y134.309 E29.72816
G1 X124.668 Y133.396 E29.8098
G1 X124.81 Y132.905 E29.85423
G1 X125.1 Y132.044 E29.93321
G1 X125.609 Y130.931 E30.0396
G1 X125.815 Y130.543 E30.07779
G1 X126.276 Y129.76 E30.15677
G1 X126.804 Y129.02 E30.2358
G1 X126.928 Y128.877 E30.25225
G0 F1620 X127.492 Y128.228
G0 X127.841 Y127.865
G1 F2100 E25.25225
G1 F300 Z0.56
;MESH:corner_panel_clip_4mm_x8.stl
G0 F6000 X136.481 Y141.594 Z0.56
;TYPE:WALL-INNER
G1 F300 Z0.24
G1 F2100 E30.25225
G1 F1049.5 X136.452 Y142.017 E30.30972
G1 F1087.9 X136.44 Y142.53 E30.37681
G1 F1090.9 X136.451 Y143.021 E30.44085
G1 F2100 E25.44085
G1 F300 Z0.56
G0 F6000 X163.852 Y164.388 Z0.56
G1 F300 Z0.24
G1 F2100 E30.44085
G1 F1800 X164.31 Y163.999 E30.48834
G1 X164.429 Y163.6 E30.52124
G1 X164.429 Y136.545 E32.65929
G1 X164.389 Y136.147 E32.6909
G1 X163.999 Y135.69 E32.73838
G1 X163.6 Y135.571 E32.77129
G1 X136.545 Y135.571 E34.90934
G1 X136.147 Y135.611 E34.94095
G1 X135.69 Y136.001 E34.98843
G1 X135.571 Y136.4 E35.02133
G1 X135.57 Y143.686 E35.59711
G1 X135.692 Y144.184 E35.63763
G1 X135.963 Y144.621 E35.67827
G1 X155.249 Y163.907 E37.83367
G1 X155.484 Y164.104 E37.8579
G1 X155.827 Y164.314 E37.88968
G1 X156.315 Y164.429 E37.9293
G1 X162.491 Y164.43 E38.41737
G0 F1620 X163.455 Y164.43
G0 X163.852 Y164.388
G1 F2100 E33.41737
G1 F300 Z0.56
G0 F6000 X158.18 Y163.539 Z0.56
G1 F300 Z0.24
G1 F2100 E38.41737
G1 F1075.1 X157.887 Y163.554 E38.45619
G1 F1093.9 X157.445 Y163.56 E38.51367
G1 F1089.9 X157.033 Y163.547 E38.56746
G1 F2100 E33.56746
G1 F300 Z0.56
G0 F6000 X154.869 Y162.585 Z0.56
G1 F300 Z0.24
G1 F2100 E38.56746
G1 F1873.8 X155.308 Y163.074 E38.61735
G1 F1986.6 X155.783 Y163.552 E38.6656
G1 X156.104 Y163.733 E38.69199
G1 F1983.3 X156.42 Y163.807 E38.71527
G1 F1697.1 X156.672 Y163.698 E38.73828
G1 F1251.8 X157.033 Y163.547 E38.78274
G1 X156.695 Y163.354 E38.82697
G1 F1704.4 X156.501 Y163.211 E38.84708
G1 F1993.3 X156.276 Y163.16 E38.86355
G1 F1986.6 X155.907 Y163.048 E38.89116
G1 X155.575 Y162.919 E38.91666
G1 F1925.4 X155.105 Y162.709 E38.95469
G1 F1819.3 X154.869 Y162.585 E38.97554
G1 F1882.7 X154.456 Y162.23 E39.01668
G1 F2058.9 X154.098 Y161.897 E39.05046
G1 F2013.6 X153.626 Y161.381 E39.09987
G1 F1879.7 X153.372 Y161.042 E39.13192
G1 F1819.3 X153.236 Y160.823 E39.15208
G1 F1800 X152.908 Y160.144 E39.21167
G1 X152.719 Y159.362 E39.27525
G1 X152.668 Y158.965 E39.30688
G1 X152.651 Y158.571 E39.33804
G1 X152.662 Y158.17 E39.36974
G1 X152.704 Y157.778 E39.4009
G1 X152.776 Y157.4 E39.43131
G1 X152.886 Y157.005 E39.46371
G1 X153.019 Y156.645 E39.49404
G1 X153.175 Y156.305 E39.5236
G1 X153.367 Y155.964 E39.55453
G1 X153.603 Y155.614 E39.58789
G1 X153.861 Y155.294 E39.62037
G1 X154.19 Y154.95 E39.65799
G1 X154.373 Y154.789 E39.67725
G1 X154.925 Y154.372 E39.73192
G1 X155.48 Y154.09 E39.78112
G1 X155.916 Y153.915 E39.81824
G1 X156.293 Y153.802 E39.84935
G1 X156.594 Y153.734 E39.87373
G1 X157.21 Y153.651 E39.92285
G1 X157.842 Y153.663 E39.97281
G1 X158.329 Y153.713 E40.0115
G1 X158.952 Y153.866 E40.06219
G1 X159.42 Y154.041 E40.10168
G1 X159.647 Y154.147 E40.12147
G1 X160.077 Y154.388 E40.16043
G1 X160.284 Y154.525 E40.18005
G1 X160.604 Y154.774 E40.21209
G1 X160.903 Y155.044 E40.24393
G1 X161.26 Y155.428 E40.28536
G1 X161.422 Y155.637 E40.30626
G1 X161.714 Y156.1 E40.34951
G1 X161.902 Y156.465 E40.38196
G1 X162 Y156.691 E40.40143
G1 X162.129 Y157.047 E40.43135
G1 X162.261 Y157.554 E40.47275
G1 X162.304 Y157.808 E40.49311
G1 X162.357 Y158.47 E40.54559
G1 X162.323 Y159.006 E40.58804
G1 X162.261 Y159.434 E40.62221
G1 X162.173 Y159.796 E40.65165
G1 X162.054 Y160.171 E40.68274
G1 X161.844 Y160.657 E40.72458
G1 X161.66 Y160.993 E40.75486
G1 X161.427 Y161.347 E40.78835
G1 X161.204 Y161.63 E40.81682
G1 X160.925 Y161.934 E40.84943
G1 X160.63 Y162.206 E40.88114
G1 X160.437 Y162.362 E40.90075
G1 X160.104 Y162.592 E40.93273
G1 X159.753 Y162.795 E40.96478
G1 X159.401 Y162.962 E40.99556
G1 X158.896 Y163.151 E41.03818
G1 F1706.9 X158.64 Y163.257 E41.06127
G1 F1433.1 X158.41 Y163.398 E41.08805
G1 F1161.3 X158.18 Y163.539 E41.12109
G1 X158.431 Y163.636 E41.15405
G1 F1433.1 X158.683 Y163.733 E41.18086
G1 F1706.9 X159.003 Y163.768 E41.20768
G1 F1800 X163.544 Y163.77 E41.56654
G1 X163.712 Y163.654 E41.58267
G1 X163.769 Y163.504 E41.59535
G1 X163.769 Y136.46 E43.73254
G1 X163.654 Y136.288 E43.74889
G1 X163.504 Y136.231 E43.76157
G1 X136.46 Y136.231 E45.89875
G1 X136.288 Y136.346 E45.9151
G1 X136.231 Y136.496 E45.92778
G1 X136.231 Y140.911 E46.27668
G1 F1609.8 X136.309 Y141.185 E46.30185
G1 F1202.4 X136.481 Y141.594 E46.35434
G1 F1126.1 X136.634 Y141.371 E46.38851
G1 F1343.9 X136.734 Y141.246 E46.40545
G1 F1609.8 X136.886 Y141.005 E46.43063
G1 F1800 X137.067 Y140.532 E46.47065
G1 X137.236 Y140.189 E46.50087
G1 X137.44 Y139.848 E46.53227
G1 X137.602 Y139.614 E46.55476
G1 X137.861 Y139.293 E46.58736
G1 X138.19 Y138.95 E46.62492
G1 X138.373 Y138.789 E46.64418
G1 X138.809 Y138.458 E46.68744
G1 X139.06 Y138.302 E46.71079
G1 X139.552 Y138.058 E46.75419
G1 X139.916 Y137.915 E46.7851
G1 X140.293 Y137.802 E46.8162
G1 X140.619 Y137.729 E46.8426
G1 X141.088 Y137.668 E46.87998
G1 X141.472 Y137.651 E46.91035
G1 X141.842 Y137.663 E46.93961
G1 X142.332 Y137.712 E46.97852
G1 X142.964 Y137.87 E47.03
G1 X143.42 Y138.041 E47.06849
G1 X143.647 Y138.147 E47.08829
G1 X144.077 Y138.388 E47.12724
G1 X144.284 Y138.525 E47.14686
G1 X144.604 Y138.774 E47.1789
G1 X144.903 Y139.043 E47.21069
G1 X145.259 Y139.427 E47.25207
G1 X145.421 Y139.637 E47.27303
G1 X145.714 Y140.1 E47.31633
G1 X145.904 Y140.467 E47.34898
G1 X146.049 Y140.817 E47.37892
G1 X146.172 Y141.197 E47.41049
G1 X146.27 Y141.591 E47.44257
G1 X146.313 Y141.856 E47.46379
G1 X146.357 Y142.467 E47.5122
G1 X146.324 Y142.992 E47.55377
G1 X146.251 Y143.482 E47.59292
G1 X146.163 Y143.833 E47.62152
G1 X146.035 Y144.222 E47.65388
G1 X145.904 Y144.534 E47.68062
G1 X145.691 Y144.941 E47.71692
G1 X145.457 Y145.307 E47.75125
G1 X145.204 Y145.63 E47.78367
G1 X144.925 Y145.934 E47.81628
G1 X144.63 Y146.206 E47.84799
G1 X144.32 Y146.447 E47.87902
G1 X144.011 Y146.649 E47.9082
G1 X143.687 Y146.833 E47.93764
G1 X143.45 Y146.945 E47.95836
G1 X142.913 Y147.14 E48.00351
G1 X142.521 Y147.242 E48.03552
G1 X142.158 Y147.309 E48.06469
G1 X141.903 Y147.337 E48.08496
G1 X141.34 Y147.347 E48.12946
G1 X141.092 Y147.332 E48.14909
G1 X140.712 Y147.285 E48.17935
G1 X140.307 Y147.201 E48.21204
G1 X139.789 Y147.043 E48.25483
G1 X139.548 Y146.945 E48.27539
G1 F1802.7 X139.19 Y146.764 E48.30705
G1 F1813.7 X138.776 Y146.509 E48.34518
G1 X139.128 Y146.851 E48.38367
G1 F1802.7 X153.156 Y160.879 E49.94906
G1 F1859.2 X153.626 Y161.381 E50.00168
G0 F6000 X153.404 Y159.45
G1 F1800 X153.419 Y159.434 E50.00341
G1 X153.331 Y159.019 E50.03694
G1 X153.31 Y158.542 E50.07467
G1 X153.321 Y158.198 E50.10187
G1 X153.372 Y157.777 E50.13538
G1 X153.442 Y157.453 E50.16158
G1 X153.546 Y157.111 E50.18983
G1 X153.634 Y156.884 E50.20906
G1 X153.771 Y156.589 E50.23477
G1 X153.938 Y156.294 E50.26156
G1 X154.145 Y155.991 E50.29056
G1 X154.369 Y155.715 E50.31865
G1 X154.71 Y155.361 E50.35749
G1 X155.278 Y154.932 E50.41374
G1 X155.762 Y154.687 E50.45661
G1 X156.112 Y154.545 E50.48646
G1 X156.417 Y154.451 E50.51168
G1 X156.718 Y154.382 E50.53609
G1 X157.25 Y154.31 E50.57851
G1 X157.776 Y154.32 E50.62009
G1 X158.222 Y154.365 E50.65551
G1 X158.812 Y154.518 E50.70368
G1 X159.254 Y154.684 E50.74099
G1 X159.824 Y155.003 E50.79261
G1 X160.199 Y155.295 E50.83017
G1 X160.511 Y155.585 E50.86383
G1 X160.833 Y155.941 E50.90177
G1 X161.131 Y156.409 E50.94561
G1 X161.297 Y156.728 E50.97403
G1 X161.423 Y157.026 E50.9996
G1 X161.528 Y157.343 E51.02599
G1 X161.641 Y157.794 E51.06273
G1 X161.697 Y158.47 E51.11633
G1 X161.664 Y158.958 E51.15499
G1 X161.61 Y159.32 E51.18391
G1 X161.513 Y159.701 E51.21498
G1 X161.427 Y159.964 E51.23685
G1 X161.262 Y160.346 E51.26973
G1 X161.102 Y160.64 E51.29618
G1 X160.905 Y160.944 E51.32481
G1 X160.757 Y161.136 E51.34397
G1 X160.528 Y161.396 E51.37135
G1 X160.278 Y161.638 E51.39884
G1 X160.024 Y161.847 E51.42484
G1 X159.736 Y162.044 E51.45241
G1 X159.43 Y162.219 E51.48027
G1 X159.126 Y162.362 E51.50682
G1 F1802.7 X158.597 Y162.558 E51.55133
G1 X157.942 Y162.678 E51.60388
G1 F1800 X157.388 Y162.688 E51.64767
G1 F1802.7 X157.049 Y162.666 E51.67447
G1 X156.796 Y162.631 E51.69462
G1 F1800 X156.455 Y162.557 E51.7222
G1 X156.104 Y162.451 E51.75117
G1 X155.812 Y162.336 E51.77598
G1 X155.32 Y162.091 E51.81941
G1 X154.929 Y161.808 E51.85755
G1 X154.529 Y161.469 E51.89899
G1 X154.208 Y161.093 E51.93806
G1 X153.866 Y160.61 E51.98483
G1 X153.742 Y160.355 E52.00724
G0 F1620 X153.502 Y159.857
G0 X153.404 Y159.45
G1 F2100 E47.00724
G1 F300 Z0.56
G0 F6000 X138.755 Y146.489 Z0.56
G1 F300 Z0.24
G1 F2100 E52.00724
G1 F1897.8 X138.552 Y146.316 E52.02723
G1 F2034.2 X138.097 Y145.896 E52.07053
G1 F2013.6 X137.626 Y145.381 E52.11983
G1 F1973.4 X137.397 Y145.025 E52.15034
G1 F2044.8 X137.274 Y144.804 E52.16794
G1 F2066.1 X136.896 Y144.021 E52.2278
G1 F2062.5 X136.817 Y143.749 E52.24733
G1 F1786.5 X136.778 Y143.534 E52.26473
