;FLAVOR:Marlin
;TIME:800
;Filament used: 1.3804m
;Layer height: 0.24
;MINX:123.59
;MINY:123.591
;MINZ:0.24
;MAXX:176.41
;MAXY:176.409
;MAXZ:7.28
;Generated with Cura_SteamEngine 5.4.0
M140 S80
M105
M190 S80
M104 S250
M105
M109 S250
M82 ;absolute extrusion mode
; Ender 3 Max Custom Start G-code
G92 E0 ; Reset Extruder
G28 ; Home all axes
G1 Z2.0 F3000 ; Move Z Axis up little to prevent scratching of Heat Bed
G1 X0.1 Y20 Z0.3 F5000.0 ; Move to start position
G1 X0.1 Y200.0 Z0.24 F1500.0 E15 ; Draw the first line
G1 X0.4 Y200.0 Z0.24 F5000.0 ; Move to side a little
G1 X0.4 Y20 Z0.24 F1500.0 E30 ; Draw the second line
G92 E0 ; Reset Extruder
G1 Z2.0 F3000 ; Move Z Axis up little to prevent scratching of Heat Bed
G1 X5 Y20 Z0.3 F5000.0 ; Move over to prevent blob squish
G92 E0
G92 E0
G1 F2100 E-5
;LAYER_COUNT:29
;LAYER:0
M107
G1 F300 Z0.56
G0 F6000 X127.386 Y127.387 Z0.56
;TYPE:SKIRT
G1 F300 Z0.24
G1 F2100 E0
G1 F1800 X128.097 Y126.715 E0.09278
G1 X129.134 Y125.918 E0.2168
G1 X129.449 Y125.706 E0.25281
G1 X130.223 Y125.231 E0.33893
G1 X131.228 Y124.736 E0.44517
G1 X131.661 Y124.55 E0.48986
G1 X132.566 Y124.209 E0.58157
G1 X133.503 Y123.947 E0.67384
G1 X134.599 Y123.751 E0.77942
G1 X135.181 Y123.679 E0.83503
G1 X136.153 Y123.604 E0.92748
G1 X136.734 Y123.591 E0.98259
G1 X163.052 Y123.591 E3.47836
G1 X163.921 Y123.603 E3.56078
G1 X164.886 Y123.662 E3.65246
G1 X165.841 Y123.806 E3.74405
G1 X166.736 Y124.02 E3.83132
G1 X167.284 Y124.177 E3.88538
G1 X168.146 Y124.466 E3.97159
G1 X169.375 Y125.025 E4.09963
G1 X169.791 Y125.246 E4.1443
G1 X170.574 Y125.707 E4.23047
G1 X171.41 Y126.305 E4.32794
G1 X172.19 Y126.979 E4.4257
G1 X172.564 Y127.335 E4.47466
G1 X173.194 Y127.99 E4.56085
G1 X174.055 Y129.096 E4.69377
G1 X174.277 Y129.423 E4.73125
G1 X174.754 Y130.196 E4.81738
G1 X175.261 Y131.219 E4.92566
G1 X175.447 Y131.651 E4.97026
G1 X175.788 Y132.555 E5.06188
G1 X176.051 Y133.493 E5.15427
G1 X176.249 Y134.598 E5.26072
G1 X176.321 Y135.182 E5.31652
G1 X176.398 Y136.221 E5.41532
G1 X176.41 Y136.849 E5.47489
G1 X176.408 Y163.203 E7.97407
G1 X176.397 Y163.918 E8.04189
G1 X176.338 Y164.885 E8.13376
G1 X176.194 Y165.84 E8.22535
G1 X175.976 Y166.752 E8.31427
G1 X175.826 Y167.273 E8.36568
G1 X175.513 Y168.199 E8.45838
G1 X174.993 Y169.34 E8.57729
G1 X174.754 Y169.791 E8.62569
G1 X174.293 Y170.574 E8.71186
G1 X173.695 Y171.412 E8.80948
G1 X173.007 Y172.205 E8.90904
G1 X172.615 Y172.612 E8.96263
G1 X171.905 Y173.284 E9.05534
G1 X170.874 Y174.076 E9.17863
G1 X170.559 Y174.288 E9.21463
G1 X169.785 Y174.764 E9.3008
G1 X168.772 Y175.264 E9.40793
G1 X168.339 Y175.45 E9.45262
G1 X167.434 Y175.791 E9.54433
G1 X166.497 Y176.053 E9.6366
G1 X165.401 Y176.249 E9.74218
G1 X164.819 Y176.321 E9.79779
G1 X163.847 Y176.396 E9.89024
G1 X163.251 Y176.409 E9.94678
G1 X156.872 Y176.408 E10.55171
G1 X156.047 Y176.395 E10.62995
G1 X155.074 Y176.334 E10.7224
G1 X153.93 Y176.15 E10.83228
G1 X153.203 Y175.991 E10.90286
G1 X152.325 Y175.758 E10.989
G1 X151.1 Y175.298 E11.11309
G1 X150.867 Y175.194 E11.13729
G1 X149.801 Y174.646 E11.25095
G1 X149.404 Y174.413 E11.2946
G1 X148.598 Y173.892 E11.38562
G1 X148.07 Y173.492 E11.44843
G1 X147.65 Y173.153 E11.49962
G1 X146.883 Y172.473 E11.59682
G1 X146.411 Y172.013 E11.65932
G1 X127.879 Y153.479 E14.14482
G1 X127.385 Y152.969 E14.21215
G1 X126.599 Y152.071 E14.32532
G1 X125.862 Y151.037 E14.44574
G1 X125.545 Y150.535 E14.50204
G1 X125.093 Y149.746 E14.58827
G1 X124.55 Y148.525 E14.71499
G1 X124.426 Y148.19 E14.74887
G1 X124.079 Y147.075 E14.8596
G1 X123.963 Y146.612 E14.90487
G1 X123.77 Y145.67 E14.99606
G1 X123.663 Y144.803 E15.0789
G1 X123.601 Y143.793 E15.17486
G1 X123.59 Y142.938 E15.25594
G1 X123.592 Y136.791 E15.83887
G1 X123.603 Y136.076 E15.90669
G1 X123.662 Y135.111 E15.99837
G1 X123.806 Y134.154 E16.09014
G1 X124.026 Y133.241 E16.1792
G1 X124.185 Y132.694 E16.23322
G1 X124.5 Y131.77 E16.3258
G1 X125.026 Y130.622 E16.44555
G1 X125.246 Y130.208 E16.49001
G1 X125.707 Y129.425 E16.57617
G1 X126.306 Y128.587 E16.67386
G1 X126.471 Y128.397 E16.69772
G0 F1620 X127.016 Y127.771
G0 X127.386 Y127.387
G0 F6000 X127.841 Y127.865
G1 F1800 X128.5 Y127.238 E16.78398
G1 X129.504 Y126.465 E16.90414
G1 X129.794 Y126.269 E16.93734
G1 X130.568 Y125.794 E17.02345
G1 X131.489 Y125.342 E17.12075
G1 X131.895 Y125.167 E17.16267
G1 X132.745 Y124.844 E17.2489
G1 X133.619 Y124.597 E17.33503
G1 X134.715 Y124.401 E17.44061
G1 X135.232 Y124.337 E17.49002
G1 X136.168 Y124.264 E17.57905
G1 X136.749 Y124.251 E17.63416
G1 X163.043 Y124.251 E20.12765
G1 X163.882 Y124.262 E20.20722
G1 X164.789 Y124.315 E20.29338
G1 X165.688 Y124.448 E20.37956
G1 X166.583 Y124.662 E20.46683
G1 X167.074 Y124.803 E20.51527
G1 X167.936 Y125.092 E20.60149
G1 X169.066 Y125.608 E20.71929
G1 X169.456 Y125.815 E20.76116
G1 X170.239 Y126.276 E20.84733
G1 X170.979 Y126.804 E20.93354
G1 X171.735 Y127.457 E21.02827
G1 X172.088 Y127.793 E21.07449
G1 X172.718 Y128.448 E21.16067
G1 X173.509 Y129.467 E21.283
G1 X173.715 Y129.77 E21.31775
G1 X174.192 Y130.543 E21.40388
G1 X174.655 Y131.481 E21.50308
G1 X174.83 Y131.886 E21.54492
G1 X175.153 Y132.735 E21.63106
G1 X175.401 Y133.609 E21.71722
G1 X175.599 Y134.714 E21.82367
G1 X175.663 Y135.231 E21.87308
G1 X175.738 Y136.234 E21.96846
G1 X175.75 Y136.849 E22.02679
G1 X175.748 Y163.193 E24.52503
G1 X175.738 Y163.88 E24.59018
G1 X175.685 Y164.788 E24.67644
G1 X175.552 Y165.687 E24.76262
G1 X175.341 Y166.571 E24.8488
G1 X175.2 Y167.064 E24.89743
G1 X174.912 Y167.925 E24.98352
G1 X174.392 Y169.066 E25.10243
G1 X174.185 Y169.456 E25.14431
G1 X173.724 Y170.239 E25.23047
G1 X173.196 Y170.979 E25.31668
G1 X172.508 Y171.772 E25.41624
G1 X172.16 Y172.134 E25.46386
G1 X171.502 Y172.761 E25.55005
G1 X170.504 Y173.529 E25.66947
G1 X170.213 Y173.726 E25.70279
G1 X169.439 Y174.202 E25.78896
G1 X168.511 Y174.658 E25.88702
G1 X168.105 Y174.833 E25.92894
G1 X167.255 Y175.156 E26.01517
G1 X166.381 Y175.403 E26.1013
G1 X165.285 Y175.599 E26.20689
G1 X164.768 Y175.663 E26.25629
G1 X163.832 Y175.736 E26.34532
G1 X163.251 Y175.749 E26.40043
G1 X156.882 Y175.748 E27.00441
G1 X156.086 Y175.736 E27.07991
G1 X155.179 Y175.682 E27.16607
G1 X154.035 Y175.498 E27.27595
G1 X153.372 Y175.353 E27.34031
G1 X152.494 Y175.12 E27.42645
G1 X151.369 Y174.695 E27.5405
G1 X151.136 Y174.591 E27.56469
G1 X150.134 Y174.076 E27.67153
G1 X149.761 Y173.858 E27.7125
G1 X148.997 Y173.366 E27.79868
G1 X148.485 Y172.978 E27.8596
G1 X148.065 Y172.639 E27.91078
G1 X147.344 Y172 E28.00214
G1 X146.878 Y171.546 E28.06384
G1 X128.352 Y153.019 E30.54846
G1 X127.88 Y152.533 E30.61271
G1 X127.136 Y151.688 E30.71947
G1 X126.42 Y150.684 E30.83641
G1 X126.118 Y150.207 E30.88995
G1 X125.666 Y149.418 E30.97618
G1 X125.168 Y148.294 E31.09277
G1 X125.056 Y147.994 E31.12313
G1 X124.719 Y146.913 E31.23051
G1 X124.609 Y146.478 E31.27306
G1 X124.425 Y145.588 E31.35925
G1 X124.322 Y144.762 E31.43819
G1 X124.261 Y143.784 E31.53111
G1 X124.25 Y142.938 E31.61134
G1 X124.252 Y136.801 E32.19332
G1 X124.262 Y136.115 E32.25839
G1 X124.315 Y135.208 E32.34454
G1 X124.448 Y134.309 E32.43073
G1 X124.668 Y133.396 E32.51978
G1 X124.81 Y132.905 E32.56825
G1 X125.1 Y132.044 E32.65441
G1 X125.609 Y130.931 E32.77047
G1 X125.815 Y130.543 E32.81213
G1 X126.276 Y129.76 E32.8983
G1 X126.804 Y129.02 E32.98451
G1 X126.928 Y128.877 E33.00245
G0 F1620 X127.492 Y128.228
G0 X127.841 Y127.865
G1 F2100 E28.00245
G1 F300 Z0.56
;MESH:corner_panel_clip_4mm_x8.stl
G0 F6000 X136.481 Y141.594 Z0.56
;TYPE:WALL-INNER
G1 F300 Z0.24
G1 F2100 E33.00245
G1 F1049.5 X136.452 Y142.017 E33.07142
G1 F1087.9 X136.44 Y142.53 E33.15193
G1 F1090.9 X136.451 Y143.021 E33.22878
G1 F2100 E28.22878
G1 F300 Z0.56
G0 F6000 X163.852 Y164.388 Z0.56
G1 F300 Z0.24
G1 F2100 E33.22878
G1 F1800 X164.31 Y163.999 E33.28576
G1 X164.429 Y163.6 E33.32525
G1 X164.429 Y136.545 E35.89091
G1 X164.389 Y136.147 E35.92884
G1 X163.999 Y135.69 E35.98581
G1 X163.6 Y135.571 E36.0253
G1 X136.545 Y135.571 E38.59096
G1 X136.147 Y135.611 E38.62889
G1 X135.69 Y136.001 E38.68587
G1 X135.571 Y136.4 E38.72535
G1 X135.57 Y143.686 E39.41629
G1 X135.692 Y144.184 E39.46491
G1 X135.963 Y144.621 E39.51368
G1 X155.249 Y163.907 E42.10015
G1 X155.484 Y164.104 E42.12923
G1 X155.827 Y164.314 E42.16737
G1 X156.315 Y164.429 E42.21492
G1 X162.491 Y164.43 E42.8006
G0 F1620 X163.455 Y164.43
G0 X163.852 Y164.388
G1 F2100 E37.8006
G1 F300 Z0.56
G0 F6000 X158.18 Y163.539 Z0.56
G1 F300 Z0.24
G1 F2100 E42.8006
G1 F1075.1 X157.887 Y163.554 E42.84718
G1 F1093.9 X157.445 Y163.56 E42.91615
G1 F1089.9 X157.033 Y163.547 E42.98071
G1 F2100 E37.98071
G1 F300 Z0.56
G0 F6000 X154.869 Y162.585 Z0.56
G1 F300 Z0.24
G1 F2100 E42.98071
G1 F1882.7 X154.456 Y162.23 E43.03009
G1 F2058.9 X154.098 Y161.897 E43.07062
G1 F2013.6 X153.626 Y161.381 E43.12991
G1 F1879.7 X153.372 Y161.042 E43.16837
G1 F1819.3 X153.236 Y160.823 E43.19256
G1 F1800 X152.908 Y160.144 E43.26407
G1 X152.719 Y159.362 E43.34036
G1 X152.668 Y158.965 E43.37832
G1 X152.651 Y158.571 E43.41572
G1 X152.662 Y158.17 E43.45376
G1 X152.704 Y157.778 E43.49115
G1 X152.776 Y157.4 E43.52764
G1 X152.886 Y157.005 E43.56652
G1 X153.019 Y156.645 E43.60292
G1 X153.175 Y156.305 E43.63839
G1 X153.367 Y155.964 E43.6755
G1 X153.603 Y155.614 E43.71553
G1 X153.861 Y155.294 E43.75451
G1 X154.19 Y154.95 E43.79965
G1 X154.373 Y154.789 E43.82277
G1 X154.925 Y154.372 E43.88837
G1 X155.48 Y154.09 E43.94741
G1 X155.916 Y153.915 E43.99196
G1 X156.293 Y153.802 E44.02928
G1 X156.594 Y153.734 E44.05855
G1 X157.21 Y153.651 E44.11749
G1 X157.842 Y153.663 E44.17744
G1 X158.329 Y153.713 E44.22386
G1 X158.952 Y153.866 E44.2847
G1 X159.42 Y154.041 E44.33208
G1 X159.647 Y154.147 E44.35584
G1 X160.077 Y154.388 E44.40258
G1 X160.284 Y154.525 E44.42612
G1 X160.604 Y154.774 E44.46457
G1 X160.903 Y155.044 E44.50278
G1 X161.26 Y155.428 E44.5525
G1 X161.422 Y155.637 E44.57758
G1 X161.714 Y156.1 E44.62948
G1 X161.902 Y156.465 E44.66842
G1 X162 Y156.691 E44.69178
G1 X162.129 Y157.047 E44.72769
G1 X162.261 Y157.554 E44.77737
G1 X162.304 Y157.808 E44.8018
G1 X162.357 Y158.47 E44.86478
G1 X162.323 Y159.006 E44.91571
G1 X162.261 Y159.434 E44.95672
G1 X162.173 Y159.796 E44.99205
G1 X162.054 Y160.171 E45.02936
G1 X161.844 Y160.657 E45.07957
G1 X161.66 Y160.993 E45.1159
G1 X161.427 Y161.347 E45.15608
G1 X161.204 Y161.63 E45.19025
G1 X160.925 Y161.934 E45.22938
G1 X160.63 Y162.206 E45.26743
G1 X160.437 Y162.362 E45.29097
G1 X160.104 Y162.592 E45.32935
G1 X159.753 Y162.795 E45.3678
G1 X159.401 Y162.962 E45.40475
G1 X158.896 Y163.151 E45.45588
G1 F1706.9 X158.64 Y163.257 E45.48359
G1 F1433.1 X158.41 Y163.398 E45.51572
G1 F1161.3 X158.18 Y163.539 E45.55538
G1 X158.431 Y163.636 E45.59493
G1 F1433.1 X158.683 Y163.733 E45.62709
G1 F1706.9 X159.003 Y163.768 E45.65929
G1 F1800 X163.544 Y163.77 E46.08991
G1 X163.712 Y163.654 E46.10928
G1 X163.769 Y163.504 E46.12449
G1 X163.769 Y136.46 E48.68911
G1 X163.654 Y136.288 E48.70873
G1 X163.504 Y136.231 E48.72395
G1 X136.46 Y136.231 E51.28857
G1 X136.288 Y136.346 E51.30819
G1 X136.231 Y136.496 E51.3234
G1 X136.231 Y140.911 E51.74208
G1 F1609.8 X136.309 Y141.185 E51.77229
G1 F1202.4 X136.481 Y141.594 E51.83528
G1 F1126.1 X136.634 Y141.371 E51.87627
G1 F1343.9 X136.734 Y141.246 E51.89661
G1 F1609.8 X136.886 Y141.005 E51.92682
G1 F1800 X137.067 Y140.532 E51.97485
G1 X137.236 Y140.189 E52.01111
G1 X137.44 Y139.848 E52.04879
G1 X137.602 Y139.614 E52.07578
G1 X137.861 Y139.293 E52.11489
G1 X138.19 Y138.95 E52.15997
G1 X138.373 Y138.789 E52.18308
G1 X138.809 Y138.458 E52.23499
G1 X139.06 Y138.302 E52.26302
G1 X139.552 Y138.058 E52.3151
G1 X139.916 Y137.915 E52.35218
G1 X140.293 Y137.802 E52.38951
G1 X140.619 Y137.729 E52.42119
G1 X141.088 Y137.668 E52.46604
G1 X141.472 Y137.651 E52.50249
G1 X141.842 Y137.663 E52.53759
G1 X142.332 Y137.712 E52.58429
G1 X142.964 Y137.87 E52.64607
G1 X143.42 Y138.041 E52.69225
G1 X143.647 Y138.147 E52.71601
G1 X144.077 Y138.388 E52.76276
G1 X144.284 Y138.525 E52.7863
G1 X144.604 Y138.774 E52.82475
G1 X144.903 Y139.043 E52.86289
G1 X145.259 Y139.427 E52.91255
G1 X145.421 Y139.637 E52.9377
G1 X145.714 Y140.1 E52.98966
G1 X145.904 Y140.467 E53.02885
G1 X146.049 Y140.817 E53.06478
G1 X146.172 Y141.197 E53.10265
G1 X146.27 Y141.591 E53.14115
G1 X146.313 Y141.856 E53.16661
G1 X146.357 Y142.467 E53.2247
G1 X146.324 Y142.992 E53.27459
G1 X146.251 Y143.482 E53.32157
G1 X146.163 Y143.833 E53.35589
G1 X146.035 Y144.222 E53.39472
G1 X145.904 Y144.534 E53.42681
G1 X145.691 Y144.941 E53.47037
G1 X145.457 Y145.307 E53.51157
G1 X145.204 Y145.63 E53.55048
G1 X144.925 Y145.934 E53.58961
G1 X144.63 Y146.206 E53.62766
G1 X144.32 Y146.447 E53.66489
G1 X144.011 Y146.649 E53.6999
G1 X143.687 Y146.833 E53.73524
G1 X143.45 Y146.945 E53.7601
G1 X142.913 Y147.14 E53.81427
G1 X142.521 Y147.242 E53.85269
G1 X142.158 Y147.309 E53.88769
G1 X141.903 Y147.337 E53.91202
G1 X141.34 Y147.347 E53.96542
G1 X141.092 Y147.332 E53.98898
G1 X140.712 Y147.285 E54.02529
G1 X140.307 Y147.201 E54.06451
G1 X139.789 Y147.043 E54.11587
G1 X139.548 Y146.945 E54.14054
G1 F1802.7 X139.19 Y146.764 E54.17853
G1 F1813.7 X138.776 Y146.509 E54.22429
G1 X139.128 Y146.851 E54.27047
G1 F1802.7 X153.156 Y160.879 E56.14894
G1 F1859.2 X153.626 Y161.381 E56.21208
G0 F6000 X154.869 Y162.585
G1 F1873.8 X155.308 Y163.074 E56.27195
G1 F1986.6 X155.783 Y163.552 E56.32985
G1 X156.104 Y163.733 E56.36151
G1 F1983.3 X156.42 Y163.807 E56.38944
G1 F1697.1 X156.672 Y163.698 E56.41706
G1 F1251.8 X157.033 Y163.547 E56.47042
G1 X156.695 Y163.354 E56.52349
G1 F1704.4 X156.501 Y163.211 E56.54762
G1 F1993.3 X156.276 Y163.16 E56.56738
G1 F1986.6 X155.907 Y163.048 E56.60051
G1 X155.575 Y162.919 E56.63112
G1 F1925.4 X155.105 Y162.709 E56.67676
G1 F1819.3 X154.869 Y162.585 E56.70177
G1 F2100 E51.70177
G1 F300 Z0.56
G0 F6000 X153.404 Y159.45 Z0.56
G1 F300 Z0.24
G1 F2100 E56.70177
G1 F1800 X153.419 Y159.434 E56.70385
G1 X153.331 Y159.019 E56.74408
G1 X153.31 Y158.542 E56.78936
G1 X153.321 Y158.198 E56.822
G1 X153.372 Y157.777 E56.86221
G1 X153.442 Y157.453 E56.89365
G1 X153.546 Y157.111 E56.92754
G1 X153.634 Y156.884 E56.95063
G1 X153.771 Y156.589 E56.98148
G1 X153.938 Y156.294 E57.01362
G1 X154.145 Y155.991 E57.04842
G1 X154.369 Y155.715 E57.08213
G1 X154.71 Y155.361 E57.12874
G1 X155.278 Y154.932 E57.19625
G1 X155.762 Y154.687 E57.24769
G1 X156.112 Y154.545 E57.28351
G1 X156.417 Y154.451 E57.31377
G1 X156.718 Y154.382 E57.34306
G1 X157.25 Y154.31 E57.39397
G1 X157.776 Y154.32 E57.44386
G1 X158.222 Y154.365 E57.48637
G1 X158.812 Y154.518 E57.54417
G1 X159.254 Y154.684 E57.58894
G1 X159.824 Y155.003 E57.65089
G1 X160.199 Y155.295 E57.69596
G1 X160.511 Y155.585 E57.73635
G1 X160.833 Y155.941 E57.78187
G1 X161.131 Y156.409 E57.83449
G1 X161.297 Y156.728 E57.86859
G1 X161.423 Y157.026 E57.89927
G1 X161.528 Y157.343 E57.93094
G1 X161.641 Y157.794 E57.97503
G1 X161.697 Y158.47 E58.03936
G1 X161.664 Y158.958 E58.08574
G1 X161.61 Y159.32 E58.12045
G1 X161.513 Y159.701 E58.15773
G1 X161.427 Y159.964 E58.18397
G1 X161.262 Y160.346 E58.22343
G1 X161.102 Y160.64 E58.25517
G1 X160.905 Y160.944 E58.28953
G1 X160.757 Y161.136 E58.31252
G1 X160.528 Y161.396 E58.34537
G1 X160.278 Y161.638 E58.37837
G1 X160.024 Y161.847 E58.40956
G1 X159.736 Y162.044 E58.44265
G1 X159.43 Y162.219 E58.47608
G1 X159.126 Y162.362 E58.50794
G1 F1802.7 X158.597 Y162.558 E58.56136
G1 X157.942 Y162.678 E58.62441
G1 F1800 X157.388 Y162.688 E58.67695
G1 F1802.7 X157.049 Y162.666 E58.70912
G1 X156.796 Y162.631 E58.7333
G1 F1800 X156.455 Y162.557 E58.76639
G1 X156.104 Y162.451 E58.80116
G1 X155.812 Y162.336 E58.83093
G1 X155.32 Y162.091 E58.88305
G1 X154.929 Y161.808 E58.92882
G1 X154.529 Y161.469 E58.97854
G1 X154.208 Y161.093 E59.02543
G1 X153.866 Y160.61 E59.08155
G1 X153.742 Y160.355 E59.10844
G0 F1620 X153.502 Y159.857
G0 X153.404 Y159.45
G1 F2100 E54.10844
G1 F300 Z0.56
G0 F6000 X138.755 Y146.489 Z0.56
G1 F300 Z0.24
G1 F2100 E59.10844
G1 F1897.8 X138.552 Y146.316 E59.13243
G1 F2034.2 X138.097 Y145.896 E59.18439
G1 F2013.6 X137.626 Y145.381 E59.24355
G1 F1973.4 X137.397 Y145.025 E59.28016
G1 F2044.8 X137.274 Y144.804 E59.30128
G1 F2066.1 X136.896 Y144.021 E59.37311
