;FLAVOR:Marlin
;TIME:738
;Filament used: 1.10175m
;Layer height: 0.32
;MINX:123.722
;MINY:123.722
;MINZ:0.24
;MAXX:176.278
;MAXY:176.278
;MAXZ:7.28
;Generated with Cura_SteamEngine 5.0.0
M140 S80
M105
M190 S80
M104 S250
M105
M109 S250
M82 ;absolute extrusion mode
; Ender 3 Max Custom Start G-code
G92 E0 ; Reset Extruder
G28 ; Home all axes
G1 Z2.0 F3000 ; Move Z Axis up little to prevent scratching of Heat Bed
G1 X0.1 Y20 Z0.3 F5000.0 ; Move to start position
G1 X0.1 Y200.0 Z0.3 F1500.0 E15 ; Draw the first line
G1 X0.4 Y200.0 Z0.3 F5000.0 ; Move to side a little
G1 X0.4 Y20 Z0.3 F1500.0 E30 ; Draw the second line
G92 E0 ; Reset Extruder
G1 Z2.0 F3000 ; Move Z Axis up little to prevent scratching of Heat Bed
G1 X5 Y20 Z0.3 F5000.0 ; Move over to prevent blob squish
G92 E0
G92 E0
G1 F2100 E-5
;LAYER_COUNT:22
;LAYER:0
M107
G1 F300 Z0.56
G0 F6000 X127.381 Y127.584 Z0.56
G1 F300 Z0.56
G0 F6000 X123.724 Y137.032
;TYPE:SKIRT
G1 F300 Z0.24
G1 F2100 E0
G1 F1800 X123.743 Y136.075 E0.07211
G1 X123.754 Y135.83 E0.09059
G1 X123.87 Y134.659 E0.17924
G1 X123.908 Y134.413 E0.198
G1 X124.09 Y133.499 E0.26821
G1 X124.346 Y132.615 E0.33754
G1 X124.437 Y132.344 E0.35908
G1 X124.856 Y131.284 E0.44495
G1 X124.974 Y131.026 E0.46632
G1 X125.397 Y130.196 E0.53651
G1 X125.889 Y129.408 E0.60649
G1 X126.041 Y129.186 E0.62676
G1 X126.6 Y128.44 E0.69699
G1 X127.381 Y127.584 E0.78429
G1 X127.712 Y127.258 E0.81929
G1 X128.403 Y126.633 E0.88949
G1 X129.146 Y126.07 E0.95972
G1 X129.604 Y125.769 E1.00101
G1 X129.939 Y125.561 E1.03072
G1 X130.751 Y125.104 E1.10091
G1 X131.599 Y124.719 E1.17108
G1 X132.188 Y124.5 E1.21842
G1 X132.605 Y124.359 E1.25158
G1 X133.5 Y124.099 E1.3218
G1 X134.38 Y123.921 E1.38944
G1 X134.676 Y123.874 E1.41202
G1 X135.839 Y123.753 E1.50011
G1 X136.488 Y123.729 E1.54904
G1 X137.112 Y123.722 E1.59605
G1 X162.955 Y123.724 E3.54301
G1 X163.893 Y123.743 E3.6137
G1 X164.252 Y123.76 E3.64077
G1 X165.18 Y123.844 E3.71097
G1 X165.906 Y123.967 E3.76645
G1 X166.171 Y124.021 E3.78682
G1 X167.075 Y124.246 E3.85701
G1 X168.153 Y124.626 E3.94312
G1 X168.61 Y124.815 E3.98038
G1 X169.455 Y125.208 E4.05059
G1 X170.582 Y125.881 E4.14948
G1 X170.79 Y126.023 E4.16845
G1 X171.536 Y126.581 E4.23864
G1 X172.368 Y127.336 E4.32328
G1 X172.706 Y127.676 E4.3594
G1 X173.334 Y128.364 E4.42958
G1 X173.901 Y129.104 E4.49981
G1 X174.231 Y129.604 E4.54495
G1 X174.439 Y129.939 E4.57465
G1 X174.896 Y130.751 E4.64485
G1 X175.209 Y131.423 E4.7007
G1 X175.299 Y131.635 E4.71805
G1 X175.626 Y132.508 E4.78828
G1 X175.794 Y133.076 E4.83291
G1 X175.872 Y133.368 E4.85568
G1 X176.074 Y134.278 E4.92591
G1 X176.189 Y135.118 E4.98978
G1 X176.215 Y135.385 E5.00999
G1 X176.265 Y136.257 E5.07579
G1 X176.278 Y137.159 E5.14376
G1 X176.276 Y162.956 E7.08726
G1 X176.257 Y163.888 E7.15748
G1 X176.24 Y164.249 E7.18471
G1 X176.156 Y165.177 E7.25491
G1 X176.025 Y165.955 E7.31435
G1 X175.814 Y166.863 E7.38458
G1 X175.62 Y167.486 E7.43374
G1 X175.516 Y167.788 E7.4578
G1 X175.175 Y168.656 E7.52806
G1 X174.845 Y169.343 E7.58548
G1 X174.393 Y170.158 E7.65569
G1 X174.038 Y170.7 E7.7045
G1 X173.888 Y170.915 E7.72425
G1 X173.322 Y171.655 E7.79444
G1 X172.536 Y172.503 E7.88155
G1 X172.222 Y172.807 E7.91448
G1 X171.525 Y173.426 E7.98471
G1 X170.396 Y174.231 E8.08917
G1 X170.061 Y174.439 E8.11888
G1 X169.249 Y174.896 E8.18908
G1 X168.401 Y175.281 E8.25924
G1 X167.812 Y175.5 E8.30658
G1 X167.395 Y175.641 E8.33974
G1 X166.5 Y175.901 E8.40996
G1 X165.62 Y176.079 E8.4776
G1 X165.324 Y176.126 E8.50018
G1 X164.161 Y176.247 E8.58827
G1 X163.513 Y176.271 E8.63712
G1 X162.888 Y176.278 E8.68421
G1 X157.02 Y176.276 E9.1263
G1 X156.251 Y176.265 E9.18424
G1 X155.377 Y176.217 E9.25018
G1 X155.062 Y176.187 E9.27402
G1 X153.989 Y176.031 E9.35571
G1 X153.695 Y175.973 E9.37829
G1 X152.576 Y175.689 E9.46526
G1 X152.37 Y175.625 E9.48151
G1 X151.515 Y175.32 E9.5499
G1 X151.273 Y175.222 E9.56957
G1 X150.224 Y174.73 E9.65686
G1 X149.942 Y174.579 E9.68096
G1 X148.934 Y173.967 E9.76981
G1 X148.709 Y173.813 E9.79035
G1 X147.787 Y173.106 E9.87788
G1 X147.191 Y172.573 E9.93812
G1 X146.203 Y171.619 E10.04159
G1 X128.084 Y153.495 E11.97233
G1 X127.472 Y152.862 E12.03866
G1 X126.818 Y152.121 E12.11312
G1 X126.641 Y151.901 E12.1344
G1 X125.982 Y150.989 E12.21916
G1 X125.834 Y150.76 E12.23971
G1 X125.257 Y149.753 E12.32714
G1 X125.13 Y149.501 E12.3484
G1 X124.678 Y148.475 E12.43287
G1 X124.573 Y148.199 E12.45512
G1 X124.235 Y147.156 E12.53772
G1 X124.156 Y146.862 E12.56065
G1 X123.953 Y145.952 E12.63089
G1 X123.822 Y144.955 E12.70665
G1 X123.781 Y144.468 E12.74347
G1 X123.745 Y143.775 E12.79575
G1 X123.722 Y142.508 E12.89122
G1 X123.724 Y138.605 E13.18527
G0 F1620 X123.724 Y137.032
G0 F6000 X124.296 Y137.04
G1 F1800 X124.314 Y136.101 E13.25602
G1 X124.325 Y135.856 E13.2745
G1 X124.436 Y134.747 E13.35847
G1 X124.474 Y134.501 E13.37722
G1 X124.651 Y133.611 E13.44558
G1 X124.888 Y132.797 E13.50945
G1 X124.979 Y132.526 E13.53099
G1 X125.376 Y131.522 E13.61233
G1 X125.494 Y131.264 E13.6337
G1 X125.907 Y130.456 E13.70207
G1 X126.361 Y129.731 E13.76651
G1 X126.513 Y129.509 E13.78678
G1 X127.058 Y128.784 E13.85512
G1 X127.782 Y127.992 E13.93596
G1 X128.113 Y127.666 E13.97096
G1 X128.787 Y127.058 E14.03934
G1 X129.511 Y126.513 E14.10761
G1 X129.905 Y126.255 E14.1431
G1 X130.24 Y126.047 E14.1728
G1 X131.031 Y125.603 E14.24114
G1 X131.858 Y125.231 E14.30946
G1 X132.371 Y125.042 E14.35065
G1 X132.788 Y124.901 E14.38381
G1 X133.659 Y124.649 E14.45212
G1 X134.47 Y124.486 E14.51444
G1 X134.766 Y124.439 E14.53702
G1 X135.867 Y124.325 E14.62041
G1 X136.495 Y124.301 E14.66776
G1 X137.112 Y124.294 E14.71425
G1 X162.947 Y124.296 E16.66061
G1 X163.866 Y124.315 E16.72986
G1 X164.225 Y124.332 E16.75694
G1 X165.128 Y124.414 E16.82525
G1 X165.792 Y124.527 E16.87599
G1 X166.057 Y124.581 E16.89637
G1 X166.937 Y124.801 E16.9647
G1 X167.934 Y125.155 E17.04441
G1 X168.391 Y125.344 E17.08167
G1 X169.213 Y125.727 E17.14999
G1 X170.26 Y126.354 E17.24193
G1 X170.468 Y126.496 E17.2609
G1 X171.193 Y127.04 E17.32919
G1 X171.963 Y127.739 E17.40754
G1 X172.301 Y128.079 E17.44366
G1 X172.911 Y128.75 E17.51198
G1 X173.46 Y129.472 E17.58031
G1 X173.745 Y129.905 E17.61936
G1 X173.953 Y130.24 E17.64907
G1 X174.397 Y131.031 E17.71741
G1 X174.682 Y131.647 E17.76854
G1 X174.772 Y131.859 E17.78589
G1 X175.089 Y132.708 E17.85417
G1 X175.242 Y133.223 E17.89464
G1 X175.32 Y133.515 E17.91742
G1 X175.515 Y134.401 E17.98576
G1 X175.62 Y135.173 E18.04446
G1 X175.646 Y135.44 E18.06467
G1 X175.693 Y136.266 E18.127
G1 X175.706 Y137.159 E18.19428
G1 X175.704 Y162.948 E20.13718
G1 X175.686 Y163.861 E20.20598
G1 X175.669 Y164.222 E20.2332
G1 X175.586 Y165.125 E20.30152
G1 X175.463 Y165.849 E20.35685
G1 X175.257 Y166.733 E20.42523
G1 X175.079 Y167.3 E20.47
G1 X174.975 Y167.602 E20.49407
G1 X174.45 Y168.853 E20.59628
G1 X174.333 Y169.087 E20.61599
G1 X173.892 Y169.88 E20.68435
G1 X173.569 Y170.372 E20.72869
G1 X173.419 Y170.587 E20.74844
G1 X172.868 Y171.308 E20.8168
G1 X172.138 Y172.092 E20.89751
G1 X171.824 Y172.396 E20.93044
G1 X171.145 Y172.998 E20.9988
G1 X170.095 Y173.745 E21.09588
G1 X169.76 Y173.953 E21.12559
G1 X168.969 Y174.397 E21.19393
G1 X168.142 Y174.769 E21.26225
G1 X167.629 Y174.958 E21.30343
G1 X167.212 Y175.099 E21.3366
G1 X166.341 Y175.351 E21.40491
G1 X165.53 Y175.514 E21.46723
G1 X165.234 Y175.561 E21.48981
G1 X164.133 Y175.675 E21.5732
G1 X163.506 Y175.699 E21.62047
G1 X162.888 Y175.706 E21.66703
G1 X157.028 Y175.704 E22.10851
G1 X156.259 Y175.693 E22.16646
G1 X155.431 Y175.648 E22.22893
G1 X155.116 Y175.618 E22.25277
G1 X154.1 Y175.469 E22.33013
G1 X153.806 Y175.411 E22.35271
G1 X152.745 Y175.143 E22.43515
G1 X152.539 Y175.079 E22.4514
G1 X151.73 Y174.79 E22.51612
G1 X151.488 Y174.692 E22.53579
G1 X150.494 Y174.226 E22.6185
G1 X150.212 Y174.075 E22.6426
G1 X149.257 Y173.495 E22.72678
G1 X149.032 Y173.341 E22.74732
G1 X148.158 Y172.672 E22.83024
G1 X147.588 Y172.161 E22.88791
G1 X146.607 Y171.215 E22.99058
G1 X128.495 Y153.098 E24.92058
G1 X127.883 Y152.465 E24.98691
G1 X127.264 Y151.763 E25.05743
G1 X127.087 Y151.543 E25.0787
G1 X126.462 Y150.678 E25.1591
G1 X126.314 Y150.449 E25.17964
G1 X125.768 Y149.495 E25.26245
G1 X125.641 Y149.243 E25.28371
G1 X125.212 Y148.271 E25.36375
G1 X125.107 Y147.995 E25.386
G1 X124.787 Y147.007 E25.46424
G1 X124.708 Y146.713 E25.48718
G1 X124.512 Y145.828 E25.55547
G1 X124.392 Y144.907 E25.62544
G1 X124.351 Y144.42 E25.66226
G1 X124.317 Y143.763 E25.71182
G1 X124.294 Y142.508 E25.80639
G1 X124.296 Y138.613 E26.09983
G0 F1620 X124.296 Y137.04
G1 F2100 E21.09983
G1 F300 Z0.56
;MESH:corner_panel_clip_4mm_x8.stl
G0 F6000 X154.987 Y162.858 Z0.56
;TYPE:WALL-INNER
G1 F300 Z0.24
G1 F2100 E26.09983
G1 F1311.6 X155.237 Y163.135 E26.1321
G1 F1344.1 X155.601 Y163.5 E26.17559
G1 X155.807 Y163.669 E26.19808
G1 F1338.9 X156.085 Y163.812 E26.22456
G1 F1332 X156.323 Y163.869 E26.2454
G1 F1353 X156.678 Y163.9 E26.27527
G1 F1391.4 X156.94 Y163.909 E26.29664
G1 F1422.1 X157.45 Y163.919 E26.33732
G1 F1428 X157.907 Y163.913 E26.37362
G1 F1398.9 X158.296 Y163.902 E26.40517
G1 F1464.6 X158.587 Y163.946 E26.42797
G1 F1674.1 X159.003 Y163.989 E26.4563
G1 F1800 X159.432 Y163.988 E26.48333
G1 X160.712 Y163.989 E26.56398
G1 X163.432 Y163.989 E26.73537
G1 X163.689 Y163.944 E26.75181
G1 X163.896 Y163.773 E26.76873
G1 X163.977 Y163.538 E26.78439
G1 X163.989 Y163.405 E26.79281
G1 X163.989 Y136.6 E28.48179
G1 X163.956 Y136.349 E28.49774
G1 X163.805 Y136.13 E28.51451
G1 X163.547 Y136.023 E28.5321
G1 X163.401 Y136.012 E28.54133
G1 X136.568 Y136.011 E30.23208
G1 X136.311 Y136.056 E30.24852
G1 X136.103 Y136.228 E30.26553
G1 X136.022 Y136.462 E30.28113
G1 X136.012 Y136.596 E30.2896
G1 X136.011 Y140.335 E30.52519
G1 X136.012 Y140.935 E30.563
G1 F1745.1 X136.029 Y141.196 E30.58
G1 F1511.9 X136.102 Y141.61 E30.61153
G1 F1389.5 X136.089 Y142.019 E30.64494
G1 F1426 X136.083 Y142.449 E30.67914
G1 F1432 X136.086 Y142.871 E30.71256
G1 F1402.7 X136.098 Y143.276 E30.74532
G1 F1360.1 X136.111 Y143.547 E30.76795
G1 F1335.4 X136.149 Y143.789 E30.78875
G1 F1340.6 X136.23 Y144.021 E30.80954
G1 F1347.6 X136.355 Y144.228 E30.82989
G1 X136.655 Y144.553 E30.86712
G1 X136.998 Y144.896 E30.90794
G1 F1200 X137.363 Y145.128 E30.94882
G1 F1049.5 X137.469 Y145.194 E30.96231
G1 F1120.3 X137.347 Y144.823 E31.00185
G1 F1293.5 X137.185 Y144.428 E31.03929
G1 F1347.6 X137.05 Y144.064 E31.07196
G1 X136.946 Y143.761 E31.09892
G1 F1344.1 X136.871 Y143.453 E31.12567
G1 F1356.5 X136.844 Y143.211 E31.14603
G1 F1393.2 X136.816 Y142.969 E31.16586
G1 F1424.1 X136.799 Y142.594 E31.19576
G1 F1432 X136.806 Y142.192 E31.2276
G1 F1406.6 X136.837 Y141.802 E31.25915
G1 F1464.6 X136.948 Y141.438 E31.28862
G1 F1668.7 X137.09 Y141.086 E31.31442
G1 F1800 X137.222 Y140.726 E31.33858
G1 X137.38 Y140.386 E31.3622
G1 X137.573 Y140.05 E31.38662
G1 X137.776 Y139.749 E31.40949
G1 X138.016 Y139.451 E31.4336
G1 X138.276 Y139.177 E31.4574
G1 X138.556 Y138.926 E31.4811
G1 X138.853 Y138.702 E31.50454
G1 X139.178 Y138.495 E31.52881
G1 X139.511 Y138.32 E31.55252
G1 X139.858 Y138.171 E31.57631
G1 X140.223 Y138.049 E31.60056
G1 X140.577 Y137.962 E31.62353
G1 X140.968 Y137.901 E31.64847
G1 X141.352 Y137.873 E31.67273
G1 X141.715 Y137.876 E31.6956
G1 X142.088 Y137.908 E31.71919
G1 X142.461 Y137.969 E31.743
G1 X142.841 Y138.068 E31.76775
G1 X143.178 Y138.184 E31.7902
G1 X143.533 Y138.341 E31.81466
G1 X143.862 Y138.519 E31.83823
G1 X144.173 Y138.721 E31.8616
G1 X144.478 Y138.956 E31.88586
G1 X144.753 Y139.206 E31.90928
G1 X145.008 Y139.478 E31.93277
G1 X145.241 Y139.769 E31.95626
G1 X145.461 Y140.104 E31.98151
G1 X145.636 Y140.422 E32.00438
G1 X145.791 Y140.763 E32.02799
G1 X145.919 Y141.122 E32.052
G1 X146.021 Y141.499 E32.07661
G1 X146.055 Y141.679 E32.08815
G1 X146.117 Y142.181 E32.12002
G1 X146.128 Y142.61 E32.14706
G1 X146.103 Y142.99 E32.17106
G1 X146.051 Y143.351 E32.19404
G1 X145.96 Y143.739 E32.21915
G1 X145.853 Y144.077 E32.24149
G1 X145.701 Y144.445 E32.26658
G1 X145.533 Y144.773 E32.2898
G1 X145.386 Y145.017 E32.30775
G1 X145.11 Y145.401 E32.33755
G1 X144.86 Y145.686 E32.36143
G1 X144.59 Y145.948 E32.38514
G1 X144.313 Y146.179 E32.40787
G1 X143.974 Y146.413 E32.43382
G1 X143.671 Y146.589 E32.4559
G1 X143.319 Y146.757 E32.48048
G1 X142.986 Y146.886 E32.50298
G1 X142.607 Y146.996 E32.52785
G1 X142.233 Y147.072 E32.55189
G1 X141.849 Y147.116 E32.57625
G1 X141.479 Y147.129 E32.59958
G1 X141.103 Y147.113 E32.62329
G1 X140.73 Y147.066 E32.64698
G1 X140.358 Y146.987 E32.67094
G1 X139.997 Y146.879 E32.69468
G1 X139.648 Y146.743 E32.71828
G1 X139.312 Y146.581 E32.74179
G1 F1420.1 X138.907 Y146.519 E32.77451
G1 F1114.3 X138.769 Y146.525 E32.78857
G1 F1261.8 X138.924 Y146.896 E32.82471
G1 F1668.7 X139.175 Y147.21 E32.85203
G1 F1800 X141.123 Y149.156 E33.02553
G1 X141.479 Y149.514 E33.05734
G1 X152.929 Y160.964 E34.07765
G1 F1389.5 X153.348 Y161.144 E34.11487
G1 F1071.4 X153.468 Y161.194 E34.12864
G1 F1211.3 X153.407 Y160.787 E34.16717
G1 F1634.3 X153.272 Y160.387 E34.19647
G1 F1800 X153.209 Y160.233 E34.20695
G1 X153.047 Y159.757 E34.23863
G1 X152.946 Y159.333 E34.2661
G1 X152.894 Y158.959 E34.28989
G1 X152.871 Y158.579 E34.31388
G1 X152.88 Y158.193 E34.33821
G1 X152.922 Y157.813 E34.3623
G1 X152.992 Y157.447 E34.38578
G1 X153.091 Y157.086 E34.40936
G1 X153.223 Y156.726 E34.43352
G1 X153.38 Y156.386 E34.45712
G1 X153.573 Y156.049 E34.48159
G1 X153.776 Y155.749 E34.50441
G1 X154.016 Y155.451 E34.52852
G1 X154.276 Y155.177 E34.55232
G1 X154.556 Y154.926 E34.57602
G1 X154.853 Y154.702 E34.59946
G1 X155.1 Y154.544 E34.61793
G1 X155.39 Y154.382 E34.63886
G1 X155.615 Y154.272 E34.65465
G1 X155.908 Y154.151 E34.67462
G1 X156.223 Y154.05 E34.69546
G1 X156.577 Y153.962 E34.71845
G1 X156.969 Y153.901 E34.74345
G1 X157.352 Y153.873 E34.76764
G1 X157.715 Y153.876 E34.79052
G1 X158.088 Y153.909 E34.81411
G1 X158.461 Y153.969 E34.83792
G1 X158.841 Y154.068 E34.86266
G1 X159.178 Y154.185 E34.88514
G1 X159.533 Y154.341 E34.90957
G1 X159.861 Y154.519 E34.93308
G1 X160.173 Y154.721 E34.9565
G1 X160.477 Y154.956 E34.98071
G1 X160.752 Y155.206 E35.00413
G1 X161.008 Y155.478 E35.02767
G1 X161.24 Y155.769 E35.05112
G1 X161.461 Y156.104 E35.07641
G1 X161.637 Y156.422 E35.09931
G1 X161.791 Y156.763 E35.12288
G1 X161.919 Y157.122 E35.1469
G1 X162.021 Y157.499 E35.17151
G1 X162.055 Y157.682 E35.18324
G1 X162.116 Y158.184 E35.2151
G1 X162.127 Y158.61 E35.24195
G1 X162.104 Y158.984 E35.26556
G1 X162.048 Y159.382 E35.29089
G1 X161.959 Y159.739 E35.31407
G1 X161.853 Y160.077 E35.33639
G1 X161.701 Y160.444 E35.36142
G1 X161.533 Y160.774 E35.38475
G1 X161.343 Y161.085 E35.40772
G1 X161.109 Y161.401 E35.43249
G1 X160.86 Y161.686 E35.45634
G1 X160.59 Y161.948 E35.48004
G1 X160.314 Y162.18 E35.50276
G1 X159.974 Y162.413 E35.52873
G1 X159.671 Y162.589 E35.55081
G1 X159.317 Y162.757 E35.5755
G1 X158.979 Y162.888 E35.59834
G1 F1748 X158.61 Y163.012 E35.6236
G1 F1518.6 X158.256 Y163.157 E35.65217
G1 F1398.9 X157.869 Y163.191 E35.68367
G1 F1430 X157.485 Y163.201 E35.71414
G1 X157.103 Y163.188 E35.74445
G1 F1397 X156.728 Y163.154 E35.77502
G1 F1353 X156.441 Y163.107 E35.7994
G1 F1338.9 X156.104 Y163.013 E35.82904
G1 F1344.1 X155.859 Y162.933 E35.85079
G1 X155.619 Y162.836 E35.87263
G1 X155.26 Y162.661 E35.90633
G1 F1219.9 X154.908 Y162.546 E35.94076
G1 F1083.8 X154.772 Y162.523 E35.95519
G1 F1155.6 X154.987 Y162.858 E35.99426
G1 F2100 E30.99426
G1 F300 Z0.56
G0 F6000 X153.553 Y157.561 Z0.56
G1 F300 Z0.24
G1 F2100 E35.99426
G1 F1800 X153.641 Y157.244 E36.01499
G1 X153.757 Y156.931 E36.03602
G1 X153.896 Y156.633 E36.05674
G1 X154.066 Y156.34 E36.07809
G1 X154.247 Y156.074 E36.09836
G1 X154.457 Y155.815 E36.11937
G1 X154.686 Y155.576 E36.14023
G1 X154.932 Y155.357 E36.16098
G1 X155.192 Y155.163 E36.18142
G1 X155.401 Y155.03 E36.19703
G1 X155.651 Y154.891 E36.21505
G1 X155.919 Y154.765 E36.23371
G1 X156.148 Y154.673 E36.24926
G1 X156.417 Y154.589 E36.26702
G1 X156.745 Y154.511 E36.28826
G1 X157.047 Y154.468 E36.30749
G1 X157.388 Y154.444 E36.32903
G1 X157.703 Y154.448 E36.34888
G1 X158.031 Y154.478 E36.36963
G1 X158.363 Y154.533 E36.39083
