;FLAVOR:Marlin
;TIME:822
;Filament used: 1.37538m
;Layer height: 0.28
;MINX:123.764
;MINY:123.575
;MINZ:0.24
;MAXX:176.584
;MAXY:176.393
;MAXZ:7.28
;Generated with Cura_SteamEngine 5.0.0
M140 S80
M105
M190 S80
M104 S250
M105
M109 S250
M82 ;absolute extrusion mode
; Ender 3 Max Custom Start G-code
G92 E0 ; Reset Extruder
G28 ; Home all axes
G1 Z2.0 F3000 ; Move Z Axis up little to prevent scratching of Heat Bed
G1 X0.1 Y20 Z0.3 F5000.0 ; Move to start position
G1 X0.1 Y200.0 Z0.3 F1500.0 E15 ; Draw the first line
G1 X0.4 Y200.0 Z0.3 F5000.0 ; Move to side a little
G1 X0.4 Y20 Z0.3 F1500.0 E30 ; Draw the second line
G92 E0 ; Reset Extruder
G1 Z2.0 F3000 ; Move Z Axis up little to prevent scratching of Heat Bed
G1 X5 Y20 Z0.3 F5000.0 ; Move over to prevent blob squish
G92 E0
G92 E0
G1 F2100 E-5
;LAYER_COUNT:25
;LAYER:0
M107
G1 F300 Z0.56
G0 F6000 X127.462 Y127.475 Z0.56
G1 F300 Z0.56
G0 F6000 X123.766 Y137.019
;TYPE:SKIRT
G1 F300 Z0.24
G1 F2100 E0
G1 F1800 X123.785 Y136.054 E0.0839
G1 X123.796 Y135.809 E0.10522
G1 X123.914 Y134.624 E0.20874
G1 X123.952 Y134.378 E0.23038
G1 X124.134 Y133.459 E0.31182
G1 X124.328 Y132.764 E0.37454
G1 X124.393 Y132.557 E0.3934
G1 X124.864 Y131.322 E0.5083
G1 X125.015 Y130.988 E0.54017
G1 X125.437 Y130.151 E0.62165
G1 X125.985 Y129.271 E0.71177
G1 X126.13 Y129.061 E0.73395
G1 X126.695 Y128.313 E0.81544
G1 X127.462 Y127.475 E0.91419
G1 X127.793 Y127.149 E0.95458
G1 X128.489 Y126.52 E1.03613
G1 X129.235 Y125.953 E1.11758
G1 X129.708 Y125.642 E1.16679
G1 X130.043 Y125.434 E1.20107
G1 X130.86 Y124.974 E1.28257
G1 X131.793 Y124.553 E1.37155
G1 X132.096 Y124.433 E1.39988
G1 X132.982 Y124.125 E1.48142
G1 X133.861 Y123.9 E1.56029
G1 X134.106 Y123.848 E1.58207
G1 X135.031 Y123.693 E1.6636
G1 X135.666 Y123.633 E1.71904
G1 X136.091 Y123.605 E1.75607
G1 X136.674 Y123.582 E1.80678
G1 X137.288 Y123.575 E1.86016
G1 X163.131 Y123.577 E4.10666
G1 X164.117 Y123.598 E4.19239
G1 X164.487 Y123.617 E4.2246
G1 X165.42 Y123.705 E4.30606
G1 X166.096 Y123.82 E4.36567
G1 X166.334 Y123.868 E4.38678
G1 X167.244 Y124.092 E4.46824
G1 X168.32 Y124.469 E4.56735
G1 X168.792 Y124.662 E4.61168
G1 X169.644 Y125.053 E4.69317
G1 X170.809 Y125.744 E4.81092
G1 X171.018 Y125.886 E4.83288
G1 X171.77 Y126.445 E4.91433
G1 X172.636 Y127.228 E5.01582
G1 X172.974 Y127.568 E5.0575
G1 X173.606 Y128.26 E5.13897
G1 X174.177 Y129.004 E5.22049
G1 X174.526 Y129.533 E5.27558
G1 X174.737 Y129.874 E5.31044
G1 X175.195 Y130.692 E5.39194
G1 X175.49 Y131.321 E5.45233
G1 X175.569 Y131.505 E5.46974
G1 X175.901 Y132.382 E5.55125
G1 X176.114 Y133.093 E5.61577
G1 X176.332 Y134.004 E5.6972
G1 X176.458 Y134.809 E5.76803
G1 X176.496 Y135.13 E5.79613
G1 X176.57 Y136.234 E5.89231
G1 X176.584 Y137.125 E5.96978
G1 X176.582 Y162.945 E8.21428
G1 X176.563 Y163.86 E8.29383
G1 X176.546 Y164.229 E8.32594
G1 X176.463 Y165.163 E8.40745
G1 X176.318 Y166.007 E8.4819
G1 X176.253 Y166.313 E8.50909
G1 X175.887 Y167.627 E8.62766
G1 X175.817 Y167.829 E8.64625
G1 X175.473 Y168.701 E8.72773
G1 X175.139 Y169.392 E8.79445
G1 X174.681 Y170.21 E8.87595
G1 X174.376 Y170.678 E8.92451
G1 X174.205 Y170.926 E8.95069
G1 X173.64 Y171.674 E9.03218
G1 X172.801 Y172.583 E9.13971
G1 X172.487 Y172.887 E9.1777
G1 X171.787 Y173.51 E9.25916
G1 X171.035 Y174.07 E9.34067
G1 X170.305 Y174.536 E9.41595
G1 X169.488 Y174.996 E9.49746
G1 X168.635 Y175.385 E9.57895
G1 X168.058 Y175.6 E9.63248
G1 X167.642 Y175.742 E9.67069
G1 X166.743 Y176.006 E9.75214
G1 X165.847 Y176.19 E9.83165
G1 X165.643 Y176.223 E9.84962
G1 X164.572 Y176.343 E9.9433
G1 X164.107 Y176.372 E9.9838
G1 X163.425 Y176.393 E10.04312
G1 X157.187 Y176.393 E10.58538
G1 X156.437 Y176.382 E10.65058
G1 X155.678 Y176.347 E10.71663
G1 X154.859 Y176.263 E10.7882
G1 X154.637 Y176.232 E10.80768
G1 X153.325 Y175.967 E10.92404
G1 X152.965 Y175.871 E10.95642
G1 X151.735 Y175.464 E11.06905
G1 X151.466 Y175.357 E11.09421
G1 X150.358 Y174.843 E11.20039
G1 X150.071 Y174.69 E11.22866
G1 X149.034 Y174.061 E11.33409
G1 X148.809 Y173.907 E11.3578
G1 X147.895 Y173.209 E11.45777
G1 X147.262 Y172.643 E11.53158
G1 X146.316 Y171.731 E11.64581
G1 X128.145 Y153.556 E13.87992
G1 X127.636 Y153.033 E13.94336
G1 X127.191 Y152.548 E14.00058
G1 X127.04 Y152.373 E14.02067
G1 X126.344 Y151.475 E14.11943
G1 X126.135 Y151.175 E14.15122
G1 X125.632 Y150.384 E14.2327
G1 X125.351 Y149.866 E14.28393
G1 X125.179 Y149.527 E14.31698
G1 X124.668 Y148.353 E14.42828
G1 X124.584 Y148.125 E14.4494
G1 X124.286 Y147.192 E14.53454
G1 X124.209 Y146.907 E14.5602
G1 X124.004 Y145.993 E14.64163
G1 X123.874 Y145.03 E14.7261
G1 X123.83 Y144.543 E14.76861
G1 X123.787 Y143.769 E14.836
G1 X123.764 Y142.479 E14.94815
G1 X123.766 Y138.382 E15.3043
G0 F1620 X123.766 Y137.019
G0 F6000 X124.426 Y137.028
G1 F1800 X124.444 Y136.084 E15.38637
G1 X124.455 Y135.839 E15.40769
G1 X124.566 Y134.725 E15.50501
G1 X124.604 Y134.479 E15.52665
G1 X124.782 Y133.588 E15.60563
G1 X124.957 Y132.961 E15.66222
G1 X125.022 Y132.754 E15.68108
G1 X125.465 Y131.594 E15.78902
G1 X125.616 Y131.26 E15.82089
G1 X126.027 Y130.449 E15.89992
G1 X126.528 Y129.646 E15.9822
G1 X126.673 Y129.436 E16.00438
G1 X127.222 Y128.711 E16.08343
G1 X127.925 Y127.945 E16.17381
G1 X128.256 Y127.619 E16.2142
G1 X128.931 Y127.011 E16.29317
G1 X129.657 Y126.464 E16.37219
G1 X130.056 Y126.203 E16.41363
G1 X130.391 Y125.995 E16.44791
G1 X131.183 Y125.55 E16.52688
G1 X132.036 Y125.167 E16.60816
G1 X132.339 Y125.047 E16.63649
G1 X133.198 Y124.75 E16.7155
G1 X133.998 Y124.546 E16.78727
G1 X134.243 Y124.494 E16.80904
G1 X135.14 Y124.345 E16.88809
G1 X135.709 Y124.291 E16.93777
G1 X136.134 Y124.263 E16.9748
G1 X136.683 Y124.242 E17.02256
G1 X137.288 Y124.235 E17.07515
G1 X163.122 Y124.237 E19.32087
G1 X164.083 Y124.258 E19.40442
G1 X164.453 Y124.277 E19.43663
G1 X165.357 Y124.363 E19.51557
G1 X165.965 Y124.467 E19.56919
G1 X166.203 Y124.515 E19.59029
G1 X167.085 Y124.734 E19.66929
G1 X168.071 Y125.079 E19.7601
G1 X168.543 Y125.272 E19.80443
G1 X169.368 Y125.653 E19.88342
G1 X170.438 Y126.29 E19.99167
G1 X170.647 Y126.432 E20.01364
G1 X171.376 Y126.975 E20.09266
G1 X172.168 Y127.693 E20.18558
G1 X172.506 Y128.033 E20.22726
G1 X173.118 Y128.705 E20.30627
G1 X173.668 Y129.429 E20.38531
G1 X173.964 Y129.881 E20.43227
G1 X174.175 Y130.222 E20.46713
G1 X174.619 Y131.015 E20.54614
G1 X174.962 Y131.766 E20.61791
G1 X175.405 Y133.013 E20.73294
G1 X175.479 Y133.273 E20.75644
G1 X175.69 Y134.157 E20.83545
G1 X175.802 Y134.887 E20.89965
G1 X175.84 Y135.208 E20.92775
G1 X175.91 Y136.246 E21.01818
G1 X175.924 Y137.125 E21.0946
G1 X175.922 Y162.935 E23.33823
G1 X175.904 Y163.829 E23.41596
G1 X175.887 Y164.198 E23.44807
G1 X175.805 Y165.104 E23.52715
G1 X175.673 Y165.869 E23.59464
G1 X175.608 Y166.175 E23.62183
G1 X175.264 Y167.411 E23.73336
G1 X175.194 Y167.613 E23.75194
G1 X174.858 Y168.458 E23.83099
G1 X174.55 Y169.094 E23.89242
G1 X174.105 Y169.887 E23.97146
G1 X173.661 Y170.551 E24.0409
G1 X173.113 Y171.276 E24.1199
G1 X172.342 Y172.109 E24.21857
G1 X172.028 Y172.413 E24.25656
G1 X171.348 Y173.015 E24.33551
G1 X170.292 Y173.767 E24.4482
G1 X169.957 Y173.975 E24.48248
G1 X169.165 Y174.42 E24.56145
G1 X168.336 Y174.794 E24.64051
G1 X167.845 Y174.975 E24.686
G1 X167.429 Y175.117 E24.72421
G1 X166.557 Y175.373 E24.80321
G1 X165.742 Y175.538 E24.8755
G1 X165.538 Y175.571 E24.89346
G1 X164.531 Y175.684 E24.98155
G1 X164.066 Y175.713 E25.02205
G1 X163.425 Y175.733 E25.0778
G1 X157.197 Y175.733 E25.61919
G1 X156.447 Y175.722 E25.68439
G1 X155.72 Y175.688 E25.74766
G1 X154.95 Y175.61 E25.81493
G1 X154.728 Y175.579 E25.83442
G1 X153.495 Y175.329 E25.94378
G1 X153.135 Y175.233 E25.97617
G1 X151.979 Y174.851 E26.08201
G1 X151.71 Y174.744 E26.10717
G1 X150.668 Y174.261 E26.20701
G1 X150.381 Y174.108 E26.23528
G1 X149.406 Y173.516 E26.33444
G1 X149.181 Y173.362 E26.35814
G1 X148.322 Y172.706 E26.4521
G1 X147.72 Y172.168 E26.52228
G1 X146.783 Y171.264 E26.63546
G1 X128.618 Y153.096 E28.86877
G1 X128.109 Y152.573 E28.93221
G1 X127.54 Y151.941 E29.00614
G1 X126.885 Y151.098 E29.09894
G1 X126.676 Y150.798 E29.13072
G1 X126.19 Y150.03 E29.20973
G1 X125.94 Y149.567 E29.25547
G1 X125.768 Y149.228 E29.28851
G1 X125.287 Y148.125 E29.39311
G1 X125.203 Y147.897 E29.41424
G1 X124.924 Y147.02 E29.49424
G1 X124.847 Y146.735 E29.5199
G1 X124.648 Y145.848 E29.59892
G1 X124.531 Y144.971 E29.67584
G1 X124.487 Y144.484 E29.71834
G1 X124.447 Y143.756 E29.78172
G1 X124.424 Y142.479 E29.89275
G1 X124.426 Y138.391 E30.24811
G0 F1620 X124.426 Y137.028
G1 F2100 E25.24811
G1 F300 Z0.56
;MESH:corner_panel_clip_4mm_x8.stl
G0 F6000 X137.55 Y145.1 Z0.56
;TYPE:WALL-INNER
G1 F300 Z0.24
G1 F2100 E30.24811
G1 F1824.9 X137.641 Y145.178 E30.25932
G1 F1873.8 X137.464 Y144.842 E30.29392
G1 F1996.6 X137.292 Y144.471 E30.32888
G1 F2041.2 X137.149 Y144.118 E30.36073
G1 X137.06 Y143.838 E30.3853
G1 F2013.6 X136.986 Y143.598 E30.40659
G1 F1827.7 X136.885 Y143.369 E30.42996
G1 F1353.1 X136.654 Y142.996 E30.48531
G1 F1104.1 X136.625 Y142.942 E30.49479
G1 F1227.3 X136.493 Y143.261 E30.5428
G1 F1645.4 X136.381 Y143.536 E30.57361
G1 F1976.7 X136.45 Y143.888 E30.60458
G1 F2023.9 X136.638 Y144.219 E30.63669
G1 F2041.2 X136.959 Y144.549 E30.67519
G1 F2030.8 X137.235 Y144.823 E30.70788
G1 F1928.6 X137.55 Y145.1 E30.745
G1 F2100 E25.745
G1 F300 Z0.56
G0 F6000 X153.641 Y161.178 Z0.56
G1 F300 Z0.24
G1 F2100 E30.745
G1 F1802.7 X153.443 Y160.855 E30.78088
G1 X153.257 Y160.487 E30.81992
G1 F1800 X153.112 Y160.133 E30.8562
G1 X152.992 Y159.753 E30.89399
G1 X152.905 Y159.366 E30.9316
G1 X152.849 Y158.971 E30.96944
G1 X152.825 Y158.574 E31.00715
G1 X152.834 Y158.17 E31.04547
G1 X152.877 Y157.771 E31.08353
G1 X152.95 Y157.388 E31.12051
G1 X153.053 Y157.011 E31.15757
G1 X153.191 Y156.633 E31.19573
G1 X153.356 Y156.276 E31.23302
G1 X153.557 Y155.923 E31.27155
G1 X153.769 Y155.609 E31.30747
G1 X154.02 Y155.296 E31.34552
G1 X154.295 Y155.006 E31.38342
G1 X154.582 Y154.748 E31.42002
G1 X154.897 Y154.509 E31.45751
G1 X155.127 Y154.361 E31.48345
G1 X155.351 Y154.229 E31.50811
G1 X155.63 Y154.087 E31.5378
G1 X155.947 Y153.953 E31.57043
G1 X156.21 Y153.863 E31.59679
G1 X156.453 Y153.792 E31.6208
G1 X156.739 Y153.725 E31.64866
G1 X157.102 Y153.669 E31.68349
G1 X157.513 Y153.639 E31.72257
G1 X157.893 Y153.641 E31.7586
G1 X158.303 Y153.677 E31.79763
G1 X158.505 Y153.71 E31.81704
G1 X158.973 Y153.817 E31.86257
G1 X159.41 Y153.957 E31.90609
G1 X159.796 Y154.125 E31.94601
G1 X160.142 Y154.312 E31.9833
G1 X160.469 Y154.523 E32.02021
G1 X160.782 Y154.764 E32.05767
G1 X161.079 Y155.032 E32.09561
G1 X161.346 Y155.315 E32.1325
G1 X161.599 Y155.636 E32.17126
G1 X161.816 Y155.967 E32.2088
G1 X162.005 Y156.303 E32.24535
G1 X162.17 Y156.665 E32.28308
G1 X162.308 Y157.053 E32.32213
G1 X162.408 Y157.429 E32.35903
G1 X162.447 Y157.64 E32.37938
G1 X162.509 Y158.142 E32.42735
G1 X162.521 Y158.595 E32.47032
G1 X162.496 Y158.987 E32.50757
G1 X162.442 Y159.37 E32.54425
G1 X162.347 Y159.778 E32.58397
G1 X162.236 Y160.13 E32.61897
G1 X162.077 Y160.517 E32.65865
G1 X161.902 Y160.861 E32.69525
G1 X161.698 Y161.194 E32.73229
G1 X161.456 Y161.521 E32.77086
G1 X161.203 Y161.812 E32.80743
G1 X160.916 Y162.092 E32.84545
G1 X160.614 Y162.343 E32.88269
G1 X160.289 Y162.57 E32.92029
G1 X159.938 Y162.774 E32.95879
G1 X159.592 Y162.94 E32.99518
G1 X159.23 Y163.078 E33.03192
G1 F1836.2 X158.848 Y163.178 E33.06863
G1 F1970.1 X158.421 Y163.234 E33.10594
G1 F2125.2 X158.051 Y163.264 E33.13575
G1 F2187.8 X157.661 Y163.274 E33.16619
G1 X157.274 Y163.262 E33.1964
G1 F2121.4 X156.892 Y163.228 E33.22726
G1 F2034.2 X156.596 Y163.178 E33.25245
G1 F2003.4 X156.251 Y163.083 E33.28294
G1 F2013.6 X156.006 Y163.001 E33.30484
G1 X155.753 Y162.899 E33.32797
G1 F2000 X155.396 Y162.731 E33.36164
G1 F1922.3 X155.053 Y162.552 E33.396
G1 F1844.7 X154.956 Y162.498 E33.40627
G1 F1885.7 X155.204 Y162.775 E33.43992
G1 F1980 X155.475 Y163.059 E33.47377
G1 F2013.6 X155.771 Y163.357 E33.50937
G1 X155.995 Y163.555 E33.53472
G1 F2000 X156.292 Y163.718 E33.56363
G1 F2006.8 X156.643 Y163.783 E33.594
G1 F2084.2 X157.121 Y163.807 E33.63319
G1 F2171.8 X157.624 Y163.814 E33.67273
G1 F2187.8 X158.08 Y163.81 E33.70831
G1 F2121.4 X158.502 Y163.798 E33.74228
G1 F2010.2 X158.762 Y163.78 E33.76441
G1 F1870.9 X159.204 Y163.754 E33.80481
G1 F1800 X163.611 Y163.753 E34.22273
G1 X163.841 Y163.682 E34.24555
G1 X163.941 Y163.427 E34.27153
G1 X163.943 Y163.382 E34.2758
G1 X163.943 Y136.585 E36.817
G1 X163.886 Y136.336 E36.84122
G1 X163.697 Y136.227 E36.86191
G1 X163.575 Y136.217 E36.87352
G1 X136.756 Y136.216 E39.4168
G1 X136.512 Y136.284 E39.44082
G1 X136.416 Y136.468 E39.4605
G1 X136.406 Y136.581 E39.47126
G1 X136.405 Y139.183 E39.71801
G1 X136.406 Y140.92 E39.88273
G1 F1614.1 X136.481 Y141.181 E39.91145
G1 F1206.1 X136.654 Y141.595 E39.97495
G1 F1132.5 X136.813 Y141.361 E40.01759
G1 F1485 X137.053 Y141.011 E40.06637
G1 F1800 X137.191 Y140.633 E40.10453
G1 X137.356 Y140.276 E40.14183
G1 X137.557 Y139.923 E40.18035
G1 X137.769 Y139.609 E40.21628
G1 X138.02 Y139.295 E40.2544
G1 X138.295 Y139.006 E40.29223
G1 X138.582 Y138.748 E40.32883
G1 X138.897 Y138.509 E40.36633
G1 X139.237 Y138.293 E40.40453
G1 X139.585 Y138.109 E40.44186
G1 X139.947 Y137.953 E40.47924
G1 X140.331 Y137.825 E40.51762
G1 X140.706 Y137.732 E40.55426
G1 X141.103 Y137.669 E40.59238
G1 X141.513 Y137.638 E40.63137
G1 X141.893 Y137.641 E40.66741
G1 X142.303 Y137.677 E40.70644
G1 X142.506 Y137.71 E40.72594
G1 X142.974 Y137.817 E40.77147
G1 X143.41 Y137.957 E40.8149
G1 X143.796 Y138.125 E40.85482
G1 X144.143 Y138.312 E40.8922
G1 X144.469 Y138.522 E40.92897
G1 X144.783 Y138.763 E40.96651
G1 X145.079 Y139.032 E41.00444
G1 X145.346 Y139.315 E41.04133
G1 X145.599 Y139.636 E41.08009
G1 X145.817 Y139.966 E41.1176
G1 X146.004 Y140.303 E41.15415
G1 X146.17 Y140.665 E41.19191
G1 X146.307 Y141.053 E41.23094
G1 X146.408 Y141.429 E41.26786
G1 X146.448 Y141.64 E41.28822
G1 X146.509 Y142.142 E41.33618
G1 X146.521 Y142.595 E41.37915
G1 X146.497 Y142.987 E41.41639
G1 X146.443 Y143.37 E41.45307
G1 X146.347 Y143.778 E41.49282
G1 X146.276 Y144.01 E41.51583
G1 X146.194 Y144.246 E41.53952
G1 X146.057 Y144.562 E41.57218
G1 X145.902 Y144.861 E41.60412
G1 X145.761 Y145.093 E41.62987
G1 X145.614 Y145.314 E41.65504
G1 X145.456 Y145.521 E41.67973
G1 X145.203 Y145.812 E41.7163
G1 X144.916 Y146.092 E41.75432
G1 X144.615 Y146.342 E41.79143
G1 X144.29 Y146.57 E41.82908
G1 X143.92 Y146.783 E41.86956
G1 X143.752 Y146.864 E41.88725
G1 X143.3 Y147.052 E41.93367
G1 X142.842 Y147.192 E41.97909
G1 X142.456 Y147.272 E42.01647
G1 X142.045 Y147.321 E42.05573
G1 X141.658 Y147.335 E42.09245
G1 X141.264 Y147.318 E42.12985
G1 X140.867 Y147.268 E42.16779
G1 X140.473 Y147.184 E42.206
G1 X140.107 Y147.076 E42.24218
G1 X139.725 Y146.926 E42.2811
G1 F1802.7 X139.391 Y146.763 E42.31629
G1 F1819.3 X139.049 Y146.558 E42.3537
G1 F1836.2 X138.954 Y146.498 E42.36415
G1 F1827.7 X139.219 Y146.761 E42.39902
G1 F1808.2 X139.591 Y147.127 E42.44828
G1 F1800 X140.178 Y147.716 E42.52714
G1 X140.676 Y148.213 E42.59386
G1 X150.21 Y157.746 E43.87242
G1 X153.079 Y160.613 E44.25705
G1 F1802.7 X153.556 Y161.094 E44.32119
G1 X153.624 Y161.161 E44.33023
G0 F1620 X153.641 Y161.178
G1 F2100 E39.33023
G1 F300 Z0.56
G0 F6000 X157.196 Y154.323 Z0.56
G1 F300 Z0.24
G1 F2100 E44.33023
G1 F1800 X157.554 Y154.297 E44.36427
G1 X157.88 Y154.301 E44.39519
G1 X158.237 Y154.333 E44.42918
G1 X158.358 Y154.353 E44.44081
G1 X158.826 Y154.46 E44.48633
G1 X159.195 Y154.581 E44.52316
G1 X159.522 Y154.726 E44.55708
G1 X159.821 Y154.889 E44.58938
G1 X160.104 Y155.073 E44.62139
G1 X160.374 Y155.282 E44.65377
G1 X160.629 Y155.515 E44.68652
G1 X160.859 Y155.761 E44.71846
G1 X161.074 Y156.036 E44.75156
G1 X161.261 Y156.323 E44.78405
G1 X161.423 Y156.616 E44.81579
G1 X161.567 Y156.934 E44.8489
G1 X161.681 Y157.26 E44.88165
G1 X161.769 Y157.593 E44.91431
G1 X161.792 Y157.72 E44.92655
G1 X161.853 Y158.222 E44.97451
G1 X161.861 Y158.598 E45.01017
G1 X161.838 Y158.936 E45.0423
G1 X161.788 Y159.291 E45.0763
G1 X161.707 Y159.616 E45.10806
G1 X161.609 Y159.926 E45.13889
G1 X161.471 Y160.255 E45.17272
G1 X161.318 Y160.554 E45.20458
G1 X161.14 Y160.841 E45.2366
