;FLAVOR:Marlin
;TIME:1639
;Filament used: 3.06234m
;Layer height: 0.28
;MINX:83.446
;MINY:123.813
;MINZ:0.24
;MAXX:175.934
;MAXY:175.743
;MAXZ:8.4
;Generated with Cura_SteamEngine 5.0.0
M140 S80
M105
M190 S80
M104 S250
M105
M109 S250
M82 ;absolute extrusion mode
; Ender 3 Max Custom Start G-code
G92 E0 ; Reset Extruder
G28 ; Home all axes
G1 Z2.0 F3000 ; Move Z Axis up little to prevent scratching of Heat Bed
G1 X0.1 Y20 Z0.3 F5000.0 ; Move to start position
G1 X0.1 Y200.0 Z0.3 F1500.0 E15 ; Draw the first line
G1 X0.4 Y200.0 Z0.3 F5000.0 ; Move to side a little
G1 X0.4 Y20 Z0.3 F1500.0 E30 ; Draw the second line
G92 E0 ; Reset Extruder
G1 Z2.0 F3000 ; Move Z Axis up little to prevent scratching of Heat Bed
G1 X5 Y20 Z0.3 F5000.0 ; Move over to prevent blob squish
G92 E0
G92 E0
G1 F2100 E-5
;LAYER_COUNT:29
;LAYER:0
M107
G1 F300 Z0.56
G0 F6000 X88.635 Y125.837 Z0.56
G1 F300 Z0.56
G0 F6000 X83.45 Y136.008
;TYPE:SKIRT
G1 F300 Z0.24
G1 F2100 E0
G1 F1800 X83.466 Y135.261 E0.06692
G1 X83.556 Y134.109 E0.17041
G1 X83.586 Y133.885 E0.19065
G1 X83.746 Y132.99 E0.27208
G1 X83.96 Y132.19 E0.34625
G1 X84.024 Y131.984 E0.36557
G1 X84.331 Y131.129 E0.44693
G1 X84.829 Y130.086 E0.55045
G1 X84.99 Y129.792 E0.58047
G1 X85.461 Y129.014 E0.66192
G1 X86.099 Y128.158 E0.75754
G1 X86.23 Y128 E0.77592
G1 X86.841 Y127.327 E0.85734
G1 X87.642 Y126.597 E0.9544
G1 X87.906 Y126.381 E0.98495
G1 X88.635 Y125.837 E1.06642
G1 X89.408 Y125.359 E1.14782
G1 X90.221 Y124.95 E1.22932
G1 X90.728 Y124.739 E1.27851
G1 X91.238 Y124.542 E1.32747
G1 X92.1 Y124.252 E1.40893
G1 X92.984 Y124.038 E1.49039
G1 X93.858 Y123.906 E1.56956
G1 X94.862 Y123.837 E1.65969
G1 X96.182 Y123.813 E1.77793
G1 X121.678 Y123.816 E4.06143
G1 X122.388 Y123.827 E4.12502
G1 X123.083 Y123.861 E4.18735
G1 X126.229 Y124.122 E4.47008
G1 X128.727 Y124.256 E4.69413
G1 X131.293 Y124.323 E4.92402
G1 X133.838 Y124.315 E5.15196
G1 X136.656 Y124.232 E5.40446
G1 X137.288 Y124.225 E5.46107
G1 X163.122 Y124.227 E7.77484
G1 X164.083 Y124.248 E7.86093
G1 X164.453 Y124.267 E7.89411
G1 X165.358 Y124.353 E7.97553
G1 X165.967 Y124.457 E8.03086
G1 X166.205 Y124.505 E8.05261
G1 X167.088 Y124.724 E8.13409
G1 X168.074 Y125.07 E8.22768
G1 X168.546 Y125.263 E8.27335
G1 X169.372 Y125.644 E8.35482
G1 X170.444 Y126.281 E8.4665
G1 X170.653 Y126.423 E8.48913
G1 X171.382 Y126.967 E8.5706
G1 X172.175 Y127.686 E8.66647
G1 X172.513 Y128.026 E8.7094
G1 X173.125 Y128.699 E8.79088
G1 X173.676 Y129.422 E8.87229
G1 X173.973 Y129.875 E8.92081
G1 X174.184 Y130.216 E8.95672
G1 X174.628 Y131.01 E9.0382
G1 X174.971 Y131.762 E9.11222
G1 X175.415 Y133.01 E9.23086
G1 X175.489 Y133.27 E9.25507
G1 X175.699 Y134.155 E9.33654
G1 X175.812 Y134.885 E9.4027
G1 X175.85 Y135.206 E9.43165
G1 X175.92 Y136.246 E9.525
G1 X175.934 Y137.125 E9.60374
G1 X175.932 Y162.935 E11.91536
G1 X175.914 Y163.83 E11.99553
G1 X175.897 Y164.199 E12.02861
G1 X175.815 Y165.104 E12.11
G1 X175.682 Y165.871 E12.17972
G1 X175.617 Y166.177 E12.20774
G1 X175.278 Y167.401 E12.32149
G1 X175.209 Y167.601 E12.34044
G1 X174.875 Y168.447 E12.4219
G1 X174.537 Y169.14 E12.49096
G1 X174.089 Y169.931 E12.57237
G1 X173.744 Y170.448 E12.62804
G1 X173.541 Y170.733 E12.65938
G1 X172.981 Y171.45 E12.74086
G1 X172.165 Y172.301 E12.84646
G1 X171.889 Y172.558 E12.88023
G1 X171.197 Y173.148 E12.96168
G1 X170.297 Y173.775 E13.05992
G1 X169.962 Y173.983 E13.09524
G1 X169.169 Y174.429 E13.17672
G1 X168.341 Y174.803 E13.25809
G1 X167.848 Y174.985 E13.30516
G1 X167.432 Y175.127 E13.34453
G1 X166.56 Y175.382 E13.4259
G1 X165.743 Y175.548 E13.50057
G1 X165.539 Y175.581 E13.51908
G1 X164.532 Y175.694 E13.60983
G1 X164.067 Y175.723 E13.65156
G1 X163.425 Y175.743 E13.70909
G1 X157.196 Y175.743 E14.26697
G1 X156.446 Y175.732 E14.33415
G1 X155.719 Y175.698 E14.39934
G1 X154.864 Y175.607 E14.47635
G1 X154.54 Y175.559 E14.50568
G1 X154.003 Y175.465 E14.55451
G1 X151.796 Y175.018 E14.75619
G1 X149.267 Y174.581 E14.98605
G1 X146.787 Y174.224 E15.21045
G1 X144.239 Y173.93 E15.44017
G1 X141.726 Y173.712 E15.66609
G1 X139.196 Y173.565 E15.89307
G1 X136.673 Y173.489 E16.11914
G1 X134.113 Y173.485 E16.34842
G1 X131.595 Y173.552 E16.57402
G1 X129.059 Y173.692 E16.80149
G1 X126.562 Y173.9 E17.02591
G1 X123.495 Y174.247 E17.30235
G1 X122.531 Y174.31 E17.38887
G1 X121.232 Y174.333 E17.50523
G1 X115.7 Y174.33 E18.00069
G1 X115.049 Y174.321 E18.05901
G1 X114.357 Y174.288 E18.12105
G1 X114.073 Y174.265 E18.14657
G1 X113.171 Y174.152 E18.22799
G1 X112.573 Y174.032 E18.28262
G1 X112.12 Y173.927 E18.32426
G1 X111.244 Y173.683 E18.40571
G1 X110.306 Y173.325 E18.49563
G1 X110.08 Y173.226 E18.51773
G1 X108.935 Y172.637 E18.63305
G1 X108.633 Y172.457 E18.66454
G1 X107.873 Y171.958 E18.74596
G1 X107.357 Y171.56 E18.80433
G1 X107.024 Y171.286 E18.84295
G1 X106.396 Y170.724 E18.91843
G1 X105.887 Y170.229 E18.98202
G1 X87.534 Y151.872 E21.30688
G1 X87.027 Y151.35 E21.37206
G1 X86.562 Y150.838 E21.434
G1 X86.382 Y150.626 E21.45891
G1 X85.824 Y149.908 E21.54036
G1 X85.541 Y149.487 E21.58579
G1 X85.301 Y149.11 E21.62581
G1 X84.847 Y148.322 E21.70727
G1 X84.435 Y147.425 E21.79567
G1 X84.339 Y147.187 E21.81866
G1 X83.913 Y145.893 E21.94067
G1 X83.821 Y145.535 E21.97378
G1 X83.634 Y144.645 E22.05523
G1 X83.545 Y143.966 E22.11656
G1 X83.504 Y143.546 E22.15436
G1 X83.456 Y142.698 E22.23043
G1 X83.446 Y141.945 E22.29787
G1 X83.45 Y137.331 E22.71112
G0 F1620 X83.45 Y136.008
G1 F2100 E17.71112
G1 F300 Z0.56
;MESH:corner_clip_4mm-aza-wall=1.8.stl
G0 F6000 X95.487 Y140.091 Z0.56
;TYPE:WALL-INNER
G1 F300 Z0.24
G1 F2100 E22.71112
G1 F1880.2 X95.459 Y140.435 E22.7434
G1 F2060.6 X95.431 Y140.779 E22.77286
G1 F2026.5 X95.49 Y140.327 E22.81242
G1 F1851.7 X95.537 Y140.099 E22.83453
G1 F1800 X95.704 Y139.647 E22.88161
G1 X95.805 Y139.421 E22.90579
G1 X96.011 Y139.045 E22.94768
G1 X96.142 Y138.84 E22.97145
G1 X96.413 Y138.475 E23.01587
G1 X96.887 Y137.973 E23.08333
G1 X97.171 Y137.735 E23.11953
G1 X97.436 Y137.533 E23.15209
G1 X97.65 Y137.394 E23.17702
G1 X98.039 Y137.18 E23.2204
G1 X98.682 Y136.919 E23.2882
G1 F1743.6 X99.014 Y136.814 E23.32332
G1 F1640.8 X99.346 Y136.708 E23.36068
G1 F1589.6 X99.595 Y136.669 E23.38856
G1 F1597.9 X99.836 Y136.655 E23.41513
G1 F1616.9 X100.077 Y136.641 E23.44139
G1 F1627.7 X100.332 Y136.641 E23.46894
G1 F1612.6 X100.762 Y136.664 E23.51591
G1 F1573.3 X101.01 Y136.688 E23.54376
G1 F1627.7 X101.447 Y136.82 E23.59308
G1 F1733.7 X101.743 Y136.924 E23.62491
G1 F1779.1 X102.04 Y137.029 E23.65605
G1 F1800 X102.296 Y137.141 E23.68335
G1 X102.732 Y137.377 E23.73179
G1 X103.291 Y137.769 E23.7985
G1 X103.474 Y137.926 E23.82206
G1 X103.798 Y138.244 E23.86641
G1 X104.23 Y138.782 E23.93383
G1 X104.369 Y138.993 E23.95851
G1 X104.59 Y139.392 E24.00308
G1 X104.854 Y140.034 E24.0709
G1 X104.925 Y140.265 E24.09451
G1 X105.026 Y140.706 E24.13872
G1 X105.063 Y140.951 E24.16293
G1 X105.099 Y141.406 E24.20752
G1 X105.074 Y142.113 E24.27664
G1 X105.038 Y142.372 E24.30219
G1 X104.937 Y142.839 E24.34887
G1 X104.838 Y143.147 E24.38048
G1 X104.702 Y143.515 E24.41882
G1 X104.586 Y143.761 E24.44539
G1 X104.368 Y144.161 E24.4899
G1 X104.006 Y144.664 E24.55045
G1 X103.844 Y144.852 E24.5747
G1 X103.52 Y145.178 E24.6196
G1 X102.975 Y145.614 E24.68779
G1 X102.76 Y145.754 E24.71286
G1 X102.369 Y145.967 E24.75637
G1 X101.738 Y146.225 E24.82297
G1 X101.502 Y146.296 E24.84705
G1 X101.056 Y146.396 E24.89171
G1 X100.814 Y146.433 E24.91563
G1 X100.358 Y146.468 E24.96031
G1 X99.667 Y146.442 E25.02788
G1 X99.413 Y146.407 E25.05293
G1 X99.009 Y146.32 E25.0933
G1 X100.356 Y147.667 E25.27943
G1 X110.493 Y157.809 E26.68046
G1 X110.707 Y158.02 E26.70982
G1 X111.466 Y158.782 E26.81491
G1 X111.387 Y158.44 E26.8492
G1 X111.35 Y158.197 E26.87322
G1 X111.312 Y157.741 E26.91792
G1 X111.311 Y157.499 E26.94157
G1 X111.339 Y157.026 E26.98786
G1 X111.375 Y156.767 E27.01341
G1 X111.473 Y156.323 E27.05784
G1 X111.538 Y156.099 E27.08063
G1 X111.704 Y155.647 E27.12767
G1 X111.806 Y155.421 E27.1519
G1 X112.011 Y155.044 E27.19383
G1 X112.141 Y154.841 E27.21738
G1 X112.413 Y154.476 E27.26186
G1 X112.887 Y153.973 E27.32939
G1 X113.436 Y153.533 E27.39813
G1 X113.65 Y153.394 E27.42306
G1 X114.047 Y153.176 E27.46731
G1 X114.33 Y153.053 E27.49746
G1 X114.7 Y152.913 E27.53611
G1 X115.024 Y152.826 E27.56889
G1 X115.356 Y152.751 E27.60215
G1 X115.598 Y152.714 E27.62607
G1 X116.08 Y152.678 E27.67329
G1 X116.33 Y152.677 E27.69772
G1 X116.759 Y152.706 E27.73973
G1 X116.999 Y152.741 E27.76343
G1 X117.444 Y152.836 E27.80788
G1 X118.04 Y153.029 E27.86909
G1 X118.296 Y153.141 E27.89639
G1 X118.732 Y153.377 E27.94483
G1 X119.291 Y153.77 E28.0116
G1 X119.474 Y153.926 E28.03509
G1 X119.797 Y154.244 E28.07938
G1 X120.231 Y154.781 E28.14684
G1 X120.368 Y154.993 E28.1715
G1 X120.59 Y155.392 E28.21611
G1 X120.855 Y156.034 E28.28398
G1 F1751.1 X120.943 Y156.261 E28.30843
G1 F1619 X121.081 Y156.693 E28.35769
G1 F1563.2 X121.109 Y156.948 E28.38655
G1 F1606.3 X121.136 Y157.403 E28.43645
G1 F1627.7 X121.137 Y157.644 E28.46249
G1 F1612.6 X121.116 Y158.116 E28.51402
G1 F1597.9 X121.08 Y158.381 E28.54345
G1 F1672.1 X120.95 Y158.822 E28.59181
G1 F1776.5 X120.874 Y159.05 E28.6156
G1 F1800 X120.707 Y159.502 E28.66268
G1 X120.606 Y159.724 E28.68651
G1 X120.401 Y160.102 E28.72853
G1 X120.036 Y160.624 E28.79076
G1 X119.845 Y160.852 E28.81982
G1 X119.521 Y161.178 E28.86473
G1 X118.975 Y161.614 E28.933
G1 X118.759 Y161.754 E28.95815
G1 X118.37 Y161.967 E29.00148
G1 X117.738 Y162.226 E29.06821
G1 F1848.9 X117.497 Y162.279 E29.09168
G1 F2013.2 X117.043 Y162.344 E29.13175
G1 X117.5 Y162.309 E29.17179
G1 F1848.9 X117.75 Y162.291 E29.19563
G1 F1800 X121.924 Y162.293 E29.60345
G1 X121.924 Y159.237 E29.90204
G1 F1776.5 X121.915 Y158.925 E29.93294
G1 F1672.1 X121.882 Y158.467 E29.98123
G1 F1597.9 X121.881 Y158.138 E30.01744
G1 F1608.4 X121.885 Y157.839 E30.05014
G1 F1625.5 X121.89 Y157.54 E30.0825
G1 F1623.3 X121.885 Y157.229 E30.11619
G1 F1600 X121.879 Y156.917 E30.15049
G1 F1563.2 X121.867 Y156.605 E30.18562
G1 F1619 X121.906 Y156.152 E30.23501
G1 F1751.1 X121.924 Y155.836 E30.2668
G1 F1800 X121.924 Y135.856 E32.21894
G1 X101.812 Y135.854 E34.18399
G1 F1756.1 X101.548 Y135.871 E34.21048
G1 F1627.7 X101.093 Y135.908 E34.25981
G1 F1573.3 X100.788 Y135.897 E34.29392
G1 F1612.6 X100.358 Y135.89 E34.34082
G1 F1627.7 X100.049 Y135.89 E34.37421
G1 F1616.9 X99.807 Y135.894 E34.40054
G1 F1597.9 X99.565 Y135.899 E34.42718
G1 F1589.6 X99.257 Y135.898 E34.46125
G1 F1669.8 X98.801 Y135.863 E34.50942
G1 F1776.5 X98.488 Y135.854 E34.54042
G1 F1800 X95.489 Y135.854 E34.83344
G1 X95.487 Y139.191 E35.15948
G0 F1620 X95.487 Y140.091
G1 F2100 E30.15948
G1 F300 Z0.56
G0 F6000 X95.268 Y135.174 Z0.56
G1 F300 Z0.24
G1 F2100 E35.15948
G1 F1800 X95.025 Y135.225 E35.18374
G1 X94.851 Y135.412 E35.20869
G1 X94.809 Y135.656 E35.23289
G1 X94.807 Y142.546 E35.90607
G1 X94.834 Y142.808 E35.93181
G1 X94.922 Y143.078 E35.95955
G1 X95.063 Y143.313 E35.98633
G1 X95.223 Y143.493 E36.00986
G1 X95.693 Y143.965 E36.07494
G1 F1773.9 X96.018 Y144.276 E36.11954
G1 F1761.2 X96.251 Y144.515 E36.15287
G1 F1786.9 X96.484 Y144.755 E36.18579
G1 F1805.3 X96.929 Y145.204 E36.24737
G1 F1784.3 X97.17 Y145.43 E36.27994
G1 F1728.8 X97.411 Y145.656 E36.31355
G1 F1716.7 X97.547 Y145.801 E36.33392
G1 F1748.6 X97.714 Y145.978 E36.35839
G1 F1784.3 X97.882 Y146.155 E36.38245
G1 F1800 X107.358 Y155.633 E37.69194
G1 X110.225 Y158.501 E38.08816
G1 X111.691 Y159.967 E38.29072
G1 F1771.3 X112.017 Y160.278 E38.33545
G1 F1756.1 X112.249 Y160.518 E38.36888
G1 F1781.7 X112.482 Y160.758 E38.4019
G1 F1800 X112.928 Y161.205 E38.4636
G1 F1779.1 X113.169 Y161.431 E38.49626
G1 F1726.4 X113.41 Y161.657 E38.52992
G1 F1714.3 X113.545 Y161.804 E38.55039
G1 F1746.1 X113.712 Y161.981 E38.5749
G1 F1781.7 X113.88 Y162.158 E38.59899
G1 F1800 X114.322 Y162.597 E38.65986
G1 X114.524 Y162.76 E38.68522
G1 X114.781 Y162.891 E38.7134
G1 X115.065 Y162.959 E38.74193
G1 X115.426 Y162.97 E38.77722
G1 X116.227 Y162.971 E38.85548
G1 X116.808 Y162.971 E38.91225
G1 X122.145 Y162.973 E39.4337
G1 X122.387 Y162.921 E39.45789
G1 X122.559 Y162.737 E39.4825
G1 X122.604 Y162.491 E39.50693
G1 X122.605 Y135.631 E42.13129
G1 X122.552 Y135.389 E42.15549
G1 X122.37 Y135.219 E42.17982
G1 X122.127 Y135.176 E42.20394
G1 X101.812 Y135.174 E44.18881
G1 X98.033 Y135.174 E44.55804
G1 X96.591 Y135.174 E44.69893
G0 F1620 X95.268 Y135.174
G0 F6000 X94.145 Y135.435
;TYPE:WALL-OUTER
G1 F1800 X94.129 Y135.656 E44.72058
G1 X94.127 Y142.572 E45.39631
G1 X94.149 Y142.865 E45.42501
G1 X94.218 Y143.159 E45.45452
G1 X94.333 Y143.433 E45.48355
G1 X94.479 Y143.674 E45.51108
G1 X94.671 Y143.904 E45.54036
G1 X96.916 Y146.149 E45.85056
G1 X97.401 Y146.635 E45.91765
G1 X109.744 Y158.982 E47.62343
G1 F1802.7 X112.938 Y162.178 E48.06425
G1 X113.842 Y163.081 E48.18891
G1 F1800 X114.082 Y163.285 E48.21968
G1 X114.324 Y163.436 E48.24755
G1 X114.615 Y163.56 E48.27846
G1 X114.904 Y163.63 E48.30751
G1 X115.183 Y163.65 E48.33484
G1 X122.178 Y163.653 E49.01829
G1 X122.503 Y163.601 E49.05044
G1 X122.789 Y163.477 E49.0809
G1 X123.031 Y163.254 E49.11305
G1 X123.204 Y162.976 E49.14505
G1 X123.267 Y162.711 E49.17166
G1 X123.284 Y162.491 E49.19322
G1 X123.285 Y135.597 E51.8209
G1 X123.234 Y135.277 E51.85256
G1 X123.107 Y134.984 E51.88376
G1 X122.889 Y134.747 E51.91522
G1 X122.609 Y134.575 E51.94733
G1 X122.344 Y134.512 E51.97394
G1 X122.127 Y134.496 E51.9952
G1 X101.812 Y134.494 E53.98008
G1 X98.033 Y134.494 E54.3493
G1 X95.234 Y134.494 E54.62278
G1 X94.992 Y134.532 E54.64671
G0 F1620 X94.911 Y134.544
G0 X94.624 Y134.669
G0 X94.38 Y134.892
G0 X94.208 Y135.171
G0 X94.145 Y135.435
G0 F6000 X94.129 Y135.656
G0 X94.129 Y135.755
G1 F2100 E49.64671
G1 F300 Z0.56
G0 F6000 X100.711 Y137.385 Z0.56
;TYPE:WALL-INNER
G1 F300 Z0.24
G1 F2100 E54.64671
G1 F1802.7 X101.3 Y137.502 E54.7053
G1 X101.819 Y137.672 E54.75858
G1 F1800 X101.972 Y137.739 E54.7749
G1 X102.408 Y137.975 E54.82334
G1 X102.887 Y138.317 E54.88085
G1 X103.32 Y138.728 E54.93918
G1 X103.691 Y139.196 E54.99753
G1 X103.995 Y139.721 E55.0568
G1 X104.22 Y140.278 E55.11549
G1 X104.363 Y140.858 E55.17386
G1 X104.421 Y141.46 E55.23295
G1 X104.395 Y142.073 E55.2929
G1 X104.323 Y142.464 E55.33174
G1 X104.258 Y142.749 E55.3603
G1 X104.069 Y143.266 E55.41409
G1 X103.804 Y143.777 E55.47033
G1 X103.459 Y144.26 E55.52832
G1 X103.038 Y144.699 E55.58775
G1 X102.563 Y145.073 E55.64682
G1 X102.043 Y145.37 E55.70533
G1 X101.495 Y145.59 E55.76303
G1 X100.907 Y145.732 E55.82213
G1 X100.306 Y145.79 E55.88112
G1 X99.709 Y145.763 E55.93951
G1 X99.111 Y145.646 E55.99905
G1 X98.591 Y145.474 E56.05256
G1 X98.44 Y145.407 E56.0687
G1 F1784.3 X98.223 Y145.297 E56.09268
G1 F1748.6 X98.005 Y145.186 E56.11729
G1 F1746.1 X97.758 Y145.003 E56.14825
G1 F1776.5 X97.511 Y144.82 E56.17868
G1 F1802.7 X97.092 Y144.415 E56.23553
G1 F1792.1 X96.898 Y144.184 E56.26514
G1 F1746.1 X96.704 Y143.953 E56.29552
G1 F1741.1 X96.56 Y143.688 E56.32598
G1 F1781.7 X96.416 Y143.423 E56.35576
G1 F1800 X96.193 Y142.866 E56.41438
G1 X96.123 Y142.605 E56.44078
G1 X96.039 Y142.236 E56.47775
G1 X95.991 Y141.686 E56.5317
G1 X96.018 Y141.067 E56.59223
G1 F1802.7 X96.137 Y140.468 E56.65181
G1 X96.176 Y140.334 E56.66543
G1 F1800 X96.342 Y139.882 E56.71248
G1 X96.608 Y139.369 E56.76894
G1 X96.958 Y138.882 E56.82753
G1 X97.371 Y138.451 E56.88586
G1 X97.583 Y138.276 E56.91272
G1 X97.849 Y138.073 E56.94541
G1 X98.367 Y137.776 E57.00375
G1 X98.923 Y137.555 E57.06221
G1 F1802.7 X99.505 Y137.415 E57.12061
G1 X99.65 Y137.392 E57.13493
G1 F1800 X100.132 Y137.355 E57.18216
G1 X100.588 Y137.379 E57.22678
G0 F1620 X100.711 Y137.385
G0 F6000 X100.184 Y138.033
;TYPE:WALL-OUTER
G1 F1800 X100.664 Y138.063 E57.27377
G1 F1802.7 X101.157 Y138.167 E57.32292
G1 X101.597 Y138.315 E57.36821
G1 F1800 X101.648 Y138.337 E57.37364
G1 X102.084 Y138.573 E57.42208
G1 X102.483 Y138.864 E57.47033
G1 X102.843 Y139.213 E57.51932
G1 X103.151 Y139.61 E57.56841
G1 X103.4 Y140.051 E57.6179
G1 X103.585 Y140.522 E57.66734
G1 X103.7 Y141.01 E57.71632
G1 X103.743 Y141.514 E57.76575
G1 X103.716 Y142.033 E57.81652
G1 X103.658 Y142.32 E57.84513
G1 X103.606 Y142.557 E57.86884
G1 X103.422 Y143.054 E57.92062
