;FLAVOR:Marlin
;TIME:1820
;Filament used: 2.92648m
;Layer height: 0.28
;MINX:83.456
;MINY:123.823
;MINZ:0.24
;MAXX:175.924
;MAXY:175.733
;MAXZ:8.4
;Generated with Cura_SteamEngine 5.0.0
M140 S80
M105
M190 S80
M104 S250
M105
M109 S250
M82 ;absolute extrusion mode
; Ender 3 Max Custom Start G-code
G92 E0 ; Reset Extruder
G28 ; Home all axes
G1 Z2.0 F3000 ; Move Z Axis up little to prevent scratching of Heat Bed
G1 X0.1 Y20 Z0.3 F5000.0 ; Move to start position
G1 X0.1 Y200.0 Z0.3 F1500.0 E15 ; Draw the first line
G1 X0.4 Y200.0 Z0.3 F5000.0 ; Move to side a little
G1 X0.4 Y20 Z0.3 F1500.0 E30 ; Draw the second line
G92 E0 ; Reset Extruder
G1 Z2.0 F3000 ; Move Z Axis up little to prevent scratching of Heat Bed
G1 X5 Y20 Z0.3 F5000.0 ; Move over to prevent blob squish
G92 E0
G92 E0
G1 F2100 E-5
;LAYER_COUNT:29
;LAYER:0
M107
G1 F300 Z0.56
G0 F6000 X88.641 Y125.845 Z0.56
G1 F300 Z0.56
G0 F6000 X83.46 Y136.008
;TYPE:SKIRT
G1 F300 Z0.24
G1 F2100 E0
G1 F1800 X83.476 Y135.261 E0.06495
G1 X83.565 Y134.111 E0.16522
G1 X83.595 Y133.887 E0.18486
G1 X83.756 Y132.992 E0.26391
G1 X83.969 Y132.193 E0.3358
G1 X84.033 Y131.987 E0.35455
G1 X84.341 Y131.132 E0.43355
G1 X84.838 Y130.09 E0.5339
G1 X84.999 Y129.796 E0.56304
G1 X85.47 Y129.019 E0.64202
G1 X86.107 Y128.165 E0.73464
G1 X86.238 Y128.007 E0.75248
G1 X86.848 Y127.333 E0.8315
G1 X87.649 Y126.605 E0.92559
G1 X87.913 Y126.389 E0.95525
G1 X88.641 Y125.845 E1.03425
G1 X89.414 Y125.367 E1.11325
G1 X90.226 Y124.959 E1.19225
G1 X90.732 Y124.748 E1.2399
G1 X91.242 Y124.551 E1.28743
G1 X92.103 Y124.261 E1.36641
G1 X92.987 Y124.048 E1.44545
G1 X93.859 Y123.916 E1.52212
G1 X94.862 Y123.847 E1.60951
G1 X96.182 Y123.823 E1.72428
G1 X121.678 Y123.826 E3.94061
G1 X122.388 Y123.837 E4.00234
G1 X123.082 Y123.871 E4.06274
G1 X126.228 Y124.132 E4.33716
G1 X128.725 Y124.266 E4.55453
G1 X131.293 Y124.333 E4.77784
G1 X133.838 Y124.325 E4.99907
G1 X136.656 Y124.242 E5.24414
G1 X137.288 Y124.235 E5.29909
G1 X163.122 Y124.237 E7.5448
G1 X164.083 Y124.258 E7.62836
G1 X164.453 Y124.277 E7.66057
G1 X165.357 Y124.363 E7.73951
G1 X165.965 Y124.467 E7.79313
G1 X166.203 Y124.515 E7.81423
G1 X167.085 Y124.734 E7.89323
G1 X168.071 Y125.079 E7.98404
G1 X168.543 Y125.272 E8.02837
G1 X169.368 Y125.653 E8.10736
G1 X170.438 Y126.29 E8.21561
G1 X170.647 Y126.432 E8.23757
G1 X171.376 Y126.975 E8.31659
G1 X172.168 Y127.693 E8.40952
G1 X172.506 Y128.033 E8.45119
G1 X173.118 Y128.705 E8.53021
G1 X173.668 Y129.429 E8.60924
G1 X173.964 Y129.881 E8.65621
G1 X174.175 Y130.222 E8.69107
G1 X174.619 Y131.015 E8.77007
G1 X174.962 Y131.766 E8.84184
G1 X175.405 Y133.013 E8.95688
G1 X175.479 Y133.273 E8.98038
G1 X175.69 Y134.157 E9.05938
G1 X175.802 Y134.887 E9.12358
G1 X175.84 Y135.208 E9.15168
G1 X175.91 Y136.246 E9.24212
G1 X175.924 Y137.125 E9.31854
G1 X175.922 Y162.935 E11.56217
G1 X175.904 Y163.829 E11.6399
G1 X175.887 Y164.198 E11.67201
G1 X175.805 Y165.104 E11.75109
G1 X175.673 Y165.869 E11.81857
G1 X175.608 Y166.175 E11.84577
G1 X175.268 Y167.398 E11.95611
G1 X175.199 Y167.598 E11.9745
G1 X174.865 Y168.443 E12.05349
G1 X174.528 Y169.136 E12.12047
G1 X174.08 Y169.927 E12.1995
G1 X173.736 Y170.442 E12.25333
G1 X173.533 Y170.727 E12.28375
G1 X172.974 Y171.443 E12.36271
G1 X172.159 Y172.294 E12.46514
G1 X171.883 Y172.551 E12.49793
G1 X171.191 Y173.14 E12.57692
G1 X170.292 Y173.767 E12.6722
G1 X169.957 Y173.975 E12.70648
G1 X169.165 Y174.42 E12.78545
G1 X168.336 Y174.794 E12.86451
G1 X167.845 Y174.975 E12.91
G1 X167.429 Y175.117 E12.94821
G1 X166.557 Y175.373 E13.02721
G1 X165.742 Y175.538 E13.09949
G1 X165.538 Y175.571 E13.11746
G1 X164.531 Y175.684 E13.20554
G1 X164.066 Y175.713 E13.24604
G1 X163.425 Y175.733 E13.30179
G1 X157.197 Y175.733 E13.84318
G1 X156.447 Y175.722 E13.90839
G1 X155.72 Y175.688 E13.97165
G1 X154.865 Y175.597 E14.0464
G1 X154.005 Y175.456 E14.12215
G1 X151.77 Y175.003 E14.32039
G1 X149.298 Y174.576 E14.53846
G1 X146.758 Y174.21 E14.76154
G1 X144.24 Y173.92 E14.98187
G1 X141.727 Y173.702 E15.20114
G1 X139.198 Y173.555 E15.42136
G1 X136.673 Y173.479 E15.64095
G1 X134.113 Y173.475 E15.86349
G1 X131.594 Y173.542 E16.08254
G1 X129.058 Y173.682 E16.30333
G1 X126.561 Y173.89 E16.52114
G1 X123.494 Y174.237 E16.78945
G1 X122.531 Y174.3 E16.87334
G1 X121.232 Y174.323 E16.98628
G1 X115.7 Y174.32 E17.46717
G1 X115.049 Y174.311 E17.52377
G1 X114.358 Y174.278 E17.5839
G1 X114.074 Y174.255 E17.60867
G1 X113.172 Y174.142 E17.68769
G1 X112.575 Y174.022 E17.74063
G1 X112.122 Y173.917 E17.78105
G1 X111.247 Y173.673 E17.86002
G1 X110.31 Y173.316 E17.94718
G1 X110.084 Y173.217 E17.96863
G1 X108.94 Y172.628 E18.08048
G1 X108.638 Y172.448 E18.11104
G1 X107.879 Y171.949 E18.19
G1 X107.364 Y171.552 E18.24653
G1 X107.031 Y171.278 E18.28402
G1 X106.403 Y170.717 E18.35722
G1 X105.894 Y170.222 E18.41894
G1 X87.541 Y151.865 E20.67542
G1 X87.034 Y151.343 E20.73868
G1 X86.57 Y150.832 E20.79868
G1 X86.39 Y150.62 E20.82286
G1 X85.832 Y149.902 E20.9019
G1 X85.55 Y149.481 E20.94595
G1 X85.31 Y149.104 E20.9848
G1 X84.856 Y148.317 E21.06378
G1 X84.444 Y147.421 E21.14951
G1 X84.348 Y147.183 E21.17182
G1 X83.923 Y145.89 E21.29013
G1 X83.831 Y145.532 E21.32226
G1 X83.644 Y144.643 E21.40124
G1 X83.555 Y143.965 E21.46068
G1 X83.514 Y143.545 E21.49736
G1 X83.466 Y142.698 E21.57111
G1 X83.456 Y141.945 E21.63657
G1 X83.46 Y137.371 E22.03418
G0 F1620 X83.46 Y136.008
G1 F2100 E17.03418
G1 F300 Z0.56
;MESH:corner_clip_4mm-aza-wall=1.8.stl
G0 F6000 X117.043 Y162.344 Z0.56
;TYPE:WALL-INNER
G1 F300 Z0.24
G1 F2100 E22.03418
G1 F1811 X117.75 Y162.341 E22.10082
G1 F1800 X121.974 Y162.343 E22.50139
G1 X121.974 Y159.237 E22.79594
G1 F1781.1 X121.967 Y158.925 E22.82585
G1 F1616.3 X121.907 Y158.467 E22.87463
G1 F1483.1 X121.901 Y158.138 E22.9125
G1 X121.905 Y157.839 E22.94691
G1 F1498.1 X121.91 Y157.54 E22.98099
G1 F1496.2 X121.905 Y157.229 E23.01647
G1 F1475.8 X121.899 Y156.917 E23.05257
G1 F1443.5 X121.887 Y156.605 E23.08949
G1 F1546.9 X121.953 Y156.152 E23.14
G1 F1744.5 X121.974 Y155.836 E23.17099
G1 F1800 X121.974 Y135.806 E25.07046
G1 X101.812 Y135.804 E26.98245
G1 F1747.1 X101.548 Y135.824 E27.00832
G1 F1555 X101.093 Y135.888 E27.05876
G1 F1452.3 X100.788 Y135.877 E27.09463
G1 F1486.9 X100.358 Y135.87 E27.144
G1 F1500 X100.049 Y135.87 E27.17917
G1 F1490.6 X99.807 Y135.874 E27.20688
G1 F1473.9 X99.565 Y135.879 E27.23491
G1 F1479.5 X99.257 Y135.871 E27.27046
G1 F1620.7 X98.801 Y135.809 E27.31893
G1 F1786.5 X98.488 Y135.804 E27.34884
G1 F1800 X95.439 Y135.804 E27.63798
G1 X95.437 Y140.091 E28.04452
G1 F1811 X95.434 Y140.435 E28.07695
G1 F1830.5 X95.431 Y140.779 E28.10903
G1 F1824.9 X95.523 Y140.334 E28.15153
G1 F1805.5 X95.584 Y140.117 E28.17284
G1 F1800 X95.751 Y139.664 E28.21863
G1 X96.055 Y139.069 E28.28199
G1 X96.453 Y138.505 E28.34745
G1 X96.922 Y138.008 E28.41226
G1 X97.201 Y137.775 E28.44673
G1 X97.467 Y137.573 E28.4784
G1 X97.674 Y137.438 E28.50184
G1 X98.063 Y137.223 E28.54399
G1 X98.7 Y136.966 E28.60913
G1 F1711.8 X99.026 Y136.85 E28.64363
G1 F1559.1 X99.352 Y136.734 E28.68151
G1 F1479.5 X99.597 Y136.689 E28.71025
G1 F1473.9 X99.838 Y136.675 E28.73821
G1 F1490.6 X100.079 Y136.661 E28.76586
G1 F1500 X100.331 Y136.661 E28.79453
G1 F1486.9 X100.76 Y136.684 E28.84386
G1 F1452.3 X101.006 Y136.707 E28.87289
G1 F1555 X101.437 Y136.866 E28.92332
G1 F1721.7 X101.73 Y136.971 E28.95418
G1 F1773.1 X102.024 Y137.076 E28.98424
G1 F1800 X102.272 Y137.185 E29.00992
G1 X102.708 Y137.421 E29.05694
G1 X103.262 Y137.81 E29.12113
G1 X103.762 Y138.279 E29.18614
G1 X104.191 Y138.812 E29.25103
G1 X104.325 Y139.017 E29.27425
G1 X104.546 Y139.416 E29.31751
G1 X104.808 Y140.052 E29.38274
G1 X104.977 Y140.717 E29.4478
G1 X105.013 Y140.955 E29.47063
G1 X105.049 Y141.41 E29.51391
G1 X105.024 Y142.11 E29.58034
G1 X104.989 Y142.362 E29.60447
G1 X104.888 Y142.828 E29.64968
G1 X104.791 Y143.13 E29.67976
G1 X104.655 Y143.498 E29.71697
G1 X104.542 Y143.737 E29.74204
G1 X104.325 Y144.135 E29.78503
G1 X103.966 Y144.634 E29.84332
G1 X103.809 Y144.817 E29.86619
G1 X103.485 Y145.143 E29.90977
G1 X102.945 Y145.574 E29.97529
G1 X102.736 Y145.71 E29.99894
G1 X102.345 Y145.923 E30.04116
G1 X101.72 Y146.179 E30.10521
G1 X101.045 Y146.347 E30.17118
G1 X100.354 Y146.418 E30.23705
G1 X99.67 Y146.392 E30.30196
G1 X99.424 Y146.358 E30.32551
G1 X98.979 Y146.262 E30.36868
G1 X98.84 Y146.223 E30.38237
G1 X99.267 Y146.647 E30.43944
G1 X99.788 Y147.17 E30.50944
G1 X100.321 Y147.702 E30.58086
G1 X100.576 Y147.959 E30.61519
G1 X102.181 Y149.563 E30.83037
G1 X111.561 Y158.947 E32.08861
G1 X111.436 Y158.429 E32.13914
G1 X111.362 Y157.737 E32.20514
G1 X111.389 Y157.029 E32.27233
G1 X111.424 Y156.778 E32.29636
G1 X111.521 Y156.334 E32.33946
G1 X111.585 Y156.117 E32.36091
G1 X111.751 Y155.665 E32.40658
G1 X111.85 Y155.445 E32.42946
G1 X112.055 Y155.068 E32.47015
G1 X112.453 Y154.506 E32.53546
G1 X112.922 Y154.008 E32.60033
G1 X113.467 Y153.573 E32.66646
G1 X113.674 Y153.438 E32.68989
G1 X114.071 Y153.22 E32.73284
G1 X114.347 Y153.1 E32.76138
G1 X114.717 Y152.96 E32.7989
G1 X115.035 Y152.875 E32.83011
G1 X115.367 Y152.799 E32.86241
G1 X115.602 Y152.764 E32.88494
G1 X116.084 Y152.727 E32.93079
G1 X116.326 Y152.727 E32.95374
G1 X116.756 Y152.756 E32.99461
G1 X117.434 Y152.885 E33.06005
G1 X118.023 Y153.076 E33.11877
G1 X118.272 Y153.185 E33.14455
G1 X118.708 Y153.421 E33.19157
G1 X119.262 Y153.81 E33.25576
G1 X119.762 Y154.279 E33.32077
G1 X120.191 Y154.812 E33.38565
G1 X120.325 Y155.017 E33.40888
G1 X120.546 Y155.416 E33.45213
G1 X120.808 Y156.052 E33.51736
G1 F1689.9 X120.935 Y156.375 E33.55242
G1 F1501.9 X121.062 Y156.698 E33.59187
G1 F1443.5 X121.089 Y156.95 E33.62184
G1 F1481.3 X121.116 Y157.405 E33.67436
G1 F1492.5 X121.106 Y157.76 E33.71498
G1 F1481.3 X121.096 Y158.115 E33.7559
G1 F1483.1 X121.055 Y158.376 E33.78631
G1 F1616.3 X120.9 Y158.811 E33.83508
G1 F1781.1 X120.827 Y159.032 E33.85738
G1 F1800 X120.66 Y159.484 E33.90308
G1 X120.357 Y160.078 E33.96631
G1 X119.995 Y160.594 E34.02609
G1 X119.809 Y160.817 E34.05363
G1 X119.486 Y161.143 E34.09715
G1 X118.945 Y161.574 E34.16274
G1 X118.735 Y161.71 E34.18647
G1 X118.346 Y161.923 E34.22852
G1 X117.72 Y162.179 E34.29266
G1 F1811 X117.043 Y162.344 E34.35834
G1 F2100 E29.35834
G1 F300 Z0.56
G0 F6000 X112.048 Y157.069 Z0.56
G1 F300 Z0.24
G1 F2100 E34.35834
G1 F1800 X112.069 Y156.918 E34.3728
G1 X112.166 Y156.474 E34.4159
G1 X112.204 Y156.344 E34.42874
G1 X112.37 Y155.892 E34.4744
G1 X112.635 Y155.384 E34.52874
G1 X112.983 Y154.9 E34.58527
G1 X113.392 Y154.472 E34.64141
G1 X113.867 Y154.097 E34.6988
G1 X114.381 Y153.803 E34.75495
G1 X114.934 Y153.583 E34.81139
G1 X115.179 Y153.519 E34.83541
G1 X115.511 Y153.443 E34.8677
G1 X115.653 Y153.422 E34.88132
G1 X116.135 Y153.385 E34.92716
G1 X116.71 Y153.415 E34.98176
G1 X117.294 Y153.531 E35.03822
G1 X117.809 Y153.7 E35.08963
G1 X117.958 Y153.766 E35.10508
G1 X118.394 Y154.002 E35.15209
G1 X118.87 Y154.341 E35.20751
G1 X119.299 Y154.75 E35.26372
G1 X119.667 Y155.214 E35.31988
G1 X119.969 Y155.736 E35.37707
G1 X120.192 Y156.289 E35.43362
G1 X120.334 Y156.865 E35.48987
G1 X120.392 Y157.462 E35.54675
G1 X120.365 Y158.071 E35.60456
G1 F1802.7 X120.247 Y158.67 E35.66237
G1 X120.208 Y158.804 E35.67559
G1 F1800 X120.041 Y159.256 E35.72128
G1 X119.777 Y159.763 E35.77549
G1 X119.465 Y160.202 E35.82656
G1 X119.017 Y160.678 E35.88855
G1 X118.545 Y161.049 E35.94548
G1 X118.029 Y161.343 E36.0018
G1 X117.484 Y161.562 E36.0575
G1 X116.9 Y161.704 E36.1145
G1 X116.303 Y161.76 E36.17136
G1 X115.711 Y161.733 E36.22756
G1 X115.372 Y161.671 E36.26024
G1 X115.118 Y161.616 E36.28488
G1 X114.601 Y161.445 E36.33652
G1 X114.454 Y161.38 E36.35177
G1 F1765.2 X114.234 Y161.276 E36.3753
G1 F1699.6 X114.013 Y161.171 E36.39987
G1 F1675.6 X113.517 Y160.813 E36.46219
G1 F1694.7 X113.098 Y160.408 E36.52088
G1 F1685.1 X112.905 Y160.178 E36.5513
G1 F1643.2 X112.711 Y159.948 E36.58255
G1 F1663.9 X112.577 Y159.678 E36.61348
G1 F1752.2 X112.442 Y159.408 E36.64288
G1 F1800 X112.221 Y158.855 E36.69936
G1 X112.079 Y158.281 E36.75543
G1 X112.02 Y157.683 E36.81242
G1 X112.031 Y157.452 E36.83435
G0 F1620 X112.048 Y157.069
G0 F6000 X112.723 Y158.134
;TYPE:WALL-OUTER
G1 F1800 X112.678 Y157.63 E36.87833
G1 X112.707 Y157.109 E36.92369
G1 X112.714 Y157.059 E36.92808
G1 X112.811 Y156.615 E36.96759
G1 X112.824 Y156.572 E36.97149
G1 X112.99 Y156.12 E37.01335
G1 X113.215 Y155.699 E37.05485
G1 X113.512 Y155.294 E37.09851
G1 X113.862 Y154.936 E37.14203
G1 X114.267 Y154.622 E37.18658
G1 X114.699 Y154.381 E37.22958
G1 X115.167 Y154.201 E37.27317
G1 X115.536 Y154.115 E37.3061
G1 X115.703 Y154.08 E37.32093
G1 X116.185 Y154.043 E37.36296
G1 X116.664 Y154.073 E37.40468
G1 X117.155 Y154.176 E37.44829
G1 X117.594 Y154.324 E37.48856
G1 X117.644 Y154.346 E37.49331
G1 X118.08 Y154.582 E37.53641
G1 X118.478 Y154.872 E37.57921
G1 X118.836 Y155.22 E37.62261
G1 X119.143 Y155.616 E37.66617
G1 X119.391 Y156.056 E37.71008
G1 X119.576 Y156.526 E37.75398
G1 X119.69 Y157.012 E37.79738
G1 X119.734 Y157.514 E37.84118
G1 X119.706 Y158.032 E37.88628
G1 F1802.7 X119.601 Y158.53 E37.93045
G1 X119.589 Y158.575 E37.9345
G1 F1800 X119.422 Y159.027 E37.97638
G1 X119.197 Y159.447 E38.0178
G1 X118.934 Y159.81 E38.05677
G1 X118.549 Y160.212 E38.10516
G1 X118.145 Y160.524 E38.14953
G1 X117.713 Y160.764 E38.19249
G1 X117.248 Y160.946 E38.2359
G1 X116.756 Y161.06 E38.2798
G1 X116.253 Y161.102 E38.32368
G1 X115.751 Y161.074 E38.36738
G1 X115.512 Y161.026 E38.38857
G1 X115.232 Y160.965 E38.41348
G1 X114.817 Y160.821 E38.45167
G1 X114.768 Y160.8 E38.4563
G1 F1802.7 X114.34 Y160.567 E38.4986
G1 X113.923 Y160.264 E38.54334
G1 F1800 X113.574 Y159.925 E38.58564
G1 X113.264 Y159.525 E38.62963
G1 X113.02 Y159.09 E38.67298
G1 X112.837 Y158.619 E38.71691
G1 X112.82 Y158.548 E38.72326
G0 F1620 X112.723 Y158.134
G0 F6000 X112.695 Y157.816
G1 F2100 E33.72326
G1 F300 Z0.56
G0 F6000 X103.017 Y144.677 Z0.56
;TYPE:WALL-INNER
G1 F300 Z0.24
G1 F2100 E38.72326
G1 F1800 X102.545 Y145.049 E38.78025
G1 X102.029 Y145.344 E38.83661
G1 X101.484 Y145.562 E38.89228
G1 X100.9 Y145.703 E38.94925
G1 X100.304 Y145.76 E39.00603
G1 X99.711 Y145.733 E39.06232
G1 X99.118 Y145.617 E39.11962
G1 X98.601 Y145.445 E39.17129
G1 X98.454 Y145.381 E39.18649
G1 F1765.2 X98.234 Y145.276 E39.21007
G1 F1699.6 X98.013 Y145.171 E39.23464
G1 F1678 X97.517 Y144.812 E39.29693
G1 F1699.6 X97.099 Y144.408 E39.35531
G1 F1689.9 X96.906 Y144.178 E39.38564
G1 F1647.7 X96.712 Y143.947 E39.41689
G1 F1666.2 X96.577 Y143.678 E39.44772
G1 F1754.8 X96.442 Y143.408 E39.47709
G1 F1800 X96.221 Y142.855 E39.53356
G1 X96.152 Y142.598 E39.5588
G1 X96.069 Y142.231 E39.59448
G1 X96.021 Y141.683 E39.64665
G1 X96.048 Y141.069 E39.70493
G1 X96.167 Y140.474 E39.76247
G1 X96.204 Y140.344 E39.77529
G1 X96.37 Y139.892 E39.82095
G1 X96.635 Y139.384 E39.87529
G1 X96.982 Y138.9 E39.93176
G1 X97.392 Y138.472 E39.98797
G1 X97.601 Y138.3 E40.01364
G1 X97.867 Y138.097 E40.04537
G1 X98.381 Y137.802 E40.10157
G1 X98.933 Y137.583 E40.15789
G1 F1802.7 X99.512 Y137.444 E40.21427
G1 X99.653 Y137.422 E40.22778
G1 F1800 X100.135 Y137.385 E40.27362
G1 X100.709 Y137.415 E40.32813
G1 F1802.7 X101.294 Y137.531 E40.3846
G1 X101.809 Y137.7 E40.43592
G1 F1800 X101.958 Y137.766 E40.45138
G1 X102.394 Y138.002 E40.49839
G1 X102.87 Y138.341 E40.55381
G1 X103.299 Y138.75 E40.61002
G1 X103.667 Y139.214 E40.66618
G1 X103.969 Y139.736 E40.72337
G1 X104.192 Y140.289 E40.77991
G1 X104.334 Y140.864 E40.83608
G1 X104.391 Y141.462 E40.89305
G1 X104.365 Y142.071 E40.95085
G1 X104.293 Y142.458 E40.98818
G1 X104.229 Y142.741 E41.0157
G1 X104.041 Y143.256 E41.06769
G1 X104.013 Y143.324 E41.07466
G1 X103.858 Y143.612 E41.10568
G0 F1620 X103.777 Y143.762
G0 X103.435 Y144.242
G0 X103.017 Y144.677
G1 F2100 E36.10568
G1 F300 Z0.56
G0 F6000 X97.215 Y139.699 Z0.56
;TYPE:WALL-OUTER
G1 F300 Z0.24
G1 F2100 E41.10568
G1 F1800 X97.512 Y139.294 E41.14933
G1 X97.862 Y138.936 E41.19286
G1 X98.267 Y138.622 E41.2374
G1 X98.699 Y138.381 E41.28041
G1 X99.167 Y138.201 E41.32399
G1 F1802.7 X99.656 Y138.088 E41.36756
G1 X99.703 Y138.08 E41.37169
G1 F1800 X100.185 Y138.043 E41.41372
G1 X100.663 Y138.073 E41.45535
