;FLAVOR:Marlin
;TIME:811
;Filament used: 1.36254m
;Layer height: 0.32
;MINX:124.09
;MINY:124.09
;MINZ:0.24
;MAXX:175.91
;MAXY:175.91
;MAXZ:8.24
;Generated with Cura_SteamEngine 5.0.0
M140 S80
M105
M190 S80
M104 S250
M105
M109 S250
M82 ;absolute extrusion mode
; Ender 3 Max Custom Start G-code
G92 E0 ; Reset Extruder
G28 ; Home all axes
G1 Z2.0 F3000 ; Move Z Axis up little to prevent scratching of Heat Bed
G1 X0.1 Y20 Z0.3 F5000.0 ; Move to start position
G1 X0.1 Y200.0 Z0.3 F1500.0 E15 ; Draw the first line
G1 X0.4 Y200.0 Z0.3 F5000.0 ; Move to side a little
G1 X0.4 Y20 Z0.3 F1500.0 E30 ; Draw the second line
G92 E0 ; Reset Extruder
G1 Z2.0 F3000 ; Move Z Axis up little to prevent scratching of Heat Bed
G1 X5 Y20 Z0.3 F5000.0 ; Move over to prevent blob squish
G92 E0
G92 E0
G1 F2100 E-5
;LAYER_COUNT:25
;LAYER:0
M107
G1 F300 Z0.56
G0 F6000 X128.351 Y146.755 Z0.56
G1 F300 Z0.56
G0 F6000 X124.093 Y156.955
;TYPE:SKIRT
G1 F300 Z0.24
G1 F2100 E0
G1 F1800 X124.102 Y156.329 E0.04535
G1 X124.133 Y155.647 E0.09481
G1 X124.154 Y155.373 E0.11471
G1 X124.266 Y154.442 E0.18264
G1 X124.388 Y153.811 E0.2292
G1 X124.485 Y153.378 E0.26134
G1 X124.729 Y152.472 E0.32931
G1 X125.088 Y151.498 E0.40451
G1 X125.198 Y151.238 E0.42496
G1 X125.599 Y150.391 E0.49285
G1 X125.864 Y149.918 E0.53212
G1 X126.069 Y149.572 E0.56126
G1 X126.581 Y148.787 E0.62915
G1 X127.201 Y147.997 E0.7019
G1 X127.414 Y147.75 E0.72552
G1 X127.809 Y147.316 E0.76803
G1 X128.351 Y146.755 E0.82454
G1 X146.747 Y128.364 E2.70889
G1 X147.277 Y127.848 E2.76248
G1 X147.895 Y127.29 E2.82279
G1 X148.157 Y127.071 E2.84753
G1 X148.901 Y126.501 E2.91542
G1 X149.477 Y126.124 E2.96529
G1 X149.757 Y125.953 E2.98906
G1 X150.577 Y125.499 E3.05696
G1 X151.332 Y125.157 E3.117
G1 X151.626 Y125.037 E3.14
G1 X152.508 Y124.72 E3.2079
G1 X153.068 Y124.562 E3.25005
G1 X153.453 Y124.464 E3.27883
G1 X154.371 Y124.271 E3.34678
G1 X155.362 Y124.153 E3.41908
G1 X155.69 Y124.129 E3.4429
G1 X156.257 Y124.103 E3.48402
G1 X156.964 Y124.09 E3.53524
G1 X163.075 Y124.094 E3.97793
G1 X163.826 Y124.11 E4.03234
G1 X165.064 Y124.207 E4.1223
G1 X165.286 Y124.237 E4.13853
G1 X166.209 Y124.402 E4.20645
G1 X167.046 Y124.624 E4.26918
G1 X167.254 Y124.688 E4.28494
G1 X168.137 Y125.002 E4.35283
G1 X169.23 Y125.514 E4.44026
G1 X169.505 Y125.662 E4.46289
G1 X170.311 Y126.142 E4.53084
G1 X170.943 Y126.587 E4.58684
G1 X171.668 Y127.181 E4.65473
G1 X172.439 Y127.94 E4.73311
G1 X172.782 Y128.313 E4.76982
G1 X173.386 Y129.03 E4.83773
G1 X173.927 Y129.795 E4.9056
G1 X174.388 Y130.577 E4.97136
G1 X174.483 Y130.755 E4.98598
G1 X174.888 Y131.601 E5.05392
G1 X175.291 Y132.698 E5.13858
G1 X175.391 Y133.023 E5.16322
G1 X175.628 Y133.93 E5.23113
G1 X175.82 Y135.141 E5.31995
G1 X175.886 Y136.146 E5.39291
G1 X175.91 Y137.476 E5.48927
G1 X175.906 Y163.012 E7.33911
G1 X175.892 Y163.781 E7.39483
G1 X175.796 Y165.046 E7.48673
G1 X175.766 Y165.269 E7.50303
G1 X175.601 Y166.192 E7.57095
G1 X175.393 Y166.989 E7.63062
G1 X175.327 Y167.207 E7.64712
G1 X175.017 Y168.091 E7.71498
G1 X174.446 Y169.303 E7.81203
G1 X174.286 Y169.595 E7.83615
G1 X173.801 Y170.397 E7.90405
G1 X173.249 Y171.155 E7.97197
G1 X172.635 Y171.863 E8.03986
G1 X172.196 Y172.302 E8.08484
G1 X171.797 Y172.679 E8.1246
G1 X171.089 Y173.293 E8.19249
G1 X170.331 Y173.845 E8.26042
G1 X169.443 Y174.376 E8.33537
G1 X169.264 Y174.472 E8.35008
G1 X168.42 Y174.879 E8.41796
G1 X167.284 Y175.297 E8.50565
G1 X166.957 Y175.397 E8.53042
G1 X166.05 Y175.632 E8.59829
G1 X164.874 Y175.819 E8.68455
G1 X163.836 Y175.887 E8.7599
G1 X162.524 Y175.91 E8.85496
G1 X136.988 Y175.906 E10.7048
G1 X136.219 Y175.892 E10.76052
G1 X134.924 Y175.792 E10.85461
G1 X134.691 Y175.76 E10.87165
G1 X133.768 Y175.593 E10.93959
G1 X132.954 Y175.376 E11.00062
G1 X132.746 Y175.312 E11.01639
G1 X131.863 Y174.998 E11.08427
G1 X130.697 Y174.446 E11.17773
G1 X130.405 Y174.286 E11.20185
G1 X129.603 Y173.801 E11.26974
G1 X128.845 Y173.249 E11.33767
G1 X128.137 Y172.635 E11.40556
G1 X127.689 Y172.186 E11.4515
G1 X127.311 Y171.785 E11.49142
G1 X126.698 Y171.076 E11.55932
G1 X126.147 Y170.318 E11.6272
G1 X125.663 Y169.515 E11.69512
G1 X125.08 Y168.267 E11.79491
G1 X124.889 Y167.781 E11.83274
G1 X124.583 Y166.895 E11.90064
G1 X124.354 Y165.985 E11.96861
G1 X124.191 Y164.951 E12.04444
G1 X124.113 Y163.839 E12.12519
G1 X124.09 Y162.526 E12.22032
G1 X124.093 Y158.318 E12.52515
G0 F1620 X124.093 Y156.955
G0 F6000 X124.753 Y156.965
G1 F1800 X124.762 Y156.339 E12.57051
G1 X124.791 Y155.698 E12.61699
G1 X124.812 Y155.424 E12.63689
G1 X124.921 Y154.521 E12.70278
G1 X125.032 Y153.955 E12.74457
G1 X125.129 Y153.522 E12.77671
G1 X125.366 Y152.645 E12.84252
G1 X125.695 Y151.755 E12.91126
G1 X125.805 Y151.495 E12.93171
G1 X126.196 Y150.674 E12.99758
G1 X126.637 Y149.908 E13.06161
G1 X127.134 Y149.148 E13.12739
G1 X127.701 Y148.428 E13.19378
G1 X127.914 Y148.181 E13.21741
G1 X128.285 Y147.773 E13.25735
G1 X128.817 Y147.222 E13.31284
G1 X147.207 Y128.836 E15.19662
G1 X147.737 Y128.32 E15.25021
G1 X148.318 Y127.796 E15.30688
G1 X148.58 Y127.577 E15.33162
G1 X149.302 Y127.026 E15.39741
G1 X149.821 Y126.687 E15.44232
G1 X150.101 Y126.516 E15.46609
G1 X150.897 Y126.077 E15.53194
G1 X151.581 Y125.768 E15.58631
G1 X151.875 Y125.648 E15.60931
G1 X152.731 Y125.342 E15.67516
G1 X153.231 Y125.201 E15.7128
G1 X153.616 Y125.103 E15.74157
G1 X154.506 Y124.918 E15.80742
G1 X155.41 Y124.812 E15.87336
G1 X156.271 Y124.762 E15.93584
G1 X156.964 Y124.75 E15.98605
G1 X163.061 Y124.754 E16.42772
G1 X163.812 Y124.77 E16.48213
G1 X164.975 Y124.861 E16.56664
G1 X165.197 Y124.891 E16.58286
G1 X166.092 Y125.052 E16.64874
G1 X166.852 Y125.255 E16.70572
G1 X167.06 Y125.319 E16.72149
G1 X167.916 Y125.624 E16.78732
G1 X168.917 Y126.096 E16.86749
G1 X169.192 Y126.244 E16.89011
G1 X169.973 Y126.709 E16.95595
G1 X170.547 Y127.115 E17.00689
G1 X171.249 Y127.692 E17.07271
G1 X171.953 Y128.387 E17.14438
G1 X172.296 Y128.76 E17.18108
G1 X172.881 Y129.455 E17.24689
G1 X173.403 Y130.199 E17.31273
G1 X173.805 Y130.888 E17.37051
G1 X173.9 Y131.066 E17.38513
G1 X174.293 Y131.886 E17.451
G1 X174.66 Y132.892 E17.52857
G1 X174.76 Y133.217 E17.55321
G1 X174.989 Y134.097 E17.61908
G1 X175.164 Y135.208 E17.70055
G1 X175.226 Y136.159 E17.76959
G1 X175.25 Y137.476 E17.86501
G1 X175.246 Y163 E19.71398
G1 X175.232 Y163.769 E19.7697
G1 X175.142 Y164.958 E19.85608
G1 X175.112 Y165.181 E19.87238
G1 X174.951 Y166.076 E19.93825
G1 X174.761 Y166.797 E19.99226
G1 X174.695 Y167.015 E20.00876
G1 X174.393 Y167.873 E20.07466
G1 X173.867 Y168.986 E20.16383
G1 X173.707 Y169.278 E20.18795
G1 X173.236 Y170.055 E20.25377
G1 X172.698 Y170.788 E20.31964
G1 X172.098 Y171.47 E20.38544
G1 X171.742 Y171.822 E20.42171
G1 X171.343 Y172.199 E20.46147
G1 X170.656 Y172.794 E20.52731
G1 X169.919 Y173.326 E20.59316
G1 X169.131 Y173.794 E20.65955
G1 X168.952 Y173.89 E20.67426
G1 X168.133 Y174.284 E20.7401
G1 X167.091 Y174.665 E20.82047
G1 X166.764 Y174.765 E20.84524
G1 X165.884 Y174.993 E20.91109
G1 X164.806 Y175.162 E20.99014
G1 X163.824 Y175.227 E21.06143
G1 X162.524 Y175.25 E21.15562
G1 X137 Y175.246 E23.00459
G1 X136.231 Y175.232 E23.06031
G1 X135.013 Y175.138 E23.1488
G1 X134.78 Y175.106 E23.16584
G1 X133.886 Y174.943 E23.23167
G1 X133.148 Y174.745 E23.28702
G1 X132.94 Y174.681 E23.30278
G1 X132.084 Y174.376 E23.36861
G1 X131.014 Y173.867 E23.45445
G1 X130.722 Y173.707 E23.47857
G1 X129.945 Y173.236 E23.54439
G1 X129.212 Y172.698 E23.61025
G1 X128.53 Y172.098 E23.67606
G1 X128.169 Y171.734 E23.71319
G1 X127.791 Y171.333 E23.75311
G1 X127.197 Y170.645 E23.81896
G1 X126.667 Y169.907 E23.88478
G1 X126.203 Y169.125 E23.95065
G1 X125.694 Y168.025 E24.03845
G1 X125.503 Y167.539 E24.07628
G1 X125.208 Y166.68 E24.14207
G1 X124.99 Y165.797 E24.20796
G1 X124.846 Y164.872 E24.27577
G1 X124.773 Y163.826 E24.35173
G1 X124.75 Y162.526 E24.44591
G1 X124.753 Y158.328 E24.75002
G0 F1620 X124.753 Y156.965
G1 F2100 E19.75002
G1 F300 Z0.56
;MESH:corner_clip_4mm-aza-wall=1.8.stl
G0 F6000 X158.294 Y136.725 Z0.56
;TYPE:WALL-INNER
G1 F300 Z0.24
G1 F2100 E24.75002
G1 F1824.9 X158.739 Y136.817 E24.78054
G1 F1805.5 X159.349 Y137.02 E24.82419
G1 F1800 X159.564 Y137.115 E24.84019
G1 X159.99 Y137.341 E24.87303
G1 X160.198 Y137.471 E24.88973
G1 X160.561 Y137.74 E24.9205
G1 X160.744 Y137.897 E24.93692
G1 X161.07 Y138.221 E24.96821
G1 X161.298 Y138.495 E24.99249
G1 X161.501 Y138.761 E25.01527
G1 X161.635 Y138.968 E25.03206
G1 X161.849 Y139.358 E25.06235
G1 X162.108 Y139.994 E25.10911
G1 F1689.9 X162.233 Y140.318 E25.1343
G1 F1503.8 X162.359 Y140.642 E25.16264
G1 F1445.3 X162.384 Y140.886 E25.18344
G1 F1481.3 X162.411 Y141.341 E25.22115
G1 F1500 X162.412 Y141.586 E25.24117
G1 F1486.9 X162.391 Y142.044 E25.27897
G1 F1483.1 X162.351 Y142.297 E25.30014
G1 F1614.1 X162.195 Y142.729 E25.33501
G1 F1770.5 X162.096 Y143.023 E25.35649
G1 F1791.9 X161.997 Y143.318 E25.37778
G1 F1800 X161.888 Y143.566 E25.39622
G1 X161.651 Y144.002 E25.43001
G1 X161.263 Y144.555 E25.47601
G1 X160.796 Y145.055 E25.5226
G1 X160.255 Y145.49 E25.56987
G1 X160.048 Y145.625 E25.5867
G1 X159.654 Y145.842 E25.61733
G1 X159.023 Y146.1 E25.66375
G1 X158.356 Y146.27 E25.71062
G1 X157.664 Y146.343 E25.758
G1 X156.956 Y146.317 E25.80625
G1 X156.704 Y146.282 E25.82357
G1 X156.245 Y146.181 E25.85557
G1 X155.882 Y146.064 E25.88154
G1 X155.615 Y145.967 E25.90089
G1 X155.274 Y145.799 E25.92677
G1 X154.936 Y145.618 E25.95288
G1 X154.438 Y145.259 E25.99469
G1 X153.929 Y144.778 E26.04237
G1 X153.498 Y144.238 E26.08942
G1 X153.365 Y144.032 E26.10612
G1 X153.15 Y143.64 E26.13656
G1 X152.891 Y143.002 E26.18345
G1 X152.726 Y142.338 E26.23004
G1 X152.655 Y141.651 E26.27707
G1 X152.682 Y140.96 E26.32416
G1 X152.717 Y140.715 E26.34101
G1 X152.819 Y140.245 E26.37376
G1 X152.852 Y140.133 E26.38171
G1 X140.505 Y152.478 E27.57062
G1 X140.126 Y152.854 E27.60698
G1 X140.644 Y152.73 E27.64325
G1 X140.883 Y152.693 E27.65972
G1 X141.366 Y152.655 E27.69271
G1 X141.607 Y152.654 E27.70912
G1 X142.054 Y152.684 E27.73962
G1 X142.295 Y152.718 E27.7562
G1 X142.739 Y152.815 E27.78714
G1 X143.349 Y153.02 E27.83096
G1 X143.564 Y153.115 E27.84697
G1 X143.99 Y153.341 E27.87981
G1 X144.197 Y153.472 E27.89649
G1 X144.561 Y153.74 E27.92727
G1 X144.744 Y153.897 E27.94369
G1 X145.07 Y154.221 E27.97499
G1 X145.501 Y154.761 E28.02203
G1 X145.635 Y154.968 E28.03882
G1 X145.866 Y155.389 E28.07152
G1 X146.02 Y155.764 E28.09913
G1 X146.118 Y156.025 E28.11811
G1 X146.194 Y156.31 E28.1382
G1 X146.274 Y156.661 E28.16271
G1 X146.344 Y157.346 E28.2096
G1 X146.317 Y158.039 E28.25682
G1 X146.284 Y158.282 E28.27352
G1 X146.188 Y158.727 E28.30452
G1 X145.997 Y159.317 E28.34675
G1 X145.888 Y159.566 E28.36526
G1 X145.652 Y160.002 E28.39902
G1 X145.263 Y160.556 E28.44511
G1 X144.796 Y161.054 E28.4916
G1 X144.254 Y161.49 E28.53897
G1 X144.048 Y161.625 E28.55574
G1 X143.653 Y161.842 E28.58643
G1 X143.023 Y162.1 E28.63278
G1 F1714.3 X142.697 Y162.217 E28.65755
G1 F1563.2 X142.371 Y162.335 E28.68473
G1 F1481.3 X142.127 Y162.382 E28.70529
G1 X141.669 Y162.41 E28.74326
G1 F1500 X141.425 Y162.411 E28.7632
G1 F1488.7 X140.951 Y162.39 E28.80226
G1 F1454.1 X140.686 Y162.364 E28.82471
G1 F1555 X140.256 Y162.205 E28.86085
G1 F1721.7 X139.954 Y162.093 E28.88378
G1 F1773.1 X139.651 Y161.98 E28.90613
G1 F1800 X139.436 Y161.886 E28.92211
G1 X139.008 Y161.658 E28.95513
G1 X138.8 Y161.527 E28.97187
G1 X138.438 Y161.259 E29.00254
G1 X137.929 Y160.778 E29.05023
G1 X137.498 Y160.239 E29.09722
G1 X137.364 Y160.032 E29.11401
G1 X137.149 Y159.64 E29.14446
G1 X136.891 Y159.001 E29.19138
G1 F1813.7 X136.813 Y158.669 E29.21443
G1 F1839 X136.735 Y158.336 E29.23722
G1 F1853.4 X136.721 Y158.26 E29.24233
G1 F1844.7 X136.725 Y158.525 E29.25994
G1 F1822.1 X136.73 Y158.79 E29.27777
G1 F1805.5 X136.732 Y159.487 E29.32509
G1 F1800 X136.73 Y163.268 E29.58255
G1 X139.855 Y163.268 E29.79535
G1 F1747.1 X140.144 Y163.248 E29.81567
G1 F1555 X140.598 Y163.184 E29.85181
G1 F1454.1 X140.927 Y163.195 E29.87956
G1 F1481.3 X141.229 Y163.199 E29.90455
G1 F1496.2 X141.531 Y163.204 E29.92929
G1 F1492.5 X141.845 Y163.198 E29.95509
G1 F1473.9 X142.16 Y163.192 E29.98129
G1 F1481.3 X142.469 Y163.201 E30.00687
G1 F1625.2 X142.925 Y163.264 E30.04158
G1 F1789.2 X143.239 Y163.268 E30.0631
G1 F1800 X163.268 Y163.269 E31.42695
G1 X163.269 Y143.106 E32.79994
G1 F1781.1 X163.262 Y142.842 E32.81811
G1 F1614.1 X163.201 Y142.387 E32.85297
G1 F1483.1 X163.196 Y142.069 E32.87925
G1 F1486.9 X163.203 Y141.611 E32.91701
G1 F1500 X163.203 Y141.31 E32.94161
G1 F1481.3 X163.194 Y140.854 E32.97935
G1 F1445.3 X163.182 Y140.551 E33.00506
G1 F1548.9 X163.249 Y140.095 E33.04154
G1 F1747.1 X163.269 Y139.782 E33.06354
G1 F1800 X163.269 Y136.733 E33.27116
G1 X158.971 Y136.731 E33.56383
G1 F1811 X158.632 Y136.728 E33.58677
G1 F1830.5 X158.293 Y136.725 E33.60947
G1 F2100 E28.60947
G1 F300 Z0.56
G0 F6000 X163.459 Y136.072 Z0.56
G1 F300 Z0.24
G1 F2100 E33.60947
G1 F1800 X157.604 Y136.071 E34.00816
G1 X156.528 Y136.071 E34.08143
G1 X156.253 Y136.099 E34.10026
G1 X155.981 Y136.189 E34.11977
G1 X155.739 Y136.335 E34.13901
G1 X155.554 Y136.5 E34.15589
G1 X155.087 Y136.966 E34.20081
G1 F1739.4 X154.784 Y137.3 E34.23259
G1 F1689.9 X154.308 Y137.773 E34.28126
G1 F1702 X153.853 Y138.226 E34.3275
G1 F1682.7 X153.646 Y138.447 E34.34956
G1 F1636.4 X153.439 Y138.668 E34.37224
G1 F1656.9 X153.198 Y138.882 E34.39608
G1 F1749.6 X152.956 Y139.097 E34.41876
G1 F1800 X139.085 Y152.964 E35.75434
G1 F1739.4 X138.783 Y153.299 E35.78612
G1 F1687.5 X138.306 Y153.772 E35.83491
G1 F1697.1 X137.851 Y154.225 E35.88128
G1 F1678 X137.644 Y154.445 E35.90335
G1 F1631.9 X137.437 Y154.665 E35.92604
G1 F1634.1 X137.312 Y154.776 E35.93858
G1 F1692.3 X137.132 Y154.935 E35.95597
G1 F1762.6 X136.952 Y155.095 E35.97272
G1 F1800 X136.467 Y155.58 E36.01942
G1 X136.289 Y155.801 E36.03875
G1 X136.156 Y156.06 E36.05857
G1 X136.087 Y156.336 E36.07794
G1 X136.073 Y156.718 E36.10397
G1 X136.07 Y163.444 E36.56198
G1 X136.127 Y163.696 E36.57957
G1 X136.298 Y163.867 E36.59604
G1 X136.541 Y163.928 E36.6131
G1 X163.416 Y163.929 E38.44313
G1 X163.666 Y163.889 E38.46037
G1 X163.863 Y163.709 E38.47854
G1 X163.928 Y163.459 E38.49613
G1 X163.929 Y137.17 E40.28625
G0 F1620 X163.929 Y136.581
G0 X163.889 Y136.334
G0 X163.715 Y136.14
G0 X163.459 Y136.072
G0 F6000 X163.728 Y135.438
;TYPE:WALL-OUTER
G1 F1800 X163.432 Y135.412 E40.30649
G1 X156.504 Y135.411 E40.77824
G1 X156.205 Y135.433 E40.79866
G1 X155.911 Y135.502 E40.81922
G1 X155.635 Y135.618 E40.83961
G1 X155.393 Y135.764 E40.85885
G1 X155.163 Y135.957 E40.8793
G1 X152.946 Y138.174 E41.0928
G1 X135.982 Y155.132 E42.72613
G1 X135.78 Y155.369 E42.74734
G1 X135.627 Y155.615 E42.76707
G1 X135.506 Y155.901 E42.78821
G1 X135.438 Y156.176 E42.8075
G1 X135.413 Y156.474 E42.82786
G1 X135.41 Y163.476 E43.30466
G1 X135.462 Y163.8 E43.327
G1 X135.587 Y164.089 E43.34845
G1 X135.812 Y164.333 E43.37105
G1 X136.094 Y164.507 E43.39361
G1 X136.36 Y164.571 E43.41224
G1 X136.579 Y164.588 E43.4272
G1 X163.416 Y164.589 E45.25464
G1 X163.702 Y164.567 E45.27417
G1 X164.006 Y164.456 E45.29621
G1 X164.268 Y164.268 E45.31817
G1 X164.444 Y164.023 E45.33871
G1 X164.562 Y163.728 E45.36035
G1 X164.588 Y163.432 E45.38058
G1 X164.589 Y136.581 E47.20897
G1 X164.574 Y136.398 E47.22148
G0 F1620 X164.567 Y136.299
G0 X164.455 Y135.993
G0 X164.268 Y135.731
G0 X164.031 Y135.56
G0 X163.728 Y135.438
G0 F6000 X163.432 Y135.412
G0 X163.409 Y135.412
G1 F2100 E42.22148
G1 F300 Z0.56
G0 F6000 X154.024 Y143.838 Z0.56
;TYPE:WALL-INNER
G1 F300 Z0.24
G1 F2100 E47.22148
G1 F1800 X153.729 Y143.323 E47.26189
G1 X153.509 Y142.769 E47.30248
G1 X153.37 Y142.194 E47.34276
G1 X153.313 Y141.599 E47.38346
G1 X153.341 Y141.002 E47.42416
G1 X153.362 Y140.855 E47.43427
G1 X153.464 Y140.385 E47.46702
G1 X153.661 Y139.825 E47.50745
G1 F1765.2 X153.799 Y139.539 E47.5295
G1 F1697.1 X153.938 Y139.252 E47.55253
G1 F1675.6 X154.248 Y138.826 E47.59106
G1 F1699.6 X154.664 Y138.395 E47.63426
G1 F1687.5 X154.894 Y138.201 E47.65612
G1 F1645.4 X155.125 Y138.006 E47.67864
G1 F1666.2 X155.395 Y137.871 E47.70084
G1 F1754.8 X155.665 Y137.736 E47.72193
G1 F1800 X156.212 Y137.516 E47.76208
