; generated by PrusaSlicer 2.6.0+win64 on 2023-08-03 at 05:50:17 UTC

; 

; external perimeters extrusion width = 0.68mm
; perimeters extrusion width = 0.68mm
; infill extrusion width = 0.68mm
; solid infill extrusion width = 0.68mm
; top infill extrusion width = 0.60mm

M201 X9000 Y9000 Z500 E10000 ; sets maximum accelerations, mm/sec^2
M203 X500 Y500 Z12 E120 ; sets maximum feedrates, mm / sec
M204 S1500 T1500 ; sets acceleration (S) and retract acceleration (R), mm/sec^2
M205 X10.00 Y10.00 Z0.20 E2.50 ; sets the jerk limits, mm/sec
M205 S0 T0 ; sets the minimum extruding and travel feed rate, mm/sec
M190 S80 ; set bed temperature and wait for it to be reached
M104 S250 ; set temperature
;TYPE:Custom
G28 ; home all axes
G1 Z5 F5000 ; lift nozzle
M109 S250 ; set temperature and wait for it to be reached
G21 ; set units to millimeters
G90 ; use absolute coordinates
M82 ; use absolute distances for extrusion
G92 E0
; Filament gcode
M107
;LAYER_CHANGE
;Z:0.28
;HEIGHT:0.28
G1 Z.28 F6000
G1 E-5 F2100
G92 E0
G1 Z.6 F6000
G1 X131.182 Y130.859
G1 Z.28
G1 E5 F2100
;TYPE:Skirt/Brim
;WIDTH:0.675
G1 F1800
G1 X132.125 Y130.098 E5.08674
G1 X133.053 Y129.556 E5.16367
G1 X134.199 Y129.095 E5.25209
G1 X135.222 Y128.853 E5.32734
G1 X136.475 Y128.746 E5.41736
G1 X163.767 Y128.751 E7.37098
G1 X165.227 Y128.942 E7.47638
G1 X166.205 Y129.234 E7.54944
G1 X167.524 Y129.874 E7.65438
G1 X168.611 Y130.67 E7.75082
G1 X169.62 Y131.741 E7.85615
G1 X170.198 Y132.595 E7.92997
G1 X170.81 Y133.917 E8.03425
G1 X171.147 Y135.222 E8.13073
G1 X171.254 Y136.475 E8.22075
G1 X171.255 Y163.5 E10.15526
G1 X171.058 Y165.227 E10.27968
G1 X170.479 Y166.878 E10.40492
G1 X169.93 Y167.833 E10.48377
G1 X169.33 Y168.611 E10.5541
G1 X168.669 Y169.278 E10.62132
G1 X167.833 Y169.93 E10.69721
G1 X166.947 Y170.444 E10.77053
G1 X166.083 Y170.809 E10.83767
G1 X164.778 Y171.147 E10.93417
G1 X163.526 Y171.254 E11.02412
G1 X156.272 Y171.251 E11.54338
G1 X154.744 Y171.074 E11.65349
G1 X153.483 Y170.707 E11.7475
G1 X152.426 Y170.227 E11.8306
G1 X151.322 Y169.517 E11.92456
G1 X150.647 Y168.948 E11.98775
G1 X131.251 Y149.561 E13.9508
G1 X130.272 Y148.386 E14.06028
G1 X129.807 Y147.636 E14.12345
G1 X129.306 Y146.555 E14.20874
G1 X128.941 Y145.326 E14.30051
G1 X128.799 Y144.455 E14.36368
G1 X128.745 Y136.501 E14.93306
G1 X128.942 Y134.773 E15.05756
G1 X129.234 Y133.795 E15.13062
G1 X129.771 Y132.65 E15.22115
G1 X130.333 Y131.801 E15.29403
G1 X131.122 Y130.926 E15.37837
;WIPE_START
G1 F4800
G1 X132.125 Y130.098 E14.8378
G1 X133.053 Y129.556 E14.39113
G1 X134.199 Y129.095 E13.87773
G1 X135.222 Y128.853 E13.44081
G1 X136.475 Y128.746 E12.91814
G1 X142.586 Y128.747 E10.37837
;WIPE_END
G92 E0
G1 Z.6 F6000
G1 X136.212 Y143.792
G1 Z.28
G1 E5 F2100
;TYPE:Perimeter
;WIDTH:0.726101
G1 F1800
G1 X136.161 Y143.57 E5.01766
G1 X136.147 Y143.163 E5.04923
;WIDTH:0.698986
G1 X136.133 Y142.756 E5.07952
;WIDTH:0.693289
G1 X136.133 Y141.067 E5.20402
;WIDTH:0.675
G1 X136.127 Y136.604 E5.52349
G1 X136.198 Y136.3 E5.54584
G1 X136.333 Y136.179 E5.55882
G1 X136.505 Y136.136 E5.57151
G1 X163.413 Y136.128 E7.49764
G1 X163.637 Y136.162 E7.51386
G1 X163.808 Y136.327 E7.53087
G1 X163.864 Y136.496 E7.54361
G1 X163.873 Y163.395 E9.4691
G1 X163.813 Y163.668 E9.48911
G1 X163.674 Y163.81 E9.50333
G1 X163.421 Y163.873 E9.52199
G1 X159.32 Y163.873 E9.81555
;WIDTH:0.717319
G1 X158.427 Y163.852 E9.88389
G1 X157.243 Y163.873 E9.97449
;WIDTH:0.709911
G1 X156.566 Y163.853 E10.02572
;WIDTH:0.733765
G1 X156.055 Y163.746 E10.06666
G1 X155.634 Y163.463 E10.10644
G1 X155.213 Y163.041 E10.15319
;WIDTH:0.773853
G1 X155.068 Y162.868 E10.17195
;WIDTH:0.813941
G1 X154.923 Y162.695 E10.19176
;WIDTH:0.854029
G1 X154.778 Y162.522 E10.21262
G1 X154.928 Y162.596 E10.22808
;WIDTH:0.820122
G1 X155.307 Y162.764 E10.26476
;WIDTH:0.776943
G1 X155.686 Y162.932 E10.29936
;WIDTH:0.733765
G1 X156.321 Y163.131 E10.35155
G1 X156.768 Y163.221 E10.38731
;WIDTH:0.700929
G1 X157.588 Y163.259 E10.44855
;WIDTH:0.717319
G1 X158.393 Y163.196 E10.51033
G1 X158.7 Y163.126 E10.53442
;WIDTH:0.704562
G1 X159.467 Y162.834 E10.59599
;WIDTH:0.675
G1 X160.426 Y162.259 E10.67603
G1 X160.808 Y161.928 E10.71221
G1 X161.195 Y161.475 E10.75486
G1 X161.677 Y160.791 E10.81476
G1 X162.002 Y160.045 E10.87301
G1 X162.195 Y159.281 E10.92942
G1 X162.241 Y158.966 E10.95221
G1 X162.244 Y158.11 E11.01348
G1 X162.037 Y157.049 E11.09086
G1 X161.731 Y156.31 E11.14811
G1 X161.281 Y155.609 E11.20774
G1 X160.534 Y154.828 E11.2851
G1 X159.877 Y154.372 E11.34235
G1 X159.12 Y154.024 E11.40199
G1 X158.07 Y153.771 E11.4793
G1 X157.213 Y153.749 E11.54067
G1 X156.451 Y153.857 E11.59576
G1 X156.149 Y153.932 E11.61803
G1 X155.404 Y154.222 E11.67526
G1 X154.692 Y154.656 E11.73495
G1 X153.897 Y155.384 E11.81211
G1 X153.399 Y156.084 E11.8736
G1 X152.957 Y157.068 E11.95082
G1 X152.78 Y157.857 E12.0087
G1 X152.739 Y158.647 E12.06533
G1 X152.837 Y159.457 E12.12373
G1 X153.181 Y160.509 E12.20296
;WIDTH:0.718758
G1 X153.261 Y160.694 E12.21841
;WIDTH:0.762516
G1 X153.342 Y160.88 E12.235
;WIDTH:0.806274
G1 X153.423 Y161.065 E12.25254
;WIDTH:0.850033
G1 X153.503 Y161.25 E12.27107
G1 X153.397 Y161.17 E12.28328
;WIDTH:0.81146
G1 X153.29 Y161.091 E12.29491
;WIDTH:0.772887
G1 X153.08 Y160.916 E12.31759
;WIDTH:0.723943
G1 X152.87 Y160.74 E12.33876
;WIDTH:0.675
G1 X139.473 Y147.343 E13.69497
;WIDTH:0.72325
G1 X139.375 Y147.211 E13.70766
;WIDTH:0.7715
G1 X139.277 Y147.079 E13.72128
;WIDTH:0.81975
G1 X139.179 Y146.947 E13.73582
;WIDTH:0.868
G1 X139.081 Y146.815 E13.75128
;WIDTH:0.916251
G1 X138.983 Y146.683 E13.76767
G1 X139.08 Y146.714 E13.77782
;WIDTH:0.874584
G1 X139.177 Y146.746 E13.7875
;WIDTH:0.832916
G1 X139.273 Y146.777 E13.79658
;WIDTH:0.79125
G1 X139.533 Y146.863 E13.81989
;WIDTH:0.7525
G1 X139.793 Y146.948 E13.84194
;WIDTH:0.71375
G1 X140.052 Y147.034 E13.86271
;WIDTH:0.675
G1 X141.148 Y147.251 E13.94269
G1 X141.927 Y147.245 E13.99845
G1 X142.701 Y147.11 E14.05469
G1 X143.47 Y146.832 E14.11322
G1 X144.426 Y146.259 E14.193
G1 X145.023 Y145.7 E14.25154
G1 X145.471 Y145.114 E14.30434
G1 X145.677 Y144.791 E14.33176
G1 X146.002 Y144.045 E14.39001
G1 X146.195 Y143.281 E14.44642
G1 X146.241 Y142.966 E14.46921
G1 X146.244 Y142.11 E14.53048
G1 X146.037 Y141.049 E14.60786
G1 X145.731 Y140.31 E14.66511
G1 X145.281 Y139.609 E14.72474
G1 X144.534 Y138.828 E14.8021
G1 X143.877 Y138.372 E14.85935
G1 X143.12 Y138.024 E14.91899
G1 X142.07 Y137.771 E14.9963
G1 X141.213 Y137.749 E15.05767
G1 X140.149 Y137.932 E15.13495
G1 X139.353 Y138.252 E15.19636
G1 X138.45 Y138.841 E15.27353
G1 X137.845 Y139.45 E15.33498
G1 X137.25 Y140.35 E15.41221
G1 X136.936 Y141.149 E15.47366
;WIDTH:0.693289
G1 X136.769 Y141.901 E15.53044
G1 X136.746 Y142.211 E15.55335
;WIDTH:0.684636
G1 X136.76 Y143.02 E15.61218
;WIDTH:0.726324
G1 X136.83 Y143.561 E15.65449
G1 X136.992 Y144.096 E15.69784
;WIDTH:0.725251
G1 X137.189 Y144.575 E15.73794
;WIDTH:0.764551
G1 X137.309 Y144.817 E15.76009
;WIDTH:0.80385
G1 X137.429 Y145.059 E15.78348
;WIDTH:0.843149
G1 X137.549 Y145.301 E15.8081
G1 X137.345 Y145.124 E15.83272
;WIDTH:0.80385
G1 X137.141 Y144.948 E15.85605
;WIDTH:0.764551
G1 X136.937 Y144.771 E15.8782
;WIDTH:0.725251
G1 X136.527 Y144.361 E15.9231
G1 X136.245 Y143.933 E15.96279
;WIDTH:0.726101
G1 X136.233 Y143.88 E15.967
G1 X135.588 Y143.937 F6000
;WIDTH:0.675
G1 F1800
G1 X135.521 Y143.647 E15.98831
G1 X135.522 Y136.459 E16.50284
G1 X135.648 Y136.014 E16.53595
G1 X135.983 Y135.667 E16.57048
G1 X136.43 Y135.521 E16.60414
G1 X163.468 Y135.513 E18.53958
G1 X163.873 Y135.591 E18.5691
G1 X164.172 Y135.786 E18.59465
G1 X164.413 Y136.147 E18.62572
G1 X164.479 Y136.496 E18.65114
G1 X164.488 Y163.449 E20.58049
G1 X164.421 Y163.794 E20.60565
G1 X164.275 Y164.078 E20.62851
G1 X164.078 Y164.276 E20.6485
G1 X163.837 Y164.405 E20.66807
G1 X163.451 Y164.488 E20.69633
G1 X156.491 Y164.481 E21.19454
G1 X155.956 Y164.398 E21.23329
G1 X155.503 Y164.175 E21.26943
G1 X155.196 Y163.936 E21.29728
G1 X136.484 Y145.224 E23.19154
G1 X135.935 Y144.653 E23.24824
G1 X135.639 Y144.161 E23.28934
G1 X135.608 Y144.025 E23.29932
G1 X134.983 Y144.088 F6000
;TYPE:External perimeter
G1 F1800
G1 X134.906 Y143.696 E23.32792
G1 X134.898 Y136.605 E23.83551
G1 X134.93 Y136.191 E23.86523
G1 X135.046 Y135.87 E23.88966
G1 X135.257 Y135.493 E23.92059
G1 X135.52 Y135.256 E23.94593
G1 X135.883 Y135.024 E23.97677
G1 X136.354 Y134.907 E24.01151
G1 X163.413 Y134.898 E25.94845
G1 X163.817 Y134.931 E25.97747
G1 X164.24 Y135.09 E26.00982
G1 X164.621 Y135.358 E26.04316
G1 X164.918 Y135.759 E26.07888
G1 X165.031 Y136.034 E26.10016
G1 X165.093 Y136.495 E26.13346
G1 X165.102 Y163.395 E28.05902
G1 X165.07 Y163.809 E28.08874
G1 X164.908 Y164.258 E28.12291
G1 X164.626 Y164.636 E28.15667
G1 X164.26 Y164.907 E28.18927
G1 X163.796 Y165.072 E28.22452
G1 X163.48 Y165.103 E28.24725
G1 X156.736 Y165.103 E28.73
G1 X156.17 Y165.062 E28.77062
G1 X155.725 Y164.969 E28.80316
G1 X155.202 Y164.711 E28.8449
G1 X154.778 Y164.387 E28.8831
G1 X136.049 Y145.659 E30.77903
G1 X135.468 Y145.053 E30.83912
G1 X135.219 Y144.67 E30.87182
G1 X135.001 Y144.176 E30.91047
G1 X135.259 Y143.799 F6000
;WIPE_START
G1 F4800
G1 X134.906 Y143.696 E30.7071
G1 X134.898 Y136.605 E27.7599
G1 X134.93 Y136.191 E27.58732
G1 X135.046 Y135.87 E27.44546
G1 X135.257 Y135.493 E27.2659
G1 X135.52 Y135.256 E27.11876
G1 X135.883 Y135.024 E26.93971
G1 X136.354 Y134.907 E26.738
G1 X138.345 Y134.906 E25.91047
;WIPE_END
G92 E0
G1 Z.6 F6000
G1 X156.736 Y162.569
G1 Z.28
G1 E5 F2100
;TYPE:Perimeter
G1 F1800
G1 X156.255 Y162.435 E5.03574
G1 X155.705 Y162.242 E5.07746
G1 X155.263 Y161.995 E5.1137
G1 X154.499 Y161.362 E5.18472
G1 X154.061 Y160.822 E5.23449
G1 X153.722 Y160.218 E5.28407
G1 X153.427 Y159.284 E5.35418
G1 X153.351 Y158.596 E5.40373
G1 X153.393 Y157.904 E5.45336
G1 X153.553 Y157.22 E5.50364
G1 X153.952 Y156.352 E5.57202
G1 X154.384 Y155.76 E5.62448
G1 X155.094 Y155.122 E5.69281
G1 X155.704 Y154.758 E5.74366
G1 X156.357 Y154.511 E5.79364
G1 X157.3 Y154.357 E5.86204
G1 X158.031 Y154.384 E5.9144
G1 X158.958 Y154.618 E5.98284
G1 X159.6 Y154.921 E6.03366
G1 X160.17 Y155.324 E6.08363
G1 X160.824 Y156.02 E6.15199
G1 X161.201 Y156.622 E6.20284
G1 X161.463 Y157.269 E6.25281
G1 X161.637 Y158.21 E6.32131
G1 X161.626 Y158.941 E6.37364
G1 X161.406 Y159.895 E6.44372
G1 X161.123 Y160.524 E6.49309
G1 X160.706 Y161.102 E6.54411
G1 X160.406 Y161.463 E6.57771
G1 X160.023 Y161.795 E6.61399
G1 X159.166 Y162.298 E6.68512
G1 X158.51 Y162.525 E6.73481
G1 X157.524 Y162.647 E6.80593
G1 X156.823 Y162.593 E6.85626
G1 X157.013 Y161.995 F6000
;TYPE:External perimeter
G1 F1800
G1 X156.894 Y161.984 E6.86481
G1 X156.005 Y161.705 E6.93151
G1 X155.562 Y161.458 E6.96782
G1 X154.901 Y160.896 E7.02993
G1 X154.549 Y160.448 E7.07071
G1 X154.264 Y159.927 E7.11322
G1 X154.017 Y159.111 E7.17425
G1 X153.964 Y158.545 E7.21494
G1 X154.006 Y157.952 E7.25749
G1 X154.149 Y157.371 E7.30032
G1 X154.506 Y156.62 E7.35984
G1 X154.871 Y156.135 E7.40329
G1 X155.496 Y155.587 E7.46279
G1 X156.005 Y155.295 E7.5048
G1 X156.564 Y155.09 E7.54742
G1 X157.387 Y154.966 E7.607
G1 X157.992 Y154.998 E7.65037
G1 X158.797 Y155.211 E7.70998
G1 X159.323 Y155.47 E7.75195
G1 X159.806 Y155.819 E7.79461
G1 X160.368 Y156.432 E7.85414
G1 X160.671 Y156.935 E7.89617
G1 X160.889 Y157.49 E7.93885
G1 X161.03 Y158.309 E7.99834
G1 X161.012 Y158.916 E8.04181
G1 X160.809 Y159.744 E8.10284
G1 X160.569 Y160.258 E8.14345
G1 X160.003 Y160.999 E8.2102
G1 X159.62 Y161.33 E8.24644
G1 X158.865 Y161.761 E8.30867
G1 X158.324 Y161.939 E8.34944
G1 X157.461 Y162.035 E8.4116
G1 X157.102 Y162.003 E8.4374
G1 X156.948 Y162.095 F6000
;WIPE_START
G1 F4800
G1 X156.894 Y161.984 E8.35059
G1 X156.005 Y161.705 E7.96333
G1 X155.562 Y161.458 E7.75252
G1 X154.901 Y160.896 E7.39192
G1 X154.549 Y160.448 E7.15512
G1 X154.264 Y159.927 E6.9083
G1 X154.017 Y159.111 E6.55395
G1 X153.964 Y158.545 E6.31768
G1 X154.006 Y157.952 E6.0706
G1 X154.149 Y157.371 E5.82192
G1 X154.506 Y156.62 E5.47631
G1 X154.871 Y156.135 E5.22403
G1 X155.496 Y155.587 E4.87855
G1 X156.005 Y155.295 E4.63466
G1 X156.564 Y155.09 E4.3872
G1 X157.387 Y154.966 E4.04128
G1 X157.992 Y154.998 E3.78948
G1 X158.797 Y155.211 E3.44339
G1 X158.81 Y155.217 E3.4374
;WIPE_END
G92 E0
G1 Z.6 F6000
G1 X154.778 Y162.522
G1 Z.28
G1 E5 F2100
;TYPE:Perimeter
;WIDTH:0.854029
G1 F1800
G1 X154.422 Y162.194 E5.04474
;WIDTH:0.814061
G1 X154.065 Y161.866 E5.08729
;WIDTH:0.812063
G1 X153.784 Y161.558 E5.12379
;WIDTH:0.850033
G1 X153.503 Y161.25 E5.16213
;WIPE_START
G1 F4800
G1 X153.784 Y161.558 E4.98885
G1 X154.065 Y161.866 E4.81557
G1 X154.422 Y162.194 E4.61407
G1 X154.778 Y162.522 E4.41288
;WIPE_END
G1 E.16213 F2100
G92 E0
G1 Z.6 F6000
G1 X137.469 Y143.462
G1 Z.28
G1 E5 F2100
;WIDTH:0.675
G1 F1800
G1 X137.358 Y142.764 E5.05059
G1 X137.36 Y142.214 E5.08996
G1 X137.38 Y142.029 E5.10328
G1 X137.537 Y141.275 E5.15841
G1 X137.813 Y140.596 E5.21088
G1 X138.348 Y139.804 E5.2793
G1 X138.87 Y139.29 E5.33174
G1 X139.674 Y138.776 E5.40005
G1 X140.357 Y138.511 E5.45249
G1 X141.3 Y138.357 E5.52089
G1 X142.031 Y138.384 E5.57325
G1 X142.958 Y138.618 E5.64169
G1 X143.6 Y138.921 E5.69251
G1 X144.17 Y139.324 E5.74248
G1 X144.824 Y140.02 E5.81084
G1 X145.201 Y140.622 E5.86169
G1 X145.463 Y141.269 E5.91166
G1 X145.637 Y142.21 E5.98016
G1 X145.626 Y142.941 E6.03249
G1 X145.406 Y143.895 E6.10257
G1 X145.123 Y144.524 E6.15194
G1 X144.534 Y145.326 E6.22317
G1 X144.023 Y145.795 E6.27282
G1 X143.169 Y146.296 E6.34369
G1 X142.515 Y146.524 E6.39327
G1 X141.837 Y146.636 E6.44246
G1 X141.16 Y146.636 E6.49092
G1 X140.189 Y146.434 E6.56191
G1 X139.553 Y146.165 E6.61134
G1 X138.741 Y145.596 E6.68231
G1 X138.261 Y145.095 E6.73198
G1 X137.74 Y144.25 E6.80304
G1 X137.545 Y143.735 E6.84246
G1 X137.493 Y143.549 E6.85628
G1 X138.073 Y143.357 F6000
;TYPE:External perimeter
G1 F1800
G1 X137.977 Y142.814 E6.89575
G1 X137.982 Y142.155 E6.94292
G1 X138.139 Y141.401 E6.99805
G1 X138.377 Y140.842 E7.04154
G1 X138.851 Y140.159 E7.10105
G1 X139.29 Y139.74 E7.14449
G1 X139.995 Y139.301 E7.20394
G1 X140.564 Y139.09 E7.24738
G1 X141.387 Y138.966 E7.30696
G1 X141.992 Y138.998 E7.35033
G1 X142.797 Y139.211 E7.40994
G1 X143.323 Y139.47 E7.45191
G1 X143.806 Y139.819 E7.49457
G1 X144.368 Y140.432 E7.5541
G1 X144.671 Y140.935 E7.59613
G1 X144.889 Y141.49 E7.63881
G1 X145.03 Y142.309 E7.6983
G1 X145.012 Y142.916 E7.74177
G1 X144.809 Y143.744 E7.8028
G1 X144.569 Y144.258 E7.84341
G1 X144.046 Y144.953 E7.90567
G1 X143.62 Y145.33 E7.94639
G1 X142.868 Y145.76 E8.0084
G1 X142.329 Y145.938 E8.04903
G1 X141.746 Y146.028 E8.09126
G1 X141.172 Y146.021 E8.13235
G1 X140.326 Y145.835 E8.19435
G1 X139.808 Y145.605 E8.23492
G1 X139.104 Y145.099 E8.29698
G1 X138.717 Y144.682 E8.3377
G1 X138.27 Y143.937 E8.39989
G1 X138.096 Y143.444 E8.43731
G1 X137.539 Y143.218 F6000
;WIPE_START
G1 F4800
G1 X137.977 Y142.814 E8.17084
G1 X137.982 Y142.155 E7.89694
G1 X138.139 Y141.401 E7.57684
G1 X138.377 Y140.842 E7.32432
G1 X138.851 Y140.159 E6.97878
G1 X139.29 Y139.74 E6.72655
G1 X139.995 Y139.301 E6.38137
G1 X140.564 Y139.09 E6.12914
G1 X141.387 Y138.966 E5.78322
G1 X141.992 Y138.998 E5.53142
G1 X142.797 Y139.211 E5.18533
G1 X143.323 Y139.47 E4.94165
G1 X143.806 Y139.819 E4.69398
G1 X144.368 Y140.432 E4.34833
G1 X144.671 Y140.935 E4.10427
G1 X144.889 Y141.49 E3.85644
G1 X145.03 Y142.309 E3.51104
G1 X145.025 Y142.486 E3.43731
;WIPE_END
G92 E0
G1 Z.6 F6000
G1 X138.983 Y146.683
G1 Z.28
G1 E5 F2100
;TYPE:Perimeter
;WIDTH:0.916251
G1 F1800
G1 X138.771 Y146.501 E5.02785
;WIDTH:0.872842
G1 X138.558 Y146.319 E5.05436
;WIDTH:0.829433
G1 X138.346 Y146.138 E5.07933
;WIDTH:0.794026
G1 X137.761 Y145.547 E5.15038
;WIDTH:0.843149
G1 X137.549 Y145.301 E5.17998
;WIPE_START
G1 F4800
G1 X137.761 Y145.547 E5.04501
G1 X138.346 Y146.138 E4.69939
G1 X138.558 Y146.319 E4.58353
G1 X138.771 Y146.501 E4.46709
G1 X138.983 Y146.683 E4.35096
;WIPE_END
G1 E.17998 F2100
G92 E0
G1 Z.6 F6000
G1 X162.425 Y136.314
G1 Z.28
G1 E5 F2100
;TYPE:Solid infill
;WIDTH:0.680225
G1 F1800
G1 X163.403 Y137.291 E5.0998
G1 X163.403 Y138.168 E5.16311
G1 X161.825 Y136.59 E5.32421
G1 X160.949 Y136.591 E5.38745
G1 X163.403 Y139.045 E5.63799
