;FLAVOR:Marlin
;TIME:684
;Filament used: 1.11195m
;Layer height: 0.32
;MINX:124.457
;MINY:123.59
;MINZ:0.24
;MAXX:177.277
;MAXY:176.41
;MAXZ:7.28
;Generated with Cura_SteamEngine 5.0.0
M140 S80
M105
M190 S80
M104 S250
M105
M109 S250
M82 ;absolute extrusion mode
; Ender 3 Max Custom Start G-code
G92 E0 ; Reset Extruder
G28 ; Home all axes
G1 Z2.0 F3000 ; Move Z Axis up little to prevent scratching of Heat Bed
G1 X0.1 Y20 Z0.3 F5000.0 ; Move to start position
G1 X0.1 Y200.0 Z0.3 F1500.0 E15 ; Draw the first line
G1 X0.4 Y200.0 Z0.3 F5000.0 ; Move to side a little
G1 X0.4 Y20 Z0.3 F1500.0 E30 ; Draw the second line
G92 E0 ; Reset Extruder
G1 Z2.0 F3000 ; Move Z Axis up little to prevent scratching of Heat Bed
G1 X5 Y20 Z0.3 F5000.0 ; Move over to prevent blob squish
G92 E0
G92 E0
G1 F2100 E-5
;LAYER_COUNT:22
;LAYER:0
M107
G1 F300 Z0.56
G0 F6000 X128.121 Y127.527 Z0.56
G1 F300 Z0.56
G0 F6000 X124.46 Y136.965
;TYPE:SKIRT
G1 F300 Z0.24
G1 F2100 E0
G1 F1800 X124.477 Y136.127 E0.07286
G1 X124.587 Y134.785 E0.18991
G1 X124.626 Y134.514 E0.21371
G1 X124.799 Y133.592 E0.29526
G1 X125.066 Y132.638 E0.38137
G1 X125.155 Y132.368 E0.40609
G1 X125.597 Y131.242 E0.51124
G1 X125.719 Y130.975 E0.53676
G1 X126.145 Y130.139 E0.61832
G1 X126.631 Y129.356 E0.69843
G1 X126.774 Y129.146 E0.72052
G1 X127.334 Y128.395 E0.80195
G1 X128.121 Y127.527 E0.9038
G1 X128.469 Y127.182 E0.9464
G1 X129.162 Y126.551 E1.02787
G1 X129.906 Y125.982 E1.1093
G1 X130.414 Y125.647 E1.16219
G1 X130.701 Y125.469 E1.19155
G1 X131.757 Y124.892 E1.29616
G1 X131.958 Y124.796 E1.31552
G1 X132.82 Y124.428 E1.397
G1 X133.802 Y124.11 E1.48672
G1 X134.143 Y124.017 E1.51745
G1 X135.057 Y123.809 E1.59893
G1 X136.04 Y123.675 E1.68517
G1 X136.359 Y123.646 E1.71302
G1 X137.161 Y123.603 E1.78284
G1 X137.979 Y123.59 E1.85395
G1 X163.824 Y123.592 E4.10062
G1 X164.766 Y123.611 E4.18253
G1 X165.125 Y123.628 E4.21377
G1 X166.058 Y123.713 E4.29521
G1 X166.92 Y123.862 E4.37125
G1 X167.231 Y123.929 E4.39891
G1 X168.138 Y124.166 E4.4804
G1 X168.734 Y124.368 E4.53511
G1 X168.985 Y124.461 E4.55837
G1 X169.85 Y124.824 E4.63992
G1 X170.62 Y125.224 E4.71535
G1 X170.893 Y125.38 E4.74268
G1 X172.066 Y126.154 E4.86485
G1 X172.242 Y126.287 E4.88402
G1 X172.965 Y126.884 E4.96553
G1 X173.659 Y127.566 E5.05011
G1 X173.916 Y127.842 E5.08289
G1 X174.525 Y128.554 E5.16434
G1 X175.21 Y129.534 E5.26828
G1 X175.418 Y129.869 E5.30256
G1 X175.878 Y130.686 E5.38406
G1 X176.267 Y131.539 E5.46556
G1 X176.548 Y132.317 E5.53746
G1 X176.707 Y132.814 E5.58282
G1 X176.955 Y133.719 E5.6644
G1 X177.151 Y134.846 E5.76383
G1 X177.186 Y135.136 E5.78923
G1 X177.263 Y136.265 E5.8876
G1 X177.277 Y137.154 E5.96489
G1 X177.275 Y162.957 E8.20791
G1 X177.254 Y163.938 E8.2932
G1 X177.235 Y164.31 E8.32558
G1 X177.147 Y165.243 E8.40705
G1 X177.016 Y166.008 E8.47452
G1 X176.802 Y166.921 E8.55603
G1 X176.611 Y167.532 E8.61168
G1 X176.517 Y167.805 E8.63678
G1 X176.15 Y168.733 E8.72353
G1 X176.061 Y168.931 E8.7424
G1 X175.64 Y169.769 E8.82392
G1 X175.199 Y170.495 E8.89776
G1 X175.038 Y170.738 E8.9231
G1 X174.487 Y171.497 E9.00463
G1 X173.624 Y172.462 E9.11717
G1 X173.284 Y172.8 E9.15885
G1 X172.592 Y173.432 E9.24032
G1 X171.848 Y174.003 E9.32184
G1 X171.299 Y174.364 E9.37896
G1 X170.958 Y174.574 E9.41377
G1 X170.139 Y175.031 E9.4953
G1 X169.393 Y175.375 E9.56671
G1 X168.518 Y175.711 E9.64819
G1 X167.949 Y175.886 E9.69994
G1 X167.657 Y175.967 E9.72628
G1 X166.743 Y176.179 E9.80784
G1 X165.752 Y176.318 E9.89483
G1 X165.413 Y176.35 E9.92443
G1 X164.574 Y176.397 E9.99748
G1 X163.755 Y176.41 E10.06868
G1 X157.885 Y176.408 E10.57895
G1 X157.116 Y176.397 E10.64581
G1 X156.226 Y176.348 E10.72329
G1 X155.902 Y176.317 E10.75159
G1 X154.78 Y176.151 E10.85018
G1 X154.482 Y176.091 E10.87661
G1 X153.327 Y175.792 E10.98032
G1 X153.119 Y175.726 E10.99929
G1 X152.275 Y175.42 E11.07733
G1 X152.053 Y175.329 E11.09819
G1 X151.051 Y174.858 E11.19443
G1 X150.764 Y174.705 E11.2227
G1 X149.716 Y174.069 E11.32927
G1 X149.493 Y173.916 E11.35278
G1 X148.597 Y173.231 E11.45082
G1 X147.967 Y172.668 E11.52427
G1 X146.976 Y171.712 E11.64396
G1 X128.856 Y153.587 E13.87187
G1 X128.244 Y152.954 E13.9484
G1 X127.563 Y152.18 E14.03802
G1 X127.391 Y151.965 E14.06196
G1 X126.792 Y151.14 E14.15058
G1 X126.642 Y150.912 E14.17431
G1 X126.001 Y149.802 E14.28573
G1 X125.869 Y149.539 E14.31131
G1 X125.431 Y148.547 E14.40558
G1 X125.327 Y148.276 E14.43081
G1 X124.965 Y147.16 E14.5328
G1 X124.893 Y146.889 E14.55717
G1 X124.692 Y145.977 E14.63835
G1 X124.656 Y145.773 E14.65636
G1 X124.531 Y144.827 E14.73931
G1 X124.479 Y143.938 E14.81672
G1 X124.457 Y142.616 E14.93166
G1 X124.46 Y138.328 E15.30441
G0 F1620 X124.46 Y136.965
G0 F6000 X125.12 Y136.978
G1 F1800 X125.137 Y136.14 E15.37727
G1 X125.24 Y134.879 E15.48725
G1 X125.279 Y134.608 E15.51105
G1 X125.448 Y133.715 E15.59006
G1 X125.693 Y132.845 E15.66863
G1 X125.782 Y132.575 E15.69334
G1 X126.197 Y131.516 E15.79221
G1 X126.319 Y131.249 E15.81773
G1 X126.733 Y130.44 E15.89673
G1 X127.177 Y129.728 E15.96967
G1 X127.32 Y129.518 E15.99176
G1 X127.864 Y128.79 E16.07076
G1 X128.585 Y127.996 E16.16399
G1 X128.933 Y127.651 E16.20659
G1 X129.606 Y127.04 E16.28561
G1 X130.33 Y126.491 E16.36459
G1 X130.761 Y126.208 E16.40941
G1 X131.048 Y126.03 E16.43877
G1 X132.041 Y125.488 E16.53711
G1 X132.242 Y125.392 E16.55647
G1 X133.079 Y125.036 E16.63554
G1 X133.976 Y124.747 E16.71746
G1 X134.317 Y124.654 E16.74819
G1 X135.203 Y124.454 E16.82714
G1 X136.1 Y124.332 E16.90584
G1 X136.419 Y124.303 E16.93368
G1 X137.172 Y124.263 E16.99923
G1 X137.979 Y124.25 E17.06939
G1 X163.815 Y124.252 E19.31528
G1 X164.735 Y124.271 E19.39527
G1 X165.094 Y124.288 E19.42652
G1 X165.999 Y124.37 E19.50551
G1 X166.781 Y124.508 E19.57454
G1 X167.092 Y124.575 E19.60219
G1 X167.971 Y124.805 E19.68117
G1 X168.756 Y125.08 E19.75348
G1 X169.594 Y125.432 E19.83249
G1 X170.292 Y125.797 E19.90096
G1 X170.565 Y125.953 E19.9283
G1 X171.668 Y126.681 E20.04318
G1 X171.844 Y126.814 E20.06236
G1 X172.544 Y127.393 E20.14132
G1 X173.176 Y128.015 E20.21841
G1 X173.433 Y128.291 E20.25119
G1 X174.022 Y128.983 E20.33019
G1 X174.649 Y129.882 E20.42546
G1 X174.857 Y130.217 E20.45974
G1 X175.302 Y131.009 E20.53871
G1 X175.676 Y131.838 E20.61777
G1 X175.92 Y132.518 E20.68057
G1 X176.079 Y133.015 E20.72593
G1 X176.317 Y133.892 E20.80493
G1 X176.496 Y134.925 E20.89606
G1 X176.531 Y135.215 E20.92145
G1 X176.603 Y136.276 E21.0139
G1 X176.617 Y137.154 E21.09023
G1 X176.615 Y162.948 E23.33247
G1 X176.595 Y163.904 E23.41559
G1 X176.576 Y164.276 E23.44797
G1 X176.489 Y165.181 E23.527
G1 X176.368 Y165.885 E23.5891
G1 X176.159 Y166.769 E23.66806
G1 X175.987 Y167.317 E23.71799
G1 X175.893 Y167.59 E23.74309
G1 X175.548 Y168.462 E23.82461
G1 X175.459 Y168.66 E23.84348
G1 X175.05 Y169.472 E23.92251
G1 X174.648 Y170.13 E23.98954
G1 X174.487 Y170.373 E24.01488
G1 X173.953 Y171.108 E24.09386
G1 X173.159 Y171.994 E24.19728
G1 X172.819 Y172.332 E24.23895
G1 X172.147 Y172.944 E24.31797
G1 X171.423 Y173.494 E24.397
G1 X170.953 Y173.802 E24.44585
G1 X170.612 Y174.012 E24.48066
G1 X169.818 Y174.454 E24.55966
G1 X169.13 Y174.769 E24.62544
G1 X168.281 Y175.095 E24.70449
G1 X167.48 Y175.331 E24.77708
G1 X166.595 Y175.535 E24.85603
G1 X165.69 Y175.661 E24.93546
G1 X165.351 Y175.693 E24.96506
G1 X164.562 Y175.737 E25.03375
G1 X163.755 Y175.75 E25.10391
G1 X157.894 Y175.748 E25.6134
G1 X157.125 Y175.737 E25.68026
G1 X156.289 Y175.691 E25.75304
G1 X155.965 Y175.66 E25.78133
G1 X154.91 Y175.504 E25.87404
G1 X154.612 Y175.444 E25.90046
G1 X153.527 Y175.163 E25.99789
G1 X153.319 Y175.097 E26.01686
G1 X152.525 Y174.809 E26.09029
G1 X152.303 Y174.718 E26.11114
G1 X151.361 Y174.276 E26.20159
G1 X151.074 Y174.123 E26.22987
G1 X150.09 Y173.525 E26.32996
G1 X149.867 Y173.372 E26.35347
G1 X149.024 Y172.728 E26.44569
G1 X148.424 Y172.192 E26.51563
G1 X147.443 Y171.246 E26.63409
G1 X129.33 Y153.128 E28.86114
G1 X128.718 Y152.495 E28.93768
G1 X128.079 Y151.768 E29.02181
G1 X127.907 Y151.553 E29.04575
G1 X127.343 Y150.778 E29.12907
G1 X127.193 Y150.55 E29.15279
G1 X126.591 Y149.506 E29.25756
G1 X126.459 Y149.243 E29.28314
G1 X126.047 Y148.31 E29.3718
G1 X125.943 Y148.039 E29.39703
G1 X125.603 Y146.99 E29.49289
G1 X125.531 Y146.719 E29.51726
G1 X125.342 Y145.862 E29.59355
G1 X125.306 Y145.658 E29.61156
G1 X125.187 Y144.761 E29.69022
G1 X125.139 Y143.926 E29.76292
G1 X125.117 Y142.616 E29.87681
G1 X125.12 Y138.341 E30.24843
G0 F1620 X125.12 Y136.978
G1 F2100 E25.24843
G1 F300 Z0.56
;MESH:corner_panel_clip_4mm_x8.stl
G0 F6000 X137.318 Y142.949 Z0.56
;TYPE:WALL-INNER
G1 F300 Z0.24
G1 F2100 E30.24843
G1 F1233.6 X137.182 Y143.276 E30.286
G1 F1654.6 X137.073 Y143.543 E30.30881
G1 F1973.4 X137.106 Y143.785 E30.32501
G1 F2003.4 X137.198 Y144.027 E30.34192
G1 F2020.4 X137.421 Y144.326 E30.36608
G1 X137.731 Y144.637 E30.39452
G1 F2010.2 X137.929 Y144.832 E30.41262
G1 F1922.3 X138.245 Y145.113 E30.4414
G1 F1827.7 X138.336 Y145.194 E30.45013
G1 F1870.9 X138.156 Y144.858 E30.47679
G1 F1980 X137.973 Y144.466 E30.50538
G1 F2020.4 X137.834 Y144.092 E30.53123
G1 X137.729 Y143.785 E30.55224
G1 F2010.2 X137.654 Y143.487 E30.57225
G1 F1670.9 X137.492 Y143.257 E30.59428
G1 F1266.5 X137.351 Y143.012 E30.62349
G1 F1108.2 X137.318 Y142.949 E30.63189
G1 F2100 E25.63189
G1 F300 Z0.56
G0 F6000 X154.335 Y161.194 Z0.56
G1 F300 Z0.24
G1 F2100 E30.63189
G1 F1802.7 X154.136 Y160.87 E30.65949
G1 X153.94 Y160.481 E30.69111
G1 F1800 X153.868 Y160.304 E30.70501
G1 X153.706 Y159.828 E30.74156
G1 X153.598 Y159.378 E30.77521
G1 X153.542 Y158.987 E30.80393
G1 X153.518 Y158.589 E30.83292
G1 X153.527 Y158.184 E30.86237
G1 X153.571 Y157.786 E30.89148
G1 X153.643 Y157.403 E30.91981
G1 X153.746 Y157.026 E30.94823
G1 X153.884 Y156.648 E30.97748
G1 X154.049 Y156.291 E31.00608
G1 X154.25 Y155.937 E31.03567
G1 X154.462 Y155.624 E31.06316
G1 X154.71 Y155.314 E31.09202
G1 X154.988 Y155.021 E31.12139
G1 X155.276 Y154.763 E31.1495
G1 X155.595 Y154.52 E31.17865
G1 X155.845 Y154.359 E31.20027
G1 X156.113 Y154.207 E31.22267
G1 X156.328 Y154.099 E31.24017
G1 X156.648 Y153.966 E31.26536
G1 X156.968 Y153.857 E31.28994
G1 X157.396 Y153.747 E31.32207
G1 X157.803 Y153.683 E31.35202
G1 X158.206 Y153.654 E31.3814
G1 X158.586 Y153.656 E31.40902
G1 X158.977 Y153.69 E31.43756
G1 X159.36 Y153.754 E31.46579
G1 X159.749 Y153.852 E31.49496
G1 X160.116 Y153.977 E31.52314
G1 X160.492 Y154.141 E31.55297
G1 X160.835 Y154.327 E31.58134
G1 X161.162 Y154.538 E31.60963
G1 X161.48 Y154.783 E31.63882
G1 X161.76 Y155.034 E31.66615
G1 X162.043 Y155.336 E31.69624
G1 X162.287 Y155.643 E31.72476
G1 X162.509 Y155.981 E31.75416
G1 X162.698 Y156.317 E31.78218
G1 X162.859 Y156.674 E31.81066
G1 X162.994 Y157.05 E31.8397
G1 X163.101 Y157.444 E31.86939
G1 X163.14 Y157.655 E31.88499
G1 X163.202 Y158.157 E31.92176
G1 X163.214 Y158.61 E31.95471
G1 X163.189 Y159.011 E31.98392
G1 X163.132 Y159.418 E32.0138
G1 X163.04 Y159.795 E32.04201
G1 X162.929 Y160.145 E32.06871
G1 X162.77 Y160.532 E32.09913
G1 X162.595 Y160.876 E32.12719
G1 X162.391 Y161.209 E32.15558
G1 X162.149 Y161.536 E32.18515
G1 X161.896 Y161.827 E32.21319
G1 X161.6 Y162.114 E32.24316
G1 X161.309 Y162.355 E32.27064
G1 X160.979 Y162.586 E32.29992
G1 X160.637 Y162.786 E32.32873
G1 X160.448 Y162.878 E32.34401
G1 X159.977 Y163.073 E32.38107
G1 F1839 X159.525 Y163.195 E32.41439
G1 F1970.1 X159.143 Y163.244 E32.43997
G1 F2117.6 X158.744 Y163.279 E32.46472
G1 F2183.8 X158.354 Y163.289 E32.4881
G1 X157.964 Y163.276 E32.51148
G1 F2117.6 X157.582 Y163.241 E32.53519
G1 F2030.8 X157.288 Y163.193 E32.55439
G1 F2003.4 X156.945 Y163.097 E32.57765
G1 F2013.6 X156.694 Y163.015 E32.59482
G1 X156.453 Y162.918 E32.6117
G1 F2003.4 X156.085 Y162.742 E32.63835
G1 F1934.9 X155.755 Y162.57 E32.66352
G1 F1859.2 X155.645 Y162.518 E32.67208
G1 F1897.8 X155.903 Y162.799 E32.69839
G1 F1986.6 X156.167 Y163.072 E32.7234
G1 F2013.6 X156.525 Y163.433 E32.75645
G1 X156.721 Y163.595 E32.77297
G1 F2003.4 X156.987 Y163.731 E32.79249
G1 F2006.8 X157.346 Y163.8 E32.81633
G1 F2080.6 X157.805 Y163.821 E32.84523
G1 F2163.9 X158.317 Y163.831 E32.8762
G1 F2179.8 X158.773 Y163.825 E32.90358
G1 F2117.6 X159.197 Y163.812 E32.92979
G1 F2006.8 X159.456 Y163.793 E32.94673
G1 F1870.9 X159.868 Y163.769 E32.9756
G1 F1800 X164.296 Y163.768 E33.29753
G1 X164.527 Y163.702 E33.315
G1 X164.624 Y163.522 E33.32986
G1 X164.636 Y163.396 E33.33907
G1 X164.636 Y136.573 E35.28921
G1 X164.569 Y136.338 E35.30697
G1 X164.382 Y136.241 E35.32229
G1 X164.272 Y136.232 E35.33031
G1 X137.455 Y136.231 E37.28002
G1 X137.215 Y136.29 E37.29798
G1 X137.109 Y136.475 E37.31349
G1 X137.099 Y136.604 E37.32289
G1 X137.099 Y140.935 E37.63777
G1 F1614.1 X137.174 Y141.196 E37.65979
G1 F1206.1 X137.347 Y141.61 E37.70848
G1 F1132.5 X137.506 Y141.376 E37.74117
G1 F1485 X137.746 Y141.026 E37.77857
G1 F1800 X137.884 Y140.648 E37.80782
G1 X138.049 Y140.291 E37.83642
G1 X138.25 Y139.938 E37.86595
G1 X138.462 Y139.624 E37.89349
G1 X138.71 Y139.314 E37.92236
G1 X138.988 Y139.021 E37.95172
G1 X139.275 Y138.762 E37.97983
G1 X139.594 Y138.52 E38.00894
G1 X139.927 Y138.308 E38.03764
G1 X140.288 Y138.119 E38.06727
G1 X140.648 Y137.966 E38.09571
G1 X141.008 Y137.844 E38.12334
G1 X141.396 Y137.747 E38.15242
G1 X141.803 Y137.683 E38.18237
G1 X142.206 Y137.653 E38.21175
G1 X142.586 Y137.656 E38.23938
G1 X142.977 Y137.689 E38.26791
G1 X143.36 Y137.753 E38.29614
G1 X143.749 Y137.852 E38.32533
G1 X144.117 Y137.976 E38.35356
G1 X144.492 Y138.141 E38.38334
G1 X144.836 Y138.327 E38.41178
G1 X145.162 Y138.537 E38.43997
G1 X145.48 Y138.783 E38.4692
G1 X145.76 Y139.034 E38.49654
G1 X146.043 Y139.336 E38.52663
G1 X146.287 Y139.643 E38.55514
G1 X146.51 Y139.98 E38.58452
G1 X146.697 Y140.317 E38.61254
G1 X146.86 Y140.674 E38.64107
G1 X146.995 Y141.05 E38.67012
G1 X147.101 Y141.444 E38.69978
G1 X147.141 Y141.655 E38.7154
G1 X147.202 Y142.157 E38.75216
G1 X147.214 Y142.61 E38.78511
G1 X147.188 Y143.011 E38.81433
G1 X147.137 Y143.377 E38.84119
G1 X147.04 Y143.795 E38.87239
G1 X146.944 Y144.104 E38.89591
G1 X146.77 Y144.532 E38.9295
G1 X146.595 Y144.876 E38.95757
G1 X146.446 Y145.121 E38.97841
G1 X146.305 Y145.333 E38.99692
G1 X146.146 Y145.54 E39.0159
G1 X145.891 Y145.832 E39.04409
G1 X145.603 Y146.11 E39.07319
G1 X145.31 Y146.354 E39.10091
G1 X144.979 Y146.586 E39.1303
G1 X144.643 Y146.782 E39.15858
G1 X144.28 Y146.956 E39.18785
G1 X143.93 Y147.092 E39.21515
G1 X143.527 Y147.209 E39.24566
G1 X143.145 Y147.287 E39.274
G1 X142.738 Y147.335 E39.3038
G1 X142.351 Y147.349 E39.33195
G1 X141.957 Y147.332 E39.36062
G1 X141.566 Y147.284 E39.38926
G1 X141.175 Y147.201 E39.41833
G1 X140.799 Y147.089 E39.44685
G1 X140.433 Y146.948 E39.47536
G1 F1794.6 X140.081 Y146.78 E39.50381
G1 F1775.8 X139.731 Y146.578 E39.53359
G1 X140.017 Y146.869 E39.56366
G1 F1794.6 X140.481 Y147.338 E39.61177
G1 F1800 X142.145 Y149.001 E39.78281
G1 X142.331 Y149.189 E39.80204
G1 X142.86 Y149.716 E39.85632
G1 X149.237 Y156.096 E40.51216
G1 X149.662 Y156.519 E40.55575
G1 X152.595 Y159.451 E40.85727
G1 X152.778 Y159.637 E40.87624
G1 X153.084 Y159.941 E40.9076
G1 X153.372 Y160.23 E40.93726
G0 F1620 X154.335 Y161.194
G1 F2100 E35.93726
G1 F300 Z0.56
G0 F6000 X162.116 Y156.63 Z0.56
G1 F300 Z0.24
G1 F2100 E40.93726
G1 F1800 X162.255 Y156.94 E40.96196
G1 X162.37 Y157.264 E40.98696
G1 X162.462 Y157.608 E41.01285
G1 X162.485 Y157.735 E41.02223
G1 X162.546 Y158.237 E41.059
G1 X162.554 Y158.613 E41.08634
G1 X162.531 Y158.958 E41.11148
G1 X162.481 Y159.304 E41.13689
G1 X162.4 Y159.632 E41.16146
G1 X162.302 Y159.941 E41.18503
G1 X162.164 Y160.27 E41.21096
G1 X162.011 Y160.569 E41.23538
G1 X161.833 Y160.856 E41.25994
G1 X161.624 Y161.135 E41.28528
G1 X161.403 Y161.388 E41.30971
G1 X161.148 Y161.633 E41.33542
G1 X160.894 Y161.842 E41.35933
G1 X160.609 Y162.039 E41.38452
G1 X160.31 Y162.213 E41.40967
G1 X160.197 Y162.268 E41.41881
G1 X159.725 Y162.462 E41.45591
G1 F1802.7 X159.354 Y162.571 E41.48398
G1 X159.026 Y162.638 E41.50828
G1 F1800 X158.68 Y162.678 E41.53361
G1 X158.34 Y162.689 E41.55834
G1 X157.999 Y162.673 E41.58316
G1 X157.665 Y162.631 E41.60763
G1 X157.429 Y162.581 E41.62517
G1 X157.126 Y162.499 E41.64799
