;FLAVOR:Marlin
;TIME:825
;Filament used: 1.26557m
;Layer height: 0.28
;MINX:123.59
;MINY:123.59
;MINZ:0.24
;MAXX:176.41
;MAXY:176.41
;MAXZ:7.28
;Generated with Cura_SteamEngine 5.0.0
M140 S80
M105
M190 S80
M104 S250
M105
M109 S250
M82 ;absolute extrusion mode
; Ender 3 Max Custom Start G-code
G92 E0 ; Reset Extruder
G28 ; Home all axes
G1 Z2.0 F3000 ; Move Z Axis up little to prevent scratching of Heat Bed
G1 X0.1 Y20 Z0.3 F5000.0 ; Move to start position
G1 X0.1 Y200.0 Z0.3 F1500.0 E15 ; Draw the first line
G1 X0.4 Y200.0 Z0.3 F5000.0 ; Move to side a little
G1 X0.4 Y20 Z0.3 F1500.0 E30 ; Draw the second line
G92 E0 ; Reset Extruder
G1 Z2.0 F3000 ; Move Z Axis up little to prevent scratching of Heat Bed
G1 X5 Y20 Z0.3 F5000.0 ; Move over to prevent blob squish
G92 E0
G92 E0
G1 F2100 E-5
;LAYER_COUNT:25
;LAYER:0
M107
G1 F300 Z0.56
G0 F6000 X127.288 Y127.49 Z0.56
G1 F300 Z0.56
G0 F6000 X123.592 Y137.03
;TYPE:SKIRT
G1 F300 Z0.24
G1 F2100 E0
G1 F1800 X123.611 Y136.069 E0.08355
G1 X123.622 Y135.824 E0.10487
G1 X123.74 Y134.639 E0.20839
G1 X123.778 Y134.393 E0.23003
G1 X123.96 Y133.474 E0.31147
G1 X124.221 Y132.573 E0.39301
G1 X124.312 Y132.302 E0.41786
G1 X124.736 Y131.229 E0.51816
G1 X124.854 Y130.971 E0.54282
G1 X125.28 Y130.136 E0.6243
G1 X125.78 Y129.333 E0.70653
G1 X125.932 Y129.111 E0.72992
G1 X126.494 Y128.361 E0.81139
G1 X127.288 Y127.49 E0.91385
G1 X127.619 Y127.164 E0.95423
G1 X128.315 Y126.535 E1.03578
G1 X129.061 Y125.968 E1.11723
G1 X129.534 Y125.657 E1.16644
G1 X129.869 Y125.449 E1.20072
G1 X130.686 Y124.989 E1.28222
G1 X131.539 Y124.6 E1.36372
G1 X132.146 Y124.375 E1.42
G1 X132.563 Y124.234 E1.45826
G1 X133.463 Y123.972 E1.53974
G1 X134.36 Y123.791 E1.61929
G1 X134.656 Y123.744 E1.64534
G1 X135.832 Y123.622 E1.74812
G1 X136.486 Y123.597 E1.80501
G1 X137.112 Y123.59 E1.85943
G1 X162.957 Y123.592 E4.10611
G1 X163.899 Y123.611 E4.18801
G1 X164.258 Y123.628 E4.21925
G1 X165.191 Y123.713 E4.30069
G1 X165.932 Y123.837 E4.366
G1 X166.197 Y123.891 E4.38951
G1 X167.107 Y124.117 E4.47102
G1 X168.203 Y124.504 E4.57206
G1 X168.66 Y124.693 E4.61505
G1 X169.51 Y125.088 E4.69653
G1 X170.656 Y125.772 E4.81254
G1 X170.864 Y125.914 E4.83444
G1 X171.615 Y126.476 E4.91597
G1 X172.462 Y127.243 E5.01531
G1 X172.8 Y127.583 E5.05698
G1 X173.432 Y128.275 E5.13845
G1 X174.003 Y129.019 E5.21997
G1 X174.343 Y129.534 E5.27362
G1 X174.551 Y129.869 E5.3079
G1 X175.011 Y130.686 E5.3894
G1 X175.33 Y131.371 E5.45509
G1 X175.42 Y131.583 E5.47511
G1 X175.749 Y132.461 E5.55661
G1 X175.922 Y133.042 E5.60931
G1 X176 Y133.334 E5.63558
G1 X176.203 Y134.249 E5.71706
G1 X176.32 Y135.105 E5.79216
G1 X176.346 Y135.372 E5.81548
G1 X176.396 Y136.254 E5.89227
G1 X176.41 Y137.159 E5.97095
G1 X176.408 Y162.957 E8.21354
G1 X176.389 Y163.894 E8.29501
G1 X176.372 Y164.255 E8.32643
G1 X176.288 Y165.189 E8.40795
G1 X176.155 Y165.979 E8.47759
G1 X175.943 Y166.893 E8.55915
G1 X175.745 Y167.529 E8.61705
G1 X175.641 Y167.831 E8.64482
G1 X175.298 Y168.704 E8.72635
G1 X174.963 Y169.402 E8.79366
G1 X174.508 Y170.222 E8.87517
G1 X174.146 Y170.775 E8.93263
G1 X173.996 Y170.99 E8.95542
G1 X173.428 Y171.736 E9.03693
G1 X172.627 Y172.598 E9.13922
G1 X172.313 Y172.902 E9.17721
G1 X171.613 Y173.525 E9.25867
G1 X170.861 Y174.085 E9.34017
G1 X170.131 Y174.551 E9.41546
G1 X169.314 Y175.011 E9.49696
G1 X168.461 Y175.4 E9.57846
G1 X167.854 Y175.625 E9.63473
G1 X167.437 Y175.766 E9.673
G1 X166.537 Y176.028 E9.75448
G1 X165.64 Y176.209 E9.83403
G1 X165.344 Y176.256 E9.86008
G1 X164.168 Y176.378 E9.96286
G1 X163.515 Y176.403 E10.01966
G1 X162.888 Y176.41 E10.07417
G1 X157.018 Y176.408 E10.58444
G1 X156.249 Y176.397 E10.6513
G1 X155.364 Y176.348 E10.72835
G1 X155.049 Y176.318 E10.75585
G1 X153.964 Y176.16 E10.85117
G1 X153.67 Y176.102 E10.87722
G1 X152.536 Y175.815 E10.9789
G1 X152.33 Y175.751 E10.99765
G1 X151.466 Y175.442 E11.07742
G1 X151.224 Y175.344 E11.10011
G1 X150.161 Y174.846 E11.20216
G1 X149.879 Y174.695 E11.22996
G1 X148.86 Y174.076 E11.33361
G1 X148.635 Y173.922 E11.35731
G1 X147.701 Y173.207 E11.45956
G1 X147.1 Y172.668 E11.52974
G1 X146.109 Y171.712 E11.64943
G1 X127.989 Y153.587 E13.87734
G1 X127.377 Y152.954 E13.95387
G1 X126.715 Y152.204 E14.04084
G1 X126.538 Y151.984 E14.06538
G1 X125.871 Y151.06 E14.16444
G1 X125.723 Y150.831 E14.18815
G1 X125.139 Y149.812 E14.29024
G1 X125.012 Y149.56 E14.31477
G1 X124.554 Y148.522 E14.4134
G1 X124.449 Y148.246 E14.43907
G1 X124.107 Y147.19 E14.53556
G1 X124.028 Y146.896 E14.56202
G1 X123.824 Y145.981 E14.64352
G1 X123.691 Y144.966 E14.7325
G1 X123.65 Y144.479 E14.77499
G1 X123.613 Y143.777 E14.8361
G1 X123.59 Y142.508 E14.94643
G1 X123.592 Y138.393 E15.30414
G0 F1620 X123.592 Y137.03
G0 F6000 X124.252 Y137.04
G1 F1800 X124.27 Y136.099 E15.38595
G1 X124.281 Y135.854 E15.40727
G1 X124.392 Y134.74 E15.50459
G1 X124.43 Y134.494 E15.52623
G1 X124.608 Y133.603 E15.60521
G1 X124.846 Y132.783 E15.67943
G1 X124.937 Y132.512 E15.70429
G1 X125.336 Y131.503 E15.79861
G1 X125.454 Y131.245 E15.82327
G1 X125.868 Y130.436 E15.90227
G1 X126.324 Y129.706 E15.97709
G1 X126.476 Y129.484 E16.00048
G1 X127.022 Y128.757 E16.07951
G1 X127.751 Y127.96 E16.1734
G1 X128.082 Y127.634 E16.21379
G1 X128.757 Y127.026 E16.29276
G1 X129.483 Y126.479 E16.37178
G1 X129.882 Y126.218 E16.41322
G1 X130.217 Y126.01 E16.4475
G1 X131.009 Y125.565 E16.52647
G1 X131.838 Y125.191 E16.60553
G1 X132.357 Y125 E16.65361
G1 X132.774 Y124.859 E16.69187
G1 X133.647 Y124.606 E16.77088
G1 X134.463 Y124.443 E16.84322
G1 X134.759 Y124.396 E16.86927
G1 X135.865 Y124.281 E16.96593
G1 X136.494 Y124.257 E17.02065
G1 X137.112 Y124.25 E17.07438
G1 X162.948 Y124.252 E19.32026
G1 X163.868 Y124.271 E19.40026
G1 X164.227 Y124.288 E19.4315
G1 X165.132 Y124.37 E19.51049
G1 X165.801 Y124.484 E19.56949
G1 X166.066 Y124.538 E19.59299
G1 X166.947 Y124.758 E19.67193
G1 X167.951 Y125.114 E19.76453
G1 X168.408 Y125.303 E19.80752
G1 X169.232 Y125.687 E19.88655
G1 X170.284 Y126.318 E19.99318
G1 X170.492 Y126.46 E20.01508
G1 X171.22 Y127.005 E20.09413
G1 X171.994 Y127.708 E20.18502
G1 X172.332 Y128.048 E20.2267
G1 X172.944 Y128.72 E20.30571
G1 X173.494 Y129.444 E20.38475
G1 X173.782 Y129.882 E20.43031
G1 X173.99 Y130.217 E20.46459
G1 X174.435 Y131.009 E20.54356
G1 X174.723 Y131.629 E20.60299
G1 X174.813 Y131.841 E20.62301
G1 X175.131 Y132.693 E20.70206
G1 X175.362 Y133.504 E20.77537
G1 X175.558 Y134.392 E20.85442
G1 X175.663 Y135.169 E20.92258
G1 X175.689 Y135.436 E20.9459
G1 X175.737 Y136.265 E21.01808
G1 X175.75 Y137.159 E21.0958
G1 X175.748 Y162.948 E23.33761
G1 X175.73 Y163.863 E23.41716
G1 X175.713 Y164.224 E23.44858
G1 X175.63 Y165.129 E23.52758
G1 X175.507 Y165.858 E23.59185
G1 X175.3 Y166.743 E23.67085
G1 X175.121 Y167.314 E23.72287
G1 X175.017 Y167.616 E23.75064
G1 X174.489 Y168.873 E23.86915
G1 X174.372 Y169.107 E23.8919
G1 X173.931 Y169.901 E23.97085
G1 X173.605 Y170.398 E24.02252
G1 X173.455 Y170.613 E24.04531
G1 X172.903 Y171.334 E24.12424
G1 X172.168 Y172.124 E24.21804
G1 X171.854 Y172.428 E24.25603
G1 X171.174 Y173.03 E24.33498
G1 X170.118 Y173.782 E24.44768
G1 X169.783 Y173.99 E24.48195
G1 X168.991 Y174.435 E24.56092
G1 X168.162 Y174.809 E24.63998
G1 X167.643 Y175 E24.68806
G1 X167.226 Y175.141 E24.72632
G1 X166.353 Y175.394 E24.80533
G1 X165.537 Y175.557 E24.87767
G1 X165.241 Y175.604 E24.90372
G1 X164.135 Y175.719 E25.00038
G1 X163.506 Y175.743 E25.0551
G1 X162.888 Y175.75 E25.10883
G1 X157.027 Y175.748 E25.61832
G1 X156.258 Y175.737 E25.68517
G1 X155.427 Y175.691 E25.75752
G1 X155.112 Y175.661 E25.78502
G1 X154.092 Y175.513 E25.87462
G1 X153.798 Y175.455 E25.90067
G1 X152.732 Y175.185 E25.99626
G1 X152.526 Y175.121 E26.01501
G1 X151.714 Y174.831 E26.08997
G1 X151.472 Y174.733 E26.11266
G1 X150.473 Y174.265 E26.20856
G1 X150.191 Y174.114 E26.23637
G1 X149.232 Y173.531 E26.33393
G1 X149.007 Y173.377 E26.35763
G1 X148.13 Y172.705 E26.45367
G1 X147.557 Y172.192 E26.52053
G1 X146.576 Y171.246 E26.639
G1 X128.463 Y153.128 E28.86604
G1 X127.851 Y152.495 E28.94258
G1 X127.23 Y151.79 E29.02425
G1 X127.053 Y151.57 E29.04879
G1 X126.425 Y150.702 E29.14193
G1 X126.277 Y150.473 E29.16563
G1 X125.728 Y149.515 E29.26161
G1 X125.601 Y149.263 E29.28614
G1 X125.171 Y148.287 E29.37885
G1 X125.066 Y148.011 E29.40452
G1 X124.745 Y147.019 E29.49516
G1 X124.666 Y146.725 E29.52162
G1 X124.469 Y145.837 E29.60069
G1 X124.348 Y144.911 E29.68187
G1 X124.307 Y144.424 E29.72436
G1 X124.273 Y143.764 E29.78181
G1 X124.25 Y142.508 E29.89101
G1 X124.252 Y138.403 E30.24785
G0 F1620 X124.252 Y137.04
G1 F2100 E25.24785
G1 F300 Z0.56
;MESH:corner_panel_clip_4mm_x8.stl
G0 F6000 X136.451 Y142.949 Z0.56
;TYPE:WALL-INNER
G1 F300 Z0.24
G1 F2100 E30.24785
G1 F1233.6 X136.315 Y143.276 E30.29277
G1 F1654.6 X136.206 Y143.543 E30.32004
G1 F1973.4 X136.239 Y143.787 E30.33956
G1 F2006.8 X136.332 Y144.031 E30.35992
G1 F2020.4 X136.554 Y144.326 E30.38852
G1 X136.864 Y144.637 E30.42252
G1 F2010.2 X137.062 Y144.832 E30.44416
G1 F1922.3 X137.378 Y145.113 E30.47858
G1 F1827.7 X137.469 Y145.194 E30.48901
G1 F1870.9 X137.289 Y144.858 E30.52089
G1 F1980 X137.106 Y144.466 E30.55507
G1 F2020.4 X136.967 Y144.092 E30.58597
G1 X136.862 Y143.788 E30.61088
G1 F2010.2 X136.788 Y143.487 E30.63501
G1 F1668.5 X136.625 Y143.257 E30.66145
G1 F1266.5 X136.484 Y143.012 E30.69637
G1 F1108.2 X136.451 Y142.949 E30.70641
G1 F2100 E25.70641
G1 F300 Z0.56
G0 F6000 X153.468 Y161.194 Z0.56
G1 F300 Z0.24
G1 F2100 E30.70641
G1 F1802.7 X153.269 Y160.87 E30.73941
G1 X153.073 Y160.481 E30.77722
G1 F1800 X153.001 Y160.304 E30.79383
G1 X152.839 Y159.828 E30.83754
G1 X152.731 Y159.378 E30.87777
G1 X152.675 Y158.987 E30.91211
G1 X152.651 Y158.589 E30.94677
G1 X152.66 Y158.184 E30.98198
G1 X152.704 Y157.786 E31.01679
G1 X152.776 Y157.403 E31.05067
G1 X152.879 Y157.026 E31.08464
G1 X153.017 Y156.648 E31.11962
G1 X153.182 Y156.291 E31.15381
G1 X153.383 Y155.937 E31.1892
G1 X153.595 Y155.624 E31.22206
G1 X153.846 Y155.311 E31.25693
G1 X154.118 Y155.024 E31.29131
G1 X154.412 Y154.76 E31.32566
G1 X154.723 Y154.524 E31.35959
G1 X154.985 Y154.356 E31.38665
G1 X155.29 Y154.186 E31.417
G1 X155.53 Y154.069 E31.44021
G1 X155.832 Y153.945 E31.46859
G1 X156.157 Y153.84 E31.49828
G1 X156.526 Y153.748 E31.53134
G1 X156.938 Y153.683 E31.5676
G1 X157.339 Y153.654 E31.60255
G1 X157.719 Y153.656 E31.63558
G1 X158.11 Y153.69 E31.6697
G1 X158.499 Y153.753 E31.70395
G1 X158.9 Y153.857 E31.73997
G1 X159.252 Y153.978 E31.77232
G1 X159.625 Y154.141 E31.80771
G1 X159.968 Y154.327 E31.84163
G1 X160.295 Y154.538 E31.87545
G1 X160.614 Y154.784 E31.91047
G1 X160.902 Y155.045 E31.94426
G1 X161.17 Y155.329 E31.9782
G1 X161.414 Y155.634 E32.01216
G1 X161.647 Y155.986 E32.04885
G1 X161.831 Y156.317 E32.08177
G1 X161.992 Y156.674 E32.11582
G1 X162.127 Y157.05 E32.15054
G1 X162.234 Y157.444 E32.18604
G1 X162.273 Y157.655 E32.20469
G1 X162.335 Y158.157 E32.24866
G1 X162.347 Y158.609 E32.28796
G1 X162.323 Y159.001 E32.3221
G1 X162.268 Y159.385 E32.35582
G1 X162.173 Y159.793 E32.39224
G1 X162.062 Y160.145 E32.42432
G1 X161.903 Y160.532 E32.46069
G1 X161.728 Y160.876 E32.49424
G1 X161.53 Y161.202 E32.5274
G1 X161.284 Y161.535 E32.56339
G1 X161.023 Y161.834 E32.59789
G1 X160.742 Y162.107 E32.63195
G1 X160.453 Y162.35 E32.66477
G1 X160.095 Y162.597 E32.70258
G1 X159.78 Y162.78 E32.73425
G1 X159.409 Y162.957 E32.76998
G1 X159.055 Y163.094 E32.80298
G1 F1839 X158.66 Y163.194 E32.83765
G1 F1973.4 X158.247 Y163.248 E32.87067
G1 F2121.4 X157.878 Y163.279 E32.89798
G1 F2179.8 X157.45 Y163.29 E32.92872
G1 X157.098 Y163.276 E32.954
G1 F2117.6 X156.716 Y163.241 E32.98235
G1 F2030.8 X156.421 Y163.193 E33.00538
G1 F2003.4 X156.078 Y163.097 E33.0332
G1 F2013.6 X155.827 Y163.015 E33.05372
G1 X155.586 Y162.918 E33.0739
G1 F2006.8 X155.219 Y162.741 E33.10567
G1 F1941.2 X154.893 Y162.571 E33.13531
G1 F1867.9 X154.777 Y162.518 E33.14599
G1 F1906.9 X155.041 Y162.804 E33.17793
G1 F1989.9 X155.3 Y163.072 E33.20724
G1 F2013.6 X155.658 Y163.433 E33.24674
G1 X155.854 Y163.595 E33.2665
G1 F2003.4 X156.12 Y163.731 E33.28984
G1 F2006.8 X156.479 Y163.8 E33.31834
G1 F2080.6 X156.94 Y163.821 E33.35305
G1 F2167.9 X157.45 Y163.831 E33.38987
G1 F2179.8 X157.907 Y163.825 E33.42267
G1 F2121.4 X158.296 Y163.814 E33.45138
G1 F2010.2 X158.587 Y163.795 E33.47408
G1 F1870.9 X159.003 Y163.769 E33.50894
G1 F1800 X159.432 Y163.768 E33.54623
G1 X160.712 Y163.769 E33.6575
G1 X163.437 Y163.768 E33.89438
G1 X163.668 Y163.696 E33.91541
G1 X163.765 Y163.447 E33.93864
G1 X163.769 Y163.405 E33.94231
G1 X163.769 Y136.6 E36.27243
G1 X163.723 Y136.364 E36.29333
G1 X163.525 Y136.242 E36.31355
G1 X163.401 Y136.232 E36.32437
G1 X136.563 Y136.232 E38.65736
G1 X136.333 Y136.303 E38.67828
G1 X136.241 Y136.485 E38.69601
G1 X136.232 Y136.596 E38.70569
G1 X136.231 Y140.335 E39.03072
G1 X136.232 Y140.935 E39.08287
G1 F1614.1 X136.307 Y141.196 E39.1092
G1 F1206.1 X136.48 Y141.61 E39.16741
G1 F1132.5 X136.639 Y141.376 E39.2065
G1 F1485 X136.879 Y141.026 E39.25121
G1 F1800 X137.017 Y140.648 E39.28619
G1 X137.182 Y140.291 E39.32038
G1 X137.383 Y139.938 E39.35569
G1 X137.595 Y139.624 E39.38863
G1 X137.846 Y139.31 E39.42357
G1 X138.118 Y139.024 E39.45788
G1 X138.412 Y138.76 E39.49223
G1 X138.723 Y138.524 E39.52617
G1 X139.063 Y138.308 E39.56118
G1 X139.411 Y138.124 E39.5954
G1 X139.773 Y137.968 E39.62967
G1 X140.157 Y137.84 E39.66486
G1 X140.526 Y137.748 E39.69791
G1 X140.938 Y137.683 E39.73417
G1 X141.339 Y137.653 E39.76913
G1 X141.719 Y137.656 E39.80216
G1 X142.11 Y137.689 E39.83627
G1 X142.499 Y137.752 E39.87053
G1 X142.9 Y137.856 E39.90654
G1 X143.252 Y137.977 E39.9389
G1 X143.625 Y138.141 E39.97432
G1 X143.969 Y138.327 E40.00831
G1 X144.295 Y138.537 E40.04202
G1 X144.615 Y138.784 E40.07716
G1 X144.903 Y139.045 E40.11095
G1 X145.17 Y139.329 E40.14483
G1 X145.414 Y139.634 E40.17878
G1 X145.646 Y139.986 E40.21543
G1 X145.83 Y140.317 E40.24835
G1 X145.993 Y140.674 E40.28247
G1 X146.128 Y141.05 E40.3172
G1 X146.234 Y141.444 E40.35266
G1 X146.273 Y141.652 E40.37106
G1 X146.335 Y142.154 E40.41503
G1 X146.348 Y142.609 E40.4546
G1 X146.322 Y143.008 E40.48936
G1 X146.269 Y143.385 E40.52245
G1 X146.173 Y143.793 E40.55889
G1 X146.102 Y144.025 E40.57998
G1 X146.02 Y144.261 E40.6017
G1 X145.883 Y144.577 E40.63164
G1 X145.728 Y144.876 E40.66091
G1 X145.572 Y145.134 E40.68712
G1 X145.285 Y145.535 E40.72999
G1 X145.023 Y145.834 E40.76455
G1 X144.742 Y146.107 E40.7986
G1 X144.453 Y146.35 E40.83142
G1 X144.095 Y146.596 E40.86918
G1 X143.78 Y146.78 E40.9009
G1 X143.411 Y146.957 E40.93647
G1 X143.063 Y147.092 E40.96892
G1 X142.665 Y147.208 E41.00496
G1 X142.274 Y147.288 E41.03965
G1 X141.871 Y147.335 E41.07492
G1 X141.484 Y147.349 E41.10858
G1 X141.09 Y147.332 E41.14287
G1 X140.7 Y147.284 E41.17702
G1 X140.309 Y147.201 E41.21177
G1 X139.932 Y147.089 E41.24596
G1 X139.566 Y146.948 E41.28005
G1 F1802.7 X139.214 Y146.777 E41.31402
G1 F1819.3 X138.875 Y146.572 E41.34809
G1 F1836.2 X138.781 Y146.513 E41.35755
G1 F1822.1 X139.146 Y146.872 E41.40151
G1 F1802.7 X140.322 Y148.045 E41.54568
G1 F1800 X151.603 Y159.327 E42.93258
G1 X153.073 Y160.798 E43.11336
G0 F1620 X153.468 Y161.194
G1 F2100 E38.11336
G1 F300 Z0.56
G0 F6000 X161.249 Y156.63 Z0.56
G1 F300 Z0.24
G1 F2100 E43.11336
G1 F1800 X161.388 Y156.94 E43.14289
G1 X161.503 Y157.264 E43.17278
G1 X161.595 Y157.608 E43.20373
G1 X161.618 Y157.735 E43.21495
G1 X161.679 Y158.237 E43.25891
G1 X161.687 Y158.612 E43.29152
G1 X161.665 Y158.95 E43.32096
G1 X161.614 Y159.306 E43.35223
G1 X161.533 Y159.631 E43.38134
G1 X161.435 Y159.941 E43.4096
G1 X161.297 Y160.27 E43.44062
G1 X161.144 Y160.569 E43.46981
G1 X160.97 Y160.852 E43.49869
G1 X160.759 Y161.135 E43.52938
G1 X160.533 Y161.392 E43.55913
G1 X160.288 Y161.628 E43.5887
G1 X160.034 Y161.839 E43.6174
G1 X159.731 Y162.046 E43.6493
G1 X159.453 Y162.207 E43.67723
G1 X159.134 Y162.357 E43.70787
G1 X158.826 Y162.475 E43.73654
G1 F1802.7 X158.489 Y162.57 E43.76694
G1 X158.157 Y162.638 E43.79635
G1 F1800 X157.814 Y162.678 E43.82637
G1 X157.473 Y162.689 E43.85603
G1 X157.133 Y162.673 E43.88562
G1 X156.799 Y162.631 E43.91488
G1 X156.562 Y162.581 E43.93593
G1 X156.259 Y162.499 E43.96322
