;FLAVOR:Marlin
;TIME:740
;Filament used: 1.10074m
;Layer height: 0.32
;MINX:124.589
;MINY:123.722
;MINZ:0.24
;MAXX:177.145
;MAXY:176.278
;MAXZ:7.28
;Generated with Cura_SteamEngine 5.0.0
M140 S80
M105
M190 S80
M104 S250
M105
M109 S250
M82 ;absolute extrusion mode
; Ender 3 Max Custom Start G-code
G92 E0 ; Reset Extruder
G28 ; Home all axes
G1 Z2.0 F3000 ; Move Z Axis up little to prevent scratching of Heat Bed
G1 X0.1 Y20 Z0.3 F5000.0 ; Move to start position
G1 X0.1 Y200.0 Z0.3 F1500.0 E15 ; Draw the first line
G1 X0.4 Y200.0 Z0.3 F5000.0 ; Move to side a little
G1 X0.4 Y20 Z0.3 F1500.0 E30 ; Draw the second line
G92 E0 ; Reset Extruder
G1 Z2.0 F3000 ; Move Z Axis up little to prevent scratching of Heat Bed
G1 X5 Y20 Z0.3 F5000.0 ; Move over to prevent blob squish
G92 E0
G92 E0
G1 F2100 E-5
;LAYER_COUNT:22
;LAYER:0
M107
G1 F300 Z0.56
G0 F6000 X128.214 Y127.621 Z0.56
G1 F300 Z0.56
G0 F6000 X124.592 Y136.968
;TYPE:SKIRT
G1 F300 Z0.24
G1 F2100 E0
G1 F1800 X124.609 Y136.13 E0.06315
G1 X124.718 Y134.803 E0.16346
G1 X124.757 Y134.532 E0.18408
G1 X124.929 Y133.617 E0.25423
G1 X125.192 Y132.68 E0.32755
G1 X125.281 Y132.41 E0.34896
G1 X125.717 Y131.296 E0.43909
G1 X125.839 Y131.029 E0.4612
G1 X126.262 Y130.199 E0.53139
G1 X126.74 Y129.431 E0.59954
G1 X126.883 Y129.221 E0.61868
G1 X127.44 Y128.474 E0.68888
G1 X128.214 Y127.621 E0.77566
G1 X128.562 Y127.276 E0.81257
G1 X129.251 Y126.649 E0.88276
G1 X129.991 Y126.083 E0.95295
G1 X130.483 Y125.76 E0.99729
G1 X130.77 Y125.582 E1.02273
G1 X131.813 Y125.011 E1.11231
G1 X132.014 Y124.915 E1.12909
G1 X132.872 Y124.55 E1.19934
G1 X133.837 Y124.238 E1.27575
G1 X134.178 Y124.145 E1.30238
G1 X135.087 Y123.938 E1.37261
G1 X136.052 Y123.807 E1.44598
G1 X136.371 Y123.778 E1.47011
G1 X137.163 Y123.735 E1.52987
G1 X137.979 Y123.722 E1.59135
G1 X163.822 Y123.724 E3.53832
G1 X164.76 Y123.743 E3.609
G1 X165.119 Y123.76 E3.63607
G1 X166.047 Y123.844 E3.70627
G1 X166.892 Y123.992 E3.7709
G1 X167.203 Y124.059 E3.79487
G1 X168.104 Y124.294 E3.86502
G1 X168.688 Y124.491 E3.91146
G1 X168.939 Y124.584 E3.93162
G1 X169.799 Y124.945 E4.00189
G1 X170.554 Y125.339 E4.06605
G1 X170.827 Y125.495 E4.08974
G1 X171.986 Y126.259 E4.19432
G1 X172.162 Y126.392 E4.21094
G1 X172.881 Y126.985 E4.28115
G1 X173.562 Y127.656 E4.35318
G1 X173.819 Y127.932 E4.38159
G1 X174.425 Y128.64 E4.4518
G1 X175.098 Y129.604 E4.54037
G1 X175.306 Y129.939 E4.57008
G1 X175.763 Y130.751 E4.64028
G1 X176.148 Y131.599 E4.71044
G1 X176.423 Y132.358 E4.77126
G1 X176.582 Y132.855 E4.81057
G1 X176.827 Y133.753 E4.8807
G1 X177.02 Y134.862 E4.96551
G1 X177.055 Y135.152 E4.98751
G1 X177.131 Y136.267 E5.07171
G1 X177.145 Y137.154 E5.13854
G1 X177.143 Y162.956 E7.08242
G1 X177.122 Y163.931 E7.15589
G1 X177.103 Y164.303 E7.18395
G1 X177.015 Y165.231 E7.25418
G1 X176.887 Y165.983 E7.31165
G1 X176.673 Y166.89 E7.38186
G1 X176.486 Y167.489 E7.42913
G1 X176.392 Y167.762 E7.45089
G1 X176.03 Y168.679 E7.52516
G1 X175.941 Y168.877 E7.54151
G1 X175.522 Y169.709 E7.6117
G1 X175.089 Y170.422 E7.67454
G1 X174.928 Y170.665 E7.6965
G1 X174.38 Y171.419 E7.76673
G1 X173.531 Y172.368 E7.86266
G1 X173.191 Y172.706 E7.89878
G1 X172.503 Y173.334 E7.96895
G1 X171.763 Y173.901 E8.03919
G1 X171.23 Y174.251 E8.08723
G1 X170.889 Y174.461 E8.1174
G1 X170.075 Y174.916 E8.18765
G1 X169.34 Y175.254 E8.2486
G1 X168.471 Y175.588 E8.31874
G1 X167.913 Y175.759 E8.36271
G1 X167.621 Y175.84 E8.38554
G1 X166.714 Y176.05 E8.45568
G1 X165.739 Y176.187 E8.52985
G1 X165.4 Y176.219 E8.55551
G1 X164.572 Y176.265 E8.61798
G1 X163.755 Y176.278 E8.67954
G1 X157.887 Y176.276 E9.12163
G1 X157.118 Y176.265 E9.17957
G1 X156.239 Y176.217 E9.24589
G1 X155.915 Y176.186 E9.27041
G1 X154.806 Y176.021 E9.35488
G1 X154.508 Y175.961 E9.37778
G1 X153.367 Y175.666 E9.46657
G1 X153.159 Y175.6 E9.48301
G1 X152.325 Y175.298 E9.54983
G1 X152.103 Y175.207 E9.56791
G1 X151.113 Y174.742 E9.65031
G1 X150.826 Y174.589 E9.67481
G1 X149.791 Y173.96 E9.76606
G1 X149.568 Y173.807 E9.78643
G1 X148.683 Y173.13 E9.87038
G1 X148.058 Y172.573 E9.93345
G1 X147.07 Y171.619 E10.03692
G1 X128.951 Y153.495 E11.96766
G1 X128.339 Y152.862 E12.034
G1 X127.666 Y152.098 E12.1107
G1 X127.494 Y151.883 E12.13145
G1 X126.902 Y151.068 E12.20734
G1 X126.752 Y150.84 E12.2279
G1 X126.119 Y149.743 E12.32331
G1 X125.987 Y149.48 E12.34548
G1 X125.554 Y148.499 E12.42627
G1 X125.45 Y148.228 E12.44814
G1 X125.093 Y147.126 E12.53541
G1 X125.021 Y146.855 E12.55653
G1 X124.822 Y145.954 E12.62605
G1 X124.786 Y145.75 E12.64166
G1 X124.662 Y144.814 E12.71279
G1 X124.611 Y143.935 E12.77912
G1 X124.589 Y142.616 E12.87851
G1 X124.592 Y138.541 E13.18551
G0 F1620 X124.592 Y136.968
G0 F6000 X125.164 Y136.979
G1 F1800 X125.181 Y136.141 E13.24866
G1 X125.284 Y134.885 E13.3436
G1 X125.323 Y134.614 E13.36423
G1 X125.492 Y133.723 E13.43255
G1 X125.735 Y132.859 E13.50017
G1 X125.824 Y132.589 E13.52159
G1 X126.237 Y131.534 E13.60694
G1 X126.359 Y131.267 E13.62906
G1 X126.772 Y130.46 E13.69735
G1 X127.213 Y129.753 E13.76013
G1 X127.356 Y129.543 E13.77927
G1 X127.899 Y128.816 E13.84763
G1 X128.616 Y128.027 E13.92795
G1 X128.964 Y127.682 E13.96487
G1 X129.636 Y127.073 E14.03319
G1 X130.358 Y126.525 E14.10148
G1 X131.072 Y126.068 E14.16535
G1 X132.06 Y125.527 E14.25021
G1 X132.261 Y125.431 E14.26699
G1 X133.096 Y125.077 E14.33532
G1 X133.988 Y124.789 E14.40594
G1 X134.329 Y124.696 E14.43257
G1 X135.213 Y124.497 E14.50083
G1 X136.104 Y124.376 E14.56857
G1 X136.423 Y124.347 E14.59271
G1 X137.173 Y124.307 E14.64929
G1 X137.979 Y124.294 E14.71002
G1 X163.814 Y124.296 E16.65638
G1 X164.733 Y124.315 E16.72563
G1 X165.092 Y124.332 E16.75271
G1 X165.995 Y124.414 E16.82102
G1 X166.771 Y124.551 E16.88039
G1 X167.082 Y124.618 E16.90435
G1 X167.96 Y124.848 E16.97273
G1 X168.741 Y125.121 E17.03506
G1 X169.576 Y125.473 E17.10333
G1 X170.27 Y125.835 E17.1623
G1 X170.543 Y125.991 E17.18599
G1 X171.641 Y126.716 E17.28512
G1 X171.817 Y126.849 E17.30174
G1 X172.516 Y127.427 E17.37007
G1 X173.144 Y128.045 E17.43645
G1 X173.401 Y128.321 E17.46486
G1 X173.989 Y129.012 E17.53322
G1 X174.612 Y129.905 E17.61525
G1 X174.82 Y130.24 E17.64496
G1 X175.264 Y131.031 E17.7133
G1 X175.636 Y131.858 E17.78161
G1 X175.878 Y132.532 E17.83556
G1 X176.037 Y133.029 E17.87488
G1 X176.275 Y133.904 E17.94319
G1 X176.452 Y134.931 E18.02171
G1 X176.487 Y135.221 E18.04371
G1 X176.559 Y136.277 E18.12345
G1 X176.573 Y137.154 E18.18953
G1 X176.571 Y162.948 E20.13281
G1 X176.551 Y163.902 E20.2047
G1 X176.532 Y164.274 E20.23276
G1 X176.445 Y165.176 E20.30103
G1 X176.325 Y165.876 E20.35454
G1 X176.116 Y166.759 E20.4229
G1 X175.946 Y167.303 E20.46584
G1 X175.852 Y167.576 E20.48759
G1 X175.508 Y168.444 E20.55793
G1 X175.419 Y168.642 E20.57428
G1 X175.011 Y169.452 E20.64261
G1 X174.612 Y170.106 E20.70033
G1 X174.451 Y170.349 E20.72229
G1 X173.917 Y171.082 E20.79061
G1 X173.128 Y171.963 E20.87971
G1 X172.788 Y172.301 E20.91583
G1 X172.117 Y172.911 E20.98415
G1 X171.395 Y173.46 E21.05248
G1 X170.93 Y173.764 E21.09434
G1 X170.589 Y173.974 E21.12451
G1 X169.796 Y174.415 E21.19287
G1 X169.112 Y174.729 E21.24957
G1 X168.265 Y175.054 E21.31792
G1 X167.468 Y175.289 E21.38052
G1 X166.585 Y175.492 E21.44878
G1 X165.686 Y175.617 E21.51716
G1 X165.347 Y175.649 E21.54281
G1 X164.562 Y175.693 E21.60205
G1 X163.755 Y175.706 E21.66285
G1 X157.895 Y175.704 E22.10433
G1 X157.126 Y175.693 E22.16227
G1 X156.293 Y175.647 E22.22513
G1 X155.969 Y175.616 E22.24965
G1 X154.919 Y175.461 E22.32961
G1 X154.621 Y175.401 E22.35251
G1 X153.54 Y175.121 E22.43664
G1 X153.332 Y175.055 E22.45308
G1 X152.542 Y174.768 E22.5164
G1 X152.32 Y174.677 E22.53448
G1 X151.382 Y174.237 E22.61253
G1 X151.095 Y174.084 E22.63704
G1 X150.115 Y173.489 E22.72341
G1 X149.892 Y173.336 E22.74379
G1 X149.053 Y172.694 E22.82338
G1 X148.455 Y172.161 E22.88373
G1 X147.474 Y171.215 E22.9864
G1 X129.362 Y153.098 E24.9164
G1 X128.75 Y152.465 E24.98273
G1 X128.113 Y151.741 E25.05538
G1 X127.941 Y151.526 E25.07612
G1 X127.38 Y150.753 E25.14808
G1 X127.23 Y150.525 E25.16864
G1 X126.63 Y149.486 E25.25903
G1 X126.498 Y149.223 E25.2812
G1 X126.088 Y148.294 E25.3577
G1 X125.984 Y148.023 E25.37957
G1 X125.646 Y146.979 E25.46225
G1 X125.574 Y146.708 E25.48337
G1 X125.386 Y145.855 E25.54918
G1 X125.35 Y145.651 E25.56478
G1 X125.231 Y144.757 E25.63273
G1 X125.183 Y143.925 E25.69551
G1 X125.161 Y142.616 E25.79415
G1 X125.164 Y138.552 E26.10032
G0 F1620 X125.164 Y136.979
G1 F2100 E21.10032
G1 F300 Z0.56
;MESH:corner_panel_clip_4mm_x8.stl
G0 F6000 X155.852 Y162.85 Z0.56
;TYPE:WALL-INNER
G1 F300 Z0.24
G1 F2100 E26.10032
G1 F1303.3 X156.104 Y163.135 E26.13343
G1 F1344.1 X156.468 Y163.5 E26.17692
G1 X156.674 Y163.669 E26.19941
G1 F1338.9 X156.952 Y163.812 E26.22589
G1 F1332 X157.19 Y163.869 E26.24673
G1 F1353 X157.544 Y163.9 E26.27652
G1 F1391.4 X157.805 Y163.909 E26.29781
G1 F1420.1 X158.317 Y163.919 E26.33871
G1 F1428 X158.773 Y163.913 E26.37493
G1 F1397 X159.197 Y163.9 E26.40937
G1 F1460.4 X159.456 Y163.944 E26.42977
G1 F1671.4 X159.868 Y163.989 E26.45789
G1 F1800 X164.289 Y163.99 E26.73646
G1 X164.554 Y163.944 E26.75341
G1 X164.763 Y163.773 E26.77042
G1 X164.843 Y163.545 E26.78565
G1 X164.856 Y163.396 E26.79507
G1 X164.856 Y136.588 E28.48425
G1 X164.822 Y136.348 E28.49952
G1 X164.672 Y136.131 E28.51614
G1 X164.418 Y136.024 E28.53351
G1 X164.272 Y136.012 E28.54274
G1 X137.445 Y136.011 E30.23311
G1 X137.181 Y136.055 E30.24998
G1 X136.97 Y136.228 E30.26717
G1 X136.882 Y136.535 E30.28729
G1 X136.879 Y136.604 E30.29164
G1 X136.879 Y140.935 E30.56454
G1 F1745.1 X136.896 Y141.196 E30.58154
G1 F1511.9 X136.969 Y141.61 E30.61308
G1 F1389.5 X136.956 Y142.019 E30.64648
G1 F1426 X136.95 Y142.449 E30.68068
G1 F1432 X136.953 Y142.871 E30.7141
G1 F1402.7 X136.965 Y143.276 E30.74687
G1 F1360.1 X136.978 Y143.546 E30.76941
G1 F1335.4 X137.015 Y143.787 E30.79012
G1 F1338.9 X137.095 Y144.017 E30.81074
G1 F1347.6 X137.223 Y144.23 E30.83166
G1 X137.522 Y144.553 E30.8687
G1 X137.865 Y144.896 E30.90952
G1 F1200 X138.23 Y145.128 E30.9504
G1 F1049.5 X138.336 Y145.194 E30.9639
G1 F1120.3 X138.214 Y144.823 E31.00343
G1 F1293.5 X138.052 Y144.428 E31.04087
G1 F1347.6 X137.917 Y144.064 E31.07354
G1 X137.812 Y143.758 E31.10077
G1 F1344.1 X137.738 Y143.454 E31.12717
G1 F1356.5 X137.711 Y143.212 E31.14753
G1 F1393.2 X137.683 Y142.969 E31.16744
G1 F1424.1 X137.666 Y142.594 E31.19734
G1 F1432 X137.673 Y142.192 E31.22918
G1 F1406.6 X137.704 Y141.802 E31.26073
G1 F1464.6 X137.815 Y141.438 E31.2902
G1 F1668.7 X137.957 Y141.086 E31.316
G1 F1800 X138.089 Y140.726 E31.34016
G1 X138.247 Y140.386 E31.36378
G1 X138.44 Y140.05 E31.3882
G1 X138.643 Y139.749 E31.41107
G1 X138.88 Y139.454 E31.43492
G1 X139.145 Y139.175 E31.45916
G1 X139.421 Y138.928 E31.4825
G1 X139.725 Y138.697 E31.50656
G1 X140.043 Y138.495 E31.5303
G1 X140.387 Y138.315 E31.55476
G1 X140.731 Y138.169 E31.57831
G1 X141.076 Y138.053 E31.60124
G1 X141.446 Y137.961 E31.62526
G1 X141.834 Y137.901 E31.65
G1 X142.22 Y137.873 E31.67439
G1 X142.582 Y137.876 E31.6972
G1 X142.955 Y137.908 E31.72079
G1 X143.321 Y137.97 E31.74418
G1 X143.692 Y138.064 E31.76829
G1 X144.044 Y138.184 E31.79173
G1 X144.4 Y138.341 E31.81624
G1 X144.729 Y138.519 E31.83981
G1 X145.04 Y138.721 E31.86318
G1 X145.343 Y138.955 E31.8873
G1 X145.611 Y139.196 E31.91001
G1 X145.88 Y139.484 E31.93484
G1 X146.112 Y139.777 E31.95839
G1 X146.324 Y140.099 E31.98269
G1 X146.503 Y140.422 E32.00595
G1 X146.658 Y140.763 E32.02956
G1 X146.786 Y141.122 E32.05357
G1 X146.888 Y141.499 E32.07818
G1 X146.922 Y141.682 E32.08991
G1 X146.983 Y142.184 E32.12177
G1 X146.994 Y142.611 E32.14869
G1 X146.969 Y142.993 E32.17281
G1 X146.92 Y143.344 E32.19514
G1 X146.826 Y143.74 E32.22078
G1 X146.734 Y144.036 E32.24032
G1 X146.568 Y144.445 E32.26813
G1 X146.4 Y144.773 E32.29135
G1 X146.26 Y145.004 E32.30837
G1 X145.972 Y145.406 E32.33953
G1 X145.727 Y145.685 E32.36292
G1 X145.452 Y145.95 E32.38699
G1 X145.171 Y146.183 E32.40999
G1 X144.855 Y146.403 E32.43425
G1 X144.534 Y146.591 E32.45769
G1 X144.188 Y146.756 E32.48184
G1 X143.853 Y146.886 E32.50449
G1 X143.469 Y146.997 E32.52967
G1 X143.104 Y147.071 E32.55314
G1 X142.715 Y147.116 E32.57781
G1 X142.346 Y147.129 E32.60108
G1 X141.97 Y147.113 E32.62479
G1 X141.596 Y147.066 E32.64854
G1 X141.224 Y146.987 E32.67251
G1 X140.864 Y146.879 E32.69619
G1 X140.515 Y146.743 E32.71979
G1 F1660.6 X140.158 Y146.625 E32.74547
G1 F1215.6 X139.731 Y146.578 E32.78555
G1 F1131.4 X139.835 Y146.845 E32.81427
G1 F1507.5 X140.041 Y147.208 E32.84568
G1 F1800 X140.615 Y147.783 E32.89687
G1 X141.989 Y149.156 E33.01926
G1 X145.049 Y152.217 E33.29198
G1 X153.796 Y160.964 E34.07143
G1 F1389.5 X154.215 Y161.144 E34.10865
G1 F1071.4 X154.335 Y161.194 E34.12241
G1 F1211.3 X154.274 Y160.787 E34.16095
G1 F1634.3 X154.139 Y160.387 E34.19024
G1 F1800 X154.076 Y160.233 E34.20073
G1 X153.914 Y159.757 E34.23241
G1 X153.813 Y159.333 E34.25987
G1 X153.761 Y158.959 E34.28367
G1 X153.738 Y158.579 E34.30765
G1 X153.747 Y158.193 E34.33198
G1 X153.789 Y157.813 E34.35607
G1 X153.859 Y157.447 E34.37955
G1 X153.958 Y157.086 E34.40314
G1 X154.09 Y156.726 E34.4273
G1 X154.247 Y156.386 E34.4509
G1 X154.44 Y156.049 E34.47537
G1 X154.643 Y155.749 E34.49819
G1 X154.88 Y155.454 E34.52203
G1 X155.145 Y155.175 E34.54628
G1 X155.421 Y154.928 E34.56962
G1 X155.725 Y154.697 E34.59368
G1 X155.961 Y154.546 E34.61133
G1 X156.212 Y154.403 E34.62953
G1 X156.457 Y154.283 E34.64672
G1 X156.731 Y154.17 E34.6654
G1 X157.036 Y154.067 E34.68568
G1 X157.446 Y153.961 E34.71237
G1 X157.834 Y153.901 E34.7371
G1 X158.22 Y153.873 E34.76149
G1 X158.582 Y153.876 E34.7843
G1 X158.955 Y153.909 E34.80789
G1 X159.321 Y153.97 E34.83127
G1 X159.692 Y154.064 E34.85539
G1 X160.043 Y154.184 E34.87876
G1 X160.4 Y154.341 E34.90334
G1 X160.728 Y154.519 E34.92685
G1 X161.04 Y154.721 E34.95027
G1 X161.343 Y154.955 E34.97439
G1 X161.611 Y155.196 E34.9971
G1 X161.88 Y155.484 E35.02194
G1 X162.112 Y155.777 E35.04548
G1 X162.324 Y156.099 E35.06978
G1 X162.504 Y156.422 E35.09308
G1 X162.658 Y156.763 E35.11665
G1 X162.786 Y157.122 E35.14067
G1 X162.888 Y157.499 E35.16528
G1 X162.922 Y157.682 E35.177
G1 X162.983 Y158.184 E35.20887
G1 X162.994 Y158.611 E35.23578
G1 X162.969 Y158.994 E35.25997
G1 X162.915 Y159.38 E35.28453
G1 X162.826 Y159.741 E35.30795
G1 X162.72 Y160.077 E35.33015
G1 X162.568 Y160.444 E35.35518
G1 X162.4 Y160.774 E35.37852
G1 X162.205 Y161.091 E35.40197
G1 X161.974 Y161.402 E35.42638
G1 X161.732 Y161.681 E35.44965
G1 X161.449 Y161.954 E35.47442
G1 X161.171 Y162.184 E35.49716
G1 X160.855 Y162.403 E35.52138
G1 X160.528 Y162.595 E35.54528
G1 X160.364 Y162.675 E35.55678
G1 X159.893 Y162.869 E35.58887
G1 F1742.1 X159.475 Y163.015 E35.6177
G1 F1514.1 X159.126 Y163.157 E35.64592
G1 F1397 X158.735 Y163.191 E35.67778
G1 F1430 X158.352 Y163.201 E35.70817
G1 X157.969 Y163.188 E35.73857
G1 F1397 X157.594 Y163.154 E35.76914
G1 F1353 X157.308 Y163.107 E35.79343
G1 F1338.9 X156.971 Y163.013 E35.82307
G1 F1344.1 X156.726 Y162.933 E35.84482
G1 X156.486 Y162.836 E35.86666
G1 X156.127 Y162.661 E35.90036
G1 F1212.7 X155.769 Y162.547 E35.9355
G1 F1073.6 X155.642 Y162.521 E35.94919
G1 F1144 X155.852 Y162.85 E35.98789
G1 F2100 E30.98789
G1 F300 Z0.56
G0 F6000 X155.321 Y155.818 Z0.56
G1 F300 Z0.24
G1 F2100 E35.98789
G1 F1800 X155.554 Y155.575 E36.0091
G1 X155.798 Y155.358 E36.02968
G1 X156.065 Y155.157 E36.05074
G1 X156.343 Y154.982 E36.07143
G1 X156.644 Y154.826 E36.0928
G1 X156.948 Y154.699 E36.11356
G1 X157.213 Y154.611 E36.13115
G1 X157.577 Y154.518 E36.15482
G1 X157.913 Y154.468 E36.17623
G1 X158.255 Y154.444 E36.19783
G1 X158.57 Y154.448 E36.21768
G1 X158.898 Y154.478 E36.23843
G1 X159.22 Y154.533 E36.25902
G1 X159.543 Y154.617 E36.28005
G1 X159.852 Y154.724 E36.30065
G1 X160.162 Y154.861 E36.32201
G1 X160.45 Y155.019 E36.3427
G1 X160.724 Y155.198 E36.36333
G1 X160.986 Y155.402 E36.38425
G1 X161.225 Y155.618 E36.40455
G1 X161.457 Y155.869 E36.42608
G1 X161.659 Y156.127 E36.44673
G1 X161.843 Y156.408 E36.46789
G1 X162 Y156.693 E36.4884
G1 X162.134 Y156.993 E36.5091
G1 X162.245 Y157.307 E36.53008
G1 X162.334 Y157.641 E36.55186
G1 X162.354 Y157.751 E36.55891
