;FLAVOR:Marlin
;TIME:753
;Filament used: 1.22881m
;Layer height: 0.32
;MINX:122.29
;MINY:122.29
;MINZ:0.24
;MAXX:177.71
;MAXY:177.71
;MAXZ:7.28
;Generated with Cura_SteamEngine 5.0.0
M140 S70
M105
M190 S70
M104 S245
M105
M109 S245
M82 ;absolute extrusion mode
; Ender 3 Max Custom Start G-code
G92 E0 ; Reset Extruder
G28 ; Home all axes
G1 Z2.0 F3000 ; Move Z Axis up little to prevent scratching of Heat Bed
G1 X0.1 Y20 Z0.3 F5000.0 ; Move to start position
G1 X0.1 Y200.0 Z0.3 F1500.0 E15 ; Draw the first line
G1 X0.4 Y200.0 Z0.3 F5000.0 ; Move to side a little
G1 X0.4 Y20 Z0.3 F1500.0 E30 ; Draw the second line
G92 E0 ; Reset Extruder
G1 Z2.0 F3000 ; Move Z Axis up little to prevent scratching of Heat Bed
G1 X5 Y20 Z0.3 F5000.0 ; Move over to prevent blob squish
G92 E0
G92 E0
G1 F2100 E-5
;LAYER_COUNT:22
;LAYER:0
M107
G1 F300 Z0.56
G0 F6000 X126.363 Y126.544 Z0.56
G1 F300 Z0.56
G0 F6000 X122.291 Y136.488
;TYPE:SKIRT
G1 F300 Z0.24
G1 F2100 E0
G1 F1800 X122.323 Y135.576 E0.06611
G1 X122.421 Y134.593 E0.13767
G1 X122.56 Y133.79 E0.1967
G1 X122.638 Y133.416 E0.22438
G1 X122.879 Y132.458 E0.29594
G1 X123.182 Y131.554 E0.36501
G1 X123.556 Y130.64 E0.43655
G1 X123.971 Y129.815 E0.50344
G1 X124.158 Y129.476 E0.53149
G1 X124.67 Y128.631 E0.60306
G1 X125.456 Y127.573 E0.69854
G1 X125.701 Y127.278 E0.72632
G1 X126.363 Y126.544 E0.79792
G1 X127.426 Y125.577 E0.90202
G1 X127.742 Y125.322 E0.93144
G1 X128.536 Y124.733 E1.00305
G1 X129.7 Y124.031 E1.10152
G1 X130.027 Y123.858 E1.12832
G1 X130.919 Y123.432 E1.19993
G1 X131.741 Y123.113 E1.2638
G1 X131.946 Y123.042 E1.27952
G1 X132.892 Y122.757 E1.35109
G1 X133.648 Y122.587 E1.40722
G1 X134.014 Y122.517 E1.43421
G1 X134.992 Y122.371 E1.50585
G1 X135.898 Y122.305 E1.57165
G1 X136.508 Y122.29 E1.61585
G1 X163.511 Y122.291 E3.57197
G1 X164.442 Y122.325 E3.63945
G1 X165.425 Y122.424 E3.71102
G1 X166.184 Y122.556 E3.76683
G1 X166.566 Y122.635 E3.79509
G1 X167.525 Y122.874 E3.86668
G1 X168.252 Y123.112 E3.9221
G1 X168.448 Y123.183 E3.9372
G1 X169.362 Y123.557 E4.00874
G1 X170.2 Y123.979 E4.07671
G1 X170.538 Y124.166 E4.10469
G1 X171.382 Y124.679 E4.17624
G1 X172.425 Y125.454 E4.27037
G1 X172.719 Y125.698 E4.29804
G1 X173.453 Y126.36 E4.36965
G1 X174.414 Y127.415 E4.47302
G1 X174.668 Y127.729 E4.50228
G1 X175.258 Y128.522 E4.57388
G1 X175.968 Y129.7 E4.67352
G1 X176.142 Y130.029 E4.70048
G1 X176.569 Y130.92 E4.77205
G1 X176.887 Y131.741 E4.83583
G1 X176.958 Y131.946 E4.85155
G1 X177.243 Y132.892 E4.92312
G1 X177.41 Y133.636 E4.97836
G1 X177.48 Y134 E5.00521
G1 X177.627 Y134.977 E5.07678
G1 X177.693 Y135.859 E5.14085
G1 X177.71 Y136.497 E5.18708
G1 X177.709 Y163.511 E7.14399
G1 X177.675 Y164.442 E7.21148
G1 X177.576 Y165.425 E7.28305
G1 X177.448 Y166.166 E7.33752
G1 X177.37 Y166.546 E7.36562
G1 X177.132 Y167.505 E7.4372
G1 X176.882 Y168.268 E7.49536
G1 X176.811 Y168.463 E7.5104
G1 X176.436 Y169.377 E7.58196
G1 X176.037 Y170.17 E7.64627
G1 X175.85 Y170.51 E7.67438
G1 X175.339 Y171.356 E7.74598
G1 X174.544 Y172.427 E7.8426
G1 X174.299 Y172.722 E7.87038
G1 X173.637 Y173.456 E7.94198
G1 X172.574 Y174.423 E8.04608
G1 X172.258 Y174.678 E8.0755
G1 X171.464 Y175.267 E8.14711
G1 X170.3 Y175.969 E8.24558
G1 X169.973 Y176.142 E8.27238
G1 X169.081 Y176.568 E8.34399
G1 X168.259 Y176.887 E8.40786
G1 X168.054 Y176.958 E8.42358
G1 X167.108 Y177.243 E8.49515
G1 X166.352 Y177.413 E8.55128
G1 X165.986 Y177.483 E8.57827
G1 X165.008 Y177.629 E8.6499
G1 X164.102 Y177.695 E8.71571
G1 X163.49 Y177.71 E8.76006
G1 X156.472 Y177.709 E9.26844
G1 X155.648 Y177.683 E9.32817
G1 X154.861 Y177.618 E9.38537
G1 X154.643 Y177.593 E9.40127
G1 X153.553 Y177.418 E9.48124
G1 X153.341 Y177.374 E9.49692
G1 X152.452 Y177.155 E9.56325
G1 X152.25 Y177.097 E9.57847
G1 X151.322 Y176.789 E9.6493
G1 X151.096 Y176.704 E9.66679
G1 X150.292 Y176.369 E9.72989
G1 X150.105 Y176.283 E9.7448
G1 X149.137 Y175.784 E9.82369
G1 X148.945 Y175.674 E9.83972
G1 X148.204 Y175.214 E9.9029
G1 X148.021 Y175.091 E9.91887
G1 X147.219 Y174.503 E9.99091
G1 X146.579 Y173.972 E10.05115
G1 X145.904 Y173.344 E10.11794
G1 X126.637 Y154.07 E12.09214
G1 X125.935 Y153.306 E12.1673
G1 X125.694 Y153.02 E12.19439
G1 X124.823 Y151.851 E12.29999
G1 X124.697 Y151.659 E12.31663
G1 X124.265 Y150.949 E12.37683
G1 X124.162 Y150.766 E12.39205
G1 X123.677 Y149.81 E12.4697
G1 X123.582 Y149.6 E12.4864
G1 X123.216 Y148.695 E12.55712
G1 X123.142 Y148.489 E12.57297
G1 X122.858 Y147.592 E12.64113
G1 X122.799 Y147.377 E12.65728
G1 X122.606 Y146.563 E12.71788
G1 X122.565 Y146.36 E12.73289
G1 X122.398 Y145.297 E12.81083
G1 X122.373 Y145.073 E12.82716
G1 X122.307 Y144.195 E12.89094
G1 X122.29 Y143.512 E12.94044
G1 X122.291 Y137.851 E13.35052
G0 F1620 X122.291 Y136.488
G0 F6000 X122.951 Y136.488
G1 F1800 X122.982 Y135.615 E13.4138
G1 X123.078 Y134.658 E13.48348
G1 X123.206 Y133.925 E13.53738
G1 X123.284 Y133.551 E13.56505
G1 X123.519 Y132.619 E13.63468
G1 X123.803 Y131.779 E13.69892
G1 X124.167 Y130.89 E13.7685
G1 X124.549 Y130.134 E13.82986
G1 X124.736 Y129.795 E13.85791
G1 X125.234 Y128.974 E13.92747
G1 X125.964 Y127.995 E14.01593
G1 X126.209 Y127.7 E14.04371
G1 X126.853 Y126.987 E14.11331
G1 X127.841 Y126.091 E14.20993
G1 X128.157 Y125.836 E14.23935
G1 X128.929 Y125.264 E14.30895
G1 X130.009 Y124.615 E14.40022
G1 X130.336 Y124.442 E14.42702
G1 X131.203 Y124.028 E14.49662
G1 X131.957 Y123.737 E14.55517
G1 X132.162 Y123.666 E14.57089
G1 X133.082 Y123.39 E14.64046
G1 X133.772 Y123.236 E14.69168
G1 X134.138 Y123.166 E14.71867
G1 X135.089 Y123.025 E14.78832
G1 X135.931 Y122.964 E14.84947
G1 X136.508 Y122.95 E14.89128
G1 X163.511 Y122.951 E16.84739
G1 X164.403 Y122.984 E16.91206
G1 X165.359 Y123.081 E16.98166
G1 X166.05 Y123.202 E17.03248
G1 X166.432 Y123.281 E17.06074
G1 X167.364 Y123.515 E17.13035
G1 X168.223 Y123.804 E17.196
G1 X169.112 Y124.168 E17.26559
G1 X169.88 Y124.557 E17.32796
G1 X170.218 Y124.744 E17.35594
G1 X171.039 Y125.243 E17.42554
G1 X172.003 Y125.962 E17.51265
G1 X172.297 Y126.206 E17.54033
G1 X173.011 Y126.85 E17.60998
G1 X173.901 Y127.83 E17.70588
G1 X174.155 Y128.144 E17.73514
G1 X174.728 Y128.916 E17.80478
G1 X175.385 Y130.008 E17.8971
G1 X175.559 Y130.337 E17.92406
G1 X175.973 Y131.205 E17.99373
G1 X176.263 Y131.957 E18.05211
G1 X176.334 Y132.162 E18.06783
G1 X176.61 Y133.082 E18.13741
G1 X176.762 Y133.761 E18.18781
G1 X176.832 Y134.125 E18.21467
G1 X176.974 Y135.075 E18.28425
G1 X177.034 Y135.893 E18.34366
G1 X177.05 Y136.497 E18.38743
G1 X177.049 Y163.511 E20.34434
G1 X177.016 Y164.403 E20.409
G1 X176.919 Y165.359 E20.47861
G1 X176.801 Y166.033 E20.52818
G1 X176.723 Y166.413 E20.55628
G1 X176.491 Y167.346 E20.62593
G1 X176.262 Y168.043 E20.67907
G1 X176.191 Y168.238 E20.69411
G1 X175.825 Y169.126 E20.76368
G1 X175.458 Y169.852 E20.82261
G1 X175.271 Y170.192 E20.85072
G1 X174.774 Y171.014 E20.92031
G1 X174.036 Y172.005 E21.00982
G1 X173.791 Y172.3 E21.03759
G1 X173.147 Y173.013 E21.10719
G1 X172.159 Y173.909 E21.20381
G1 X171.843 Y174.164 E21.23323
G1 X171.071 Y174.736 E21.30283
G1 X169.991 Y175.385 E21.39411
G1 X169.664 Y175.558 E21.4209
G1 X168.797 Y175.972 E21.4905
G1 X168.043 Y176.263 E21.54905
G1 X167.838 Y176.334 E21.56477
G1 X166.918 Y176.61 E21.63435
G1 X166.228 Y176.764 E21.68556
G1 X165.862 Y176.834 E21.71255
G1 X164.911 Y176.975 E21.7822
G1 X164.069 Y177.036 E21.84335
G1 X163.49 Y177.05 E21.88531
G1 X156.472 Y177.049 E22.3937
G1 X155.68 Y177.024 E22.4511
G1 X154.936 Y176.963 E22.50517
G1 X154.718 Y176.938 E22.52107
G1 X153.687 Y176.772 E22.59672
G1 X153.475 Y176.728 E22.6124
G1 X152.634 Y176.52 E22.67516
G1 X152.432 Y176.462 E22.69038
G1 X151.554 Y176.172 E22.75737
G1 X151.328 Y176.087 E22.77486
G1 X150.568 Y175.769 E22.83454
G1 X150.381 Y175.683 E22.84945
G1 X149.465 Y175.212 E22.92406
G1 X149.273 Y175.102 E22.94009
G1 X148.572 Y174.666 E22.99989
G1 X148.389 Y174.543 E23.01587
G1 X147.63 Y173.987 E23.08402
G1 X147.016 Y173.478 E23.1418
G1 X146.37 Y172.878 E23.20566
G1 X127.103 Y153.604 E25.17986
G1 X126.44 Y152.881 E25.25092
G1 X126.199 Y152.595 E25.27801
G1 X125.375 Y151.489 E25.37792
G1 X125.249 Y151.297 E25.39456
G1 X124.84 Y150.625 E25.45155
G1 X124.737 Y150.442 E25.46676
G1 X124.279 Y149.538 E25.54017
G1 X124.184 Y149.328 E25.55687
G1 X123.837 Y148.472 E25.62378
G1 X123.763 Y148.266 E25.63963
G1 X123.495 Y147.418 E25.70406
G1 X123.436 Y147.203 E25.72021
G1 X123.253 Y146.433 E25.77754
G1 X123.212 Y146.23 E25.79255
G1 X123.054 Y145.224 E25.86631
G1 X123.029 Y145 E25.88264
G1 X122.967 Y144.169 E25.94301
G1 X122.95 Y143.512 E25.99062
G1 X122.951 Y137.851 E26.4007
G0 F1620 X122.951 Y136.488
G0 F6000 X123.611 Y136.488
G1 F1800 X123.641 Y135.653 E26.46123
G1 X123.735 Y134.724 E26.52887
G1 X123.852 Y134.06 E26.57771
G1 X123.93 Y133.686 E26.60539
G1 X124.16 Y132.781 E26.67303
G1 X124.423 Y132.004 E26.73245
G1 X124.778 Y131.141 E26.80005
G1 X125.127 Y130.453 E26.85594
G1 X125.314 Y130.114 E26.88398
G1 X125.799 Y129.317 E26.95157
G1 X126.471 Y128.416 E27.03299
G1 X126.716 Y128.121 E27.06077
G1 X127.343 Y127.43 E27.12836
G1 X128.255 Y126.604 E27.2175
G1 X128.571 Y126.349 E27.24691
G1 X129.322 Y125.795 E27.31452
G1 X130.317 Y125.198 E27.39857
G1 X130.644 Y125.025 E27.42537
G1 X131.487 Y124.624 E27.493
G1 X132.173 Y124.361 E27.54622
G1 X132.378 Y124.29 E27.56193
G1 X133.272 Y124.022 E27.62954
G1 X133.896 Y123.884 E27.67584
G1 X134.262 Y123.814 E27.70283
G1 X135.186 Y123.678 E27.77049
G1 X135.964 Y123.624 E27.82698
G1 X136.508 Y123.61 E27.8664
G1 X163.511 Y123.611 E29.82251
G1 X164.363 Y123.643 E29.88428
G1 X165.291 Y123.738 E29.95185
G1 X165.916 Y123.849 E29.99784
G1 X166.298 Y123.928 E30.0261
G1 X167.203 Y124.156 E30.0937
G1 X167.998 Y124.424 E30.15448
G1 X168.861 Y124.779 E30.22208
G1 X169.561 Y125.134 E30.27893
G1 X169.899 Y125.321 E30.30692
G1 X170.695 Y125.807 E30.37448
G1 X171.582 Y126.47 E30.4547
G1 X171.876 Y126.714 E30.48237
G1 X172.568 Y127.34 E30.54997
G1 X173.388 Y128.245 E30.63844
G1 X173.642 Y128.559 E30.66769
G1 X174.197 Y129.309 E30.73528
G1 X174.802 Y130.317 E30.82045
G1 X174.976 Y130.646 E30.84741
G1 X175.376 Y131.489 E30.915
G1 X175.639 Y132.173 E30.96809
G1 X175.71 Y132.378 E30.9838
G1 X175.978 Y133.272 E31.05141
G1 X176.114 Y133.885 E31.0969
G1 X176.184 Y134.249 E31.12375
G1 X176.321 Y135.173 E31.19141
G1 X176.375 Y135.928 E31.24625
G1 X176.39 Y136.497 E31.28748
G1 X176.389 Y163.511 E33.24439
G1 X176.357 Y164.363 E33.30615
G1 X176.262 Y165.291 E33.37373
G1 X176.155 Y165.901 E33.41859
G1 X176.077 Y166.281 E33.44669
G1 X175.85 Y167.186 E33.51428
G1 X175.571 Y168.012 E33.57744
G1 X175.214 Y168.874 E33.64503
G1 X174.88 Y169.534 E33.69861
G1 X174.693 Y169.874 E33.72672
G1 X174.209 Y170.672 E33.79433
G1 X173.529 Y171.584 E33.87674
G1 X173.284 Y171.879 E33.90452
G1 X172.657 Y172.57 E33.97211
G1 X171.745 Y173.396 E34.06124
G1 X171.429 Y173.651 E34.09066
G1 X170.678 Y174.205 E34.15826
G1 X169.683 Y174.802 E34.24232
G1 X169.356 Y174.975 E34.26912
G1 X168.513 Y175.376 E34.33674
G1 X167.827 Y175.639 E34.38996
G1 X167.622 Y175.71 E34.40568
G1 X166.728 Y175.978 E34.47329
G1 X166.104 Y176.116 E34.51958
G1 X165.738 Y176.186 E34.54658
G1 X164.814 Y176.322 E34.61423
G1 X164.036 Y176.376 E34.67073
G1 X163.49 Y176.39 E34.71029
G1 X156.472 Y176.389 E35.21868
G1 X155.713 Y176.365 E35.27369
G1 X155.011 Y176.307 E35.32472
G1 X154.793 Y176.282 E35.34061
G1 X153.821 Y176.126 E35.41193
G1 X153.609 Y176.082 E35.42761
G1 X152.817 Y175.886 E35.48672
G1 X152.615 Y175.828 E35.50194
G1 X151.786 Y175.554 E35.56519
G1 X151.56 Y175.469 E35.58268
G1 X150.844 Y175.17 E35.63889
G1 X150.657 Y175.084 E35.6538
G1 X149.793 Y174.639 E35.7242
G1 X149.601 Y174.529 E35.74023
G1 X148.94 Y174.118 E35.79662
G1 X148.757 Y173.995 E35.81259
G1 X148.042 Y173.471 E35.8768
G1 X147.454 Y172.984 E35.93211
G1 X146.837 Y172.411 E35.99311
G1 X127.57 Y153.137 E37.9673
G1 X126.944 Y152.455 E38.03436
G1 X126.703 Y152.169 E38.06146
G1 X125.926 Y151.127 E38.15562
G1 X125.8 Y150.935 E38.17225
G1 X125.415 Y150.301 E38.22598
G1 X125.312 Y150.118 E38.2412
G1 X124.88 Y149.266 E38.3104
G1 X124.785 Y149.056 E38.32709
G1 X124.458 Y148.249 E38.39017
G1 X124.384 Y148.043 E38.40603
G1 X124.131 Y147.243 E38.46681
G1 X124.072 Y147.028 E38.48296
G1 X123.9 Y146.302 E38.537
G1 X123.859 Y146.099 E38.55201
G1 X123.71 Y145.151 E38.62152
G1 X123.685 Y144.927 E38.63785
G1 X123.626 Y144.144 E38.69473
G1 X123.61 Y143.512 E38.74053
G1 X123.611 Y137.851 E39.15062
G0 F1620 X123.611 Y136.488
G0 F6000 X124.271 Y136.489
G1 F1800 X124.3 Y135.691 E39.20846
G1 X124.392 Y134.791 E39.274
G1 X124.498 Y134.194 E39.31792
G1 X124.576 Y133.82 E39.3456
G1 X124.8 Y132.944 E39.4111
G1 X125.044 Y132.229 E39.46583
G1 X125.389 Y131.393 E39.53134
G1 X125.704 Y130.772 E39.58178
G1 X125.891 Y130.433 E39.60983
G1 X126.363 Y129.661 E39.67538
G1 X126.979 Y128.838 E39.74984
G1 X127.224 Y128.543 E39.77762
G1 X127.832 Y127.873 E39.84316
G1 X128.67 Y127.118 E39.92487
G1 X128.986 Y126.863 E39.95429
G1 X129.714 Y126.327 E40.01978
G1 X130.626 Y125.782 E40.09674
G1 X130.953 Y125.609 E40.12354
G1 X131.77 Y125.221 E40.18906
G1 X132.389 Y124.984 E40.23707
G1 X132.594 Y124.913 E40.25279
G1 X133.461 Y124.655 E40.31832
G1 X134.02 Y124.532 E40.35978
G1 X134.386 Y124.462 E40.38677
G1 X135.281 Y124.332 E40.45229
G1 X135.997 Y124.283 E40.50428
G1 X136.508 Y124.27 E40.54131
G1 X163.511 Y124.271 E42.49742
G1 X164.324 Y124.301 E42.55635
G1 X165.223 Y124.395 E42.62183
G1 X165.783 Y124.495 E42.66304
G1 X166.165 Y124.574 E42.6913
G1 X167.042 Y124.796 E42.75683
G1 X167.773 Y125.045 E42.81277
G1 X168.609 Y125.39 E42.87829
G1 X169.241 Y125.712 E42.92967
G1 X169.579 Y125.899 E42.95765
G1 X170.351 Y126.371 E43.0232
G1 X171.16 Y126.978 E43.09647
G1 X171.454 Y127.222 E43.12415
G1 X172.124 Y127.83 E43.18969
G1 X172.875 Y128.66 E43.27077
G1 X173.129 Y128.974 E43.30003
G1 X173.666 Y129.702 E43.36556
G1 X174.218 Y130.625 E43.44347
G1 X174.392 Y130.954 E43.47043
G1 X174.779 Y131.772 E43.53598
G1 X175.016 Y132.389 E43.58386
G1 X175.087 Y132.594 E43.59958
G1 X175.345 Y133.461 E43.6651
G1 X175.466 Y134.01 E43.70583
G1 X175.536 Y134.374 E43.73268
G1 X175.667 Y135.269 E43.79821
G1 X175.716 Y135.962 E43.84853
G1 X175.73 Y136.497 E43.8873
G1 X175.729 Y163.511 E45.84421
G1 X175.699 Y164.324 E45.90315
G1 X175.605 Y165.223 E45.96862
G1 X175.508 Y165.768 E46.00872
G1 X175.43 Y166.148 E46.03683
G1 X175.209 Y167.025 E46.10234
G1 X174.951 Y167.786 E46.16055
G1 X174.604 Y168.621 E46.22605
G1 X174.302 Y169.216 E46.27439
G1 X174.115 Y169.556 E46.3025
G1 X173.644 Y170.328 E46.36801
G1 X173.021 Y171.162 E46.44342
G1 X172.776 Y171.457 E46.4712
G1 X172.168 Y172.127 E46.53674
G1 X171.33 Y172.882 E46.61845
G1 X171.014 Y173.137 E46.64787
G1 X170.286 Y173.673 E46.71335
G1 X169.374 Y174.218 E46.79032
G1 X169.047 Y174.391 E46.81712
G1 X168.23 Y174.779 E46.88264
G1 X167.611 Y175.016 E46.93065
G1 X167.406 Y175.087 E46.94637
G1 X166.539 Y175.345 E47.01189
G1 X165.98 Y175.468 E47.05336
G1 X165.614 Y175.538 E47.08035
G1 X164.719 Y175.668 E47.14587
G1 X164.003 Y175.717 E47.19785
G1 X163.491 Y175.73 E47.23496
G1 X156.473 Y175.729 E47.74334
G1 X155.746 Y175.705 E47.79604
G1 X155.086 Y175.651 E47.84401
G1 X154.868 Y175.626 E47.8599
G1 X153.955 Y175.48 E47.92688
G1 X153.743 Y175.436 E47.94257
G1 X152.999 Y175.252 E47.99809
G1 X152.797 Y175.194 E48.01331
G1 X152.019 Y174.936 E48.07269
G1 X151.793 Y174.851 E48.09018
G1 X151.12 Y174.57 E48.14301
G1 X150.933 Y174.484 E48.15792
G1 X150.122 Y174.066 E48.22401
G1 X149.93 Y173.956 E48.24004
G1 X149.308 Y173.57 E48.29307
G1 X149.125 Y173.447 E48.30904
G1 X148.453 Y172.955 E48.36938
G1 X147.891 Y172.489 E48.42226
G1 X147.304 Y171.944 E48.48029
G1 X128.037 Y152.67 E50.45448
G1 X127.449 Y152.03 E50.51744
G1 X127.208 Y151.744 E50.54453
G1 X126.478 Y150.765 E50.633
G1 X126.352 Y150.573 E50.64964
G1 X125.99 Y149.978 E50.70009
G1 X125.887 Y149.795 E50.7153
G1 X125.481 Y148.993 E50.78042
G1 X125.386 Y148.783 E50.79711
G1 X125.079 Y148.025 E50.85636
G1 X125.005 Y147.819 E50.87221
G1 X124.768 Y147.068 E50.92926
G1 X124.709 Y146.853 E50.94541
G1 X124.546 Y146.171 E50.99621
G1 X124.505 Y145.968 E51.01121
G1 X124.366 Y145.078 E51.07646
G1 X124.341 Y144.854 E51.09279
