;FLAVOR:Marlin
;TIME:485
;Filament used: 0.46441m
;Layer height: 0.32
;MINX:132.273
;MINY:135.027
;MINZ:0.24
;MAXX:167.727
;MAXY:176.883
;MAXZ:10.48
;Generated with Cura_SteamEngine 5.0.0
M140 S70
M105
M190 S70
M104 S245
M105
M109 S245
M82 ;absolute extrusion mode
; Ender 3 Max Custom Start G-code
G92 E0 ; Reset Extruder
G28 ; Home all axes
G1 Z2.0 F3000 ; Move Z Axis up little to prevent scratching of Heat Bed
G1 X0.1 Y20 Z0.3 F5000.0 ; Move to start position
G1 X0.1 Y200.0 Z0.3 F1500.0 E15 ; Draw the first line
G1 X0.4 Y200.0 Z0.3 F5000.0 ; Move to side a little
G1 X0.4 Y20 Z0.3 F1500.0 E30 ; Draw the second line
G92 E0 ; Reset Extruder
G1 Z2.0 F3000 ; Move Z Axis up little to prevent scratching of Heat Bed
G1 X5 Y20 Z0.3 F5000.0 ; Move over to prevent blob squish
G92 E0
G92 E0
G1 F2100 E-5
;LAYER_COUNT:32
;LAYER:0
M107
G1 F300 Z0.56
G0 F6000 X138.138 Y139.117 Z0.56
G1 F300 Z0.56
G0 F6000 X133.055 Y154.207
;TYPE:SKIRT
G1 F300 Z0.24
G1 F2100 E0
G1 F1800 X133.168 Y153.853 E0.02692
G1 X133.43 Y153.117 E0.08351
G1 X133.556 Y152.795 E0.10856
G1 X133.671 Y152.528 E0.12962
G1 X133.591 Y152.067 E0.16351
G1 X133.564 Y151.864 E0.17835
G1 X133.474 Y150.893 E0.24899
G1 X133.462 Y150.664 E0.2656
G1 X133.451 Y149.628 E0.34065
G1 X133.458 Y149.413 E0.35624
G1 X133.523 Y148.499 E0.42262
G1 X133.546 Y148.286 E0.43814
G1 X133.679 Y147.376 E0.50476
G1 X133.721 Y147.149 E0.52148
G1 X133.983 Y146.03 E0.60473
G1 X134.045 Y145.812 E0.62115
G1 X134.301 Y145.016 E0.68172
G1 X134.373 Y144.816 E0.69712
G1 X134.734 Y143.924 E0.76683
G1 X134.828 Y143.716 E0.78336
G1 X135.336 Y142.717 E0.86455
G1 X135.441 Y142.532 E0.87996
G1 X135.909 Y141.773 E0.94456
G1 X136.028 Y141.595 E0.96007
G1 X136.561 Y140.859 E1.02589
G1 X136.701 Y140.68 E1.04236
G1 X137.438 Y139.823 E1.12424
G1 X137.588 Y139.664 E1.14007
G1 X138.138 Y139.117 E1.19626
G1 X138.303 Y138.963 E1.21261
G1 X139.033 Y138.333 E1.28247
G1 X139.209 Y138.193 E1.29876
G1 X140.174 Y137.499 E1.38486
G1 X140.347 Y137.387 E1.39979
G1 X141.039 Y136.971 E1.45828
G1 X141.231 Y136.864 E1.4742
G1 X142.068 Y136.439 E1.54221
G1 X142.283 Y136.34 E1.55935
G1 X143.28 Y135.934 E1.63733
G1 X143.473 Y135.865 E1.65218
G1 X144.352 Y135.587 E1.71897
G1 X144.567 Y135.528 E1.73512
G1 X145.567 Y135.299 E1.80943
G1 X145.793 Y135.257 E1.82608
G1 X146.725 Y135.12 E1.89432
G1 X146.94 Y135.097 E1.90999
G1 X147.845 Y135.034 E1.9757
G1 X148.062 Y135.027 E1.99143
G1 X149.05 Y135.035 E2.06301
G1 X149.276 Y135.046 E2.0794
G1 X150.376 Y135.15 E2.15944
G1 X150.583 Y135.179 E2.17458
G1 X151.447 Y135.332 E2.23814
G1 X151.671 Y135.38 E2.25474
G1 X152.552 Y135.603 E2.32057
G1 X152.77 Y135.667 E2.33703
G1 X153.774 Y136.01 E2.41389
G1 X153.966 Y136.085 E2.42882
G1 X154.775 Y136.435 E2.49267
G1 X155.254 Y136.678 E2.53158
G1 X155.332 Y136.681 E2.53723
G1 X156.313 Y136.801 E2.60883
G1 X157.281 Y136.999 E2.6804
G1 X158.23 Y137.276 E2.75202
G1 X159.153 Y137.628 E2.82358
G1 X160.045 Y138.053 E2.89515
G1 X160.899 Y138.549 E2.9667
G1 X161.711 Y139.113 E3.03831
G1 X162.474 Y139.741 E3.1099
G1 X163.184 Y140.428 E3.18147
G1 X163.837 Y141.17 E3.25307
G1 X164.427 Y141.963 E3.32467
G1 X164.95 Y142.801 E3.39623
G1 X165.405 Y143.678 E3.4678
G1 X165.787 Y144.589 E3.53936
G1 X166.094 Y145.528 E3.61093
G1 X166.324 Y146.489 E3.68251
G1 X166.476 Y147.466 E3.75413
G1 X166.555 Y148.851 E3.85463
G1 X166.555 Y151.091 E4.01689
G1 X166.515 Y152.078 E4.08845
G1 X166.431 Y152.765 E4.13859
G1 X166.578 Y153.137 E4.16756
G1 X166.849 Y153.906 E4.22663
G1 X166.961 Y154.261 E4.25359
G1 X167.183 Y155.057 E4.31346
G1 X167.264 Y155.391 E4.33835
G1 X167.41 Y156.079 E4.3893
G1 X167.474 Y156.43 E4.41515
G1 X167.595 Y157.253 E4.47541
G1 X167.635 Y157.608 E4.50129
G1 X167.699 Y158.416 E4.56
G1 X167.716 Y158.787 E4.58691
G1 X167.727 Y159.552 E4.64233
G1 X167.721 Y159.907 E4.66805
G1 X167.677 Y160.756 E4.72963
G1 X167.647 Y161.102 E4.75479
G1 X167.559 Y161.85 E4.80935
G1 X167.506 Y162.205 E4.83535
G1 X167.369 Y162.96 E4.89094
G1 X167.291 Y163.324 E4.91791
G1 X167.085 Y164.144 E4.97915
G1 X166.99 Y164.474 E5.00403
G1 X166.776 Y165.144 E5.05498
G1 X166.653 Y165.494 E5.08185
G1 X166.336 Y166.303 E5.1448
G1 X166.199 Y166.619 E5.16975
G1 X165.89 Y167.277 E5.22241
G1 X165.729 Y167.595 E5.24823
G1 X165.297 Y168.376 E5.31288
G1 X165.105 Y168.695 E5.33985
G1 X164.726 Y169.286 E5.39071
G1 X164.532 Y169.57 E5.41563
G1 X164.017 Y170.27 E5.47858
G1 X163.787 Y170.56 E5.50539
G1 X163.334 Y171.098 E5.55634
G1 X163.104 Y171.356 E5.58138
G1 X162.523 Y171.964 E5.6423
G1 X162.261 Y172.22 E5.66884
G1 X161.666 Y172.765 E5.72729
G1 X161.396 Y172.996 E5.75303
G1 X160.828 Y173.453 E5.80584
G1 X160.544 Y173.668 E5.83164
G1 X159.851 Y174.155 E5.893
G1 X159.554 Y174.349 E5.9187
G1 X158.892 Y174.753 E5.97488
G1 X158.574 Y174.933 E6.00135
G1 X157.853 Y175.31 E6.06029
G1 X157.535 Y175.463 E6.08585
G1 X156.86 Y175.763 E6.13936
G1 X156.537 Y175.895 E6.16464
G1 X155.867 Y176.146 E6.21647
G1 X155.63 Y176.227 E6.23461
G1 X154.683 Y176.508 E6.30617
G1 X153.716 Y176.712 E6.37776
G1 X152.736 Y176.837 E6.44933
G1 X151.748 Y176.883 E6.52097
G1 X150.761 Y176.848 E6.59252
G1 X149.994 Y176.759 E6.64845
G1 X149.705 Y176.804 E6.66964
G1 X148.72 Y176.876 E6.74118
G1 X147.732 Y176.869 E6.81276
G1 X146.747 Y176.781 E6.8844
G1 X145.773 Y176.614 E6.95598
G1 X144.816 Y176.369 E7.02754
G1 X144.085 Y176.128 E7.0833
G1 X143.453 Y175.89 E7.13222
G1 X143.125 Y175.756 E7.15789
G1 X142.422 Y175.443 E7.21364
G1 X142.106 Y175.29 E7.23907
G1 X141.351 Y174.891 E7.30093
G1 X141.032 Y174.708 E7.32757
G1 X140.398 Y174.318 E7.38149
G1 X140.097 Y174.12 E7.40759
G1 X139.47 Y173.679 E7.46312
G1 X139.192 Y173.47 E7.48831
G1 X138.515 Y172.922 E7.55141
G1 X138.246 Y172.688 E7.57724
G1 X137.71 Y172.193 E7.63009
G1 X137.448 Y171.936 E7.65668
G1 X136.866 Y171.325 E7.7178
G1 X136.629 Y171.058 E7.74367
G1 X136.148 Y170.48 E7.79814
G1 X135.935 Y170.208 E7.82317
G1 X135.46 Y169.559 E7.88143
G1 X135.252 Y169.254 E7.90817
G1 X134.858 Y168.636 E7.96126
G1 X134.68 Y168.338 E7.98641
G1 X134.234 Y167.524 E8.05364
G1 X134.069 Y167.193 E8.08044
G1 X133.792 Y166.597 E8.12805
G1 X133.65 Y166.269 E8.15394
G1 X133.317 Y165.412 E8.22054
G1 X133.2 Y165.074 E8.24645
G1 X132.998 Y164.434 E8.29507
G1 X132.904 Y164.105 E8.31985
G1 X132.697 Y163.271 E8.3821
G1 X132.62 Y162.906 E8.40913
G1 X132.482 Y162.127 E8.46644
G1 X132.431 Y161.773 E8.49234
G1 X132.349 Y161.058 E8.54448
G1 X132.32 Y160.714 E8.56949
G1 X132.279 Y159.894 E8.62896
G1 X132.273 Y159.538 E8.65475
G1 X132.285 Y158.753 E8.71163
G1 X132.302 Y158.395 E8.73759
G1 X132.367 Y157.589 E8.79617
G1 X132.409 Y157.221 E8.823
G1 X132.527 Y156.422 E8.88151
G1 X132.591 Y156.07 E8.90742
G1 X132.708 Y155.525 E8.9478
G0 F1620 X132.754 Y155.309
G0 X132.837 Y154.975
G0 X133.055 Y154.207
G1 F2100 E3.9478
G1 F300 Z0.56
G0 F6000 X132.933 Y159.527 Z0.56
G1 F300 Z0.24
G1 F2100 E8.9478
G1 F1800 X132.944 Y158.784 E9.00163
G1 X132.961 Y158.426 E9.02759
G1 X133.022 Y157.664 E9.08297
G1 X133.064 Y157.296 E9.1098
G1 X133.176 Y156.54 E9.16517
G1 X133.24 Y156.188 E9.19108
G1 X133.395 Y155.469 E9.24436
G1 X133.478 Y155.135 E9.26929
G1 X133.684 Y154.408 E9.32403
G1 X133.797 Y154.054 E9.35095
G1 X134.044 Y153.357 E9.40452
G1 X134.17 Y153.035 E9.42957
G1 X134.353 Y152.609 E9.46315
G1 X134.245 Y151.98 E9.50939
G1 X134.218 Y151.777 E9.52422
G1 X134.133 Y150.858 E9.59108
G1 X134.121 Y150.629 E9.60769
G1 X134.111 Y149.649 E9.67868
G1 X134.118 Y149.434 E9.69427
G1 X134.179 Y148.57 E9.75701
G1 X134.202 Y148.357 E9.77253
G1 X134.328 Y147.496 E9.83557
G1 X134.37 Y147.269 E9.85229
G1 X134.618 Y146.21 E9.93108
G1 X134.68 Y145.992 E9.9475
G1 X134.922 Y145.24 E10.00473
G1 X134.994 Y145.04 E10.02012
G1 X135.336 Y144.195 E10.08616
G1 X135.43 Y143.987 E10.10269
G1 X135.91 Y143.043 E10.17941
G1 X136.015 Y142.858 E10.19482
G1 X136.458 Y142.14 E10.25594
G1 X136.577 Y141.962 E10.27145
G1 X137.081 Y141.265 E10.33375
G1 X137.221 Y141.086 E10.35022
G1 X137.918 Y140.276 E10.42763
G1 X138.068 Y140.117 E10.44346
G1 X138.588 Y139.599 E10.49663
G1 X138.753 Y139.445 E10.51298
G1 X139.444 Y138.85 E10.57904
G1 X139.62 Y138.71 E10.59533
G1 X140.533 Y138.053 E10.67681
G1 X140.706 Y137.941 E10.69174
G1 X141.36 Y137.548 E10.74701
G1 X141.552 Y137.441 E10.76294
G1 X142.344 Y137.039 E10.82728
G1 X142.559 Y136.94 E10.84442
G1 X143.502 Y136.555 E10.91821
G1 X143.695 Y136.486 E10.93306
G1 X144.526 Y136.224 E10.99617
G1 X144.741 Y136.165 E11.01233
G1 X145.688 Y135.947 E11.08272
G1 X145.914 Y135.905 E11.09937
G1 X146.795 Y135.777 E11.16386
G1 X147.01 Y135.754 E11.17953
G1 X147.867 Y135.694 E11.24176
G1 X148.084 Y135.687 E11.25749
G1 X149.018 Y135.695 E11.32515
G1 X149.244 Y135.706 E11.34154
G1 X150.284 Y135.804 E11.41721
G1 X150.491 Y135.833 E11.43235
G1 X151.309 Y135.977 E11.49252
G1 X151.533 Y136.025 E11.50912
G1 X152.367 Y136.237 E11.57145
G1 X152.585 Y136.301 E11.58791
G1 X153.533 Y136.625 E11.66049
G1 X153.725 Y136.7 E11.67542
G1 X154.491 Y137.031 E11.73587
G1 X155.079 Y137.332 E11.78372
G1 X155.305 Y137.341 E11.8001
G1 X156.259 Y137.461 E11.86976
G1 X157.199 Y137.659 E11.93934
G1 X158.12 Y137.935 E12.00899
G1 X159.014 Y138.287 E12.07859
G1 X159.876 Y138.712 E12.14821
G1 X160.7 Y139.206 E12.21781
G1 X161.48 Y139.768 E12.28745
G1 X162.21 Y140.393 E12.35707
G1 X162.886 Y141.076 E12.42668
G1 X163.503 Y141.813 E12.49631
G1 X164.056 Y142.599 E12.56593
G1 X164.542 Y143.428 E12.63554
G1 X164.958 Y144.294 E12.70514
G1 X165.3 Y145.192 E12.77475
G1 X165.566 Y146.116 E12.8444
G1 X165.755 Y147.058 E12.914
G1 X165.865 Y148.013 E12.98364
G1 X165.895 Y148.851 E13.04438
G1 X165.895 Y151.091 E13.20665
G1 X165.855 Y152.051 E13.27625
G1 X165.753 Y152.859 E13.33525
G1 X165.963 Y153.378 E13.37581
G1 X166.22 Y154.105 E13.43166
G1 X166.332 Y154.46 E13.45863
G1 X166.542 Y155.213 E13.51526
G1 X166.623 Y155.547 E13.54016
G1 X166.761 Y156.197 E13.58829
G1 X166.825 Y156.548 E13.61414
G1 X166.939 Y157.327 E13.67117
G1 X166.979 Y157.682 E13.69705
G1 X167.04 Y158.446 E13.75257
G1 X167.057 Y158.817 E13.77947
G1 X167.067 Y159.541 E13.83193
G1 X167.061 Y159.896 E13.85765
G1 X167.02 Y160.699 E13.91589
G1 X166.99 Y161.045 E13.94105
G1 X166.906 Y161.752 E13.99263
G1 X166.853 Y162.107 E14.01863
G1 X166.724 Y162.822 E14.07126
G1 X166.646 Y163.186 E14.09823
G1 X166.451 Y163.961 E14.15612
G1 X166.356 Y164.291 E14.18099
G1 X166.154 Y164.925 E14.22919
G1 X166.031 Y165.275 E14.25607
G1 X165.731 Y166.04 E14.31559
G1 X165.594 Y166.356 E14.34054
G1 X165.302 Y166.979 E14.39039
G1 X165.141 Y167.297 E14.41621
G1 X164.732 Y168.036 E14.47739
G1 X164.54 Y168.355 E14.50436
G1 X164.181 Y168.914 E14.55249
G1 X163.987 Y169.198 E14.5774
G1 X163.499 Y169.86 E14.63698
G1 X163.269 Y170.15 E14.66379
G1 X162.842 Y170.659 E14.71192
G1 X162.612 Y170.917 E14.73696
G1 X162.062 Y171.492 E14.7946
G1 X161.8 Y171.748 E14.82114
G1 X161.237 Y172.263 E14.87641
G1 X160.967 Y172.494 E14.90215
G1 X160.429 Y172.927 E14.95218
G1 X160.145 Y173.142 E14.97798
G1 X159.49 Y173.603 E15.036
G1 X159.193 Y173.797 E15.0617
G1 X158.567 Y174.178 E15.11479
G1 X158.249 Y174.358 E15.14126
G1 X157.567 Y174.715 E15.19702
G1 X157.249 Y174.868 E15.22259
G1 X156.61 Y175.152 E15.27324
G1 X156.287 Y175.284 E15.29852
G1 X155.653 Y175.521 E15.34755
G1 X155.416 Y175.602 E15.36569
G1 X154.495 Y175.875 E15.43528
G1 X153.554 Y176.07 E15.5049
G1 X152.6 Y176.186 E15.57451
G1 X151.639 Y176.223 E15.64418
G1 X150.679 Y176.179 E15.7138
G1 X150.019 Y176.094 E15.762
G1 X149.158 Y176.193 E15.82478
G1 X148.198 Y176.222 E15.89436
G1 X147.238 Y176.172 E15.964
G1 X146.286 Y176.042 E16.0336
G1 X145.348 Y175.834 E16.1032
G1 X144.549 Y175.59 E16.16372
G1 X144.3 Y175.504 E16.1828
G1 X143.703 Y175.279 E16.22902
G1 X143.375 Y175.145 E16.25468
G1 X142.71 Y174.849 E16.30741
G1 X142.394 Y174.696 E16.33285
G1 X141.68 Y174.319 E16.39134
G1 X141.361 Y174.136 E16.41798
G1 X140.761 Y173.766 E16.46904
G1 X140.46 Y173.568 E16.49514
G1 X139.866 Y173.151 E16.54772
G1 X139.588 Y172.942 E16.57291
G1 X138.949 Y172.424 E16.6325
G1 X138.68 Y172.19 E16.65833
G1 X138.172 Y171.721 E16.70841
G1 X137.91 Y171.464 E16.735
G1 X137.36 Y170.886 E16.7928
G1 X137.123 Y170.619 E16.81866
G1 X136.667 Y170.073 E16.87019
G1 X136.454 Y169.801 E16.89522
G1 X136.006 Y169.188 E16.95022
G1 X135.798 Y168.883 E16.97696
G1 X135.424 Y168.298 E17.02726
G1 X135.246 Y168 E17.0524
G1 X134.825 Y167.23 E17.11598
G1 X134.66 Y166.899 E17.14277
G1 X134.398 Y166.335 E17.18782
G1 X134.256 Y166.007 E17.21371
G1 X133.94 Y165.196 E17.27676
G1 X133.823 Y164.858 E17.30267
G1 X133.632 Y164.253 E17.34863
G1 X133.538 Y163.924 E17.37342
G1 X133.343 Y163.135 E17.43229
G1 X133.266 Y162.77 E17.45931
G1 X133.135 Y162.033 E17.51354
G1 X133.084 Y161.679 E17.53945
G1 X133.007 Y161.002 E17.58881
G1 X132.997 Y160.889 E17.59703
G0 F1620 X132.978 Y160.658
G0 X132.939 Y159.883
G0 X132.933 Y159.527
G0 F6000 X133.593 Y159.516
G1 F1800 X133.603 Y158.815 E17.64781
G1 X133.62 Y158.457 E17.67377
G1 X133.678 Y157.739 E17.72596
G1 X133.72 Y157.371 E17.75279
G1 X133.826 Y156.658 E17.805
G1 X133.89 Y156.306 E17.83092
G1 X134.035 Y155.628 E17.88115
G1 X134.118 Y155.294 E17.90608
G1 X134.313 Y154.608 E17.95774
G1 X134.426 Y154.254 E17.98466
G1 X134.659 Y153.598 E18.03509
G1 X134.785 Y153.276 E18.06014
G1 X135.037 Y152.69 E18.10635
G1 X134.899 Y151.893 E18.16494
G1 X134.872 Y151.69 E18.17978
G1 X134.792 Y150.824 E18.24278
G1 X134.78 Y150.595 E18.25939
G1 X134.771 Y149.671 E18.32633
G1 X134.778 Y149.456 E18.34191
G1 X134.835 Y148.641 E18.40109
G1 X134.858 Y148.428 E18.41661
G1 X134.977 Y147.616 E18.47606
G1 X135.019 Y147.389 E18.49279
G1 X135.252 Y146.391 E18.56703
G1 X135.314 Y146.173 E18.58344
G1 X135.543 Y145.463 E18.63749
G1 X135.615 Y145.263 E18.65288
G1 X135.937 Y144.467 E18.71509
G1 X136.031 Y144.259 E18.73162
G1 X136.484 Y143.369 E18.80396
G1 X136.589 Y143.184 E18.81937
G1 X137.007 Y142.507 E18.87701
G1 X137.126 Y142.329 E18.89252
G1 X137.601 Y141.672 E18.95125
G1 X137.741 Y141.493 E18.96771
G1 X138.398 Y140.729 E19.04071
G1 X138.548 Y140.57 E19.05654
G1 X139.039 Y140.082 E19.10669
G1 X139.204 Y139.928 E19.12304
G1 X139.855 Y139.366 E19.18534
G1 X140.031 Y139.226 E19.20163
G1 X140.892 Y138.607 E19.27845
G1 X141.065 Y138.495 E19.29338
G1 X141.682 Y138.124 E19.34553
G1 X141.874 Y138.017 E19.36145
G1 X142.62 Y137.638 E19.42207
G1 X142.835 Y137.539 E19.43921
G1 X143.724 Y137.177 E19.50875
G1 X143.917 Y137.108 E19.5236
G1 X144.701 Y136.86 E19.58316
G1 X144.916 Y136.801 E19.59931
G1 X145.808 Y136.596 E19.66562
G1 X146.034 Y136.554 E19.68227
G1 X146.866 Y136.433 E19.74317
G1 X147.081 Y136.41 E19.75884
G1 X147.888 Y136.354 E19.81744
G1 X148.105 Y136.347 E19.83316
G1 X148.985 Y136.354 E19.89691
G1 X149.211 Y136.365 E19.9133
G1 X150.193 Y136.457 E19.98475
G1 X150.4 Y136.486 E19.99989
G1 X151.171 Y136.623 E20.05662
G1 X151.395 Y136.671 E20.07322
G1 X152.181 Y136.87 E20.13195
G1 X152.399 Y136.934 E20.14841
G1 X153.293 Y137.239 E20.21684
G1 X153.485 Y137.314 E20.23177
G1 X154.207 Y137.627 E20.28877
G1 X154.419 Y137.728 E20.30578
G1 X154.903 Y137.985 E20.34548
G1 X155.277 Y138.001 E20.3726
G1 X156.203 Y138.121 E20.44024
G1 X157.115 Y138.319 E20.50785
G1 X158.006 Y138.595 E20.57542
G1 X158.871 Y138.946 E20.64304
G1 X159.702 Y139.37 E20.71062
G1 X160.494 Y139.863 E20.7782
G1 X161.241 Y140.423 E20.84583
G1 X161.937 Y141.044 E20.9134
G1 X162.578 Y141.723 E20.98104
G1 X163.158 Y142.454 E21.04864
G1 X163.673 Y143.232 E21.11623
G1 X164.12 Y144.051 E21.18382
G1 X164.495 Y144.905 E21.25139
G1 X164.796 Y145.789 E21.31903
G1 X165.019 Y146.695 E21.38662
G1 X165.165 Y147.616 E21.45417
G1 X165.235 Y148.851 E21.54378
G1 X165.235 Y151.091 E21.70605
G1 X165.195 Y152.023 E21.77363
G1 X165.075 Y152.949 E21.84127
G1 X165.224 Y153.298 E21.86876
G1 X165.349 Y153.618 E21.89364
G1 X165.59 Y154.303 E21.94625
G1 X165.702 Y154.658 E21.97321
G1 X165.9 Y155.368 E22.02661
G1 X165.981 Y155.702 E22.0515
G1 X166.111 Y156.316 E22.09697
G1 X166.175 Y156.667 E22.12281
G1 X166.284 Y157.401 E22.17657
G1 X166.324 Y157.756 E22.20245
G1 X166.381 Y158.477 E22.25484
G1 X166.398 Y158.848 E22.28174
G1 X166.407 Y159.53 E22.33115
G1 X166.401 Y159.885 E22.35687
G1 X166.362 Y160.642 E22.41178
G1 X166.332 Y160.988 E22.43694
