;Project 24x16-framing-square
;Created by Estlcam version 11 build 11.245
;Machining time about 00:03:30 hours

G90
M03 S10000
G00 X0.0000 Y0.0000 Z0.0000 F1500
G00 Z4.0000 F480


;No. 1: Hole 1
G00 X25.4000 F1500
G00 Z0.5000 F480
G01 Z0.0000 F120 S10000
G01 X24.8227 Z-0.5000 F120
G01 X25.4000 Z-1.0000 F120
G01 X0.0000 F900
G01 Y25.4000 F900
G01 Y1.5875 F900
G03 X1.5875 Y0.0000 I1.5875 J0.0000 F900
G01 X25.4000 F900
G00 Z4.0000 F480


;No. 2: Hole 2
G00 X0.0000 Y384.1750 Z4.0000 F1500
G00 Z0.5000 F480
G01 Z0.0000 F120
G01 Y384.7524 Z-0.5000 F120
G01 Y384.1750 Z-1.0000 F120
G01 Y409.5750 F900
G01 X25.4000 F900
G01 X1.5875 F900
G03 X0.0000 Y407.9875 I0.0000 J-1.5875 F900
G01 Y384.1750 F900
G00 Z4.0000 F480


;No. 3: Hole 3
G00 X611.1875 Y409.5750 Z4.0000 F1500
G00 Z0.5000 F480
G01 Z0.0000 F120
G01 X610.6102 Z-0.5000 F120
G01 X611.1875 Z-1.0000 F120
G01 X587.3750 F900
G01 X612.7750 F900
G01 Y384.1750 F900
G01 Y407.9875 F900
G03 X611.1875 Y409.5750 I-1.5875 J0.0000 F900
G00 Z4.0000 F480


;No. 4: Hole 4
G00 X612.7750 Y0.0000 Z4.0000 F1500
G00 Z0.5000 F480
G01 Z0.0000 F120
G01 X612.1977 Z-0.5000 F120
G01 X612.7750 Z-1.0000 F120
G01 X587.3750 F900
G01 X611.1875 F900
G03 X612.7750 Y1.5875 I0.0000 J1.5875 F900
G01 Y25.4000 F900
G01 Y0.0000 F900
G00 Z4.0000 F480
G00 X0.0000 F1500

M05
