;FLAVOR:Marlin
;TIME:582
;Filament used: 1.01544m
;Layer height: 0.32
;MINX:129.87
;MINY:67.37
;MINZ:0.24
;MAXX:170.13
;MAXY:232.63
;MAXZ:1.2
;Generated with Cura_SteamEngine 5.0.0
M140 S80
M105
M190 S80
M104 S245
M105
M109 S245
M82 ;absolute extrusion mode
; Ender 3 Max Custom Start G-code
G92 E0 ; Reset Extruder
G28 ; Home all axes
G1 Z2.0 F3000 ; Move Z Axis up little to prevent scratching of Heat Bed
G1 X0.1 Y20 Z0.3 F5000.0 ; Move to start position
G1 X0.1 Y200.0 Z0.3 F1500.0 E15 ; Draw the first line
G1 X0.4 Y200.0 Z0.3 F5000.0 ; Move to side a little
G1 X0.4 Y20 Z0.3 F1500.0 E30 ; Draw the second line
G92 E0 ; Reset Extruder
G1 Z2.0 F3000 ; Move Z Axis up little to prevent scratching of Heat Bed
G1 X5 Y20 Z0.3 F5000.0 ; Move over to prevent blob squish
G92 E0
G92 E0
G1 F2100 E-5
;LAYER_COUNT:3
;LAYER:0
M107
G1 F300 Z0.56
G0 F6000 X131.357 Y72.384 Z0.56
G1 F300 Z0.56
G0 F6000 X129.871 Y78.234
;TYPE:SKIRT
G1 F300 Z0.24
G1 F2100 E0
G1 F1800 X129.88 Y77.569 E0.05781
G1 X129.932 Y76.662 E0.13679
G1 X130.064 Y75.763 E0.21577
G1 X130.274 Y74.878 E0.29484
G1 X130.562 Y74.016 E0.37385
G1 X130.924 Y73.183 E0.4528
G1 X131.357 Y72.384 E0.5318
G1 X131.86 Y71.626 E0.61088
G1 X132.427 Y70.916 E0.68986
G1 X133.054 Y70.258 E0.76887
G1 X133.736 Y69.658 E0.84784
G1 X134.469 Y69.121 E0.92682
G1 X135.246 Y68.649 E1.00585
G1 X136.062 Y68.248 E1.08489
G1 X136.909 Y67.92 E1.16385
G1 X137.782 Y67.668 E1.24283
G1 X138.674 Y67.494 E1.32184
G1 X139.919 Y67.383 E1.43049
G1 X140.53 Y67.37 E1.48362
G1 X159.093 Y67.37 E3.09727
G1 X159.939 Y67.381 E3.17082
G1 X160.846 Y67.434 E3.2498
G1 X161.745 Y67.567 E3.3288
G1 X162.629 Y67.778 E3.4078
G1 X163.491 Y68.066 E3.48681
G1 X164.325 Y68.428 E3.56584
G1 X165.123 Y68.863 E3.64485
G1 X165.88 Y69.365 E3.72381
G1 X166.59 Y69.933 E3.80285
G1 X167.247 Y70.561 E3.88185
G1 X167.847 Y71.244 E3.96088
G1 X168.384 Y71.977 E4.03987
G1 X168.855 Y72.754 E4.11885
G1 X169.255 Y73.57 E4.19785
G1 X169.582 Y74.418 E4.27686
G1 X169.834 Y75.291 E4.35584
G1 X170.008 Y76.183 E4.43485
G1 X170.117 Y77.42 E4.54279
G1 X170.13 Y78.03 E4.59583
G1 X170.129 Y221.692 E17.08418
G1 X170.12 Y222.419 E17.14738
G1 X170.069 Y223.326 E17.22635
G1 X169.938 Y224.226 E17.30541
G1 X169.729 Y225.11 E17.38438
G1 X169.443 Y225.973 E17.46341
G1 X169.082 Y226.807 E17.54241
G1 X168.649 Y227.606 E17.62141
G1 X168.147 Y228.364 E17.70044
G1 X167.581 Y229.075 E17.77944
G1 X166.955 Y229.733 E17.85839
G1 X166.273 Y230.334 E17.93741
G1 X165.541 Y230.873 E18.01643
G1 X164.764 Y231.345 E18.09546
G1 X163.949 Y231.747 E18.17445
G1 X163.102 Y232.076 E18.25344
G1 X162.229 Y232.329 E18.33245
G1 X161.337 Y232.505 E18.41149
G1 X160.081 Y232.617 E18.5211
G1 X159.47 Y232.63 E18.57423
G1 X140.774 Y232.629 E20.19945
G1 X140.076 Y232.62 E20.26013
G1 X139.168 Y232.568 E20.33919
G1 X138.269 Y232.437 E20.41816
G1 X137.385 Y232.227 E20.49715
G1 X136.522 Y231.941 E20.57618
G1 X135.688 Y231.579 E20.65521
G1 X134.89 Y231.146 E20.73414
G1 X134.132 Y230.644 E20.81317
G1 X133.421 Y230.078 E20.89217
G1 X132.763 Y229.451 E20.97118
G1 X132.162 Y228.769 E21.0502
G1 X131.624 Y228.036 E21.12924
G1 X131.152 Y227.26 E21.20819
G1 X130.751 Y226.444 E21.28723
G1 X130.422 Y225.597 E21.36622
G1 X130.17 Y224.724 E21.4452
G1 X129.995 Y223.832 E21.52422
G1 X129.883 Y222.57 E21.63436
G1 X129.87 Y221.958 E21.68757
G1 X129.871 Y79.597 E34.06282
G0 F1620 X129.871 Y78.234
G1 F2100 E29.06282
G1 F300 Z0.56
;MESH:aza-lid-2020-template.stl
G0 F6000 X141.85 Y79.35 Z0.56
;TYPE:WALL-INNER
G1 F300 Z0.24
G1 F2100 E34.06282
G1 F1800 X141.851 Y213.929 E43.84725
G1 X141.852 Y220.649 E44.33583
G1 X158.15 Y220.65 E45.52075
G1 X158.15 Y85.314 E55.36022
G1 X158.15 Y79.35 E55.79383
G1 X143.213 Y79.35 E56.87981
G0 F1620 X141.85 Y79.35
G0 F6000 X141.19 Y78.69
G1 F1800 X141.191 Y221.309 E67.24878
G1 X158.81 Y221.31 E68.52975
G1 X158.81 Y85.314 E78.4172
G1 X158.81 Y78.69 E78.8988
G1 X142.553 Y78.69 E80.08074
G0 F1620 X141.19 Y78.69
G0 F6000 X140.53 Y78.03
;TYPE:WALL-OUTER
G1 F1800 X140.531 Y221.969 E90.43193
G1 X159.47 Y221.97 E91.79391
G1 X159.47 Y85.314 E101.62135
G1 X159.47 Y78.03 E102.14517
G1 X141.893 Y78.03 E103.4092
G0 F1620 X140.53 Y78.03
G0 F6000 X140.53 Y78.35
G1 F2100 E98.4092
G1 F300 Z0.56
G0 F6000 X148.905 Y100.083 Z0.56
;TYPE:WALL-INNER
G1 F300 Z0.24
G1 F2100 E103.4092
G1 F1800 X148.204 Y99.851 E103.46288
G1 X147.834 Y99.675 E103.49267
G1 X147.253 Y99.304 E103.54279
G1 X146.895 Y99.009 E103.57652
G1 X146.423 Y98.506 E103.62667
G1 X146.185 Y98.18 E103.65601
G1 X145.827 Y97.538 E103.70946
G1 X145.649 Y97.095 E103.74417
G1 X145.478 Y96.429 E103.79416
G1 X145.431 Y96.151 E103.81466
G1 X145.422 Y95.96 E103.82856
G1 X145.427 Y95.22 E103.88236
G1 X145.478 Y94.821 E103.9116
G1 X145.649 Y94.155 E103.9616
G1 X145.726 Y93.927 E103.97909
G1 X145.827 Y93.712 E103.99636
G1 X146.185 Y93.07 E104.04981
G1 X146.423 Y92.744 E104.07915
G1 X146.895 Y92.241 E104.1293
G1 X147.075 Y92.076 E104.14705
G1 X147.254 Y91.945 E104.16318
G1 X147.837 Y91.574 E104.21342
G1 X148.071 Y91.449 E104.23271
G1 X148.267 Y91.373 E104.24799
G1 X148.972 Y91.15 E104.30175
G1 X149.364 Y91.077 E104.33074
G1 X150.053 Y91.033 E104.38094
G1 X150.334 Y91.038 E104.40137
G1 X150.537 Y91.065 E104.41626
G1 X151.259 Y91.209 E104.46979
G1 X151.639 Y91.335 E104.49889
G1 X152.259 Y91.627 E104.54872
G1 X152.596 Y91.839 E104.57766
G1 X153.17 Y92.304 E104.63137
G1 X153.365 Y92.489 E104.65091
G1 X153.512 Y92.668 E104.66775
G1 X153.939 Y93.265 E104.72112
G1 X154.129 Y93.615 E104.75007
G1 X154.383 Y94.255 E104.80013
G1 X154.461 Y94.507 E104.81931
G1 X154.5 Y94.71 E104.83434
G1 X154.586 Y95.398 E104.88475
G1 X154.598 Y95.647 E104.90287
G1 X154.586 Y95.851 E104.91773
G1 X154.501 Y96.535 E104.96784
G1 X154.449 Y96.794 E104.98705
G1 X154.384 Y96.994 E105.00234
G1 X154.131 Y97.63 E105.0521
G1 X154.014 Y97.87 E105.07152
G1 X153.91 Y98.033 E105.08557
G1 X153.506 Y98.591 E105.13566
G1 X153.326 Y98.801 E105.15577
G1 X153.17 Y98.946 E105.17125
G1 X152.596 Y99.411 E105.22496
G1 X152.259 Y99.623 E105.25391
G1 X151.639 Y99.915 E105.30373
G1 X151.259 Y100.041 E105.33284
G1 X150.537 Y100.185 E105.38636
G1 X150.279 Y100.216 E105.40526
G1 X150.258 Y100.217 E105.40679
G0 F1620 X150.053 Y100.217
G0 X149.364 Y100.173
G0 X149.119 Y100.139
G0 X148.905 Y100.083
G0 F6000 X150.408 Y99.537
G1 F1800 X150.231 Y99.558 E105.41974
G1 X150.095 Y99.558 E105.42963
G1 X149.406 Y99.515 E105.47982
G1 X149.112 Y99.456 E105.50162
G1 X148.411 Y99.224 E105.55531
G1 X148.19 Y99.119 E105.5731
G1 X147.609 Y98.748 E105.62321
G1 X147.377 Y98.557 E105.64506
G1 X146.905 Y98.054 E105.69521
G1 X146.762 Y97.859 E105.71279
G1 X146.404 Y97.217 E105.76624
G1 X146.288 Y96.931 E105.78867
G1 X146.117 Y96.265 E105.83867
G1 X146.082 Y95.972 E105.86012
G1 X146.087 Y95.225 E105.91443
G1 X146.117 Y94.985 E105.93202
G1 X146.288 Y94.319 E105.98201
G1 X146.404 Y94.033 E106.00445
G1 X146.762 Y93.391 E106.05789
G1 X146.905 Y93.196 E106.07547
G1 X147.377 Y92.693 E106.12562
G1 X147.609 Y92.502 E106.14747
G1 X148.191 Y92.131 E106.19765
G1 X148.466 Y92.003 E106.2197
G1 X149.171 Y91.78 E106.27346
G1 X149.406 Y91.735 E106.29085
G1 X150.095 Y91.691 E106.34105
G1 X150.408 Y91.713 E106.36386
G1 X151.13 Y91.857 E106.41739
G1 X151.358 Y91.932 E106.43484
G1 X151.978 Y92.224 E106.48466
G1 X152.18 Y92.351 E106.50201
G1 X152.754 Y92.817 E106.55577
G1 X152.975 Y93.052 E106.57922
G1 X153.401 Y93.648 E106.63248
G1 X153.516 Y93.858 E106.64989
G1 X153.769 Y94.498 E106.69992
G1 X153.845 Y94.792 E106.722
G1 X153.931 Y95.48 E106.77241
G1 X153.931 Y95.77 E106.79349
G1 X153.839 Y96.502 E106.84713
G1 X153.77 Y96.751 E106.86592
G1 X153.518 Y97.387 E106.91566
G1 X153.375 Y97.646 E106.93717
G1 X152.971 Y98.204 E106.98725
G1 X152.754 Y98.433 E107.01019
G1 X152.18 Y98.899 E107.06394
G1 X151.978 Y99.026 E107.08129
G1 X151.708 Y99.154 E107.10301
G0 F1620 X151.358 Y99.318
G0 X151.13 Y99.393
G0 X150.408 Y99.537
G1 F2100 E102.10301
G1 F300 Z0.56
G0 F6000 X148.619 Y98.598 Z0.56
;TYPE:WALL-OUTER
G1 F300 Z0.24
G1 F2100 E107.10301
G1 F1800 X148.545 Y98.563 E107.1089
G1 X147.964 Y98.192 E107.15847
G1 X147.858 Y98.105 E107.16834
G1 X147.386 Y97.602 E107.21794
G1 X147.338 Y97.537 E107.22375
G1 X146.98 Y96.895 E107.27661
G1 X146.928 Y96.767 E107.28655
G1 X146.751 Y96.075 E107.33791
G1 X146.742 Y95.969 E107.34556
G1 X146.747 Y95.229 E107.39878
G1 X146.757 Y95.149 E107.40458
G1 X146.928 Y94.483 E107.45403
G1 X146.98 Y94.355 E107.46396
G1 X147.338 Y93.713 E107.51682
G1 X147.386 Y93.648 E107.52264
G1 X147.858 Y93.145 E107.57224
G1 X147.964 Y93.058 E107.5821
G1 X148.546 Y92.687 E107.63174
G1 X148.665 Y92.632 E107.64116
G1 X149.397 Y92.401 E107.69636
G1 X149.448 Y92.394 E107.70007
G1 X150.159 Y92.35 E107.75129
G1 X150.279 Y92.36 E107.75995
G1 X151.001 Y92.504 E107.8129
G1 X151.077 Y92.529 E107.81865
G1 X151.697 Y92.821 E107.86794
G1 X151.764 Y92.863 E107.87362
G1 X152.338 Y93.329 E107.92679
G1 X152.438 Y93.435 E107.93727
G1 X152.864 Y94.032 E107.99001
G1 X152.902 Y94.102 E107.99574
G1 X153.156 Y94.742 E108.04526
G1 X153.19 Y94.874 E108.05506
G1 X153.276 Y95.562 E108.10492
G1 X153.276 Y95.688 E108.11398
G1 X153.189 Y96.388 E108.16471
G1 X153.156 Y96.508 E108.17366
G1 X152.904 Y97.144 E108.22286
G1 X152.841 Y97.259 E108.23229
G1 X152.437 Y97.817 E108.28183
G1 X152.338 Y97.921 E108.29215
G1 X151.764 Y98.387 E108.34532
G1 X151.697 Y98.429 E108.35101
G1 X151.077 Y98.721 E108.40029
G1 X151.001 Y98.746 E108.40605
G1 X150.279 Y98.89 E108.45899
G1 X150.183 Y98.9 E108.46593
G1 X150.137 Y98.9 E108.46924
G1 X149.942 Y98.887 E108.48329
G0 F1620 X149.448 Y98.856
G0 X149.32 Y98.83
G0 X148.619 Y98.598
G0 F6000 X148.545 Y98.563
G0 X148.344 Y98.435
G1 F2100 E103.48329
G1 F300 Z0.56
G0 F6000 X150.053 Y127.283 Z0.56
;TYPE:WALL-INNER
G1 F300 Z0.24
G1 F2100 E108.48329
G1 F1800 X150.334 Y127.288 E108.50373
G1 X150.537 Y127.315 E108.51862
G1 X151.259 Y127.459 E108.57214
G1 X151.639 Y127.585 E108.60125
G1 X152.259 Y127.877 E108.65107
G1 X152.596 Y128.089 E108.68002
G1 X153.17 Y128.554 E108.73373
G1 X153.365 Y128.739 E108.75327
G1 X153.512 Y128.918 E108.77011
G1 X153.939 Y129.515 E108.82347
G1 X154.129 Y129.865 E108.85243
G1 X154.383 Y130.505 E108.90249
G1 X154.461 Y130.757 E108.92167
G1 X154.5 Y130.96 E108.9367
G1 X154.586 Y131.648 E108.98711
G1 X154.598 Y131.897 E109.00523
G1 X154.586 Y132.101 E109.02009
G1 X154.501 Y132.785 E109.0702
G1 X154.449 Y133.044 E109.08941
G1 X154.384 Y133.244 E109.1047
G1 X154.131 Y133.88 E109.15446
G1 X154.014 Y134.12 E109.17387
G1 X153.91 Y134.283 E109.18793
G1 X153.506 Y134.841 E109.23802
G1 X153.326 Y135.051 E109.25812
G1 X153.17 Y135.196 E109.27361
G1 X152.596 Y135.661 E109.32732
G1 X152.259 Y135.873 E109.35626
G1 X151.639 Y136.165 E109.40609
G1 X151.259 Y136.291 E109.43519
G1 X150.537 Y136.435 E109.48872
G1 X150.279 Y136.466 E109.50761
G1 X150.053 Y136.467 E109.52404
G1 X149.364 Y136.423 E109.57424
G1 X149.119 Y136.389 E109.59222
G1 X148.905 Y136.333 E109.60831
G1 X148.204 Y136.101 E109.66199
G1 X147.834 Y135.925 E109.69178
G1 X147.253 Y135.554 E109.7419
G1 X146.895 Y135.259 E109.77562
G1 X146.423 Y134.756 E109.82577
G1 X146.185 Y134.43 E109.85512
G1 X145.827 Y133.788 E109.90856
G1 X145.649 Y133.345 E109.94327
G1 X145.478 Y132.679 E109.99326
G1 X145.431 Y132.401 E110.01376
G1 X145.422 Y132.21 E110.02766
G1 X145.427 Y131.47 E110.08147
G1 X145.478 Y131.071 E110.11071
G1 X145.649 Y130.405 E110.1607
G1 X145.726 Y130.177 E110.1782
G1 X145.827 Y129.962 E110.19547
G1 X146.185 Y129.32 E110.24891
G1 X146.423 Y128.994 E110.27826
G1 X146.895 Y128.491 E110.32841
G1 X147.075 Y128.326 E110.34616
G1 X147.254 Y128.195 E110.36229
G1 X147.837 Y127.824 E110.41253
G1 X148.071 Y127.699 E110.43182
G1 X148.267 Y127.623 E110.4471
G1 X148.71 Y127.482 E110.4809
G0 F1620 X148.972 Y127.4
G0 X149.364 Y127.327
G0 X150.053 Y127.283
G0 F6000 X149.406 Y127.985
G1 F1800 X150.142 Y127.94 E110.53451
G1 X150.408 Y127.963 E110.55392
G1 X151.13 Y128.107 E110.60745
G1 X151.358 Y128.182 E110.6249
G1 X151.978 Y128.474 E110.67472
G1 X152.18 Y128.601 E110.69207
G1 X152.754 Y129.067 E110.74582
G1 X152.975 Y129.302 E110.76928
G1 X153.401 Y129.898 E110.82254
G1 X153.516 Y130.108 E110.83995
G1 X153.769 Y130.748 E110.88998
G1 X153.845 Y131.042 E110.91206
G1 X153.931 Y131.73 E110.96247
G1 X153.931 Y132.02 E110.98355
G1 X153.839 Y132.752 E111.03719
G1 X153.77 Y133.001 E111.05598
G1 X153.518 Y133.637 E111.10571
G1 X153.375 Y133.896 E111.12722
G1 X152.971 Y134.454 E111.17731
G1 X152.754 Y134.683 E111.20025
G1 X152.18 Y135.149 E111.254
G1 X151.978 Y135.276 E111.27135
G1 X151.358 Y135.568 E111.32117
G1 X151.13 Y135.643 E111.33862
G1 X150.408 Y135.787 E111.39215
G1 X150.142 Y135.81 E111.41156
G1 X149.406 Y135.765 E111.46517
G1 X149.112 Y135.706 E111.48697
G1 X148.411 Y135.474 E111.54066
G1 X148.19 Y135.369 E111.55844
G1 X147.609 Y134.998 E111.60856
G1 X147.377 Y134.807 E111.63041
G1 X146.905 Y134.304 E111.68056
G1 X146.762 Y134.109 E111.69814
G1 X146.404 Y133.467 E111.75158
G1 X146.288 Y133.181 E111.77402
G1 X146.117 Y132.515 E111.82401
G1 X146.082 Y132.222 E111.84547
G1 X146.087 Y131.475 E111.89978
G1 X146.117 Y131.235 E111.91736
G1 X146.288 Y130.569 E111.96735
G1 X146.404 Y130.283 E111.98979
G1 X146.762 Y129.641 E112.04324
G1 X146.905 Y129.446 E112.06082
G1 X147.377 Y128.943 E112.11097
G1 X147.609 Y128.752 E112.13281
G1 X148.122 Y128.425 E112.17704
G0 F1620 X148.191 Y128.381
G0 X148.466 Y128.253
G0 X149.171 Y128.03
G0 X149.406 Y127.985
G0 F6000 X149.37 Y128.659
;TYPE:WALL-OUTER
G1 F1800 X149.448 Y128.644 E112.18276
G1 X150.153 Y128.6 E112.23355
G1 X150.279 Y128.61 E112.24264
G1 X151.001 Y128.754 E112.29559
G1 X151.077 Y128.779 E112.30134
G1 X151.697 Y129.071 E112.35063
G1 X151.764 Y129.113 E112.35631
G1 X152.338 Y129.579 E112.40948
G1 X152.438 Y129.685 E112.41996
G1 X152.864 Y130.282 E112.4727
G1 X152.902 Y130.352 E112.47843
G1 X153.156 Y130.992 E112.52795
G1 X153.19 Y131.124 E112.53775
G1 X153.276 Y131.812 E112.58761
G1 X153.276 Y131.938 E112.59667
G1 X153.189 Y132.638 E112.6474
G1 X153.156 Y132.758 E112.65635
G1 X152.904 Y133.394 E112.70555
G1 X152.841 Y133.509 E112.71498
G1 X152.437 Y134.067 E112.76452
G1 X152.338 Y134.171 E112.77484
G1 X151.764 Y134.637 E112.82801
G1 X151.697 Y134.679 E112.8337
G1 X151.077 Y134.971 E112.88298
G1 X151.001 Y134.996 E112.88874
G1 X150.279 Y135.14 E112.94168
G1 X150.137 Y135.15 E112.95192
G1 X149.448 Y135.106 E113.00157
G1 X149.32 Y135.08 E113.01096
G1 X148.619 Y134.848 E113.06406
G1 X148.545 Y134.813 E113.06995
G1 X147.964 Y134.442 E113.11952
G1 X147.858 Y134.355 E113.12938
G1 X147.386 Y133.852 E113.17899
G1 X147.338 Y133.787 E113.1848
G1 X146.98 Y133.145 E113.23766
G1 X146.928 Y133.017 E113.2476
G1 X146.751 Y132.325 E113.29896
G1 X146.742 Y132.219 E113.30661
G1 X146.747 Y131.479 E113.35983
G1 X146.757 Y131.399 E113.36563
G1 X146.928 Y130.733 E113.41508
G1 X146.98 Y130.605 E113.42501
G1 X147.338 Y129.963 E113.47787
G1 X147.386 Y129.898 E113.48368
G1 X147.858 Y129.395 E113.53329
G1 X147.964 Y129.308 E113.54315
G1 X148.131 Y129.202 E113.55737
G0 F1620 X148.546 Y128.937
G0 X148.665 Y128.882
G0 X149.37 Y128.659
G0 F6000 X149.448 Y128.644
G0 X149.688 Y128.629
G1 F2100 E108.55737
G1 F300 Z0.56
G0 F6000 X145.649 Y169.595 Z0.56
;TYPE:WALL-INNER
G1 F300 Z0.24
G1 F2100 E113.55737
G1 F1800 X145.478 Y168.929 E113.60737
G1 X145.431 Y168.651 E113.62786
G1 X145.422 Y168.46 E113.64177
G1 X145.427 Y167.72 E113.69557
G1 X145.478 Y167.321 E113.72481
G1 X145.649 Y166.655 E113.7748
G1 X145.726 Y166.427 E113.7923
G1 X145.827 Y166.212 E113.80957
G1 X146.185 Y165.57 E113.86301
G1 X146.423 Y165.244 E113.89236
G1 X146.895 Y164.741 E113.94251
G1 X147.075 Y164.576 E113.96026
G1 X147.254 Y164.445 E113.97639
G1 X147.837 Y164.074 E114.02663
G1 X148.071 Y163.949 E114.04592
G1 X148.267 Y163.873 E114.0612
G1 X148.972 Y163.65 E114.11496
G1 X149.364 Y163.577 E114.14395
G1 X150.053 Y163.533 E114.19415
G1 X150.334 Y163.538 E114.21458
G1 X150.537 Y163.565 E114.22947
G1 X151.259 Y163.709 E114.28299
G1 X151.639 Y163.835 E114.3121
G1 X152.259 Y164.127 E114.36193
G1 X152.596 Y164.339 E114.39087
G1 X153.17 Y164.804 E114.44458
G1 X153.365 Y164.989 E114.46412
G1 X153.512 Y165.168 E114.48096
