;FLAVOR:Marlin
;TIME:5737
;Filament used: 9.51173m
;Layer height: 0.32
;MINX:17.821
;MINY:126.386
;MINZ:0.24
;MAXX:181.08
;MAXY:166.118
;MAXZ:23.28
;Generated with Cura_SteamEngine 5.0.0
M140 S80
M105
M190 S80
M104 S245
M105
M109 S245
M82 ;absolute extrusion mode
; Ender 3 Max Custom Start G-code
G92 E0 ; Reset Extruder
G28 ; Home all axes
G1 Z2.0 F3000 ; Move Z Axis up little to prevent scratching of Heat Bed
G1 X0.1 Y20 Z0.3 F5000.0 ; Move to start position
G1 X0.1 Y200.0 Z0.3 F1500.0 E15 ; Draw the first line
G1 X0.4 Y200.0 Z0.3 F5000.0 ; Move to side a little
G1 X0.4 Y20 Z0.3 F1500.0 E30 ; Draw the second line
G92 E0 ; Reset Extruder
G1 Z2.0 F3000 ; Move Z Axis up little to prevent scratching of Heat Bed
G1 X5 Y20 Z0.3 F5000.0 ; Move over to prevent blob squish
G92 E0
G92 E0
G1 F2100 E-5
;LAYER_COUNT:72
;LAYER:0
M107
G1 F300 Z0.56
G0 F6000 X26.417 Y126.561 Z0.56
G1 F300 Z0.56
G0 F6000 X17.828 Y137.359
;TYPE:SKIRT
G1 F300 Z0.24
G1 F2100 E0
G1 F1800 X17.839 Y136.716 E0.0559
G1 X17.894 Y135.809 E0.13489
G1 X18.029 Y134.91 E0.21392
G1 X18.205 Y134.155 E0.28131
G1 X18.471 Y133.285 E0.36039
G1 X18.811 Y132.443 E0.43933
G1 X19.225 Y131.634 E0.51833
G1 X19.708 Y130.864 E0.59734
G1 X20.257 Y130.139 E0.67639
G1 X20.867 Y129.466 E0.75535
G1 X21.535 Y128.849 E0.8344
G1 X22.253 Y128.293 E0.91334
G1 X23.018 Y127.802 E0.99236
G1 X23.824 Y127.381 E1.07141
G1 X24.663 Y127.031 E1.15043
G1 X25.529 Y126.757 E1.22939
G1 X26.417 Y126.561 E1.30844
G1 X27.318 Y126.442 E1.38744
G1 X28.041 Y126.405 E1.45038
G1 X28.93 Y126.392 E1.52766
G1 X32.147 Y126.386 E1.80731
G1 X44.504 Y126.392 E2.88149
G1 X166.779 Y126.386 E13.5107
G1 X170.187 Y126.393 E13.80695
G1 X170.844 Y126.403 E13.86407
G1 X171.751 Y126.457 E13.94305
G1 X172.65 Y126.59 E14.02205
G1 X173.534 Y126.802 E14.10108
G1 X174.396 Y127.091 E14.18011
G1 X175.229 Y127.454 E14.2591
G1 X176.027 Y127.889 E14.3381
G1 X176.784 Y128.393 E14.41716
G1 X177.493 Y128.961 E14.49613
G1 X178.15 Y129.589 E14.57514
G1 X178.749 Y130.273 E14.65417
G1 X179.285 Y131.007 E14.73318
G1 X179.755 Y131.784 E14.81212
G1 X180.155 Y132.601 E14.8912
G1 X180.481 Y133.449 E14.97017
G1 X180.732 Y134.322 E15.04913
G1 X180.903 Y135.202 E15.12706
G1 X180.959 Y135.576 E15.15994
G1 X181.054 Y136.48 E15.23895
G1 X181.073 Y137.099 E15.29279
G1 X181.08 Y149.034 E16.33028
G1 X181.071 Y149.664 E16.38505
G1 X180.984 Y150.859 E16.48921
G1 X180.952 Y151.103 E16.5106
G1 X180.795 Y151.998 E16.58959
G1 X180.559 Y152.876 E16.66862
G1 X180.284 Y153.639 E16.73912
G1 X180.19 Y153.871 E16.76088
G1 X179.812 Y154.698 E16.83993
G1 X179.363 Y155.488 E16.91892
G1 X178.846 Y156.235 E16.99789
G1 X178.412 Y156.77 E17.05777
G1 X178.099 Y157.13 E17.09924
G1 X177.607 Y157.657 E17.16191
G1 X172.81 Y162.451 E17.75145
G1 X172.322 Y162.926 E17.81065
G1 X171.644 Y163.531 E17.88964
G1 X170.915 Y164.074 E17.96866
G1 X170.183 Y164.527 E18.04349
G1 X169.808 Y164.738 E18.0809
G1 X168.997 Y165.148 E18.15989
G1 X168.153 Y165.486 E18.23892
G1 X167.283 Y165.748 E18.31791
G1 X166.344 Y165.94 E18.40122
G1 X166.051 Y165.986 E18.427
G1 X165.148 Y166.087 E18.50599
G1 X164.647 Y166.109 E18.54958
G1 X164.083 Y166.118 E18.59862
G1 X34.931 Y166.115 E29.82563
G1 X34.267 Y166.106 E29.88336
G1 X33.042 Y166.016 E29.99013
G1 X32.802 Y165.984 E30.01118
G1 X31.907 Y165.825 E30.0902
G1 X31.03 Y165.587 E30.16919
G1 X30.113 Y165.246 E30.25424
G1 X29.888 Y165.15 E30.27551
G1 X29.069 Y164.757 E30.35447
G1 X28.287 Y164.294 E30.43347
G1 X27.549 Y163.763 E30.51251
G1 X27.158 Y163.439 E30.55665
G1 X26.794 Y163.122 E30.59861
G1 X26.273 Y162.636 E30.66054
G1 X21.468 Y157.828 E31.25143
G1 X20.998 Y157.343 E31.31014
G1 X20.2 Y156.416 E31.41647
G1 X20.059 Y156.231 E31.43669
G1 X19.541 Y155.484 E31.51571
G1 X19.09 Y154.695 E31.59471
G1 X18.718 Y153.891 E31.67172
G1 X18.631 Y153.679 E31.69164
G1 X18.324 Y152.824 E31.77061
G1 X18.092 Y151.945 E31.84964
G1 X17.951 Y151.142 E31.92051
G1 X17.923 Y150.935 E31.93867
G1 X17.832 Y149.727 E32.04398
G1 X17.821 Y149.022 E32.10527
G1 X17.828 Y138.722 E33.00063
G0 F1620 X17.828 Y137.359
G1 F2100 E28.00063
G1 F300 Z0.56
;MESH:aza-lid-bracket.stl
G0 F6000 X29.806 Y138.373 Z0.56
;TYPE:WALL-INNER
G1 F300 Z0.24
G1 F2100 E33.00063
G1 F1800 X29.802 Y149.221 E33.78933
G1 X34.713 Y154.136 E34.29448
G1 X55.933 Y154.135 E35.83725
G1 X56.407 Y154.136 E35.87172
G1 X164.184 Y154.137 E43.70754
G1 X169.1 Y149.224 E44.21284
G1 X169.097 Y138.372 E45.00182
G1 X143.002 Y138.373 E46.89903
G1 X142.564 Y138.373 E46.93088
G1 X98.315 Y138.373 E50.14796
G1 X97.877 Y138.373 E50.1798
G1 X53.627 Y138.373 E53.39695
G1 X53.189 Y138.373 E53.4288
G1 X31.169 Y138.373 E55.02974
G0 F1620 X29.806 Y138.373
G0 F6000 X29.146 Y137.713
G1 F1800 X29.142 Y149.457 E55.88358
G1 X29.212 Y149.564 E55.89287
G1 X34.415 Y154.771 E56.42804
G1 X34.535 Y154.796 E56.43696
G1 X164.419 Y154.797 E65.88004
G1 X164.529 Y154.725 E65.8896
G1 X169.684 Y149.574 E66.41943
G1 X169.761 Y149.39 E66.43393
G1 X169.757 Y137.712 E67.28296
G1 X143.002 Y137.713 E69.22816
G1 X142.564 Y137.713 E69.26
G1 X98.315 Y137.713 E72.47708
G1 X97.877 Y137.713 E72.50893
G1 X53.627 Y137.713 E75.72608
G1 X53.189 Y137.713 E75.75792
G1 X30.509 Y137.713 E77.40685
G0 F1620 X29.146 Y137.713
G0 F6000 X28.486 Y137.053
;TYPE:WALL-OUTER
G1 F1800 X28.481 Y149.544 E78.30513
G1 X28.594 Y149.832 E78.32737
G1 X28.744 Y150.03 E78.34524
G1 X34.007 Y155.296 E78.88064
G1 X34.295 Y155.423 E78.90328
G1 X34.535 Y155.456 E78.9207
G1 X164.499 Y155.458 E88.2669
G1 X164.795 Y155.344 E88.28971
G1 X164.995 Y155.193 E88.30773
G1 X170.259 Y149.932 E88.84293
G1 X170.388 Y149.63 E88.86655
G1 X170.421 Y149.39 E88.88397
G1 X170.417 Y137.052 E89.77124
G1 X93.832 Y137.054 E95.27876
G1 X64.006 Y137.053 E97.42366
G1 X29.849 Y137.053 E99.88001
G0 F1620 X28.486 Y137.053
G0 F6000 X28.486 Y137.373
G1 F2100 E94.88001
G1 F300 Z0.56
G0 F6000 X50.278 Y146.224 Z0.56
;TYPE:WALL-INNER
G1 F300 Z0.24
G1 F2100 E99.88001
G1 F1800 X50.265 Y145.965 E99.89887
G1 X50.278 Y145.753 E99.91431
G1 X50.367 Y145.065 E99.96475
G1 X50.427 Y144.788 E99.98535
G1 X50.494 Y144.59 E100.00055
G1 X50.757 Y143.956 E100.05045
G1 X50.87 Y143.732 E100.06869
G1 X51.001 Y143.534 E100.08595
G1 X51.419 Y142.988 E100.13595
G1 X51.601 Y142.787 E100.15566
G1 X51.762 Y142.645 E100.17127
G1 X52.307 Y142.226 E100.22125
G1 X52.514 Y142.091 E100.23922
G1 X52.727 Y141.984 E100.25655
G1 X53.365 Y141.72 E100.30675
G1 X53.62 Y141.636 E100.32627
G1 X53.836 Y141.593 E100.34228
G1 X54.526 Y141.503 E100.39287
G1 X54.786 Y141.49 E100.4118
G1 X55 Y141.503 E100.42738
G1 X55.69 Y141.593 E100.47797
G1 X55.957 Y141.65 E100.49782
G1 X56.161 Y141.72 E100.5135
G1 X56.799 Y141.984 E100.5637
G1 X57.219 Y142.226 E100.59895
G1 X57.764 Y142.645 E100.64893
G1 X57.964 Y142.826 E100.66854
G1 X58.106 Y142.987 E100.68414
G1 X58.525 Y143.532 E100.73412
G1 X58.66 Y143.739 E100.75209
G1 X58.766 Y143.951 E100.76932
G1 X59.031 Y144.59 E100.81962
G1 X59.11 Y144.828 E100.83785
G1 X59.158 Y145.06 E100.85508
G1 X59.248 Y145.752 E100.90581
G1 X59.261 Y146.011 E100.92466
G1 X59.248 Y146.224 E100.94018
G1 X59.159 Y146.911 E100.99054
G1 X59.098 Y147.194 E101.01159
G1 X59.032 Y147.384 E101.02622
G1 X58.769 Y148.019 E101.07619
G1 X58.656 Y148.244 E101.09449
G1 X58.526 Y148.442 E101.11171
G1 X58.107 Y148.988 E101.16175
G1 X57.925 Y149.189 E101.18146
G1 X57.765 Y149.331 E101.19702
G1 X57.219 Y149.75 E101.24706
G1 X57.012 Y149.886 E101.26506
G1 X56.8 Y149.991 E101.28226
G1 X56.162 Y150.257 E101.33252
G1 X55.905 Y150.34 E101.35215
G1 X55.69 Y150.383 E101.36809
G1 X55 Y150.473 E101.41868
G1 X54.74 Y150.486 E101.43761
G1 X54.526 Y150.473 E101.4532
G1 X53.836 Y150.383 E101.50379
G1 X53.568 Y150.326 E101.52371
G1 X53.364 Y150.257 E101.53937
G1 X52.726 Y149.992 E101.58959
G1 X52.307 Y149.75 E101.62477
G1 X51.761 Y149.331 E101.67481
G1 X51.562 Y149.15 E101.69437
G1 X51.419 Y148.988 E101.71008
G1 X51 Y148.442 E101.76012
G1 X50.842 Y148.194 E101.7815
G1 X50.757 Y148.019 E101.79564
G1 X50.563 Y147.552 E101.83241
G0 F1620 X50.494 Y147.384
G0 X50.414 Y147.14
G0 X50.367 Y146.911
G0 X50.278 Y146.224
G1 F2100 E96.83241
G1 F300 Z0.56
G0 F6000 X52.98 Y149.382 Z0.56
G1 F300 Z0.24
G1 F2100 E101.83241
G1 F1800 X52.709 Y149.227 E101.8551
G1 X52.164 Y148.807 E101.90513
G1 X52.028 Y148.684 E101.91846
G1 X51.943 Y148.586 E101.92789
G1 X51.524 Y148.04 E101.97793
G1 X51.367 Y147.766 E102.00089
G1 X51.104 Y147.131 E102.05086
G1 X51.022 Y146.826 E102.07382
G1 X50.933 Y146.139 E102.12419
G1 X50.933 Y145.837 E102.14614
G1 X51.022 Y145.15 E102.19651
G1 X51.104 Y144.843 E102.21961
G1 X51.367 Y144.209 E102.26951
G1 X51.524 Y143.936 E102.29241
G1 X51.943 Y143.39 E102.34245
G1 X52.164 Y143.168 E102.36522
G1 X52.709 Y142.75 E102.41516
G1 X52.98 Y142.594 E102.43789
G1 X53.618 Y142.329 E102.48812
G1 X53.879 Y142.254 E102.50786
G1 X54.611 Y142.158 E102.56154
G1 X54.915 Y142.158 E102.58364
G1 X55.605 Y142.248 E102.63423
G1 X55.908 Y142.329 E102.65703
G1 X56.546 Y142.594 E102.70726
G1 X56.817 Y142.75 E102.73
G1 X57.362 Y143.168 E102.77993
G1 X57.583 Y143.389 E102.80265
G1 X58.002 Y143.934 E102.85263
G1 X58.157 Y144.205 E102.87533
G1 X58.422 Y144.843 E102.92556
G1 X58.503 Y145.145 E102.94829
G1 X58.593 Y145.837 E102.99903
G1 X58.593 Y146.139 E103.02098
G1 X58.504 Y146.826 E103.07135
G1 X58.422 Y147.131 E103.09431
G1 X58.159 Y147.766 E103.14428
G1 X58.002 Y148.04 E103.16724
G1 X57.583 Y148.586 E103.21728
G1 X57.362 Y148.807 E103.24
G1 X56.817 Y149.227 E103.29003
G1 X56.546 Y149.382 E103.31272
G1 X55.908 Y149.647 E103.36295
G1 X55.647 Y149.722 E103.3827
G1 X54.914 Y149.818 E103.43644
G1 X54.612 Y149.818 E103.4584
G1 X54.278 Y149.774 E103.48289
G0 F1620 X53.921 Y149.728
G0 X53.618 Y149.647
G0 X52.98 Y149.382
G1 F2100 E98.48289
G1 F300 Z0.56
G0 F6000 X51.676 Y145.235 Z0.56
;TYPE:WALL-OUTER
G1 F300 Z0.24
G1 F2100 E103.48289
G1 F1800 X51.714 Y145.096 E103.49325
G1 X51.977 Y144.462 E103.54262
G1 X52.048 Y144.338 E103.55289
G1 X52.467 Y143.792 E103.60238
G1 X52.566 Y143.692 E103.6125
G1 X53.111 Y143.273 E103.66194
G1 X53.233 Y143.204 E103.67202
G1 X53.871 Y142.939 E103.7217
G1 X54.007 Y142.902 E103.73184
G1 X54.697 Y142.812 E103.78188
G1 X54.829 Y142.812 E103.79137
G1 X55.519 Y142.902 E103.84141
G1 X55.655 Y142.939 E103.85155
G1 X56.293 Y143.204 E103.90123
G1 X56.415 Y143.273 E103.91131
G1 X56.96 Y143.692 E103.96075
G1 X57.059 Y143.791 E103.97081
G1 X57.478 Y144.336 E104.02025
G1 X57.547 Y144.458 E104.03033
G1 X57.812 Y145.096 E104.08001
G1 X57.849 Y145.23 E104.09001
G1 X57.939 Y145.922 E104.14019
G1 X57.939 Y146.054 E104.14969
G1 X57.85 Y146.741 E104.1995
G1 X57.812 Y146.879 E104.2098
G1 X57.549 Y147.514 E104.25922
G1 X57.478 Y147.638 E104.2695
G1 X57.059 Y148.184 E104.31899
G1 X56.96 Y148.284 E104.32911
G1 X56.415 Y148.703 E104.37855
G1 X56.293 Y148.772 E104.38863
G1 X55.655 Y149.037 E104.43831
G1 X55.519 Y149.074 E104.44845
G1 X54.829 Y149.164 E104.49849
G1 X54.697 Y149.164 E104.50798
G1 X54.007 Y149.074 E104.55802
G1 X53.871 Y149.037 E104.56816
G1 X53.233 Y148.772 E104.61784
G1 X53.111 Y148.703 E104.62792
G1 X52.566 Y148.284 E104.67735
G1 X52.495 Y148.217 E104.68437
G1 X52.467 Y148.184 E104.68749
G1 X52.048 Y147.638 E104.73698
G1 X51.977 Y147.514 E104.74726
G1 X51.714 Y146.879 E104.79668
G1 X51.676 Y146.741 E104.80698
G1 X51.656 Y146.589 E104.818
G0 F1620 X51.587 Y146.054
G0 X51.587 Y145.922
G0 X51.676 Y145.235
G0 F6000 X51.714 Y145.096
G0 X51.781 Y144.934
G1 F2100 E99.818
G1 F300 Z0.56
G0 F6000 X96.995 Y149.75 Z0.56
;TYPE:WALL-INNER
G1 F300 Z0.24
G1 F2100 E104.818
G1 F1800 X96.45 Y149.331 E104.86798
G1 X96.25 Y149.15 E104.88759
G1 X96.107 Y148.988 E104.9033
G1 X95.689 Y148.442 E104.9533
G1 X95.53 Y148.194 E104.97472
G1 X95.445 Y148.019 E104.98886
G1 X95.182 Y147.384 E105.03883
G1 X95.102 Y147.14 E105.0575
G1 X95.055 Y146.911 E105.0745
G1 X94.966 Y146.224 E105.12486
G1 X94.953 Y145.965 E105.14371
G1 X94.966 Y145.753 E105.15916
G1 X95.055 Y145.065 E105.20959
G1 X95.115 Y144.788 E105.2302
G1 X95.182 Y144.59 E105.2454
G1 X95.445 Y143.956 E105.2953
G1 X95.558 Y143.732 E105.31354
G1 X95.689 Y143.534 E105.3308
G1 X96.107 Y142.988 E105.3808
G1 X96.289 Y142.787 E105.40051
G1 X96.45 Y142.645 E105.41612
G1 X96.995 Y142.226 E105.4661
G1 X97.202 Y142.091 E105.48406
G1 X97.415 Y141.984 E105.50139
G1 X98.053 Y141.72 E105.55159
G1 X98.308 Y141.636 E105.57111
G1 X98.524 Y141.593 E105.58713
G1 X99.214 Y141.503 E105.63772
G1 X99.474 Y141.49 E105.65664
G1 X99.688 Y141.503 E105.67223
G1 X100.377 Y141.593 E105.72275
G1 X100.644 Y141.65 E105.7426
G1 X100.848 Y141.719 E105.75826
G1 X101.487 Y141.984 E105.80855
G1 X101.908 Y142.227 E105.84389
G1 X102.453 Y142.646 E105.89387
G1 X102.651 Y142.826 E105.91333
G1 X102.793 Y142.987 E105.92893
G1 X103.215 Y143.536 E105.97928
G1 X103.428 Y143.902 E106.01007
G1 X103.715 Y144.583 E106.06379
G1 X103.795 Y144.819 E106.08191
G1 X103.845 Y145.057 E106.09959
G1 X103.936 Y145.749 E106.15034
G1 X103.949 Y146.011 E106.16941
G1 X103.949 Y146.054 E106.17254
G1 X103.936 Y146.226 E106.18508
G1 X103.846 Y146.913 E106.23545
G1 X103.784 Y147.194 E106.25637
G1 X103.715 Y147.393 E106.27168
G1 X103.428 Y148.074 E106.32541
G1 X103.216 Y148.44 E106.35616
G1 X102.792 Y148.99 E106.40665
G1 X102.612 Y149.189 E106.42616
G1 X102.453 Y149.33 E106.44161
G1 X101.908 Y149.749 E106.49159
G1 X101.7 Y149.886 E106.5097
G1 X101.487 Y149.992 E106.527
G1 X100.848 Y150.257 E106.57729
G1 X100.592 Y150.34 E106.59686
G1 X100.377 Y150.383 E106.6128
G1 X99.688 Y150.473 E106.66332
G1 X99.428 Y150.486 E106.68225
G1 X99.214 Y150.473 E106.69783
G1 X98.524 Y150.383 E106.74842
G1 X98.257 Y150.326 E106.76827
G1 X98.232 Y150.317 E106.77021
G0 F1620 X98.052 Y150.257
G0 X97.414 Y149.992
G0 X96.995 Y149.75
G1 F2100 E101.77021
G1 F300 Z0.56
G0 F6000 X102.82 Y147.818 Z0.56
G1 F300 Z0.24
G1 F2100 E106.77021
G1 F1800 X102.692 Y148.037 E106.78865
G1 X102.269 Y148.587 E106.83909
G1 X102.05 Y148.807 E106.86166
G1 X101.506 Y149.226 E106.91159
G1 X101.234 Y149.382 E106.93438
G1 X100.595 Y149.647 E106.98468
G1 X100.334 Y149.722 E107.00442
G1 X99.603 Y149.818 E107.05802
G1 X99.3 Y149.818 E107.08005
G1 X98.61 Y149.728 E107.13064
G1 X98.306 Y149.647 E107.15352
G1 X97.668 Y149.382 E107.20374
G1 X97.397 Y149.227 E107.22644
G1 X96.852 Y148.807 E107.27647
G1 X96.631 Y148.586 E107.29919
G1 X96.212 Y148.04 E107.34923
G1 X96.055 Y147.766 E107.37219
G1 X95.792 Y147.131 E107.42216
G1 X95.71 Y146.826 E107.44512
G1 X95.621 Y146.139 E107.49548
G1 X95.621 Y145.837 E107.51744
G1 X95.71 Y145.15 E107.56781
G1 X95.792 Y144.843 E107.59091
G1 X96.055 Y144.209 E107.64081
G1 X96.212 Y143.936 E107.66371
G1 X96.631 Y143.39 E107.71375
G1 X96.852 Y143.168 E107.73652
G1 X97.397 Y142.75 E107.78646
G1 X97.668 Y142.594 E107.80919
G1 X98.306 Y142.329 E107.85942
G1 X98.567 Y142.254 E107.87916
G1 X99.299 Y142.158 E107.93284
G1 X99.603 Y142.158 E107.95494
G1 X100.292 Y142.248 E108.00546
G1 X100.595 Y142.329 E108.02826
G1 X101.234 Y142.594 E108.07855
G1 X101.506 Y142.75 E108.10135
G1 X102.05 Y143.169 E108.15127
G1 X102.269 Y143.389 E108.17384
G1 X102.692 Y143.939 E108.22429
G1 X102.82 Y144.158 E108.24273
G1 X103.107 Y144.839 E108.29646
G1 X103.19 Y145.143 E108.31937
G1 X103.281 Y145.835 E108.37011
G1 X103.289 Y146.037 E108.38481
G1 X103.281 Y146.14 E108.39232
G1 X103.23 Y146.527 E108.4207
G0 F1620 X103.191 Y146.827
G0 X103.107 Y147.137
G0 X102.82 Y147.818
G1 F2100 E103.4207
G1 F300 Z0.56
G0 F6000 X96.275 Y146.054 Z0.56
;TYPE:WALL-OUTER
G1 F300 Z0.24
G1 F2100 E108.4207
G1 F1800 X96.275 Y145.922 E108.4302
G1 X96.364 Y145.235 E108.48001
G1 X96.402 Y145.096 E108.49038
G1 X96.665 Y144.462 E108.53974
G1 X96.736 Y144.338 E108.55001
G1 X97.155 Y143.792 E108.59951
G1 X97.254 Y143.692 E108.60963
G1 X97.799 Y143.273 E108.65906
G1 X97.921 Y143.204 E108.66914
G1 X98.559 Y142.939 E108.71882
G1 X98.695 Y142.902 E108.72896
G1 X99.385 Y142.812 E108.779
G1 X99.517 Y142.812 E108.78849
G1 X100.206 Y142.902 E108.83846
G1 X100.342 Y142.939 E108.8486
G1 X100.981 Y143.204 E108.89835
G1 X101.103 Y143.273 E108.90843
G1 X101.647 Y143.692 E108.95781
G1 X101.746 Y143.791 E108.96787
G1 X102.169 Y144.341 E109.01777
G1 X102.212 Y144.414 E109.02386
G1 X102.499 Y145.095 E109.07701
