;FLAVOR:Marlin
;TIME:1614
;Filament used: 2.91799m
;Layer height: 0.32
;MINX:10.854
;MINY:117.746
;MINZ:0.24
;MAXX:98.791
;MAXY:165.592
;MAXZ:11.44
;Generated with Cura_SteamEngine 5.0.0
M140 S80
M105
M190 S80
M104 S250
M105
M109 S250
M82 ;absolute extrusion mode
; Ender 3 Max Custom Start G-code
G92 E0 ; Reset Extruder
G28 ; Home all axes
G1 Z2.0 F3000 ; Move Z Axis up little to prevent scratching of Heat Bed
G1 X0.1 Y20 Z0.3 F5000.0 ; Move to start position
G1 X0.1 Y200.0 Z0.3 F1500.0 E15 ; Draw the first line
G1 X0.4 Y200.0 Z0.3 F5000.0 ; Move to side a little
G1 X0.4 Y20 Z0.3 F1500.0 E30 ; Draw the second line
G92 E0 ; Reset Extruder
G1 Z2.0 F3000 ; Move Z Axis up little to prevent scratching of Heat Bed
G1 X5 Y20 Z0.3 F5000.0 ; Move over to prevent blob squish
G92 E0
G92 E0
G1 F2100 E-5
;LAYER_COUNT:35
;LAYER:0
M107
G1 F300 Z0.56
G0 F6000 X24.954 Y118.303 Z0.56
G1 F300 Z0.56
G0 F6000 X15.223 Y125.849
;TYPE:SKIRT
G1 F300 Z0.24
G1 F2100 E0
G1 F1800 X15.38 Y125.532 E0.03075
G1 X15.831 Y124.711 E0.11218
G1 X16.291 Y124.003 E0.18557
G1 X16.845 Y123.246 E0.26712
G1 X17.414 Y122.58 E0.34326
G1 X18.061 Y121.902 E0.42473
G1 X18.464 Y121.533 E0.47223
G1 X18.726 Y121.305 E0.50242
G1 X19.835 Y120.457 E0.62378
G1 X20.058 Y120.308 E0.64709
G1 X21.089 Y119.698 E0.75123
G1 X21.525 Y119.471 E0.79396
G1 X22.374 Y119.074 E0.87543
G1 X23.017 Y118.829 E0.93525
G1 X23.22 Y118.759 E0.95391
G1 X24.437 Y118.417 E1.0638
G1 X24.954 Y118.303 E1.10983
G1 X25.877 Y118.14 E1.1913
G1 X26.639 Y118.065 E1.25786
G1 X27.282 Y118.035 E1.31382
G1 X28.548 Y118.014 E1.42389
G1 X52.706 Y118.006 E3.52391
G1 X55.218 Y117.932 E3.74237
G1 X57.61 Y117.792 E3.95066
G1 X58.396 Y117.761 E4.01904
G1 X59.452 Y117.746 E4.11084
G1 X81.289 Y117.746 E6.0091
G1 X82.282 Y117.765 E6.09544
G1 X82.886 Y117.793 E6.148
G1 X83.82 Y117.876 E6.22951
G1 X84.617 Y118.012 E6.2998
G1 X84.982 Y118.088 E6.33221
G1 X86.337 Y118.462 E6.4544
G1 X86.675 Y118.579 E6.48549
G1 X87.547 Y118.923 E6.56698
G1 X88.019 Y119.146 E6.61236
G1 X88.351 Y119.313 E6.64466
G1 X89.169 Y119.77 E6.72612
G1 X89.871 Y120.232 E6.79917
G1 X90.624 Y120.79 E6.88064
G1 X91.275 Y121.352 E6.9554
G1 X91.949 Y122.003 E7.03686
G1 X92.512 Y122.633 E7.11031
G1 X93.096 Y123.366 E7.19177
G1 X93.51 Y123.97 E7.25543
G1 X94.107 Y124.98 E7.35742
G1 X94.333 Y125.414 E7.39995
G1 X94.73 Y126.263 E7.48143
G1 X95.008 Y127.006 E7.55039
G1 X95.264 Y127.801 E7.62299
G1 X95.603 Y128.978 E7.72947
G1 X96.364 Y131.483 E7.95705
G1 X97.167 Y133.878 E8.17663
G1 X97.994 Y136.165 E8.38804
G1 X98.386 Y137.513 E8.51007
G1 X98.496 Y138.007 E8.55407
G1 X98.661 Y138.93 E8.63557
G1 X98.743 Y139.795 E8.7111
G1 X98.78 Y140.646 E8.78515
G1 X98.791 Y141.52 E8.86113
G1 X98.789 Y150.977 E9.68322
G1 X98.771 Y151.787 E9.75365
G1 X98.739 Y152.453 E9.81161
G1 X98.654 Y153.387 E9.89313
G1 X98.53 Y154.125 E9.95819
G1 X98.462 Y154.458 E9.98773
G1 X98.235 Y155.367 E10.06918
G1 X97.964 Y156.19 E10.1445
G1 X97.622 Y157.063 E10.226
G1 X97.4 Y157.535 E10.27134
G1 X97.235 Y157.865 E10.30342
G1 X96.78 Y158.685 E10.38494
G1 X96.307 Y159.403 E10.45968
G1 X95.749 Y160.156 E10.54115
G1 X95.176 Y160.818 E10.61726
G1 X94.524 Y161.492 E10.69877
G1 X93.864 Y162.078 E10.7755
G1 X92.759 Y162.916 E10.89605
G1 X92.459 Y163.115 E10.92735
G1 X91.656 Y163.6 E11.0089
G1 X91.003 Y163.932 E11.07258
G1 X89.893 Y164.404 E11.17743
G1 X89.417 Y164.576 E11.22142
G1 X88.522 Y164.857 E11.30297
G1 X87.772 Y165.03 E11.36988
G1 X87.519 Y165.079 E11.39228
G1 X86.351 Y165.24 E11.49477
G1 X86.054 Y165.265 E11.52068
G1 X85.348 Y165.302 E11.58214
G1 X84.014 Y165.326 E11.69812
G1 X58.732 Y165.326 E13.89585
G1 X58.632 Y165.332 E13.90456
G1 X57.128 Y165.332 E14.0353
G1 X54.611 Y165.402 E14.25418
G1 X51.788 Y165.558 E14.49996
G1 X50.272 Y165.592 E14.63178
G1 X25.134 Y165.591 E16.81699
G1 X24.311 Y165.576 E16.88854
G1 X23.532 Y165.534 E16.95636
G1 X23.286 Y165.512 E16.97783
G1 X22.028 Y165.326 E17.08837
G1 X21.672 Y165.252 E17.11998
G1 X20.394 Y164.905 E17.2351
G1 X20.16 Y164.826 E17.25657
G1 X19.03 Y164.373 E17.3624
G1 X18.569 Y164.158 E17.40661
G1 X17.737 Y163.726 E17.48811
G1 X16.984 Y163.252 E17.56545
G1 X16.689 Y163.049 E17.59658
G1 X15.94 Y162.485 E17.67809
G1 X15.322 Y161.944 E17.74949
G1 X14.366 Y160.973 E17.86794
G1 X14.199 Y160.781 E17.89006
G1 X13.454 Y159.823 E17.99555
G1 X13.173 Y159.417 E18.03848
G1 X12.673 Y158.625 E18.11989
G1 X12.295 Y157.904 E18.19066
G1 X12.142 Y157.584 E18.22149
G1 X11.774 Y156.721 E18.30305
G1 X11.505 Y155.937 E18.3751
G1 X11.17 Y154.663 E18.48961
G1 X11.12 Y154.413 E18.51178
G1 X10.95 Y153.234 E18.61533
G1 X10.918 Y152.875 E18.64666
G1 X10.877 Y152.11 E18.71325
G1 X10.854 Y150.806 E18.82663
G1 X10.855 Y141.556 E19.63072
G1 X10.873 Y140.762 E19.69975
G1 X10.906 Y140.079 E19.7592
G1 X10.991 Y139.145 E19.84072
G1 X11.127 Y138.351 E19.91075
G1 X11.199 Y138.008 E19.94122
G1 X11.465 Y136.987 E20.03293
G1 X11.643 Y136.446 E20.08244
G1 X12.125 Y135.105 E20.20631
G1 X12.334 Y134.547 E20.25811
G1 X13.145 Y132.175 E20.47603
G1 X13.915 Y129.701 E20.70126
G1 X14.425 Y127.926 E20.8618
G1 X14.635 Y127.272 E20.92151
G1 X14.695 Y127.105 E20.93694
G0 F1620 X14.718 Y127.039
G0 X15.223 Y125.849
G1 F2100 E15.93694
G1 F300 Z0.56
G0 F6000 X14.533 Y129.939 Z0.56
G1 F300 Z0.24
G1 F2100 E20.93694
G1 F1800 X15.059 Y128.108 E21.10254
G1 X15.257 Y127.494 E21.15862
G1 X15.34 Y127.261 E21.18013
G1 X15.814 Y126.142 E21.28577
G1 X15.971 Y125.825 E21.31652
G1 X16.637 Y124.673 E21.43219
G1 X16.84 Y124.369 E21.46397
G1 X17.662 Y123.298 E21.58133
G1 X17.91 Y123.015 E21.61404
G1 X18.538 Y122.358 E21.69304
G1 X19.16 Y121.802 E21.76557
G1 X20.202 Y121.006 E21.87955
G1 X20.425 Y120.857 E21.90287
G1 X21.394 Y120.283 E22.00077
G1 X21.83 Y120.056 E22.0435
G1 X22.653 Y119.673 E22.12241
G1 X23.436 Y119.383 E22.19499
G1 X24.579 Y119.061 E22.29822
G1 X25.096 Y118.947 E22.34424
G1 X25.991 Y118.791 E22.42322
G1 X26.69 Y118.723 E22.48427
G1 X27.294 Y118.695 E22.53683
G1 X28.548 Y118.674 E22.64585
G1 X52.726 Y118.666 E24.74761
G1 X55.241 Y118.592 E24.96633
G1 X57.64 Y118.452 E25.17523
G1 X58.407 Y118.421 E25.24196
G1 X59.452 Y118.406 E25.33281
G1 X81.289 Y118.406 E27.23107
G1 X82.251 Y118.424 E27.31471
G1 X82.855 Y118.452 E27.36727
G1 X83.761 Y118.534 E27.44635
G1 X84.483 Y118.658 E27.51003
G1 X84.848 Y118.734 E27.54244
G1 X86.121 Y119.085 E27.65723
G1 X86.459 Y119.202 E27.68832
G1 X87.304 Y119.537 E27.76734
G1 X88.054 Y119.903 E27.83989
G1 X89.201 Y120.576 E27.95549
G1 X89.501 Y120.779 E27.98698
G1 X90.564 Y121.604 E28.10395
G1 X90.837 Y121.846 E28.13566
G1 X91.781 Y122.798 E28.2522
G1 X92.014 Y123.066 E28.28307
G1 X92.819 Y124.123 E28.39857
G1 X92.96 Y124.335 E28.4207
G1 X93.521 Y125.285 E28.51661
G1 X93.747 Y125.719 E28.55915
G1 X94.131 Y126.543 E28.63817
G1 X94.382 Y127.215 E28.70053
G1 X94.63 Y127.984 E28.77077
G1 X94.983 Y129.209 E28.88159
G1 X95.732 Y131.676 E29.10571
G1 X96.534 Y134.066 E29.32485
G1 X97.374 Y136.39 E29.53967
G1 X97.742 Y137.657 E29.65436
G1 X97.852 Y138.151 E29.69835
G1 X98.01 Y139.046 E29.77736
G1 X98.084 Y139.832 E29.84598
G1 X98.12 Y140.655 E29.91759
G1 X98.131 Y141.52 E29.99279
G1 X98.129 Y150.967 E30.81401
G1 X98.112 Y151.756 E30.88261
G1 X98.08 Y152.422 E30.94057
G1 X97.997 Y153.327 E31.01957
G1 X97.883 Y153.993 E31.07831
G1 X97.815 Y154.326 E31.10785
G1 X97.464 Y155.615 E31.22399
G1 X97.34 Y155.976 E31.25717
G1 X97.007 Y156.822 E31.3362
G1 X96.644 Y157.57 E31.40848
G1 X96.203 Y158.364 E31.48743
G1 X95.761 Y159.033 E31.55713
G1 X94.941 Y160.088 E31.67328
G1 X94.682 Y160.38 E31.70721
G1 X94.05 Y161.032 E31.78615
G1 X93.433 Y161.579 E31.85783
G1 X92.394 Y162.366 E31.97113
G1 X92.094 Y162.565 E32.00242
G1 X90.938 Y163.229 E32.11831
G1 X90.712 Y163.34 E32.1402
G1 X89.669 Y163.783 E32.2387
G1 X89.193 Y163.955 E32.2827
G1 X88.325 Y164.226 E32.36175
G1 X87.646 Y164.382 E32.42231
G1 X87.393 Y164.431 E32.44471
G1 X86.295 Y164.583 E32.54107
G1 X85.998 Y164.608 E32.56698
G1 X85.335 Y164.642 E32.62469
G1 X84.014 Y164.666 E32.73954
G1 X58.791 Y164.666 E34.93214
G1 X58.632 Y164.672 E34.94597
G1 X57.11 Y164.672 E35.07828
G1 X54.587 Y164.742 E35.29768
G1 X51.754 Y164.899 E35.54433
G1 X50.26 Y164.932 E35.67423
G1 X25.146 Y164.931 E37.85736
G1 X24.323 Y164.916 E37.92892
G1 X23.591 Y164.877 E37.99264
G1 X23.345 Y164.855 E38.01411
G1 X22.163 Y164.68 E38.11798
G1 X21.807 Y164.606 E38.14959
G1 X20.605 Y164.279 E38.25787
G1 X20.371 Y164.2 E38.27934
G1 X19.309 Y163.775 E38.37878
G1 X18.848 Y163.56 E38.42299
G1 X18.042 Y163.14 E38.502
G1 X17.358 Y162.708 E38.57233
G1 X17.063 Y162.505 E38.60346
G1 X16.023 Y161.686 E38.71853
G1 X15.762 Y161.452 E38.749
G1 X14.864 Y160.54 E38.86026
G1 X14.697 Y160.348 E38.88238
G1 X13.997 Y159.448 E38.98149
G1 X13.716 Y159.042 E39.02442
G1 X13.232 Y158.273 E39.1034
G1 X12.89 Y157.619 E39.16756
G1 X12.737 Y157.299 E39.19839
G1 X12.243 Y156.066 E39.31386
G1 X12.133 Y155.731 E39.34451
G1 X11.818 Y154.534 E39.4521
G1 X11.768 Y154.284 E39.47427
G1 X11.608 Y153.175 E39.57167
G1 X11.576 Y152.816 E39.603
G1 X11.537 Y152.097 E39.66559
G1 X11.514 Y150.806 E39.77784
G1 X11.515 Y141.566 E40.58106
G1 X11.532 Y140.793 E40.64827
G1 X11.565 Y140.11 E40.70771
G1 X11.649 Y139.205 E40.78672
G1 X11.773 Y138.487 E40.85006
G1 X11.845 Y138.144 E40.88053
G1 X12.097 Y137.177 E40.96739
G1 X12.264 Y136.668 E41.01396
G1 X12.743 Y135.336 E41.13701
G1 X12.954 Y134.772 E41.18935
G1 X13.785 Y132.343 E41.41252
G1 X14.128 Y131.24 E41.51293
G0 F1620 X14.533 Y129.939
G1 F2100 E36.51293
G1 F300 Z0.56
;MESH:aza-lid-align-tool-left.stl
G0 F6000 X31.868 Y137.334 Z0.56
;TYPE:WALL-INNER
G1 F300 Z0.24
G1 F2100 E41.51293
G1 F1800 X31.973 Y137.009 E41.53776
G1 X32.226 Y136.442 E41.5829
G1 X32.574 Y135.872 E41.63146
G1 X32.979 Y135.368 E41.67846
G1 X33.453 Y134.911 E41.72634
G1 X33.981 Y134.521 E41.77406
G1 X34.543 Y134.206 E41.8209
G1 X35.15 Y133.962 E41.86846
G1 X35.776 Y133.798 E41.91551
G1 X36.464 Y133.714 E41.9659
G1 X37.098 Y133.719 E42.012
G1 X37.729 Y133.803 E42.05828
G1 X38.341 Y133.965 E42.10431
G1 X38.96 Y134.215 E42.15284
G1 X39.533 Y134.536 E42.20059
G1 X40.047 Y134.922 E42.24733
G1 X40.519 Y135.379 E42.29509
G1 X40.933 Y135.899 E42.34342
G1 X41.269 Y136.458 E42.39084
G1 X41.532 Y137.053 E42.43813
G1 X41.639 Y137.394 E42.46412
G1 X41.714 Y137.674 E42.48519
G1 X41.817 Y138.315 E42.53239
G1 X41.838 Y138.978 E42.58062
G1 X41.772 Y139.636 E42.6287
G1 X41.628 Y140.263 E42.67547
G1 X41.395 Y140.892 E42.72424
G1 X41.094 Y141.462 E42.7711
G1 X40.72 Y141.994 E42.81838
G1 X40.279 Y142.476 E42.86588
G1 X39.802 Y142.881 E42.91138
G1 X39.242 Y143.247 E42.96001
G1 X38.654 Y143.53 E43.00746
G1 X38.019 Y143.74 E43.05608
G1 X37.356 Y143.866 E43.10515
G1 X36.717 Y143.902 E43.15168
G1 X36.074 Y143.856 E43.19855
G1 X35.434 Y143.728 E43.246
G1 X34.826 Y143.526 E43.29258
G1 X34.23 Y143.238 E43.34071
G1 X33.684 Y142.88 E43.38817
G1 X33.357 Y142.606 E43.41919
G1 X33.04 Y142.305 E43.45097
G1 X32.748 Y141.968 E43.48339
G1 X32.379 Y141.436 E43.53046
G1 X32.077 Y140.851 E43.57833
G1 X31.926 Y140.447 E43.60969
G1 X31.836 Y140.184 E43.6299
G1 X31.754 Y139.817 E43.65724
G1 X31.695 Y139.526 E43.67882
G1 X31.668 Y139.244 E43.69942
G1 X31.646 Y138.902 E43.72434
G1 X31.647 Y138.742 E43.73597
G1 X31.651 Y138.677 E43.7407
G0 F1620 X31.672 Y138.3
G0 X31.723 Y137.951
G0 X31.788 Y137.609
G0 X31.868 Y137.334
G0 F6000 X32.594 Y137.234
G1 F1800 X32.824 Y136.721 E43.78158
G1 X33.13 Y136.229 E43.8237
G1 X33.486 Y135.791 E43.86474
G1 X33.901 Y135.396 E43.90639
G1 X34.362 Y135.06 E43.94787
G1 X34.855 Y134.788 E43.9888
G1 X35.383 Y134.58 E44.03006
G1 X35.931 Y134.44 E44.07118
G1 X36.53 Y134.37 E44.11503
G1 X37.077 Y134.379 E44.1548
G1 X37.63 Y134.456 E44.1954
G1 X38.158 Y134.599 E44.23517
G1 X38.701 Y134.823 E44.27787
G1 X39.198 Y135.105 E44.31942
G1 X39.639 Y135.441 E44.35973
G1 X40.052 Y135.845 E44.40173
G1 X40.407 Y136.298 E44.44357
G1 X40.696 Y136.786 E44.48481
G1 X40.923 Y137.307 E44.52613
G1 X41.001 Y137.565 E44.54572
G1 X41.076 Y137.844 E44.56673
G1 X41.164 Y138.409 E44.6083
G1 X41.178 Y138.984 E44.65012
G1 X41.117 Y139.555 E44.69187
G1 X40.988 Y140.103 E44.7328
G1 X40.781 Y140.649 E44.77525
G1 X40.517 Y141.141 E44.81585
G1 X40.188 Y141.603 E44.85708
G1 X39.801 Y142.021 E44.8985
G1 X39.385 Y142.37 E44.93798
G1 X38.892 Y142.688 E44.98063
G1 X38.382 Y142.928 E45.02161
G1 X37.823 Y143.11 E45.06435
G1 X37.247 Y143.215 E45.10692
G1 X36.695 Y143.242 E45.1471
G1 X36.134 Y143.199 E45.18801
G1 X35.577 Y143.083 E45.22937
G1 X35.045 Y142.903 E45.2702
G1 X34.531 Y142.65 E45.31185
G1 X34.057 Y142.335 E45.35323
G1 X33.796 Y142.113 E45.37814
G1 X33.539 Y141.874 E45.40366
G1 X33.248 Y141.537 E45.43603
G1 X32.929 Y141.071 E45.47709
G1 X32.669 Y140.56 E45.51877
G1 X32.551 Y140.234 E45.54398
G1 X32.468 Y139.994 E45.56244
G1 X32.401 Y139.683 E45.58557
G1 X32.346 Y139.417 E45.60532
G1 X32.307 Y138.903 E45.6428
G1 X32.306 Y138.779 E45.65181
G1 X32.319 Y138.564 E45.66747
G0 F1620 X32.331 Y138.338
G0 X32.371 Y138.073
G0 X32.434 Y137.749
G0 X32.594 Y137.234
G1 F2100 E40.66747
G1 F300 Z0.56
G0 F6000 X32.997 Y139.307 Z0.56
;TYPE:WALL-OUTER
G1 F300 Z0.24
G1 F2100 E45.66747
G1 F1800 X32.965 Y138.859 E45.70119
G1 X32.965 Y138.817 E45.70435
G1 X32.991 Y138.363 E45.73849
G1 X33.077 Y137.896 E45.77413
G1 X33.222 Y137.436 E45.81034
G1 X33.422 Y137 E45.84636
G1 X33.685 Y136.586 E45.88318
G1 X33.992 Y136.214 E45.91939
G1 X34.349 Y135.881 E45.95604
G1 X34.742 Y135.6 E45.99231
G1 X35.166 Y135.37 E46.02852
G1 X35.616 Y135.198 E46.06469
G1 X36.086 Y135.082 E46.10104
G1 X36.596 Y135.027 E46.13955
G1 X37.057 Y135.039 E46.17417
G1 X37.531 Y135.108 E46.21013
G1 X37.975 Y135.233 E46.24476
G1 X38.443 Y135.43 E46.28288
G1 X38.863 Y135.674 E46.31934
G1 X39.231 Y135.96 E46.35433
G1 X39.584 Y136.311 E46.39171
G1 X39.881 Y136.697 E46.42827
G1 X40.124 Y137.114 E46.4645
G1 X40.314 Y137.562 E46.50104
G1 X40.438 Y138.015 E46.5363
G1 X40.511 Y138.503 E46.57334
G1 X40.519 Y138.994 E46.61021
G1 X40.462 Y139.475 E46.64657
G1 X40.348 Y139.943 E46.68273
G1 X40.167 Y140.406 E46.72006
G1 X39.94 Y140.821 E46.75557
G1 X39.656 Y141.213 E46.79191
G1 X39.323 Y141.565 E46.82829
G1 X38.968 Y141.858 E46.86284
G1 X38.542 Y142.128 E46.90071
G1 X38.11 Y142.326 E46.93638
G1 X37.627 Y142.48 E46.97444
G1 X37.139 Y142.564 E47.01162
G1 X36.673 Y142.582 E47.04663
G1 X36.194 Y142.541 E47.08272
G1 X35.72 Y142.439 E47.11912
G1 X35.265 Y142.281 E47.15528
G1 X34.831 Y142.062 E47.19178
G1 X34.43 Y141.791 E47.22811
G1 X34.235 Y141.62 E47.24758
G1 X34.039 Y141.442 E47.26746
G1 X33.748 Y141.105 E47.30089
G1 X33.479 Y140.705 E47.33708
G1 X33.424 Y140.595 E47.34631
G0 F1620 X33.262 Y140.27
G0 X33.175 Y140.021
G0 X33.097 Y139.79
G0 X32.997 Y139.307
G0 F6000 X32.975 Y138.988
G1 F2100 E42.34631
G1 F300 Z0.56
G0 F6000 X51.458 Y130.747 Z0.56
;TYPE:WALL-INNER
G1 F300 Z0.24
G1 F2100 E47.34631
G1 F1800 X51.171 Y130.669 E47.36793
G1 X50.915 Y130.654 E47.38658
G1 X27.712 Y130.654 E49.07353
G1 X27.427 Y130.683 E49.09436
G1 X27.14 Y130.779 E49.11636
G1 X26.891 Y130.945 E49.13812
G1 X26.699 Y131.162 E49.15918
G1 X26.564 Y131.435 E49.18132
G1 X26.505 Y131.726 E49.20291
G1 X26.494 Y131.913 E49.21653
G1 X26.495 Y135.817 E49.50037
G1 X26.467 Y136.307 E49.53605
G1 X26.421 Y136.602 E49.55776
G1 X26.36 Y136.926 E49.58173
G1 X26.257 Y137.282 E49.60867
G1 X26.179 Y137.519 E49.62681
G1 X26.037 Y137.845 E49.65266
G1 X25.888 Y138.149 E49.67728
G1 X25.707 Y138.441 E49.70226
G1 X25.535 Y138.7 E49.72486
G1 X25.312 Y138.966 E49.7501
G1 X25.127 Y139.178 E49.77055
G1 X24.711 Y139.559 E49.81157
G1 X24.533 Y139.697 E49.82794
G1 X23.957 Y140.086 E49.87847
G1 X23.743 Y140.297 E49.90032
G1 X23.588 Y140.56 E49.92252
G1 X23.509 Y140.851 E49.94444
G1 X23.495 Y141.109 E49.96323
G1 X23.494 Y144.12 E50.18214
G1 X23.494 Y151.735 E50.73578
G1 X23.523 Y152.012 E50.75603
G1 X23.616 Y152.3 E50.77803
G1 X23.777 Y152.543 E50.79922
G1 X23.995 Y152.742 E50.82068
G1 X24.259 Y152.878 E50.84227
G1 X24.498 Y152.938 E50.86019
G1 X24.755 Y152.953 E50.87891
G1 X50.909 Y152.953 E52.78041
G1 X51.165 Y152.939 E52.79905
G1 X51.403 Y152.878 E52.81691
G1 X51.641 Y152.761 E52.83619
G1 X51.877 Y152.557 E52.85887
G1 X52.042 Y152.311 E52.88041
G1 X52.137 Y152.034 E52.9017
