;FLAVOR:Marlin
;TIME:890
;Filament used: 1.32414m
;Layer height: 0.32
;MINX:8.677
;MINY:96.217
;MINZ:0.24
;MAXX:47.817
;MAXY:135.357
;MAXZ:20.4
;Generated with Cura_SteamEngine 5.0.0
M140 S80
M105
M190 S80
M104 S245
M105
M109 S245
M82 ;absolute extrusion mode
; Ender 3 Max Custom Start G-code
G92 E0 ; Reset Extruder
G28 ; Home all axes
G1 Z2.0 F3000 ; Move Z Axis up little to prevent scratching of Heat Bed
G1 X0.1 Y20 Z0.3 F5000.0 ; Move to start position
G1 X0.1 Y200.0 Z0.3 F1500.0 E15 ; Draw the first line
G1 X0.4 Y200.0 Z0.3 F5000.0 ; Move to side a little
G1 X0.4 Y20 Z0.3 F1500.0 E30 ; Draw the second line
G92 E0 ; Reset Extruder
G1 Z2.0 F3000 ; Move Z Axis up little to prevent scratching of Heat Bed
G1 X5 Y20 Z0.3 F5000.0 ; Move over to prevent blob squish
G92 E0
G92 E0
G1 F2100 E-5
;LAYER_COUNT:63
;LAYER:0
M107
G1 F300 Z0.56
G0 F6000 X18.622 Y96.354 Z0.56
G1 F300 Z0.56
G0 F6000 X8.677 Y108.411
;TYPE:SKIRT
G1 F300 Z0.24
G1 F2100 E0
G1 F1800 X8.687 Y107.711 E0.06086
G1 X8.741 Y106.747 E0.14479
G1 X8.874 Y105.791 E0.22869
G1 X9.086 Y104.849 E0.31263
G1 X9.376 Y103.928 E0.39656
G1 X9.74 Y103.035 E0.48039
G1 X10.177 Y102.174 E0.56433
G1 X10.684 Y101.353 E0.64821
G1 X11.257 Y100.576 E0.73213
G1 X11.893 Y99.85 E0.81603
G1 X12.586 Y99.179 E0.89988
G1 X13.333 Y98.567 E0.98383
G1 X14.128 Y98.019 E1.06777
G1 X14.965 Y97.539 E1.15164
G1 X15.839 Y97.13 E1.23552
G1 X16.744 Y96.795 E1.31941
G1 X17.674 Y96.535 E1.40335
G1 X18.622 Y96.354 E1.48725
G1 X19.582 Y96.251 E1.57118
G1 X20.114 Y96.229 E1.61747
G1 X20.86 Y96.217 E1.68232
G1 X35.458 Y96.217 E2.95131
G1 X36.324 Y96.228 E3.0266
G1 X37.287 Y96.282 E3.11044
G1 X38.243 Y96.415 E3.19434
G1 X39.185 Y96.627 E3.27828
G1 X40.106 Y96.917 E3.36222
G1 X40.999 Y97.281 E3.44604
G1 X41.86 Y97.718 E3.52998
G1 X42.681 Y98.225 E3.61386
G1 X43.458 Y98.798 E3.69778
G1 X44.184 Y99.434 E3.78168
G1 X44.856 Y100.127 E3.8656
G1 X45.467 Y100.874 E3.94949
G1 X46.015 Y101.669 E4.03342
G1 X46.495 Y102.506 E4.1173
G1 X46.904 Y103.38 E4.20118
G1 X47.24 Y104.285 E4.2851
G1 X47.499 Y105.215 E4.36902
G1 X47.68 Y106.163 E4.45292
G1 X47.783 Y107.123 E4.53685
G1 X47.805 Y107.649 E4.58261
G1 X47.817 Y108.384 E4.64651
G1 X47.817 Y112.517 E5.00579
G1 X47.807 Y113.176 E5.06308
G1 X47.752 Y114.139 E5.14693
G1 X47.618 Y115.095 E5.23085
G1 X47.405 Y116.037 E5.3148
G1 X47.115 Y116.957 E5.39865
G1 X46.75 Y117.851 E5.4826
G1 X46.312 Y118.711 E5.56649
G1 X45.804 Y119.532 E5.65042
G1 X45.23 Y120.308 E5.73432
G1 X44.594 Y121.034 E5.81822
G1 X43.871 Y121.73 E5.90546
G1 X42.006 Y123.377 E6.12175
G1 X40.161 Y125.099 E6.34114
G1 X38.401 Y126.839 E6.55628
G1 X36.658 Y128.659 E6.77534
G1 X34.987 Y130.507 E6.99192
G1 X34.206 Y131.394 E7.09466
G1 X33.539 Y132.091 E7.17852
G1 X32.816 Y132.731 E7.26246
G1 X32.043 Y133.309 E7.34636
G1 X31.225 Y133.821 E7.43025
G1 X30.367 Y134.263 E7.51415
G1 X29.475 Y134.633 E7.59809
G1 X28.556 Y134.928 E7.682
G1 X27.616 Y135.146 E7.76588
G1 X26.661 Y135.285 E7.84977
G1 X25.669 Y135.345 E7.93616
G1 X24.903 Y135.357 E8.00276
G1 X20.87 Y135.356 E8.35334
G1 X20.17 Y135.346 E8.4142
G1 X19.206 Y135.292 E8.49813
G1 X18.25 Y135.159 E8.58203
G1 X17.308 Y134.947 E8.66596
G1 X16.387 Y134.657 E8.7499
G1 X15.494 Y134.293 E8.83373
G1 X14.633 Y133.856 E8.91766
G1 X13.812 Y133.349 E9.00154
G1 X13.035 Y132.776 E9.08547
G1 X12.309 Y132.14 E9.16937
G1 X11.638 Y131.447 E9.25322
G1 X11.026 Y130.7 E9.33717
G1 X10.478 Y129.905 E9.4211
G1 X9.998 Y129.068 E9.50498
G1 X9.589 Y128.194 E9.58886
G1 X9.254 Y127.289 E9.67275
G1 X8.994 Y126.359 E9.75669
G1 X8.813 Y125.411 E9.84059
G1 X8.71 Y124.451 E9.92452
G1 X8.687 Y123.873 E9.97481
G1 X8.677 Y123.102 E10.04183
G1 X8.677 Y109.774 E11.20042
G0 F1620 X8.677 Y108.411
G0 F6000 X9.337 Y108.42
G1 F1800 X9.347 Y107.72 E11.26127
G1 X9.4 Y106.784 E11.34277
G1 X9.533 Y105.856 E11.42426
G1 X9.745 Y104.943 E11.50574
G1 X10.034 Y104.051 E11.58725
G1 X10.397 Y103.187 E11.66872
G1 X10.833 Y102.357 E11.75022
G1 X11.338 Y101.567 E11.83172
G1 X11.908 Y100.823 E11.9132
G1 X12.54 Y100.131 E11.99466
G1 X13.229 Y99.494 E12.07623
G1 X13.969 Y98.919 E12.1577
G1 X14.756 Y98.409 E12.23922
G1 X15.583 Y97.968 E12.32069
G1 X16.444 Y97.599 E12.40212
G1 X17.334 Y97.305 E12.4836
G1 X18.246 Y97.087 E12.56511
G1 X19.173 Y96.949 E12.64658
G1 X20.126 Y96.889 E12.72959
G1 X20.86 Y96.877 E12.7934
G1 X35.458 Y96.877 E14.06239
G1 X36.314 Y96.888 E14.1368
G1 X37.25 Y96.941 E14.2183
G1 X38.178 Y97.074 E14.29979
G1 X39.091 Y97.286 E14.38127
G1 X39.983 Y97.575 E14.46278
G1 X40.847 Y97.938 E14.54425
G1 X41.677 Y98.374 E14.62575
G1 X42.467 Y98.879 E14.70725
G1 X43.211 Y99.45 E14.78878
G1 X43.903 Y100.081 E14.87019
G1 X44.54 Y100.77 E14.95176
G1 X45.115 Y101.51 E15.03322
G1 X45.625 Y102.297 E15.11474
G1 X46.066 Y103.124 E15.19621
G1 X46.435 Y103.986 E15.27772
G1 X46.729 Y104.876 E15.3592
G1 X46.947 Y105.788 E15.44072
G1 X47.085 Y106.715 E15.52219
G1 X47.145 Y107.662 E15.60467
G1 X47.157 Y108.384 E15.66744
G1 X47.157 Y112.507 E16.02585
G1 X47.147 Y113.166 E16.08314
G1 X47.093 Y114.102 E16.16464
G1 X46.959 Y115.029 E16.24606
G1 X46.746 Y115.943 E16.32765
G1 X46.457 Y116.834 E16.40907
G1 X46.093 Y117.698 E16.49057
G1 X45.656 Y118.528 E16.57211
G1 X45.15 Y119.317 E16.65359
G1 X44.579 Y120.06 E16.73505
G1 X43.947 Y120.752 E16.81652
G1 X43.434 Y121.235 E16.87777
G1 X41.568 Y122.883 E17.09418
G1 X39.713 Y124.615 E17.31479
G1 X37.909 Y126.397 E17.53522
G1 X36.193 Y128.19 E17.75096
G1 X34.467 Y130.098 E17.97462
G1 X33.71 Y130.958 E18.07421
G1 X33.061 Y131.634 E18.15568
G1 X32.357 Y132.253 E18.23717
G1 X31.603 Y132.81 E18.31865
G1 X30.804 Y133.3 E18.40013
G1 X29.966 Y133.721 E18.48165
G1 X29.096 Y134.068 E18.56308
G1 X28.199 Y134.34 E18.64456
G1 X27.282 Y134.535 E18.72605
G1 X26.351 Y134.651 E18.80761
G1 X25.657 Y134.685 E18.86801
G1 X24.903 Y134.697 E18.93356
G1 X20.879 Y134.696 E19.28336
G1 X20.179 Y134.686 E19.34422
G1 X19.243 Y134.633 E19.42571
G1 X18.315 Y134.5 E19.50721
G1 X17.402 Y134.288 E19.58869
G1 X16.51 Y133.999 E19.6702
G1 X15.646 Y133.636 E19.75166
G1 X14.816 Y133.2 E19.83316
G1 X14.026 Y132.695 E19.91467
G1 X13.282 Y132.125 E19.99614
G1 X12.59 Y131.493 E20.07761
G1 X11.953 Y130.804 E20.15918
G1 X11.378 Y130.064 E20.24064
G1 X10.868 Y129.277 E20.32216
G1 X10.427 Y128.45 E20.40363
G1 X10.058 Y127.589 E20.48506
G1 X9.764 Y126.699 E20.56654
G1 X9.546 Y125.787 E20.64806
G1 X9.408 Y124.86 E20.72953
G1 X9.347 Y123.863 E20.81636
G1 X9.337 Y123.102 E20.88251
G1 X9.337 Y109.783 E22.04032
G0 F1620 X9.337 Y108.42
G0 F6000 X9.997 Y108.429
G1 F1800 X10.007 Y107.729 E22.10117
G1 X10.06 Y106.822 E22.18015
G1 X10.192 Y105.923 E22.25914
G1 X10.403 Y105.039 E22.33814
G1 X10.691 Y104.177 E22.41715
G1 X11.054 Y103.344 E22.49614
G1 X11.488 Y102.545 E22.57518
G1 X11.991 Y101.788 E22.65418
G1 X12.559 Y101.078 E22.73322
G1 X13.186 Y100.421 E22.81217
G1 X13.869 Y99.821 E22.8912
G1 X14.602 Y99.284 E22.97019
G1 X15.38 Y98.814 E23.0492
G1 X16.196 Y98.413 E23.12824
G1 X17.044 Y98.086 E23.20724
G1 X17.917 Y97.834 E23.28623
G1 X18.809 Y97.66 E23.36523
G1 X20.139 Y97.549 E23.48125
G1 X20.86 Y97.537 E23.54393
G1 X35.458 Y97.537 E24.81292
G1 X36.305 Y97.548 E24.88655
G1 X37.212 Y97.601 E24.96553
G1 X38.111 Y97.734 E25.04453
G1 X38.995 Y97.945 E25.12353
G1 X39.857 Y98.232 E25.20251
G1 X40.691 Y98.595 E25.28158
G1 X41.489 Y99.029 E25.36054
G1 X42.246 Y99.532 E25.43955
G1 X42.956 Y100.1 E25.51859
G1 X43.613 Y100.728 E25.5976
G1 X44.213 Y101.411 E25.67663
G1 X44.75 Y102.144 E25.75561
G1 X45.221 Y102.921 E25.8346
G1 X45.621 Y103.737 E25.9136
G1 X45.948 Y104.585 E25.9926
G1 X46.2 Y105.458 E26.07159
G1 X46.374 Y106.35 E26.15059
G1 X46.485 Y107.674 E26.26609
G1 X46.497 Y108.384 E26.32782
G1 X46.497 Y112.497 E26.68535
G1 X46.487 Y113.156 E26.74265
G1 X46.433 Y114.063 E26.82163
G1 X46.3 Y114.962 E26.90063
G1 X46.088 Y115.846 E26.97965
G1 X45.799 Y116.708 E27.05869
G1 X45.436 Y117.541 E27.13767
G1 X45.001 Y118.339 E27.21668
G1 X44.497 Y119.095 E27.29566
G1 X43.929 Y119.805 E27.3747
G1 X42.997 Y120.741 E27.48953
G1 X41.108 Y122.409 E27.70859
G1 X39.248 Y124.146 E27.92982
G1 X37.471 Y125.902 E28.14699
G1 X35.676 Y127.776 E28.37257
G1 X33.987 Y129.644 E28.59148
G1 X33.215 Y130.521 E28.69305
G1 X32.585 Y131.177 E28.77211
G1 X31.9 Y131.774 E28.8511
G1 X31.165 Y132.309 E28.93013
G1 X30.386 Y132.777 E29.00912
G1 X29.569 Y133.175 E29.08812
G1 X28.72 Y133.499 E29.16712
G1 X27.846 Y133.748 E29.24612
G1 X26.953 Y133.919 E29.32515
G1 X25.645 Y134.025 E29.43923
G1 X24.903 Y134.037 E29.50374
G1 X20.888 Y134.036 E29.85276
G1 X20.188 Y134.026 E29.91361
G1 X19.281 Y133.973 E29.99259
G1 X18.382 Y133.841 E30.07158
G1 X17.498 Y133.63 E30.15058
G1 X16.636 Y133.342 E30.22959
G1 X15.803 Y132.979 E30.30858
G1 X15.004 Y132.545 E30.38762
G1 X14.247 Y132.042 E30.46662
G1 X13.537 Y131.474 E30.54566
G1 X12.88 Y130.847 E30.62461
G1 X12.28 Y130.164 E30.70364
G1 X11.743 Y129.431 E30.78263
G1 X11.273 Y128.653 E30.86164
G1 X10.872 Y127.837 E30.94068
G1 X10.545 Y126.989 E31.01968
G1 X10.293 Y126.116 E31.09867
G1 X10.119 Y125.224 E31.17767
G1 X10.025 Y124.32 E31.25668
G1 X10.007 Y123.853 E31.29731
G1 X9.997 Y123.102 E31.36259
G1 X9.997 Y109.792 E32.51962
G0 F1620 X9.997 Y108.429
G1 F2100 E27.51962
G1 F300 Z0.56
;MESH:aza-panel-2-corner-cover.stl
G0 F6000 X21.976 Y109.517 Z0.56
;TYPE:WALL-INNER
G1 F300 Z0.24
G1 F2100 E32.51962
G1 F1800 X21.977 Y122.057 E33.43132
G1 X23.817 Y122.057 E33.5651
G1 X23.818 Y113.207 E34.20853
G1 X23.864 Y112.817 E34.23708
G1 X23.997 Y112.458 E34.26491
G1 X24.079 Y112.296 E34.27812
G1 X24.371 Y111.891 E34.31442
G1 X24.67 Y111.649 E34.34238
G1 X25.044 Y111.474 E34.3724
G1 X25.383 Y111.382 E34.39794
G1 X25.668 Y111.358 E34.41874
G1 X34.518 Y111.357 E35.06217
G1 X34.518 Y110.437 E35.12905
G1 X34.517 Y109.517 E35.19594
G1 X25.668 Y109.518 E35.8393
G1 X25.222 Y109.516 E35.87172
G1 X24.737 Y109.517 E35.90699
G1 X23.339 Y109.517 E36.00863
G0 F1620 X21.976 Y109.517
G0 F6000 X21.316 Y108.857
G1 F1800 X21.317 Y122.717 E37.0163
G1 X24.477 Y122.717 E37.24605
G1 X24.478 Y113.207 E37.93746
G1 X24.585 Y112.757 E37.97109
G1 X24.842 Y112.353 E38.0059
G1 X25.246 Y112.103 E38.04045
G1 X25.497 Y112.032 E38.05941
G1 X25.668 Y112.018 E38.07188
G1 X35.178 Y112.017 E38.7633
G1 X35.178 Y110.437 E38.87817
G1 X35.177 Y108.857 E38.99304
G1 X25.668 Y108.858 E39.68439
G1 X25.222 Y108.856 E39.71681
G1 X22.679 Y108.857 E39.9017
G0 F1620 X21.316 Y108.857
G0 F6000 X20.656 Y108.197
;TYPE:WALL-OUTER
G1 F1800 X20.657 Y123.377 E40.99335
G1 X25.137 Y123.377 E41.31552
G1 X25.138 Y113.207 E42.04689
G1 X25.255 Y112.896 E42.07078
G1 X25.448 Y112.731 E42.08904
G1 X25.668 Y112.678 E42.10531
G1 X35.838 Y112.677 E42.83668
G1 X35.838 Y110.437 E42.99776
G1 X35.837 Y108.197 E43.15885
G1 X22.019 Y108.197 E44.15255
G0 F1620 X20.656 Y108.197
G0 F6000 X20.656 Y108.517
G1 F2100 E39.15255
G1 F300 Z0.56
G0 F6000 X22.556 Y110.097 Z0.56
;TYPE:SKIN
G1 F300 Z0.24
G1 F2100 E44.15255
G1 F1800 X22.556 Y111.88 E44.28078
G1 F1783.8 X22.562 Y112.185 E44.30291
G1 F1749.6 X22.569 Y112.49 E44.32549
G1 F1741.9 X22.566 Y112.81 E44.34927
G1 F1757.4 X22.562 Y113.131 E44.37291
G1 F1767.9 X22.562 Y115.133 E44.5195
G1 F1770.5 X22.562 Y117.135 E44.66587
G1 X22.562 Y119.137 E44.81224
G1 F1773.1 X22.562 Y121.139 E44.9584
G1 X22.562 Y121.472 E44.98271
G1 X23.232 Y121.472 E45.03162
G1 X23.232 Y119.396 E45.18317
G1 F1770.5 X23.232 Y117.32 E45.33495
G1 X23.232 Y115.244 E45.48673
G1 F1767.9 X23.233 Y113.168 E45.63874
G1 F1731.8 X23.272 Y112.72 E45.67236
G1 F1716.8 X23.303 Y112.632 E45.67939
G1 F1749.6 X23.422 Y112.352 E45.7019
G1 F1783.8 X23.542 Y112.072 E45.72401
G1 F1800 X23.58 Y112.003 E45.72967
G1 X23.925 Y111.523 E45.77218
G1 X24.335 Y111.178 E45.81071
G1 F1794.6 X24.825 Y110.935 E45.85017
G1 F1749.6 X25.251 Y110.8 E45.88323
G1 F1739.4 X25.647 Y110.773 E45.91277
G1 F1773.1 X29.79 Y110.773 E46.21522
G1 X33.933 Y110.772 E46.51767
G1 X33.933 Y110.438 E46.54206
G1 X33.932 Y110.103 E46.56651
G1 X29.775 Y110.103 E46.86999
G1 X25.618 Y110.103 E47.17346
G1 F1744.5 X25.222 Y110.112 E47.20285
G1 X24.777 Y110.103 E47.23588
G1 F1783.8 X24.167 Y110.098 E47.28015
G1 F1800 X22.556 Y110.097 E47.396
G0 F6000 X23.25 Y111.921
G1 F1800 X22.885 Y111.556 E47.43312
G0 F6000 X23.63 Y111.367
G1 F1800 X22.885 Y110.623 E47.50884
G0 F6000 X23.623 Y110.428
G1 F1800 X24.13 Y110.934 E47.56035
G0 F6000 X24.559 Y110.43
G1 F1800 X24.738 Y110.609 E47.57855
G1 F2100 E42.57855
G1 F300 Z0.56
;MESH:NONMESH
G0 F6000 X21.946 Y109.487 Z0.56
;TIME_ELAPSED:31.399893
;LAYER:1
M140 S75
M106 S21.2
;TYPE:WALL-INNER
;MESH:aza-panel-2-corner-cover.stl
G1 F300 Z0.56
G1 F2100 E47.57855
G1 F1877.8 X21.947 Y122.087 E48.50388
G1 X23.847 Y122.087 E48.64341
G1 X23.848 Y113.488 E49.27491
G1 X23.926 Y112.919 E49.31708
G1 X24.144 Y112.411 E49.35768
G1 X24.462 Y112.003 E49.39567
G1 X24.871 Y111.684 E49.43376
G1 X25.379 Y111.465 E49.47439
G1 X25.948 Y111.388 E49.51656
G1 X34.548 Y111.387 E50.14813
G1 X34.548 Y109.487 E50.28766
G1 X25.948 Y109.488 E50.91923
G1 X25.418 Y109.485 E50.95815
G1 X23.071 Y109.487 E51.13051
G0 F1690 X21.946 Y109.487
G0 F6960 X21.346 Y108.887
G1 F1877.8 X21.347 Y122.687 E52.14396
G1 X24.447 Y122.687 E52.37162
G1 X24.448 Y113.488 E53.04718
G1 X24.503 Y113.081 E53.07734
G1 X24.659 Y112.718 E53.10636
G1 X24.887 Y112.427 E53.1335
G1 X25.178 Y112.199 E53.16065
G1 X25.542 Y112.043 E53.18974
G1 X25.948 Y111.988 E53.21983
G1 X35.148 Y111.987 E53.89546
G1 X35.148 Y108.887 E54.12312
G1 X25.948 Y108.888 E54.79875
G1 X24.264 Y108.886 E54.92242
G1 X22.471 Y108.887 E55.0541
G0 F1690 X21.346 Y108.887
G0 F6960 X20.746 Y108.287
G1 F1877.8 X20.747 Y123.287 E56.15567
G1 X25.047 Y123.287 E56.47146
G1 X25.048 Y113.488 E57.19108
G1 X25.081 Y113.244 E57.20916
G1 X25.311 Y112.851 E57.2426
G1 X25.704 Y112.621 E57.27604
G1 X25.948 Y112.588 E57.29412
G1 X35.748 Y112.587 E58.01382
G1 X35.748 Y108.287 E58.32961
G1 X21.871 Y108.287 E59.34871
G0 F1690 X20.746 Y108.287
G1 F2100 E54.34871
G1 F300 Z0.88
G0 F6960 X25.648 Y113.488 Z0.88
;TYPE:WALL-OUTER
G1 F300 Z0.56
G1 F2100 E59.34871
G1 F1627.4 X25.735 Y113.275 E59.36542
G1 X25.948 Y113.188 E59.38214
G1 X36.125 Y113.187 E60.1214
G1 X36.348 Y112.964 E60.1443
G1 X36.348 Y108.067 E60.50002
G1 X36.347 Y107.91 E60.51143
G1 X36.125 Y107.687 E60.53428
G1 X20.369 Y107.687 E61.6788
G1 X20.146 Y107.91 E61.70171
G1 X20.147 Y123.664 E62.84608
G1 X20.37 Y123.887 E62.86899
G1 X25.424 Y123.887 E63.23612
G1 X25.647 Y123.664 E63.25902
G1 X25.648 Y114.613 E63.91649
G0 F1464.7 X25.648 Y113.488
G0 F6960 X25.735 Y113.275
G0 X25.818 Y113.241
G1 F2100 E58.91649
G1 F300 Z0.88
G0 F6960 X22.467 Y110.008 Z0.88
;TYPE:SKIN
G1 F300 Z0.56
G1 F2100 E63.91649
G1 F1502.2 X22.466 Y111.929 E64.05603
G1 F1435.3 X22.495 Y112.234 E64.07932
G1 F1315.8 X22.524 Y112.539 E64.10473
G1 F1208.2 X22.556 Y112.751 E64.1241
G1 F1176.7 X22.545 Y113.073 E64.15398
G1 F1211.5 X22.533 Y113.395 E64.183
G1 F1231.3 X22.531 Y113.495 E64.19186
G1 F1234.7 X22.531 Y117.499 E64.54573
G1 X22.532 Y121.503 E64.8996
G1 X23.262 Y121.502 E64.96412
G1 X23.262 Y119.488 E65.14211
G1 F1233 X23.262 Y117.474 E65.32035
G1 X23.263 Y115.46 E65.49859
G1 F1231.3 X23.263 Y113.446 E65.67707
G1 F1211.5 X23.297 Y113.125 E65.70615
G1 F1176.7 X23.33 Y112.804 E65.73607
G1 F1208.2 X23.387 Y112.716 E65.74554
G1 F1315.8 X23.534 Y112.447 E65.77097
G1 F1435.3 X23.681 Y112.178 E65.79427
G1 F1502.2 X23.719 Y112.112 E65.7998
G1 X24.068 Y111.662 E65.84117
G1 X24.121 Y111.61 E65.84656
G1 X24.572 Y111.259 E65.88808
G1 X24.638 Y111.221 E65.89361
G1 F1468 X24.914 Y111.086 E65.91645
G1 F1399.6 X25.191 Y110.95 E65.94051
G1 F1273.1 X25.458 Y110.833 E65.9655
G1 F1211.5 X25.925 Y110.803 E66.00765
G1 F1234.7 X29.944 Y110.803 E66.36284
G1 X33.963 Y110.802 E66.71804
G1 X33.963 Y110.437 E66.75029
G1 X33.963 Y110.072 E66.78255
G1 X29.928 Y110.072 E67.13916
G1 X25.893 Y110.073 E67.49577
G1 F1223 X25.653 Y110.078 E67.51719
G1 F1203.4 X25.412 Y110.083 E67.53905
G1 F1241.5 X25.149 Y110.056 E67.56228
G1 F1329.4 X25.002 Y110.036 E67.57446
G1 F1399.6 X24.694 Y110.022 E67.5985
G1 F1468 X24.386 Y110.007 E67.62142
G1 F1502.2 X22.467 Y110.008 E67.76082
G0 F6960 X22.767 Y110.451
G1 F1502.2 X22.912 Y110.306 E67.77571
G0 F6960 X23.76 Y110.306
