;FLAVOR:Marlin
;TIME:744
;Filament used: 1.40431m
;Layer height: 0.32
;MINX:128.67
;MINY:66.17
;MINZ:0.24
;MAXX:171.33
;MAXY:233.83
;MAXZ:2.48
;Generated with Cura_SteamEngine 5.0.0
M140 S80
M105
M190 S80
M104 S245
M105
M109 S245
M82 ;absolute extrusion mode
; Ender 3 Max Custom Start G-code
G92 E0 ; Reset Extruder
G28 ; Home all axes
G1 Z2.0 F3000 ; Move Z Axis up little to prevent scratching of Heat Bed
G1 X0.1 Y20 Z0.3 F5000.0 ; Move to start position
G1 X0.1 Y200.0 Z0.3 F1500.0 E15 ; Draw the first line
G1 X0.4 Y200.0 Z0.3 F5000.0 ; Move to side a little
G1 X0.4 Y20 Z0.3 F1500.0 E30 ; Draw the second line
G92 E0 ; Reset Extruder
G1 Z2.0 F3000 ; Move Z Axis up little to prevent scratching of Heat Bed
G1 X5 Y20 Z0.3 F5000.0 ; Move over to prevent blob squish
G92 E0
G92 E0
G1 F2100 E-5
;LAYER_COUNT:8
;LAYER:0
M107
G1 F300 Z0.56
G0 F6000 X130.157 Y71.184 Z0.56
G1 F300 Z0.56
G0 F6000 X128.671 Y77.034
;TYPE:SKIRT
G1 F300 Z0.24
G1 F2100 E0
G1 F1800 X128.68 Y76.369 E0.05781
G1 X128.732 Y75.462 E0.13679
G1 X128.864 Y74.563 E0.21577
G1 X129.074 Y73.678 E0.29484
G1 X129.362 Y72.816 E0.37385
G1 X129.724 Y71.983 E0.4528
G1 X130.157 Y71.184 E0.5318
G1 X130.66 Y70.426 E0.61088
G1 X131.227 Y69.716 E0.68986
G1 X131.854 Y69.058 E0.76887
G1 X132.536 Y68.458 E0.84784
G1 X133.269 Y67.921 E0.92682
G1 X134.046 Y67.449 E1.00585
G1 X134.862 Y67.048 E1.08489
G1 X135.709 Y66.72 E1.16385
G1 X136.582 Y66.468 E1.24283
G1 X137.474 Y66.294 E1.32184
G1 X138.719 Y66.183 E1.43049
G1 X139.33 Y66.17 E1.48362
G1 X160.293 Y66.17 E3.3059
G1 X161.139 Y66.181 E3.37945
G1 X162.046 Y66.234 E3.45843
G1 X162.945 Y66.367 E3.53743
G1 X163.829 Y66.578 E3.61643
G1 X164.691 Y66.866 E3.69544
G1 X165.525 Y67.228 E3.77447
G1 X166.323 Y67.663 E3.85348
G1 X167.08 Y68.165 E3.93244
G1 X167.79 Y68.733 E4.01147
G1 X168.447 Y69.361 E4.09048
G1 X169.047 Y70.044 E4.16951
G1 X169.584 Y70.777 E4.2485
G1 X170.055 Y71.554 E4.32748
G1 X170.455 Y72.37 E4.40648
G1 X170.782 Y73.218 E4.48549
G1 X171.034 Y74.091 E4.56447
G1 X171.208 Y74.983 E4.64348
G1 X171.317 Y76.22 E4.75142
G1 X171.33 Y76.83 E4.80446
G1 X171.329 Y222.892 E17.50144
G1 X171.32 Y223.619 E17.56464
G1 X171.269 Y224.526 E17.64361
G1 X171.138 Y225.426 E17.72267
G1 X170.929 Y226.31 E17.80163
G1 X170.643 Y227.173 E17.88067
G1 X170.282 Y228.007 E17.95966
G1 X169.849 Y228.806 E18.03866
G1 X169.347 Y229.564 E18.1177
G1 X168.781 Y230.275 E18.19669
G1 X168.155 Y230.933 E18.27564
G1 X167.473 Y231.534 E18.35466
G1 X166.741 Y232.073 E18.43369
G1 X165.964 Y232.545 E18.51271
G1 X165.149 Y232.947 E18.59171
G1 X164.302 Y233.276 E18.6707
G1 X163.429 Y233.529 E18.74971
G1 X162.537 Y233.705 E18.82875
G1 X161.281 Y233.817 E18.93836
G1 X160.67 Y233.83 E18.99149
G1 X139.574 Y233.829 E20.82533
G1 X138.876 Y233.82 E20.88602
G1 X137.968 Y233.768 E20.96508
G1 X137.069 Y233.637 E21.04405
G1 X136.185 Y233.427 E21.12303
G1 X135.322 Y233.141 E21.20207
G1 X134.488 Y232.779 E21.2811
G1 X133.69 Y232.346 E21.36002
G1 X132.932 Y231.844 E21.43905
G1 X132.221 Y231.278 E21.51805
G1 X131.563 Y230.651 E21.59706
G1 X130.962 Y229.969 E21.67608
G1 X130.424 Y229.236 E21.75512
G1 X129.952 Y228.46 E21.83408
G1 X129.551 Y227.644 E21.91311
G1 X129.222 Y226.797 E21.9921
G1 X128.97 Y225.924 E22.07109
G1 X128.795 Y225.032 E22.15011
G1 X128.683 Y223.77 E22.26024
G1 X128.67 Y223.158 E22.31345
G1 X128.671 Y78.397 E34.89734
G0 F1620 X128.671 Y77.034
G1 F2100 E29.89734
G1 F300 Z0.56
;MESH:aza-lid-2020-template-v2.stl
G0 F6000 X140.651 Y78.151 Z0.56
;TYPE:WALL-INNER
G1 F300 Z0.24
G1 F2100 E34.89734
G1 F1800 X140.651 Y221.849 E45.34476
G1 X159.35 Y221.85 E46.70425
G1 X159.35 Y85.42 E56.62326
G1 X159.35 Y78.15 E57.15181
G1 X142.014 Y78.151 E58.41221
G0 F1620 X140.651 Y78.151
G0 F6000 X139.991 Y77.491
G1 F1800 X139.991 Y222.509 E68.9556
G1 X160.01 Y222.51 E70.41106
G1 X160.01 Y85.42 E80.37805
G1 X160.01 Y77.49 E80.95459
G1 X141.354 Y77.491 E82.31096
G0 F1620 X139.991 Y77.491
G0 F6000 X139.331 Y76.831
;TYPE:WALL-OUTER
G1 F1800 X139.331 Y223.169 E92.83467
G1 X160.67 Y223.17 E94.36924
G1 X160.67 Y85.42 E104.27535
G1 X160.67 Y76.83 E104.89309
G1 X140.694 Y76.831 E106.32964
G0 F1620 X139.331 Y76.831
G0 F6000 X139.331 Y77.151
G1 F2100 E101.32964
G1 F300 Z0.56
G0 F6000 X144.308 Y95.875 Z0.56
;TYPE:WALL-INNER
G1 F300 Z0.24
G1 F2100 E106.32964
G1 F1800 X144.37 Y95.593 E106.35063
G1 X144.439 Y95.394 E106.36595
G1 X144.736 Y94.689 E106.42157
G1 X144.947 Y94.325 E106.45215
G1 X145.385 Y93.754 E106.50448
G1 X145.567 Y93.553 E106.52419
G1 X145.729 Y93.41 E106.5399
G1 X146.3 Y92.972 E106.59222
G1 X146.664 Y92.761 E106.62281
G1 X147.369 Y92.464 E106.67843
G1 X147.632 Y92.377 E106.69857
G1 X147.846 Y92.334 E106.71444
G1 X148.577 Y92.239 E106.76803
G1 X148.823 Y92.227 E106.78594
G1 X149.039 Y92.24 E106.80167
G1 X149.754 Y92.334 E106.8541
G1 X150.02 Y92.391 E106.87388
G1 X150.231 Y92.464 E106.89011
G1 X150.936 Y92.761 E106.94573
G1 X151.3 Y92.972 E106.97632
G1 X151.871 Y93.41 E107.02864
G1 X152.072 Y93.592 E107.04836
G1 X152.215 Y93.754 E107.06407
G1 X152.652 Y94.325 E107.11634
G1 X152.864 Y94.689 E107.14697
G1 X153.161 Y95.394 E107.20259
G1 X153.241 Y95.63 E107.2207
G1 X153.29 Y95.869 E107.23844
G1 X153.384 Y96.587 E107.29109
G1 X153.398 Y96.848 E107.31009
G1 X153.384 Y97.062 E107.32568
G1 X153.292 Y97.775 E107.37795
G1 X153.23 Y98.057 E107.39894
G1 X153.161 Y98.256 E107.41426
G1 X152.864 Y98.961 E107.46988
G1 X152.652 Y99.325 E107.5005
G1 X152.215 Y99.896 E107.55278
G1 X152.033 Y100.097 E107.57249
G1 X151.87 Y100.24 E107.58826
G1 X151.3 Y100.677 E107.64048
G1 X150.938 Y100.888 E107.67094
G1 X150.232 Y101.186 E107.72665
G1 X149.967 Y101.273 E107.74693
G1 X149.754 Y101.316 E107.76273
G1 X149 Y101.414 E107.81801
G1 X148.672 Y101.42 E107.84186
G1 X148.561 Y101.41 E107.84996
G1 X147.846 Y101.316 E107.90239
G1 X147.581 Y101.259 E107.9221
G1 X147.368 Y101.186 E107.93847
G1 X146.662 Y100.888 E107.99419
G1 X146.299 Y100.677 E108.02471
G1 X145.729 Y100.24 E108.07693
G1 X145.528 Y100.058 E108.09665
G1 X145.385 Y99.896 E108.11236
G1 X144.947 Y99.325 E108.16468
G1 X144.736 Y98.961 E108.19527
G1 X144.439 Y98.256 E108.25088
G1 X144.355 Y98.003 E108.27027
G1 X144.308 Y97.775 E108.28719
G1 X144.236 Y97.23 E108.32716
G0 F1620 X144.215 Y97.062
G0 X144.202 Y96.802
G0 X144.215 Y96.588
G0 X144.308 Y95.875
G0 F6000 X144.963 Y95.96
G1 F1800 X145.047 Y95.65 E108.35051
G1 X145.344 Y94.945 E108.40613
G1 X145.471 Y94.727 E108.42447
G1 X145.909 Y94.156 E108.47679
G1 X146.131 Y93.934 E108.49962
G1 X146.702 Y93.496 E108.55194
G1 X146.92 Y93.369 E108.57028
G1 X147.625 Y93.072 E108.6259
G1 X147.932 Y92.989 E108.64902
G1 X148.657 Y92.894 E108.70218
G1 X148.953 Y92.895 E108.7237
G1 X149.668 Y92.989 E108.77613
G1 X149.975 Y93.072 E108.79926
G1 X150.68 Y93.369 E108.85488
G1 X150.898 Y93.496 E108.87322
G1 X151.469 Y93.934 E108.92554
G1 X151.691 Y94.156 E108.94837
G1 X152.129 Y94.727 E109.00069
G1 X152.256 Y94.945 E109.01903
G1 X152.553 Y95.65 E109.07465
G1 X152.636 Y95.955 E109.09763
G1 X152.73 Y96.673 E109.15028
G1 X152.73 Y96.977 E109.17238
G1 X152.631 Y97.732 E109.22774
G1 X152.553 Y98 E109.24803
G1 X152.256 Y98.705 E109.30365
G1 X152.129 Y98.923 E109.32199
G1 X151.691 Y99.494 E109.37432
G1 X151.469 Y99.716 E109.39714
G1 X150.899 Y100.153 E109.44936
G1 X150.681 Y100.28 E109.4677
G1 X149.976 Y100.578 E109.52335
G1 X149.73 Y100.651 E109.54201
G1 X149.668 Y100.661 E109.54657
G1 X148.929 Y100.758 E109.60076
G1 X148.647 Y100.755 E109.62126
G1 X147.932 Y100.661 E109.6737
G1 X147.624 Y100.578 E109.69689
G1 X146.918 Y100.28 E109.7526
G1 X146.701 Y100.153 E109.77088
G1 X146.131 Y99.716 E109.8231
G1 X145.909 Y99.494 E109.84593
G1 X145.471 Y98.923 E109.89825
G1 X145.344 Y98.705 E109.91659
G1 X145.047 Y98 E109.97221
G1 X144.969 Y97.732 E109.9925
G1 X144.914 Y97.314 E110.02315
G0 F1620 X144.87 Y96.977
G0 X144.87 Y96.673
G0 X144.963 Y95.96
G0 F6000 X145.617 Y96.046
;TYPE:WALL-OUTER
G1 F1800 X145.655 Y95.906 E110.03359
G1 X145.952 Y95.201 E110.0886
G1 X145.995 Y95.129 E110.09463
G1 X146.433 Y94.558 E110.14638
G1 X146.533 Y94.458 E110.15655
G1 X147.104 Y94.02 E110.20831
G1 X147.176 Y93.977 E110.21434
G1 X147.881 Y93.68 E110.26935
G1 X148.018 Y93.643 E110.27956
G1 X148.737 Y93.549 E110.3317
G1 X148.867 Y93.549 E110.34105
G1 X149.582 Y93.643 E110.39291
G1 X149.719 Y93.68 E110.40312
G1 X150.424 Y93.977 E110.45813
G1 X150.496 Y94.02 E110.46416
G1 X151.067 Y94.458 E110.51591
G1 X151.167 Y94.558 E110.52609
G1 X151.605 Y95.129 E110.57784
G1 X151.648 Y95.201 E110.58387
G1 X151.945 Y95.906 E110.63888
G1 X151.982 Y96.041 E110.64895
G1 X152.076 Y96.759 E110.70102
G1 X152.076 Y96.891 E110.71052
G1 X151.981 Y97.618 E110.76324
G1 X151.945 Y97.744 E110.77267
G1 X151.648 Y98.449 E110.82768
G1 X151.605 Y98.521 E110.83371
G1 X151.167 Y99.092 E110.88546
G1 X151.067 Y99.192 E110.89563
G1 X150.497 Y99.629 E110.94728
G1 X150.425 Y99.672 E110.95332
G1 X149.719 Y99.97 E111.00842
G1 X149.582 Y100.007 E111.01863
G1 X148.859 Y100.102 E111.07107
G1 X148.733 Y100.101 E111.08013
G1 X148.018 Y100.007 E111.13199
G1 X147.881 Y99.97 E111.1422
G1 X147.175 Y99.672 E111.19731
G1 X147.103 Y99.629 E111.20334
G1 X146.533 Y99.192 E111.25499
G1 X146.433 Y99.092 E111.26516
G1 X145.995 Y98.521 E111.31691
G1 X145.952 Y98.449 E111.32294
G1 X145.655 Y97.744 E111.37796
G1 X145.617 Y97.604 E111.38839
G1 X145.59 Y97.398 E111.40333
G0 F1620 X145.524 Y96.891
G0 X145.524 Y96.759
G0 X145.617 Y96.046
G0 F6000 X145.655 Y95.906
G0 X145.722 Y95.745
G1 F2100 E106.40333
G1 F300 Z0.56
G0 F6000 X144.308 Y132.125 Z0.56
;TYPE:WALL-INNER
G1 F300 Z0.24
G1 F2100 E111.40333
G1 F1800 X144.37 Y131.843 E111.42432
G1 X144.439 Y131.644 E111.43963
G1 X144.736 Y130.939 E111.49525
G1 X144.947 Y130.575 E111.52584
G1 X145.385 Y130.004 E111.57816
G1 X145.567 Y129.803 E111.59788
G1 X145.729 Y129.66 E111.61359
G1 X146.3 Y129.222 E111.66591
G1 X146.664 Y129.011 E111.6965
G1 X147.369 Y128.714 E111.75212
G1 X147.632 Y128.627 E111.77226
G1 X147.846 Y128.584 E111.78813
G1 X148.561 Y128.49 E111.84056
G1 X148.823 Y128.477 E111.85963
G1 X149.039 Y128.491 E111.87537
G1 X149.754 Y128.584 E111.92779
G1 X150.019 Y128.641 E111.94749
G1 X150.231 Y128.714 E111.9638
G1 X150.936 Y129.011 E112.01941
G1 X151.3 Y129.222 E112.05
G1 X151.871 Y129.66 E112.10232
G1 X152.072 Y129.842 E112.12204
G1 X152.215 Y130.004 E112.13775
G1 X152.652 Y130.575 E112.19003
G1 X152.864 Y130.939 E112.22065
G1 X153.161 Y131.644 E112.27627
G1 X153.241 Y131.88 E112.29439
G1 X153.29 Y132.119 E112.31212
G1 X153.384 Y132.837 E112.36477
G1 X153.398 Y133.098 E112.38377
G1 X153.384 Y133.312 E112.39937
G1 X153.292 Y134.025 E112.45163
G1 X153.23 Y134.307 E112.47263
G1 X153.161 Y134.506 E112.48794
G1 X152.864 Y135.211 E112.54356
G1 X152.652 Y135.575 E112.57418
G1 X152.215 Y136.146 E112.62646
G1 X152.033 Y136.347 E112.64618
G1 X151.87 Y136.49 E112.66194
G1 X151.3 Y136.927 E112.71416
G1 X150.938 Y137.138 E112.74462
G1 X150.232 Y137.436 E112.80034
G1 X149.967 Y137.523 E112.82061
G1 X149.754 Y137.566 E112.83641
G1 X149 Y137.664 E112.89169
G1 X148.672 Y137.67 E112.91554
G1 X148.561 Y137.66 E112.92365
G1 X147.846 Y137.566 E112.97608
G1 X147.581 Y137.509 E112.99578
G1 X147.368 Y137.436 E113.01215
G1 X146.662 Y137.138 E113.06787
G1 X146.299 Y136.927 E113.0984
G1 X145.729 Y136.49 E113.15061
G1 X145.528 Y136.308 E113.17033
G1 X145.385 Y136.146 E113.18604
G1 X144.947 Y135.575 E113.23836
G1 X144.736 Y135.211 E113.26895
G1 X144.439 Y134.506 E113.32457
G1 X144.355 Y134.253 E113.34395
G1 X144.308 Y134.025 E113.36087
G1 X144.236 Y133.48 E113.40084
G0 F1620 X144.215 Y133.312
G0 X144.202 Y133.052
G0 X144.215 Y132.838
G0 X144.308 Y132.125
G0 F6000 X144.87 Y132.923
G1 F1800 X144.963 Y132.21 E113.45312
G1 X145.047 Y131.9 E113.47647
G1 X145.344 Y131.195 E113.53209
G1 X145.471 Y130.977 E113.55043
G1 X145.909 Y130.406 E113.60275
G1 X146.131 Y130.184 E113.62558
G1 X146.702 Y129.746 E113.6779
G1 X146.92 Y129.619 E113.69624
G1 X147.625 Y129.322 E113.75186
G1 X147.932 Y129.239 E113.77498
G1 X148.647 Y129.145 E113.82741
G1 X148.929 Y129.142 E113.84792
G1 X149.668 Y129.239 E113.90211
G1 X149.975 Y129.322 E113.92523
G1 X150.68 Y129.619 E113.98085
G1 X150.898 Y129.746 E113.99919
G1 X151.469 Y130.184 E114.05151
G1 X151.691 Y130.406 E114.07434
G1 X152.129 Y130.977 E114.12666
G1 X152.256 Y131.195 E114.145
G1 X152.553 Y131.9 E114.20062
G1 X152.636 Y132.205 E114.2236
G1 X152.73 Y132.923 E114.27625
G1 X152.73 Y133.227 E114.29835
G1 X152.631 Y133.982 E114.35371
G1 X152.553 Y134.25 E114.374
G1 X152.256 Y134.955 E114.42962
G1 X152.129 Y135.173 E114.44797
G1 X151.691 Y135.744 E114.50029
G1 X151.469 Y135.966 E114.52311
G1 X150.899 Y136.403 E114.57533
G1 X150.681 Y136.53 E114.59367
G1 X149.976 Y136.828 E114.64932
G1 X149.73 Y136.901 E114.66798
G1 X149.668 Y136.911 E114.67254
G1 X148.929 Y137.008 E114.72673
G1 X148.647 Y137.005 E114.74724
G1 X147.932 Y136.911 E114.79967
G1 X147.624 Y136.828 E114.82286
G1 X146.918 Y136.53 E114.87857
G1 X146.701 Y136.403 E114.89685
G1 X146.131 Y135.966 E114.94907
G1 X145.909 Y135.744 E114.9719
G1 X145.471 Y135.173 E115.02422
G1 X145.344 Y134.955 E115.04256
G1 X145.054 Y134.267 E115.09684
G0 F1620 X145.047 Y134.25
G0 X144.969 Y133.982
G0 X144.87 Y133.227
G0 X144.87 Y132.923
G0 F6000 X145.524 Y133.141
;TYPE:WALL-OUTER
G1 F1800 X145.524 Y133.009 E115.10634
G1 X145.617 Y132.296 E115.15804
G1 X145.655 Y132.156 E115.16848
G1 X145.952 Y131.451 E115.22349
G1 X145.995 Y131.379 E115.22952
G1 X146.433 Y130.808 E115.28127
G1 X146.533 Y130.708 E115.29144
G1 X147.104 Y130.27 E115.3432
G1 X147.176 Y130.227 E115.34923
G1 X147.881 Y129.93 E115.40424
G1 X148.018 Y129.893 E115.41445
G1 X148.756 Y129.797 E115.46797
G1 X148.867 Y129.799 E115.47595
G1 X149.602 Y129.897 E115.52927
G1 X149.719 Y129.93 E115.53802
G1 X150.424 Y130.227 E115.59303
G1 X150.496 Y130.27 E115.59906
G1 X151.067 Y130.708 E115.65081
G1 X151.167 Y130.808 E115.66098
G1 X151.605 Y131.379 E115.71274
G1 X151.648 Y131.451 E115.71877
G1 X151.945 Y132.156 E115.77378
G1 X151.982 Y132.291 E115.78385
G1 X152.076 Y133.009 E115.83592
G1 X152.076 Y133.141 E115.84542
G1 X151.981 Y133.868 E115.89814
G1 X151.945 Y133.994 E115.90757
G1 X151.648 Y134.699 E115.96258
G1 X151.605 Y134.771 E115.96861
G1 X151.167 Y135.342 E116.02036
G1 X151.067 Y135.442 E116.03053
G1 X150.497 Y135.879 E116.08218
G1 X150.425 Y135.922 E116.08822
G1 X149.719 Y136.22 E116.14332
G1 X149.582 Y136.257 E116.15353
G1 X148.859 Y136.352 E116.20597
G1 X148.733 Y136.351 E116.21503
G1 X148.018 Y136.257 E116.26689
G1 X147.881 Y136.22 E116.2771
G1 X147.175 Y135.922 E116.33221
G1 X147.103 Y135.879 E116.33824
G1 X146.533 Y135.442 E116.38989
G1 X146.433 Y135.342 E116.40006
G1 X145.995 Y134.771 E116.45181
G1 X145.952 Y134.699 E116.45784
G1 X145.848 Y134.453 E116.47705
G0 F1620 X145.655 Y133.994
G0 X145.617 Y133.854
G0 X145.524 Y133.141
G0 F6000 X145.524 Y133.009
G0 X145.548 Y132.823
G1 F2100 E111.47705
G1 F300 Z0.56
G0 F6000 X144.439 Y170.756 Z0.56
;TYPE:WALL-INNER
G1 F300 Z0.24
G1 F2100 E116.47705
G1 F1800 X144.355 Y170.503 E116.49643
G1 X144.308 Y170.275 E116.51335
G1 X144.215 Y169.562 E116.56563
G1 X144.202 Y169.302 E116.58456
G1 X144.215 Y169.088 E116.60015
G1 X144.308 Y168.375 E116.65242
G1 X144.37 Y168.093 E116.67341
G1 X144.439 Y167.894 E116.68873
G1 X144.736 Y167.189 E116.74435
G1 X144.947 Y166.825 E116.77494
G1 X145.385 Y166.254 E116.82726
G1 X145.567 Y166.053 E116.84697
G1 X145.729 Y165.91 E116.86268
G1 X146.3 Y165.472 E116.915
G1 X146.664 Y165.261 E116.94559
G1 X147.369 Y164.964 E117.00121
G1 X147.632 Y164.877 E117.02135
G1 X147.846 Y164.834 E117.03722
G1 X148.561 Y164.74 E117.08965
G1 X148.823 Y164.727 E117.10872
G1 X149.039 Y164.741 E117.12446
G1 X149.754 Y164.834 E117.17688
G1 X150.019 Y164.891 E117.19659
G1 X150.231 Y164.964 E117.21289
G1 X150.936 Y165.261 E117.26851
G1 X151.3 Y165.472 E117.2991
G1 X151.871 Y165.91 E117.35142
G1 X152.072 Y166.092 E117.37113
G1 X152.215 Y166.254 E117.38684
G1 X152.652 Y166.825 E117.43912
G1 X152.864 Y167.189 E117.46974
G1 X153.161 Y167.894 E117.52536
G1 X153.241 Y168.13 E117.54348
G1 X153.29 Y168.369 E117.56122
G1 X153.384 Y169.087 E117.61387
G1 X153.398 Y169.348 E117.63287
G1 X153.384 Y169.562 E117.64846
