;FLAVOR:Marlin
;TIME:5739
;Filament used: 9.51319m
;Layer height: 0.32
;MINX:130.398
;MINY:68.37
;MINZ:0.24
;MAXX:170.13
;MAXY:231.628
;MAXZ:23.28
;Generated with Cura_SteamEngine 5.0.0
M140 S80
M105
M190 S80
M104 S250
M105
M109 S250
M82 ;absolute extrusion mode
; Ender 3 Max Custom Start G-code
G92 E0 ; Reset Extruder
G28 ; Home all axes
G1 Z2.0 F3000 ; Move Z Axis up little to prevent scratching of Heat Bed
G1 X0.1 Y20 Z0.3 F5000.0 ; Move to start position
G1 X0.1 Y200.0 Z0.3 F1500.0 E15 ; Draw the first line
G1 X0.4 Y200.0 Z0.3 F5000.0 ; Move to side a little
G1 X0.4 Y20 Z0.3 F1500.0 E30 ; Draw the second line
G92 E0 ; Reset Extruder
G1 Z2.0 F3000 ; Move Z Axis up little to prevent scratching of Heat Bed
G1 X5 Y20 Z0.3 F5000.0 ; Move over to prevent blob squish
G92 E0
G92 E0
G1 F2100 E-5
;LAYER_COUNT:72
;LAYER:0
M107
G1 F300 Z0.56
G0 F6000 X131.905 Y73.412 Z0.56
G1 F300 Z0.56
G0 F6000 X130.405 Y79.226
;TYPE:SKIRT
G1 F300 Z0.24
G1 F2100 E0
G1 F1800 X130.415 Y78.594 E0.05495
G1 X130.47 Y77.686 E0.13402
G1 X130.604 Y76.787 E0.21303
G1 X130.816 Y75.904 E0.29197
G1 X131.105 Y75.042 E0.37101
G1 X131.469 Y74.209 E0.45003
G1 X131.905 Y73.412 E0.529
G1 X132.409 Y72.655 E0.60806
G1 X132.977 Y71.946 E0.68703
G1 X133.606 Y71.29 E0.76603
G1 X134.29 Y70.692 E0.84501
G1 X135.024 Y70.155 E0.92407
G1 X135.802 Y69.686 E1.00304
G1 X136.618 Y69.287 E1.082
G1 X137.467 Y68.961 E1.16105
G1 X138.34 Y68.711 E1.23999
G1 X139.089 Y68.558 E1.30645
G1 X139.989 Y68.43 E1.38547
G1 X140.653 Y68.387 E1.44331
G1 X141.358 Y68.37 E1.50461
G1 X152.864 Y68.37 E2.50481
G1 X153.693 Y68.381 E2.57688
G1 X154.87 Y68.466 E2.67947
G1 X155.101 Y68.496 E2.69972
G1 X155.997 Y68.653 E2.77879
G1 X156.875 Y68.887 E2.85778
G1 X157.671 Y69.175 E2.93136
G1 X157.904 Y69.27 E2.95324
G1 X158.73 Y69.649 E3.03224
G1 X159.519 Y70.1 E3.11124
G1 X160.265 Y70.619 E3.19024
G1 X160.771 Y71.03 E3.2469
G1 X161.132 Y71.343 E3.28844
G1 X161.67 Y71.844 E3.35234
G1 X166.475 Y76.652 E3.94323
G1 X166.944 Y77.135 E4.00176
G1 X167.748 Y78.068 E4.10882
G1 X167.886 Y78.249 E4.12861
G1 X168.404 Y78.995 E4.20756
G1 X168.856 Y79.784 E4.2866
G1 X169.211 Y80.551 E4.36007
G1 X169.304 Y80.775 E4.38115
G1 X169.616 Y81.629 E4.46019
G1 X169.851 Y82.507 E4.5392
G1 X170.002 Y83.361 E4.61459
G1 X170.029 Y83.562 E4.63222
G1 X170.119 Y84.719 E4.7331
G1 X170.13 Y85.364 E4.78918
G1 X170.127 Y214.521 E16.01662
G1 X170.118 Y215.184 E16.07426
G1 X170.03 Y216.395 E16.17981
G1 X169.999 Y216.63 E16.20042
G1 X169.841 Y217.525 E16.27942
G1 X169.604 Y218.402 E16.35839
G1 X169.319 Y219.19 E16.43124
G1 X169.229 Y219.41 E16.4519
G1 X168.848 Y220.236 E16.53097
G1 X168.396 Y221.024 E16.60994
G1 X167.839 Y221.82 E16.69439
G1 X167.716 Y221.979 E16.71187
G1 X167.023 Y222.785 E16.80427
G1 X166.522 Y223.306 E16.8671
G1 X161.851 Y227.973 E17.44109
G1 X161.366 Y228.444 E17.49986
G1 X160.425 Y229.253 E17.60773
G1 X160.245 Y229.39 E17.6274
G1 X159.499 Y229.908 E17.70635
G1 X158.709 Y230.358 E17.78538
G1 X157.971 Y230.702 E17.85616
G1 X157.746 Y230.796 E17.87736
G1 X156.893 Y231.109 E17.95634
G1 X156.015 Y231.346 E18.0354
G1 X155.121 Y231.505 E18.11433
G1 X154.255 Y231.59 E18.18997
G1 X153.371 Y231.628 E18.26689
G1 X141.522 Y231.628 E19.29691
G1 X140.765 Y231.614 E19.36272
G1 X139.858 Y231.557 E19.44172
G1 X138.93 Y231.415 E19.52333
G1 X138.725 Y231.374 E19.5415
G1 X137.843 Y231.157 E19.62046
G1 X136.983 Y230.863 E19.69947
G1 X136.152 Y230.495 E19.77847
G1 X135.357 Y230.055 E19.85746
G1 X134.603 Y229.546 E19.93654
G1 X133.897 Y228.974 E20.01553
G1 X133.244 Y228.342 E20.09452
G1 X132.65 Y227.654 E20.17354
G1 X132.118 Y226.917 E20.25255
G1 X131.653 Y226.137 E20.33149
G1 X131.258 Y225.318 E20.41053
G1 X130.937 Y224.468 E20.48952
G1 X130.691 Y223.593 E20.56853
G1 X130.524 Y222.699 E20.64759
G1 X130.423 Y221.45 E20.75651
G1 X130.403 Y220.357 E20.85154
G1 X130.398 Y217.304 E21.11694
G1 X130.404 Y204.941 E22.19164
G1 X130.398 Y82.672 E32.82032
G1 X130.403 Y80.589 E33.00139
G0 F1620 X130.405 Y79.226
G1 F2100 E28.00139
G1 F300 Z0.56
;MESH:aza-lid-bracket.stl
G0 F6000 X142.386 Y80.351 Z0.56
;TYPE:WALL-INNER
G1 F300 Z0.24
G1 F2100 E33.00139
G1 F1800 X142.386 Y219.649 E43.12891
G1 X153.233 Y219.649 E43.91753
G1 X158.148 Y214.738 E44.42268
G1 X158.149 Y85.267 E53.83574
G1 X153.232 Y80.351 E54.34125
G1 X143.749 Y80.351 E55.0307
G0 F1620 X142.386 Y80.351
G0 F6000 X141.726 Y79.691
G1 F1800 X141.726 Y220.309 E65.25419
G1 X153.469 Y220.31 E66.10796
G1 X153.577 Y220.239 E66.11735
G1 X158.783 Y215.035 E66.65253
G1 X158.808 Y214.919 E66.66115
G1 X158.809 Y85.031 E76.10453
G1 X158.738 Y84.923 E76.11393
G1 X153.546 Y79.732 E76.64771
G1 X153.424 Y79.691 E76.65707
G1 X143.089 Y79.691 E77.40847
G0 F1620 X141.726 Y79.691
G0 F6000 X141.066 Y79.031
;TYPE:WALL-OUTER
G1 F1800 X141.066 Y220.969 E87.61576
G1 X153.549 Y220.97 E88.51346
G1 X153.845 Y220.856 E88.53627
G1 X154.043 Y220.707 E88.55409
G1 X159.308 Y215.444 E89.08944
G1 X159.435 Y215.154 E89.11221
G1 X159.468 Y214.919 E89.12928
G1 X159.469 Y84.973 E98.47418
G1 X159.356 Y84.656 E98.49838
G1 X159.206 Y84.457 E98.5163
G1 X153.954 Y79.206 E99.05039
G1 X153.695 Y79.053 E99.07202
G1 X153.424 Y79.031 E99.09157
G1 X142.429 Y79.031 E99.88226
G0 F1620 X141.066 Y79.031
G0 F6000 X141.066 Y79.351
G1 F2100 E94.88226
G1 F300 Z0.56
G0 F6000 X145.731 Y103.916 Z0.56
;TYPE:WALL-INNER
G1 F300 Z0.24
G1 F2100 E99.88226
G1 F1800 X145.994 Y103.281 E99.93223
G1 X146.239 Y102.855 E99.96796
G1 X146.658 Y102.31 E100.01794
G1 X146.838 Y102.112 E100.0374
G1 X146.999 Y101.97 E100.053
G1 X147.544 Y101.551 E100.10298
G1 X147.751 Y101.416 E100.12095
G1 X147.963 Y101.31 E100.13818
G1 X148.602 Y101.045 E100.18848
G1 X148.857 Y100.961 E100.208
G1 X149.071 Y100.918 E100.22387
G1 X149.761 Y100.828 E100.27446
G1 X150.023 Y100.814 E100.29353
G1 X150.239 Y100.827 E100.30927
G1 X150.929 Y100.918 E100.35987
G1 X151.194 Y100.975 E100.37957
G1 X151.399 Y101.045 E100.39532
G1 X152.037 Y101.309 E100.44552
G1 X152.456 Y101.551 E100.4807
G1 X153.002 Y101.97 E100.53074
G1 X153.202 Y102.15 E100.5503
G1 X153.342 Y102.31 E100.56576
G1 X153.761 Y102.855 E100.61574
G1 X153.898 Y103.062 E100.63379
G1 X154.004 Y103.276 E100.65115
G1 X154.269 Y103.915 E100.70144
G1 X154.347 Y104.153 E100.71965
G1 X154.395 Y104.384 E100.73681
G1 X154.485 Y105.075 E100.78747
G1 X154.499 Y105.335 E100.8064
G1 X154.485 Y105.547 E100.82185
G1 X154.386 Y106.307 E100.87757
G1 X154.269 Y106.709 E100.90801
G1 X154.007 Y107.344 E100.95795
G1 X153.761 Y107.77 E100.99372
G1 X153.342 Y108.315 E101.0437
G1 X153.163 Y108.514 E101.06316
G1 X153.002 Y108.655 E101.07872
G1 X152.456 Y109.074 E101.12875
G1 X152.249 Y109.209 E101.14672
G1 X152.037 Y109.315 E101.16395
G1 X151.399 Y109.58 E101.21418
G1 X151.143 Y109.664 E101.23377
G1 X150.929 Y109.707 E101.24964
G1 X150.239 Y109.797 E101.30023
G1 X149.977 Y109.811 E101.3193
G1 X149.761 Y109.797 E101.33504
G1 X149.071 Y109.707 E101.38563
G1 X148.805 Y109.65 E101.40541
G1 X148.602 Y109.58 E101.42102
G1 X147.963 Y109.315 E101.47132
G1 X147.544 Y109.074 E101.50646
G1 X146.999 Y108.655 E101.55644
G1 X146.799 Y108.474 E101.57605
G1 X146.658 Y108.315 E101.5915
G1 X146.239 Y107.77 E101.64148
G1 X146.1 Y107.558 E101.65991
G1 X145.994 Y107.344 E101.67728
G1 X145.731 Y106.709 E101.72725
G1 X145.648 Y106.457 E101.74654
G1 X145.604 Y106.235 E101.76299
G1 X145.515 Y105.548 E101.81335
G1 X145.502 Y105.289 E101.83221
G1 X145.504 Y105.257 E101.83454
G0 F1620 X145.515 Y105.076
G0 X145.604 Y104.39
G0 X145.663 Y104.113
G0 X145.731 Y103.916
G1 F2100 E96.83454
G1 F300 Z0.56
G0 F6000 X146.341 Y106.456 Z0.56
G1 F300 Z0.24
G1 F2100 E101.83454
G1 F1800 X146.265 Y106.193 E101.85444
G1 X146.169 Y105.463 E101.90797
G1 X146.162 Y105.289 E101.92063
G1 X146.169 Y105.161 E101.92996
G1 X146.259 Y104.475 E101.98026
G1 X146.341 Y104.169 E102.00329
G1 X146.604 Y103.534 E102.05326
G1 X146.762 Y103.257 E102.07644
G1 X147.181 Y102.713 E102.12637
G1 X147.401 Y102.493 E102.14899
G1 X147.946 Y102.074 E102.19897
G1 X148.217 Y101.919 E102.22167
G1 X148.855 Y101.654 E102.27189
G1 X149.157 Y101.573 E102.29463
G1 X149.847 Y101.482 E102.34523
G1 X150.153 Y101.482 E102.36747
G1 X150.843 Y101.573 E102.41807
G1 X151.145 Y101.654 E102.44081
G1 X151.783 Y101.919 E102.49103
G1 X152.054 Y102.074 E102.51373
G1 X152.599 Y102.494 E102.56376
G1 X152.819 Y102.713 E102.58632
G1 X153.238 Y103.257 E102.63625
G1 X153.394 Y103.529 E102.65904
G1 X153.659 Y104.168 E102.70934
G1 X153.74 Y104.47 E102.73207
G1 X153.83 Y105.161 E102.78273
G1 X153.83 Y105.463 E102.80469
G1 X153.736 Y106.193 E102.8582
G1 X153.659 Y106.456 E102.87813
G1 X153.397 Y107.092 E102.92814
G1 X153.238 Y107.368 E102.95129
G1 X152.819 Y107.912 E103.00122
G1 X152.599 Y108.131 E103.02379
G1 X152.054 Y108.551 E103.07381
G1 X151.783 Y108.706 E103.09651
G1 X151.145 Y108.971 E103.14674
G1 X150.843 Y109.052 E103.16947
G1 X150.153 Y109.143 E103.22007
G1 X149.847 Y109.143 E103.24232
G1 X149.157 Y109.052 E103.29292
G1 X148.855 Y108.971 E103.31565
G1 X148.217 Y108.706 E103.36588
G1 X147.946 Y108.551 E103.38857
G1 X147.401 Y108.132 E103.43855
G1 X147.181 Y107.912 E103.46117
G1 X146.98 Y107.651 E103.48512
G0 F1620 X146.762 Y107.368
G0 X146.604 Y107.091
G0 X146.341 Y106.456
G0 F6000 X146.824 Y105.378
;TYPE:WALL-OUTER
G1 F1800 X146.822 Y105.289 E103.49153
G1 X146.824 Y105.246 E103.49462
G1 X146.913 Y104.56 E103.54437
G1 X146.951 Y104.421 E103.55473
G1 X147.214 Y103.786 E103.60416
G1 X147.285 Y103.66 E103.61456
G1 X147.704 Y103.116 E103.66394
G1 X147.803 Y103.017 E103.67401
G1 X148.348 Y102.598 E103.72344
G1 X148.47 Y102.529 E103.73352
G1 X149.108 Y102.264 E103.78321
G1 X149.243 Y102.227 E103.79327
G1 X149.933 Y102.136 E103.84332
G1 X150.067 Y102.136 E103.85296
G1 X150.757 Y102.227 E103.90301
G1 X150.892 Y102.264 E103.91307
G1 X151.53 Y102.529 E103.96276
G1 X151.652 Y102.598 E103.97284
G1 X152.197 Y103.017 E104.02227
G1 X152.296 Y103.116 E104.03234
G1 X152.715 Y103.66 E104.08172
G1 X152.784 Y103.782 E104.0918
G1 X153.049 Y104.421 E104.14155
G1 X153.086 Y104.555 E104.15155
G1 X153.176 Y105.246 E104.20166
G1 X153.176 Y105.378 E104.21115
G1 X153.085 Y106.079 E104.26198
G1 X153.049 Y106.204 E104.27134
G1 X152.787 Y106.839 E104.32074
G1 X152.715 Y106.965 E104.33117
G1 X152.296 Y107.509 E104.38056
G1 X152.197 Y107.608 E104.39062
G1 X151.652 Y108.027 E104.44006
G1 X151.53 Y108.096 E104.45014
G1 X150.892 Y108.361 E104.49982
G1 X150.757 Y108.398 E104.50989
G1 X150.067 Y108.489 E104.55994
G1 X149.933 Y108.489 E104.56957
G1 X149.243 Y108.398 E104.61962
G1 X149.108 Y108.361 E104.62969
G1 X148.47 Y108.096 E104.67937
G1 X148.348 Y108.027 E104.68945
G1 X147.803 Y107.608 E104.73889
G1 X147.704 Y107.509 E104.74896
G1 X147.285 Y106.965 E104.79834
G1 X147.214 Y106.839 E104.80874
G1 X147.152 Y106.691 E104.82028
G0 F1620 X146.951 Y106.204
G0 X146.913 Y106.065
G0 X146.824 Y105.378
G0 F6000 X146.822 Y105.289
G0 X146.824 Y105.246
G0 X146.848 Y105.06
G1 F2100 E99.82028
G1 F300 Z0.56
G0 F6000 X145.604 Y149.077 Z0.56
;TYPE:WALL-INNER
G1 F300 Z0.24
G1 F2100 E104.82028
G1 F1800 X145.663 Y148.8 E104.84087
G1 X145.731 Y148.602 E104.85609
G1 X145.994 Y147.968 E104.90599
G1 X146.107 Y147.744 E104.92423
G1 X146.238 Y147.546 E104.94149
G1 X146.656 Y147 E104.99149
G1 X146.838 Y146.799 E105.0112
G1 X146.999 Y146.657 E105.02681
G1 X147.544 Y146.238 E105.07679
G1 X147.751 Y146.103 E105.09476
G1 X147.963 Y145.997 E105.11199
G1 X148.602 Y145.732 E105.16228
G1 X148.857 Y145.648 E105.1818
G1 X149.073 Y145.605 E105.19781
G1 X149.763 Y145.515 E105.24841
G1 X150.023 Y145.502 E105.26733
G1 X150.237 Y145.515 E105.28292
G1 X150.927 Y145.605 E105.33351
G1 X151.194 Y145.662 E105.35336
G1 X151.399 Y145.732 E105.36911
G1 X152.037 Y145.997 E105.41934
G1 X152.456 Y146.238 E105.45448
G1 X153.001 Y146.657 E105.50446
G1 X153.201 Y146.838 E105.52407
G1 X153.343 Y146.999 E105.53968
G1 X153.761 Y147.544 E105.58961
G1 X153.897 Y147.751 E105.60762
G1 X154.003 Y147.964 E105.62492
G1 X154.268 Y148.602 E105.67515
G1 X154.347 Y148.84 E105.69338
G1 X154.395 Y149.072 E105.7106
G1 X154.485 Y149.764 E105.76134
G1 X154.498 Y150.023 E105.78019
G1 X154.485 Y150.235 E105.79563
G1 X154.386 Y150.995 E105.85136
G1 X154.269 Y151.398 E105.88187
G1 X154.006 Y152.032 E105.93177
G1 X153.894 Y152.256 E105.94998
G1 X153.763 Y152.454 E105.96724
G1 X153.344 Y153 E106.01728
G1 X153.162 Y153.201 E106.03699
G1 X153.001 Y153.343 E106.0526
G1 X152.457 Y153.762 E106.10252
G1 X152.249 Y153.898 E106.12059
G1 X152.037 Y154.004 E106.13782
G1 X151.399 Y154.269 E106.18805
G1 X151.143 Y154.352 E106.20761
G1 X150.927 Y154.395 E106.22363
G1 X150.237 Y154.485 E106.27422
G1 X149.977 Y154.498 E106.29314
G1 X149.763 Y154.485 E106.30873
G1 X149.073 Y154.395 E106.35932
G1 X148.805 Y154.338 E106.37924
G1 X148.602 Y154.268 E106.39485
G1 X147.963 Y154.003 E106.44515
G1 X147.544 Y153.762 E106.48029
G1 X146.999 Y153.343 E106.53027
G1 X146.799 Y153.162 E106.54988
G1 X146.656 Y153 E106.56559
G1 X146.238 Y152.454 E106.61559
G1 X146.079 Y152.206 E106.637
G1 X145.994 Y152.032 E106.65108
G1 X145.731 Y151.398 E106.70099
G1 X145.648 Y151.145 E106.72034
G1 X145.604 Y150.923 E106.7368
G1 X145.54 Y150.433 E106.77273
G0 F1620 X145.515 Y150.236
G0 X145.502 Y149.977
G0 X145.515 Y149.764
G0 X145.604 Y149.077
G0 F6000 X146.169 Y150.151
G1 F1800 X146.169 Y149.849 E106.79468
G1 X146.259 Y149.162 E106.84506
G1 X146.341 Y148.855 E106.86816
G1 X146.604 Y148.221 E106.91806
G1 X146.761 Y147.948 E106.94096
G1 X147.18 Y147.402 E106.991
G1 X147.401 Y147.18 E107.01377
G1 X147.946 Y146.761 E107.06375
G1 X148.217 Y146.606 E107.08645
G1 X148.855 Y146.341 E107.13668
G1 X149.159 Y146.26 E107.15955
G1 X149.849 Y146.17 E107.21014
G1 X150.152 Y146.17 E107.23217
G1 X150.842 Y146.26 E107.28276
G1 X151.145 Y146.341 E107.30556
G1 X151.783 Y146.606 E107.35579
G1 X152.054 Y146.762 E107.37853
G1 X152.599 Y147.181 E107.42851
G1 X152.819 Y147.401 E107.45113
G1 X153.238 Y147.946 E107.50111
G1 X153.394 Y148.217 E107.52384
G1 X153.659 Y148.855 E107.57407
G1 X153.74 Y149.157 E107.5968
G1 X153.83 Y149.849 E107.64754
G1 X153.831 Y150.151 E107.66949
G1 X153.735 Y150.881 E107.72302
G1 X153.659 Y151.145 E107.743
G1 X153.396 Y151.779 E107.7929
G1 X153.239 Y152.052 E107.8158
G1 X152.82 Y152.598 E107.86583
G1 X152.599 Y152.819 E107.88856
G1 X152.054 Y153.238 E107.93854
G1 X151.783 Y153.394 E107.96127
G1 X151.145 Y153.659 E108.0115
G1 X150.842 Y153.74 E108.0343
G1 X150.152 Y153.83 E108.08489
G1 X149.849 Y153.83 E108.10692
G1 X149.159 Y153.74 E108.15751
G1 X148.855 Y153.659 E108.18038
G1 X148.217 Y153.394 E108.23061
G1 X147.946 Y153.239 E108.25331
G1 X147.401 Y152.82 E108.30329
G1 X147.18 Y152.598 E108.32606
G1 X146.761 Y152.052 E108.3761
G1 X146.604 Y151.779 E108.399
G1 X146.476 Y151.471 E108.42325
G0 F1620 X146.341 Y151.145
G0 X146.265 Y150.881
G0 X146.169 Y150.151
G0 F6000 X146.824 Y150.066
;TYPE:WALL-OUTER
G1 F1800 X146.824 Y149.934 E108.43274
G1 X146.913 Y149.247 E108.48256
G1 X146.951 Y149.108 E108.49292
G1 X147.214 Y148.474 E108.54228
G1 X147.285 Y148.35 E108.55256
G1 X147.704 Y147.804 E108.60205
G1 X147.803 Y147.704 E108.61217
G1 X148.348 Y147.285 E108.66161
G1 X148.47 Y147.216 E108.67169
G1 X149.108 Y146.951 E108.72137
G1 X149.244 Y146.914 E108.7315
G1 X149.934 Y146.824 E108.78155
G1 X150.066 Y146.824 E108.79104
G1 X150.756 Y146.914 E108.84108
G1 X150.892 Y146.951 E108.85121
G1 X151.53 Y147.216 E108.9009
G1 X151.652 Y147.285 E108.91098
G1 X152.197 Y147.704 E108.96041
G1 X152.296 Y147.803 E108.97048
G1 X152.715 Y148.348 E109.01992
G1 X152.784 Y148.47 E109.03
G1 X153.049 Y149.108 E109.07968
G1 X153.086 Y149.242 E109.08968
G1 X153.176 Y149.934 E109.13986
G1 X153.176 Y150.066 E109.14935
G1 X153.085 Y150.767 E109.20019
G1 X153.049 Y150.892 E109.20954
G1 X152.77 Y151.561 E109.26167
G1 X152.715 Y151.65 E109.26919
G1 X152.296 Y152.196 E109.31869
G1 X152.197 Y152.296 E109.3288
G1 X151.652 Y152.715 E109.37824
G1 X151.53 Y152.784 E109.38832
G1 X150.892 Y153.049 E109.438
G1 X150.756 Y153.086 E109.44814
G1 X150.066 Y153.176 E109.49818
G1 X149.934 Y153.176 E109.50767
G1 X149.244 Y153.086 E109.55771
G1 X149.108 Y153.049 E109.56785
G1 X148.47 Y152.784 E109.61753
G1 X148.348 Y152.715 E109.62761
