;FLAVOR:Marlin
;TIME:7092
;Filament used: 11.0643m
;Layer height: 0.32
;MINX:12.422
;MINY:93.549
;MINZ:0.24
;MAXX:87.772
;MAXY:148.946
;MAXZ:42.48
;Generated with Cura_SteamEngine 5.0.0
M140 S80
M105
M190 S80
M104 S245
M105
M109 S245
M82 ;absolute extrusion mode
; Ender 3 Max Custom Start G-code
G92 E0 ; Reset Extruder
G28 ; Home all axes
G1 Z2.0 F3000 ; Move Z Axis up little to prevent scratching of Heat Bed
G1 X0.1 Y20 Z0.3 F5000.0 ; Move to start position
G1 X0.1 Y200.0 Z0.3 F1500.0 E15 ; Draw the first line
G1 X0.4 Y200.0 Z0.3 F5000.0 ; Move to side a little
G1 X0.4 Y20 Z0.3 F1500.0 E30 ; Draw the second line
G92 E0 ; Reset Extruder
G1 Z2.0 F3000 ; Move Z Axis up little to prevent scratching of Heat Bed
G1 X5 Y20 Z0.3 F5000.0 ; Move over to prevent blob squish
G92 E0
G92 E0
G1 F2100 E-5
;LAYER_COUNT:132
;LAYER:0
M107
G1 F300 Z0.56
G0 F6000 X29.96 Y93.962 Z0.56
G1 F300 Z0.56
G0 F6000 X26.748 Y95.409
;TYPE:SKIRT
G1 F300 Z0.24
G1 F2100 E0
G1 F1800 X27.373 Y95.047 E0.06279
G1 X28.203 Y94.612 E0.14425
G1 X29.068 Y94.25 E0.22576
G1 X29.96 Y93.962 E0.30724
G1 X30.874 Y93.752 E0.38876
G1 X31.802 Y93.62 E0.47024
G1 X32.685 Y93.563 E0.54716
G1 X33.238 Y93.549 E0.59525
G1 X64.572 Y93.549 E3.31907
G1 X65.414 Y93.56 E3.39227
G1 X66.35 Y93.614 E3.47377
G1 X67.665 Y93.827 E3.58957
G1 X68.572 Y94.064 E3.67107
G1 X69.777 Y94.514 E3.78288
G1 X70.789 Y94.963 E3.87912
G1 X71.454 Y95.268 E3.94272
G1 X73.749 Y96.246 E4.15958
G1 X76.148 Y97.186 E4.38356
G1 X79.133 Y98.25 E4.65903
G1 X80.258 Y98.63 E4.76226
G1 X81.133 Y98.967 E4.84377
G1 X81.976 Y99.378 E4.92529
G1 X82.78 Y99.859 E5.00674
G1 X83.541 Y100.407 E5.08826
G1 X84.252 Y101.018 E5.16975
G1 X84.908 Y101.687 E5.2512
G1 X85.505 Y102.41 E5.3327
G1 X86.039 Y103.181 E5.41423
G1 X86.504 Y103.995 E5.49572
G1 X86.899 Y104.845 E5.5772
G1 X87.363 Y106.216 E5.70302
G1 X87.571 Y107.13 E5.7845
G1 X87.7 Y108.059 E5.86604
G1 X87.747 Y108.873 E5.93691
G1 X87.772 Y110.204 E6.05264
G1 X87.764 Y111.52 E6.16704
G1 X87.718 Y112.456 E6.2485
G1 X87.593 Y113.385 E6.32998
G1 X87.389 Y114.3 E6.41148
G1 X87.108 Y115.194 E6.49294
G1 X86.751 Y116.061 E6.57445
G1 X86.322 Y116.895 E6.65597
G1 X85.617 Y117.978 E6.76831
G1 X85.211 Y118.527 E6.82766
G1 X84.216 Y119.839 E6.9708
G1 X82.775 Y121.855 E7.18622
G1 X81.341 Y123.982 E7.40921
G1 X80.023 Y126.065 E7.62349
G1 X78.715 Y128.267 E7.84613
G1 X77.5 Y130.452 E8.06346
G1 X76.336 Y132.689 E8.28267
G1 X75.244 Y134.945 E8.50054
G1 X74.201 Y137.263 E8.7215
G1 X73.234 Y139.583 E8.93999
G1 X72.336 Y141.908 E9.15665
G1 X71.961 Y142.767 E9.23813
G1 X71.515 Y143.592 E9.31966
G1 X70.999 Y144.375 E9.40117
G1 X70.419 Y145.111 E9.48263
G1 X69.778 Y145.795 E9.56412
G1 X69.082 Y146.422 E9.64555
G1 X68.334 Y146.988 E9.72709
G1 X67.541 Y147.487 E9.80854
G1 X66.708 Y147.917 E9.89003
G1 X65.841 Y148.275 E9.97157
G1 X64.947 Y148.558 E10.05308
G1 X64.033 Y148.763 E10.13451
G1 X63.104 Y148.89 E10.21602
G1 X62.395 Y148.933 E10.27776
G1 X61.766 Y148.946 E10.33245
G1 X23.977 Y148.945 E13.6174
G1 X23.279 Y148.936 E13.67808
G1 X22.343 Y148.884 E13.75957
G1 X21.415 Y148.752 E13.84105
G1 X20.502 Y148.542 E13.92249
G1 X19.609 Y148.255 E14.00403
G1 X18.745 Y147.892 E14.0855
G1 X17.914 Y147.458 E14.16699
G1 X17.124 Y146.954 E14.24845
G1 X16.379 Y146.384 E14.32999
G1 X15.686 Y145.754 E14.41141
G1 X15.048 Y145.066 E14.49297
G1 X14.472 Y144.327 E14.57442
G1 X13.961 Y143.541 E14.65592
G1 X13.519 Y142.714 E14.73743
G1 X13.149 Y141.853 E14.8189
G1 X12.853 Y140.963 E14.90043
G1 X12.634 Y140.052 E14.98188
G1 X12.494 Y139.125 E15.06337
G1 X12.434 Y138.224 E15.14187
G1 X12.422 Y137.589 E15.19708
G1 X12.425 Y110.801 E17.52572
G1 X12.434 Y110.146 E17.58267
G1 X12.503 Y109.055 E17.6777
G1 X12.643 Y108.128 E17.75919
G1 X12.862 Y107.217 E17.84064
G1 X13.157 Y106.327 E17.92215
G1 X13.527 Y105.466 E18.00361
G1 X13.97 Y104.639 E18.08517
G1 X14.481 Y103.853 E18.16666
G1 X15.057 Y103.114 E18.24811
G1 X15.694 Y102.426 E18.32962
G1 X16.387 Y101.795 E18.41109
G1 X17.132 Y101.226 E18.49258
G1 X17.614 Y100.907 E18.54282
G1 X18.482 Y100.367 E18.63169
G1 X25.58 Y96.11 E19.35117
G0 F1620 X26.748 Y95.409
G0 F6000 X27.079 Y95.98
G1 F1800 X27.704 Y95.618 E19.41396
G1 X28.509 Y95.198 E19.49289
G1 X29.349 Y94.85 E19.57192
G1 X30.216 Y94.577 E19.65094
G1 X31.103 Y94.381 E19.7299
G1 X32.361 Y94.24 E19.83995
G1 X32.718 Y94.222 E19.87102
G1 X33.238 Y94.209 E19.91624
G1 X64.572 Y94.209 E22.64006
G1 X65.405 Y94.22 E22.71248
G1 X66.312 Y94.273 E22.79146
G1 X67.525 Y94.472 E22.89831
G1 X68.404 Y94.703 E22.97731
G1 X69.51 Y95.118 E23.08
G1 X70.513 Y95.562 E23.17535
G1 X71.201 Y95.878 E23.24117
G1 X73.518 Y96.865 E23.46009
G1 X75.876 Y97.789 E23.68025
G1 X78.945 Y98.883 E23.96347
G1 X80.047 Y99.255 E24.06458
G1 X80.895 Y99.583 E24.14362
G1 X81.71 Y99.985 E24.22262
G1 X82.487 Y100.457 E24.30164
G1 X83.219 Y100.995 E24.38061
G1 X83.901 Y101.595 E24.45958
G1 X84.528 Y102.254 E24.53865
G1 X85.095 Y102.964 E24.61763
G1 X85.597 Y103.722 E24.69667
G1 X86.03 Y104.521 E24.77567
G1 X86.391 Y105.355 E24.85466
G1 X86.726 Y106.39 E24.94923
G1 X86.926 Y107.276 E25.02819
G1 X87.048 Y108.177 E25.10723
G1 X87.088 Y108.887 E25.16904
G1 X87.112 Y110.2 E25.2832
G1 X87.104 Y111.516 E25.3976
G1 X87.058 Y112.424 E25.47663
G1 X86.933 Y113.324 E25.55562
G1 X86.729 Y114.209 E25.63457
G1 X86.449 Y115.074 E25.7136
G1 X86.093 Y115.91 E25.79259
G1 X85.665 Y116.712 E25.87161
G1 X85.086 Y117.586 E25.96275
G1 X84.685 Y118.128 E26.02136
G1 X83.697 Y119.43 E26.16344
G1 X82.21 Y121.51 E26.3857
G1 X80.812 Y123.586 E26.60327
G1 X79.442 Y125.75 E26.82591
G1 X78.162 Y127.906 E27.04387
G1 X76.906 Y130.163 E27.2684
G1 X75.747 Y132.392 E27.48679
G1 X74.645 Y134.667 E27.70654
G1 X73.605 Y136.977 E27.92676
G1 X72.622 Y139.337 E28.14899
G1 X71.721 Y141.67 E28.36639
G1 X71.356 Y142.503 E28.44545
G1 X70.92 Y143.3 E28.52442
G1 X70.415 Y144.056 E28.60346
G1 X69.846 Y144.764 E28.68241
G1 X69.217 Y145.42 E28.76142
G1 X68.532 Y146.018 E28.84046
G1 X67.798 Y146.554 E28.91947
G1 X67.019 Y147.022 E28.99847
G1 X66.202 Y147.421 E29.07751
G1 X65.354 Y147.746 E29.15645
G1 X64.48 Y147.996 E29.23547
G1 X63.587 Y148.167 E29.31451
G1 X62.376 Y148.273 E29.42018
G1 X61.766 Y148.286 E29.47322
G1 X23.986 Y148.285 E32.75739
G1 X23.288 Y148.276 E32.81807
G1 X22.38 Y148.224 E32.89713
G1 X21.481 Y148.093 E32.9761
G1 X20.597 Y147.883 E33.05509
G1 X19.734 Y147.597 E33.13412
G1 X18.9 Y147.235 E33.21315
G1 X18.102 Y146.802 E33.29208
G1 X17.344 Y146.3 E33.37111
G1 X16.633 Y145.734 E33.45011
G1 X15.975 Y145.107 E33.52912
G1 X15.374 Y144.425 E33.60814
G1 X14.836 Y143.692 E33.68718
G1 X14.364 Y142.916 E33.76613
G1 X13.963 Y142.1 E33.84517
G1 X13.634 Y141.253 E33.92415
G1 X13.382 Y140.38 E34.00314
G1 X13.207 Y139.488 E34.08216
G1 X13.094 Y138.207 E34.19395
G1 X13.082 Y137.589 E34.24768
G1 X13.085 Y110.81 E36.57554
G1 X13.094 Y110.155 E36.63249
G1 X13.159 Y109.126 E36.72212
G1 X13.296 Y108.227 E36.80117
G1 X13.512 Y107.345 E36.8801
G1 X13.804 Y106.484 E36.95914
G1 X14.171 Y105.652 E37.03818
G1 X14.609 Y104.856 E37.11716
G1 X15.116 Y104.102 E37.19615
G1 X15.687 Y103.395 E37.27515
G1 X16.318 Y102.74 E37.35421
G1 X17.004 Y102.144 E37.4332
G1 X17.963 Y101.467 E37.53525
G1 X18.822 Y100.933 E37.62317
G1 X25.911 Y96.681 E38.34176
G0 F1620 X27.079 Y95.98
G1 F2100 E33.34176
G1 F300 Z0.56
;MESH:right-stepper-short-tab.stl
G0 F6000 X54.875 Y115.952 Z0.56
;TYPE:WALL-INNER
G1 F300 Z0.24
G1 F2100 E38.34176
G1 F1697.1 X54.895 Y116.21 E38.36171
G1 X55.085 Y116.384 E38.38158
G1 X55.332 Y116.407 E38.40071
G1 X55.593 Y116.307 E38.42226
G1 X55.684 Y116.044 E38.44372
G1 X55.678 Y116.001 E38.44707
G1 X55.541 Y115.786 E38.46673
G1 X55.301 Y115.711 E38.48612
G1 X55.237 Y115.724 E38.49115
G0 F1620 X55.04 Y115.763
G0 X54.875 Y115.952
G0 F6000 X54.243 Y115.676
;TYPE:WALL-OUTER
G1 F1800 X54.193 Y115.915 E38.50871
G1 X54.193 Y116.159 E38.52626
G1 X54.263 Y116.478 E38.54975
G1 X54.413 Y116.709 E38.56955
G1 X54.609 Y116.891 E38.58879
G1 X54.859 Y117.032 E38.60943
G1 X55.153 Y117.083 E38.63089
G1 X55.417 Y117.082 E38.64987
G1 X55.755 Y117.011 E38.67471
G1 X55.982 Y116.868 E38.694
G1 X56.168 Y116.684 E38.71282
G1 X56.307 Y116.456 E38.73202
G1 X56.372 Y116.05 E38.76159
G1 X56.352 Y115.907 E38.77197
G1 X56.286 Y115.645 E38.7914
G1 X56.133 Y115.417 E38.81115
G1 X55.939 Y115.234 E38.83033
G1 X55.683 Y115.089 E38.85149
G1 X55.399 Y115.037 E38.87225
G1 X55.353 Y115.037 E38.87556
G0 F1620 X55.143 Y115.037
G0 X54.81 Y115.11
G0 X54.576 Y115.258
G0 X54.394 Y115.437
G0 X54.243 Y115.676
G0 F6000 X54.193 Y115.915
G0 X54.193 Y115.991
G1 F2100 E33.87556
G1 F300 Z0.56
G0 F6000 X55.922 Y121.344 Z0.56
;TYPE:WALL-INNER
G1 F300 Z0.24
G1 F2100 E38.87556
G1 F1800 X56.104 Y121.167 E38.89401
G1 X56.226 Y120.899 E38.91542
G1 X56.247 Y120.734 E38.92752
G1 X56.226 Y120.451 E38.94815
G1 X56.137 Y120.226 E38.96574
G1 X55.917 Y119.986 E38.98941
G1 X55.632 Y119.859 E39.0121
G1 X55.363 Y119.827 E39.03179
G1 X55.117 Y119.866 E39.0499
G1 X54.864 Y119.998 E39.07065
G1 X54.695 Y120.186 E39.08903
G1 X54.601 Y120.42 E39.10736
G1 X54.574 Y120.672 E39.12579
G1 X54.631 Y120.919 E39.14422
G1 X54.751 Y121.185 E39.16543
G1 X54.913 Y121.335 E39.18148
G0 F1620 X54.945 Y121.364
G0 X55.195 Y121.461
G0 X55.434 Y121.485
G0 X55.695 Y121.444
G0 X55.922 Y121.344
G0 F6000 X55.535 Y120.657
G1 F1200 X55.473 Y120.763 E39.19488
G1 X55.351 Y120.763 E39.20818
G1 X55.29 Y120.657 E39.22152
G1 X55.351 Y120.551 E39.23485
G1 X55.37 Y120.551 E39.23693
G0 F1620 X55.473 Y120.551
G0 F6000 X56.453 Y119.558
;TYPE:WALL-OUTER
G1 F1800 X56.21 Y119.385 E39.25838
G1 X55.949 Y119.254 E39.27938
G1 X55.655 Y119.187 E39.30106
G1 X55.344 Y119.163 E39.3235
G1 X55.031 Y119.205 E39.34621
G1 X54.768 Y119.278 E39.36583
G1 X54.524 Y119.423 E39.38625
G1 X54.294 Y119.612 E39.40765
G1 X54.131 Y119.84 E39.42781
G1 X53.998 Y120.097 E39.44862
G1 X53.935 Y120.375 E39.46912
G1 X53.911 Y120.682 E39.49126
G1 X53.953 Y120.949 E39.5107
G1 X54.038 Y121.256 E39.53361
G1 X54.218 Y121.588 E39.56077
G1 X54.505 Y121.868 E39.5896
G1 X54.736 Y121.997 E39.60863
G1 X55.049 Y122.107 E39.63249
G1 X55.32 Y122.14 E39.65212
G1 X55.592 Y122.13 E39.67169
G1 X55.868 Y122.082 E39.69184
G1 X56.209 Y121.941 E39.71838
G1 X56.535 Y121.699 E39.74757
G1 X56.698 Y121.474 E39.76755
G1 X56.831 Y121.217 E39.78836
G1 X56.894 Y120.938 E39.80893
G1 X56.904 Y120.804 E39.8186
G0 F1620 X56.905 Y120.782
G0 X56.897 Y120.482
G0 X56.847 Y120.22
G0 X56.703 Y119.886
G0 X56.453 Y119.558
G0 F6000 X56.21 Y119.385
G0 X56.191 Y119.376
G1 F2100 E34.8186
G1 F300 Z0.56
G0 F6000 X60.455 Y119.734 Z0.56
;TYPE:WALL-INNER
G1 F300 Z0.24
G1 F2100 E39.8186
G1 F1775.8 X60.428 Y119.276 E39.85241
G1 F1682.7 X60.419 Y118.944 E39.87824
G1 F1661.5 X60.419 Y117.779 E39.97
G1 F1749.6 X60.454 Y117.392 E39.99906
G1 F1922.3 X60.48 Y116.998 E40.02594
G1 F2055.4 X60.494 Y116.644 E40.0485
G1 F2125.2 X60.499 Y116.354 E40.06636
G1 F2163.9 X60.504 Y116.064 E40.0839
G1 F2160 X60.499 Y115.707 E40.10553
G1 F2102.7 X60.489 Y115.434 E40.12253
G1 F2030.8 X60.478 Y115.161 E40.14014
G1 F1950.7 X60.465 Y114.914 E40.15673
G1 F1870.9 X60.452 Y114.666 E40.1741
G1 F1816.5 X60.446 Y114.17 E40.20984
G1 F1800 X60.447 Y111.578 E40.39829
G1 X60.49 Y111.272 E40.42076
G1 X60.585 Y110.989 E40.44246
G1 X60.718 Y110.723 E40.46408
G1 X60.906 Y110.441 E40.48872
G1 X61.113 Y110.233 E40.51006
G1 X61.37 Y110.054 E40.53283
G1 X61.672 Y109.923 E40.55676
G1 X62.01 Y109.83 E40.58225
G1 X62.296 Y109.806 E40.60311
G1 X68.264 Y109.806 E41.03701
G1 X64.649 Y106.19 E41.40875
G1 X58.066 Y106.189 E41.88736
G1 X33.345 Y106.189 E43.68468
G1 X30.681 Y107.787 E43.91054
G1 X28.354 Y109.184 E44.10787
G1 X25.068 Y111.157 E44.38653
G1 X25.063 Y136.306 E46.21496
G1 X31.585 Y136.305 E46.68913
G1 X31.524 Y136.163 E46.70037
G1 X31.446 Y135.656 E46.73767
G1 X31.446 Y116.155 E48.15547
G1 X31.466 Y115.892 E48.17464
G1 X31.528 Y115.64 E48.19351
G1 X31.625 Y115.406 E48.21193
G1 X31.776 Y115.123 E48.23525
G1 X31.945 Y114.896 E48.25582
G1 X32.156 Y114.697 E48.27691
G1 X32.402 Y114.537 E48.29825
G1 X32.672 Y114.423 E48.31955
G1 X33.043 Y114.325 E48.34745
G1 X33.296 Y114.306 E48.3659
G1 X49.292 Y114.305 E49.52887
G1 X49.584 Y114.331 E49.55018
G1 X49.828 Y114.395 E49.56852
G1 X50.202 Y114.567 E49.59845
G1 X50.427 Y114.705 E49.61764
G1 X50.617 Y114.867 E49.6358
G1 X50.686 Y114.947 E49.64348
G1 X50.792 Y114.584 E49.67097
G1 X50.894 Y114.33 E49.69087
G1 X51.042 Y114.024 E49.71558
G1 X51.233 Y113.713 E49.74212
G1 X51.335 Y113.568 E49.75501
G1 X51.669 Y113.142 E49.79436
G1 X51.857 Y112.939 E49.81448
G1 X52.023 Y112.797 E49.83036
G1 X52.479 Y112.457 E49.87172
G1 X52.859 Y112.216 E49.90443
G1 X53.302 Y111.998 E49.94033
G1 X53.806 Y111.828 E49.979
G1 X54.248 Y111.73 E50.01192
G1 X54.41 Y111.705 E50.02383
G1 X55.029 Y111.64 E50.06908
G1 X55.296 Y111.634 E50.0885
G1 X55.877 Y111.667 E50.13081
G1 X56.285 Y111.717 E50.1607
G1 X56.764 Y111.824 E50.19638
G1 X57.088 Y111.935 E50.22128
G1 X57.349 Y112.041 E50.24176
G1 X57.71 Y112.23 E50.27139
G1 X57.849 Y112.312 E50.28312
G1 X58.407 Y112.687 E50.332
G1 X58.711 Y112.964 E50.3619
G1 X59.057 Y113.357 E50.39997
G1 X59.315 Y113.701 E50.43123
G1 X59.554 Y114.102 E50.46517
G1 X59.751 Y114.565 E50.50175
G1 F1830.5 X59.806 Y114.802 E50.51915
G1 F1894.7 X59.862 Y115.039 E50.53597
G1 F1960.4 X59.886 Y115.206 E50.54723
G1 F2030.8 X59.916 Y115.477 E50.5648
G1 F2102.7 X59.947 Y115.748 E50.58178
G1 F2160 X59.959 Y116.053 E50.60027
G1 F2163.9 X59.947 Y116.413 E50.62205
G1 F2113.9 X59.92 Y116.682 E50.63879
G1 F2041.2 X59.892 Y116.952 E50.65619
G1 F1922.3 X59.831 Y117.278 E50.67877
G1 F1760 X59.739 Y117.611 E50.70446
G1 F1670.9 X59.678 Y117.857 E50.72431
G1 F1661.5 X60.012 Y118.392 E50.77399
G1 X60.284 Y118.972 E50.82444
G1 F1682.7 X60.379 Y119.281 E50.84958
G1 F1775.8 X60.455 Y119.734 E50.88343
G1 F2100 E45.88343
G1 F300 Z0.56
G0 F6000 X60.449 Y121.995 Z0.56
G1 F300 Z0.24
G1 F2100 E50.88343
G1 F1833.3 X60.455 Y121.736 E50.90193
G1 F1873.8 X60.462 Y121.477 E50.92002
G1 F1867.9 X60.411 Y121.798 E50.94279
G1 F1833.3 X60.348 Y122.042 E50.96078
G1 F1811 X60.284 Y122.286 E50.97901
G1 F1800 X60.067 Y122.793 E51.01911
G1 X59.801 Y123.244 E51.05717
G1 X59.706 Y123.381 E51.06929
G1 X59.323 Y123.879 E51.11497
G1 X59.144 Y124.079 E51.13448
G1 X58.976 Y124.225 E51.15067
G1 X58.453 Y124.622 E51.19841
G1 X58.042 Y124.888 E51.234
G1 X57.568 Y125.126 E51.27256
G1 X57.183 Y125.266 E51.30234
G1 X56.887 Y125.353 E51.32478
G1 X57.178 Y125.463 E51.34739
G1 X57.438 Y125.591 E51.36846
G1 X57.906 Y125.872 E51.40815
G1 X58.155 Y126.058 E51.43075
G1 X58.548 Y126.411 E51.46915
G1 X58.744 Y126.621 E51.49004
G1 X59.081 Y127.051 E51.52976
G1 X59.25 Y127.315 E51.55255
G1 X59.5 Y127.802 E51.59235
G1 X59.612 Y128.075 E51.6138
G1 F1811 X59.764 Y128.602 E51.65344
G1 F1839 X59.816 Y128.894 E51.67454
G1 F1876.8 X59.838 Y129.17 E51.69385
G1 F1922.3 X59.861 Y129.447 E51.71277
G1 F1947.5 X59.864 Y129.751 E51.7332
G1 F1934.9 X59.848 Y130.024 E51.7517
G1 F1900.8 X59.831 Y130.297 E51.77053
G1 F1862.1 X59.787 Y130.595 E51.7917
G1 F1819.3 X59.65 Y131.127 E51.83122
G1 F1800 X59.541 Y131.419 E51.85388
G1 X59.302 Y131.909 E51.89351
G1 X59.146 Y132.167 E51.91543
G1 X58.821 Y132.605 E51.95509
G1 X58.615 Y132.835 E51.97754
G1 X58.215 Y133.205 E52.01715
G1 X57.981 Y133.385 E52.03861
G1 X57.535 Y133.669 E52.07706
G1 X57.263 Y133.809 E52.0993
G1 X56.759 Y134.012 E52.1388
G1 X56.474 Y134.097 E52.16042
G1 X55.895 Y134.214 E52.20337
G1 X55.631 Y134.238 E52.22264
G1 X55.062 Y134.245 E52.26401
G1 X54.779 Y134.222 E52.28466
G1 X54.243 Y134.128 E52.32422
G1 X53.945 Y134.047 E52.34667
G1 X53.421 Y133.85 E52.38737
G1 X53.19 Y133.742 E52.40591
G1 X52.687 Y133.44 E52.44857
G1 X52.433 Y133.252 E52.47154
G1 X52.024 Y132.883 E52.51159
G1 X51.823 Y132.666 E52.5331
G1 X51.491 Y132.237 E52.57254
G1 X51.324 Y131.969 E52.5955
G1 X51.146 Y131.615 E52.6243
G1 X51.146 Y135.656 E52.9181
G1 X50.991 Y136.306 E52.96668
G1 X60.446 Y136.306 E53.6541
G1 X60.446 Y131.233 E54.02293
G1 F1819.3 X60.453 Y130.683 E54.06249
G1 F1862.1 X60.461 Y130.321 E54.08794
G1 F1900.8 X60.466 Y130.048 E54.10674
G1 F1934.9 X60.472 Y129.775 E54.12521
G1 F1947.5 X60.471 Y129.415 E54.1494
G1 F1922.3 X60.464 Y129.137 E54.16833
