;FLAVOR:Marlin
;TIME:7096
;Filament used: 11.0572m
;Layer height: 0.32
;MINX:12.422
;MINY:93.366
;MINZ:0.24
;MAXX:87.773
;MAXY:148.946
;MAXZ:42.48
;Generated with Cura_SteamEngine 5.0.0
M140 S80
M105
M190 S80
M104 S245
M105
M109 S245
M82 ;absolute extrusion mode
; Ender 3 Max Custom Start G-code
G92 E0 ; Reset Extruder
G28 ; Home all axes
G1 Z2.0 F3000 ; Move Z Axis up little to prevent scratching of Heat Bed
G1 X0.1 Y20 Z0.3 F5000.0 ; Move to start position
G1 X0.1 Y200.0 Z0.3 F1500.0 E15 ; Draw the first line
G1 X0.4 Y200.0 Z0.3 F5000.0 ; Move to side a little
G1 X0.4 Y20 Z0.3 F1500.0 E30 ; Draw the second line
G92 E0 ; Reset Extruder
G1 Z2.0 F3000 ; Move Z Axis up little to prevent scratching of Heat Bed
G1 X5 Y20 Z0.3 F5000.0 ; Move over to prevent blob squish
G92 E0
G92 E0
G1 F2100 E-5
;LAYER_COUNT:132
;LAYER:0
M107
G1 F300 Z0.56
G0 F6000 X29.908 Y93.777 Z0.56
G1 F300 Z0.56
G0 F6000 X26.685 Y95.235
;TYPE:SKIRT
G1 F300 Z0.24
G1 F2100 E0
G1 F1800 X27.322 Y94.865 E0.06404
G1 X28.152 Y94.429 E0.14554
G1 X29.016 Y94.065 E0.22704
G1 X29.908 Y93.777 E0.30852
G1 X30.821 Y93.565 E0.39
G1 X31.749 Y93.432 E0.47149
G1 X32.669 Y93.379 E0.5516
G1 X33.605 Y93.366 E0.63297
G1 X64.695 Y93.366 E3.33558
G1 X65.591 Y93.38 E3.41348
G1 X66.527 Y93.435 E3.49499
G1 X67.454 Y93.571 E3.57643
G1 X68.367 Y93.785 E3.65795
G1 X69.258 Y94.076 E3.73943
G1 X69.926 Y94.351 E3.80222
G1 X72.227 Y95.39 E4.02169
G1 X74.585 Y96.375 E4.24384
G1 X76.923 Y97.276 E4.46165
G1 X79.35 Y98.134 E4.68542
G1 X80.301 Y98.456 E4.7727
G1 X81.175 Y98.795 E4.85419
G1 X82.018 Y99.207 E4.93575
G1 X82.822 Y99.689 E5.01724
G1 X83.582 Y100.237 E5.09869
G1 X84.292 Y100.849 E5.18017
G1 X84.948 Y101.519 E5.26168
G1 X85.544 Y102.242 E5.34313
G1 X86.077 Y103.014 E5.42468
G1 X86.542 Y103.828 E5.50618
G1 X86.935 Y104.678 E5.58758
G1 X87.255 Y105.56 E5.66914
G1 X87.499 Y106.465 E5.75062
G1 X87.664 Y107.388 E5.83213
G1 X87.762 Y108.639 E5.94121
G1 X87.773 Y109.309 E5.99946
G1 X87.771 Y110.949 E6.14202
G1 X87.76 Y111.63 E6.20123
G1 X87.704 Y112.566 E6.28274
G1 X87.57 Y113.494 E6.36425
G1 X87.357 Y114.407 E6.44574
G1 X87.066 Y115.298 E6.52722
G1 X86.701 Y116.162 E6.60876
G1 X86.264 Y116.991 E6.69022
G1 X85.598 Y118 E6.79531
G1 X85.062 Y118.721 E6.87341
G1 X84.422 Y119.559 E6.96507
G1 X82.929 Y121.63 E7.18701
G1 X81.532 Y123.69 E7.40337
G1 X80.167 Y125.829 E7.62395
G1 X78.892 Y127.958 E7.83967
G1 X77.645 Y130.181 E8.06124
G1 X76.476 Y132.412 E8.28019
G1 X75.384 Y134.644 E8.49619
G1 X74.326 Y136.975 E8.71872
G1 X73.352 Y139.287 E8.9368
G1 X72.331 Y141.921 E9.18237
G1 X71.955 Y142.78 E9.26388
G1 X71.507 Y143.604 E9.34542
G1 X70.991 Y144.386 E9.42686
G1 X70.41 Y145.122 E9.50837
G1 X69.768 Y145.805 E9.58985
G1 X69.071 Y146.431 E9.67129
G1 X68.322 Y146.996 E9.75285
G1 X67.528 Y147.494 E9.83432
G1 X66.695 Y147.923 E9.91577
G1 X65.828 Y148.28 E9.99728
G1 X64.934 Y148.561 E10.07874
G1 X64.019 Y148.766 E10.16026
G1 X63.09 Y148.891 E10.24174
G1 X62.395 Y148.933 E10.30227
G1 X61.766 Y148.946 E10.35696
G1 X23.977 Y148.945 E13.6419
G1 X23.279 Y148.936 E13.70259
G1 X22.343 Y148.884 E13.78408
G1 X21.415 Y148.752 E13.86556
G1 X20.502 Y148.542 E13.947
G1 X19.609 Y148.255 E14.02853
G1 X18.745 Y147.892 E14.11
G1 X17.914 Y147.458 E14.1915
G1 X17.124 Y146.954 E14.27295
G1 X16.379 Y146.384 E14.3545
G1 X15.686 Y145.754 E14.43591
G1 X15.048 Y145.066 E14.51748
G1 X14.472 Y144.327 E14.59893
G1 X13.961 Y143.541 E14.68042
G1 X13.519 Y142.714 E14.76193
G1 X13.149 Y141.853 E14.8434
G1 X12.853 Y140.963 E14.92493
G1 X12.634 Y140.052 E15.00638
G1 X12.494 Y139.125 E15.08788
G1 X12.434 Y138.224 E15.16637
G1 X12.422 Y137.59 E15.2215
G1 X12.422 Y110.568 E17.57048
G1 X12.432 Y109.877 E17.63056
G1 X12.486 Y108.941 E17.71206
G1 X12.619 Y108.013 E17.79355
G1 X12.83 Y107.1 E17.87501
G1 X13.119 Y106.208 E17.95652
G1 X13.483 Y105.344 E18.03802
G1 X13.919 Y104.514 E18.11952
G1 X14.424 Y103.724 E18.20102
G1 X14.995 Y102.981 E18.28248
G1 X15.627 Y102.288 E18.36401
G1 X16.315 Y101.652 E18.44546
G1 X17.056 Y101.077 E18.52699
G1 X17.574 Y100.73 E18.58119
G1 X18.625 Y100.073 E18.68893
G1 X25.517 Y95.936 E19.38769
G0 F1620 X26.685 Y95.235
G0 F6000 X27.017 Y95.806
G1 F1800 X27.654 Y95.436 E19.45173
G1 X28.459 Y95.014 E19.53074
G1 X29.298 Y94.665 E19.60973
G1 X30.165 Y94.391 E19.68877
G1 X31.052 Y94.194 E19.76776
G1 X31.953 Y94.076 E19.84675
G1 X32.68 Y94.039 E19.91003
G1 X33.605 Y94.026 E19.99045
G1 X64.695 Y94.026 E22.69306
G1 X65.58 Y94.039 E22.77
G1 X66.487 Y94.095 E22.84899
G1 X67.386 Y94.23 E22.92802
G1 X68.269 Y94.443 E23.00698
G1 X69.13 Y94.733 E23.08595
G1 X69.654 Y94.953 E23.13536
G1 X71.952 Y95.99 E23.35452
G1 X74.314 Y96.977 E23.57705
G1 X76.737 Y97.911 E23.80278
G1 X79.082 Y98.74 E24.01899
G1 X80.089 Y99.081 E24.11141
G1 X80.936 Y99.411 E24.19043
G1 X81.751 Y99.813 E24.26943
G1 X82.528 Y100.286 E24.3485
G1 X83.259 Y100.825 E24.42746
G1 X83.941 Y101.426 E24.50648
G1 X84.567 Y102.085 E24.58549
G1 X85.133 Y102.796 E24.66449
G1 X85.634 Y103.554 E24.74347
G1 X86.067 Y104.353 E24.82247
G1 X86.427 Y105.188 E24.90151
G1 X86.713 Y106.05 E24.98046
G1 X86.922 Y106.935 E25.05951
G1 X87.052 Y107.834 E25.13847
G1 X87.102 Y108.652 E25.20971
G1 X87.113 Y109.309 E25.26683
G1 X87.111 Y110.939 E25.40853
G1 X87.1 Y111.62 E25.46773
G1 X87.045 Y112.527 E25.54672
G1 X86.911 Y113.426 E25.62574
G1 X86.698 Y114.31 E25.70478
G1 X86.409 Y115.171 E25.78373
G1 X86.045 Y116.004 E25.86275
G1 X85.609 Y116.801 E25.94172
G1 X85.068 Y117.606 E26.02604
G1 X84.538 Y118.32 E26.10333
G1 X83.877 Y119.185 E26.19797
G1 X82.408 Y121.224 E26.41643
G1 X80.978 Y123.331 E26.63778
G1 X79.604 Y125.485 E26.85988
G1 X78.31 Y127.647 E27.07891
G1 X77.067 Y129.861 E27.29963
G1 X75.888 Y132.111 E27.52044
G1 X74.787 Y134.362 E27.73827
G1 X73.727 Y136.697 E27.96119
G1 X72.744 Y139.032 E28.18142
G1 X71.716 Y141.683 E28.42859
G1 X71.35 Y142.515 E28.5076
G1 X70.913 Y143.311 E28.58654
G1 X70.407 Y144.067 E28.66562
G1 X69.837 Y144.774 E28.74456
G1 X69.207 Y145.429 E28.82356
G1 X68.522 Y146.026 E28.90255
G1 X67.787 Y146.561 E28.98158
G1 X67.008 Y147.029 E29.06057
G1 X66.19 Y147.426 E29.13961
G1 X65.341 Y147.75 E29.21861
G1 X64.467 Y147.999 E29.29761
G1 X63.574 Y148.169 E29.37663
G1 X62.376 Y148.273 E29.48116
G1 X61.766 Y148.286 E29.5342
G1 X23.986 Y148.285 E32.81836
G1 X23.288 Y148.276 E32.87905
G1 X22.38 Y148.224 E32.95811
G1 X21.481 Y148.093 E33.03708
G1 X20.597 Y147.883 E33.11606
G1 X19.734 Y147.597 E33.1951
G1 X18.9 Y147.235 E33.27413
G1 X18.102 Y146.802 E33.35305
G1 X17.344 Y146.3 E33.43208
G1 X16.633 Y145.734 E33.51108
G1 X15.975 Y145.107 E33.59009
G1 X15.374 Y144.425 E33.66911
G1 X14.836 Y143.692 E33.74815
G1 X14.364 Y142.916 E33.82711
G1 X13.963 Y142.1 E33.90614
G1 X13.634 Y141.253 E33.98513
G1 X13.382 Y140.38 E34.06412
G1 X13.207 Y139.488 E34.14314
G1 X13.094 Y138.207 E34.25493
G1 X13.082 Y137.59 E34.30857
G1 X13.082 Y110.578 E36.65669
G1 X13.092 Y109.887 E36.71676
G1 X13.145 Y108.979 E36.79583
G1 X13.278 Y108.08 E36.87483
G1 X13.489 Y107.196 E36.95383
G1 X13.777 Y106.334 E37.03283
G1 X14.14 Y105.501 E37.11182
G1 X14.574 Y104.703 E37.19079
G1 X15.077 Y103.946 E37.2698
G1 X15.645 Y103.236 E37.34883
G1 X16.273 Y102.579 E37.42784
G1 X16.956 Y101.979 E37.50687
G1 X17.925 Y101.289 E37.61028
G1 X18.965 Y100.639 E37.71689
G1 X25.849 Y96.507 E38.41483
G0 F1620 X27.017 Y95.806
G1 F2100 E33.41483
G1 F300 Z0.56
;MESH:right-stepper-short-tab.stl
G0 F6000 X54.875 Y115.952 Z0.56
;TYPE:WALL-INNER
G1 F300 Z0.24
G1 F2100 E38.41483
G1 F1697.1 X54.895 Y116.21 E38.43478
G1 X55.085 Y116.384 E38.45465
G1 X55.332 Y116.407 E38.47378
G1 X55.593 Y116.307 E38.49533
G1 X55.684 Y116.044 E38.51679
G1 X55.678 Y116.001 E38.52014
G1 X55.541 Y115.786 E38.53979
G1 X55.301 Y115.711 E38.55918
G1 X55.237 Y115.724 E38.56422
G0 F1620 X55.04 Y115.763
G0 X54.875 Y115.952
G0 F6000 X54.243 Y115.676
;TYPE:WALL-OUTER
G1 F1800 X54.193 Y115.915 E38.58178
G1 X54.193 Y116.159 E38.59933
G1 X54.263 Y116.478 E38.62281
G1 X54.413 Y116.709 E38.64262
G1 X54.609 Y116.891 E38.66185
G1 X54.859 Y117.032 E38.68249
G1 X55.153 Y117.083 E38.70395
G1 X55.417 Y117.082 E38.72294
G1 X55.755 Y117.011 E38.74778
G1 X55.982 Y116.868 E38.76707
G1 X56.168 Y116.684 E38.78588
G1 X56.307 Y116.456 E38.80509
G1 X56.372 Y116.05 E38.83466
G1 X56.352 Y115.907 E38.84504
G1 X56.286 Y115.645 E38.86447
G1 X56.133 Y115.417 E38.88422
G1 X55.939 Y115.234 E38.90339
G1 X55.683 Y115.089 E38.92455
G1 X55.399 Y115.037 E38.94532
G1 X55.353 Y115.037 E38.94862
G0 F1620 X55.143 Y115.037
G0 X54.81 Y115.11
G0 X54.576 Y115.258
G0 X54.394 Y115.437
G0 X54.243 Y115.676
G0 F6000 X54.193 Y115.915
G0 X54.193 Y115.991
G1 F2100 E33.94862
G1 F300 Z0.56
G0 F6000 X55.922 Y121.344 Z0.56
;TYPE:WALL-INNER
G1 F300 Z0.24
G1 F2100 E38.94862
G1 F1800 X56.104 Y121.167 E38.96708
G1 X56.226 Y120.899 E38.98849
G1 X56.247 Y120.734 E39.00058
G1 X56.226 Y120.451 E39.02121
G1 X56.137 Y120.226 E39.03881
G1 X55.917 Y119.986 E39.06248
G1 X55.632 Y119.859 E39.08516
G1 X55.363 Y119.827 E39.10486
G1 X55.117 Y119.866 E39.12297
G1 X54.864 Y119.998 E39.14371
G1 X54.695 Y120.186 E39.16209
G1 X54.601 Y120.42 E39.18043
G1 X54.574 Y120.672 E39.19885
G1 X54.631 Y120.919 E39.21728
G1 X54.751 Y121.185 E39.2385
G1 X54.913 Y121.335 E39.25455
G0 F1620 X54.945 Y121.364
G0 X55.195 Y121.461
G0 X55.434 Y121.485
G0 X55.695 Y121.444
G0 X55.922 Y121.344
G0 F6000 X55.535 Y120.657
G1 F1200 X55.473 Y120.763 E39.26794
G1 X55.351 Y120.763 E39.28125
G1 X55.29 Y120.657 E39.29458
G1 X55.351 Y120.551 E39.30792
G1 X55.37 Y120.551 E39.30999
G0 F1620 X55.473 Y120.551
G0 F6000 X56.453 Y119.558
;TYPE:WALL-OUTER
G1 F1800 X56.21 Y119.385 E39.33145
G1 X55.949 Y119.254 E39.35245
G1 X55.655 Y119.187 E39.37413
G1 X55.344 Y119.163 E39.39656
G1 X55.031 Y119.205 E39.41927
G1 X54.768 Y119.278 E39.4389
G1 X54.524 Y119.423 E39.45931
G1 X54.294 Y119.612 E39.48072
G1 X54.131 Y119.84 E39.50088
G1 X53.998 Y120.097 E39.52169
G1 X53.935 Y120.375 E39.54219
G1 X53.911 Y120.682 E39.56433
G1 X53.953 Y120.949 E39.58377
G1 X54.038 Y121.256 E39.60668
G1 X54.218 Y121.588 E39.63383
G1 X54.505 Y121.868 E39.66267
G1 X54.736 Y121.997 E39.6817
G1 X55.049 Y122.107 E39.70555
G1 X55.32 Y122.14 E39.72519
G1 X55.592 Y122.13 E39.74476
G1 X55.868 Y122.082 E39.76491
G1 X56.209 Y121.941 E39.79144
G1 X56.535 Y121.699 E39.82064
G1 X56.698 Y121.474 E39.84062
G1 X56.831 Y121.217 E39.86143
G1 X56.894 Y120.938 E39.882
G1 X56.904 Y120.804 E39.89166
G0 F1620 X56.905 Y120.782
G0 X56.897 Y120.482
G0 X56.847 Y120.22
G0 X56.703 Y119.886
G0 X56.453 Y119.558
G0 F6000 X56.21 Y119.385
G0 X56.191 Y119.376
G1 F2100 E34.89166
G1 F300 Z0.56
G0 F6000 X60.455 Y119.734 Z0.56
;TYPE:WALL-INNER
G1 F300 Z0.24
G1 F2100 E39.89166
G1 F1775.8 X60.428 Y119.276 E39.92547
G1 F1682.7 X60.419 Y118.944 E39.9513
G1 F1661.5 X60.419 Y117.779 E40.04306
G1 F1749.6 X60.454 Y117.392 E40.07213
G1 F1922.3 X60.48 Y116.998 E40.09901
G1 F2055.4 X60.494 Y116.644 E40.12157
G1 F2125.2 X60.499 Y116.354 E40.13943
G1 F2163.9 X60.504 Y116.064 E40.15697
G1 F2160 X60.499 Y115.707 E40.1786
G1 F2102.7 X60.489 Y115.434 E40.1956
G1 F2030.8 X60.478 Y115.161 E40.21321
G1 F1950.7 X60.465 Y114.914 E40.2298
G1 F1870.9 X60.452 Y114.666 E40.24717
G1 F1816.5 X60.446 Y114.17 E40.28291
G1 F1800 X60.447 Y111.578 E40.47136
G1 X60.49 Y111.272 E40.49382
G1 X60.585 Y110.989 E40.51553
G1 X60.718 Y110.723 E40.53715
G1 X60.919 Y110.426 E40.56322
G1 X61.123 Y110.224 E40.58409
G1 X61.376 Y110.051 E40.60638
G1 X61.672 Y109.923 E40.62982
G1 X62.01 Y109.83 E40.65531
G1 X62.296 Y109.806 E40.67618
G1 X68.517 Y109.805 E41.12847
G1 X64.72 Y106.006 E41.51898
G1 X33.299 Y106.006 E43.80341
G1 X29.911 Y108.04 E44.09071
G1 X25.062 Y110.952 E44.50194
G1 X25.062 Y136.306 E46.34527
G1 X31.585 Y136.305 E46.81952
G1 X31.524 Y136.163 E46.83076
G1 X31.446 Y135.656 E46.86805
G1 X31.446 Y116.155 E48.28585
G1 X31.466 Y115.892 E48.30503
G1 X31.528 Y115.64 E48.3239
G1 X31.625 Y115.406 E48.34232
G1 X31.805 Y115.078 E48.36952
G1 X31.973 Y114.865 E48.38924
G1 X32.179 Y114.68 E48.40937
G1 X32.415 Y114.53 E48.4297
G1 X32.672 Y114.423 E48.44994
G1 X33.043 Y114.325 E48.47784
G1 X33.296 Y114.306 E48.49628
G1 X49.292 Y114.305 E49.65926
G1 X49.584 Y114.331 E49.68057
G1 X49.828 Y114.395 E49.69891
G1 X50.202 Y114.567 E49.72884
G1 X50.427 Y114.705 E49.74803
G1 X50.617 Y114.867 E49.76618
G1 X50.686 Y114.947 E49.77386
G1 X50.792 Y114.584 E49.80136
G1 X50.894 Y114.33 E49.82126
G1 X51.042 Y114.024 E49.84597
G1 X51.233 Y113.713 E49.87251
G1 X51.335 Y113.568 E49.8854
G1 X51.669 Y113.142 E49.92475
G1 X51.857 Y112.939 E49.94487
G1 X52.023 Y112.797 E49.96075
G1 X52.479 Y112.457 E50.0021
G1 X52.859 Y112.216 E50.03482
G1 X53.302 Y111.998 E50.07072
G1 X53.806 Y111.828 E50.10939
G1 X54.248 Y111.73 E50.1423
G1 X54.409 Y111.705 E50.15415
G1 X55.029 Y111.64 E50.19947
G1 X55.296 Y111.634 E50.21889
G1 X55.877 Y111.667 E50.2612
G1 X56.285 Y111.717 E50.29108
G1 X56.765 Y111.824 E50.32684
G1 X57.024 Y111.909 E50.34666
G1 X57.284 Y112.013 E50.36701
G1 X57.71 Y112.23 E50.40177
G1 X57.849 Y112.312 E50.41351
G1 X58.407 Y112.687 E50.46239
G1 X58.711 Y112.964 E50.49229
G1 X59.057 Y113.357 E50.53036
G1 X59.315 Y113.701 E50.56162
G1 X59.554 Y114.102 E50.59556
G1 X59.751 Y114.565 E50.63214
G1 F1830.5 X59.806 Y114.802 E50.64953
G1 F1894.7 X59.862 Y115.039 E50.66635
G1 F1960.4 X59.886 Y115.206 E50.67762
G1 F2030.8 X59.916 Y115.477 E50.69519
G1 F2102.7 X59.947 Y115.748 E50.71216
G1 F2160 X59.959 Y116.053 E50.73066
G1 F2163.9 X59.947 Y116.413 E50.75244
G1 F2113.9 X59.92 Y116.682 E50.76918
G1 F2041.2 X59.892 Y116.952 E50.78658
G1 F1922.3 X59.831 Y117.278 E50.80916
G1 F1760 X59.739 Y117.611 E50.83485
G1 F1670.9 X59.678 Y117.857 E50.8547
G1 F1661.5 X60.012 Y118.392 E50.90437
G1 X60.284 Y118.972 E50.95483
G1 F1682.7 X60.379 Y119.281 E50.97997
G1 F1775.8 X60.455 Y119.734 E51.01382
G1 F2100 E46.01382
G1 F300 Z0.56
G0 F6000 X60.449 Y121.995 Z0.56
G1 F300 Z0.24
G1 F2100 E51.01382
G1 F1833.3 X60.455 Y121.736 E51.03231
G1 F1873.8 X60.462 Y121.477 E51.05041
G1 F1867.9 X60.411 Y121.798 E51.07318
G1 F1833.3 X60.348 Y122.042 E51.09117
G1 F1811 X60.284 Y122.286 E51.1094
G1 F1800 X60.067 Y122.793 E51.14949
G1 X59.801 Y123.244 E51.18756
G1 X59.706 Y123.381 E51.19968
G1 X59.323 Y123.879 E51.24536
G1 X59.144 Y124.079 E51.26487
G1 X58.976 Y124.225 E51.28105
G1 X58.453 Y124.622 E51.32879
G1 X58.042 Y124.888 E51.36439
G1 X57.568 Y125.126 E51.40295
G1 X57.183 Y125.266 E51.43273
G1 X56.887 Y125.353 E51.45516
G1 X57.178 Y125.463 E51.47778
G1 X57.438 Y125.591 E51.49885
G1 X57.906 Y125.872 E51.53854
G1 X58.155 Y126.058 E51.56114
G1 X58.548 Y126.411 E51.59954
G1 X58.744 Y126.621 E51.62043
G1 X59.081 Y127.051 E51.66015
G1 X59.25 Y127.315 E51.68294
G1 X59.5 Y127.802 E51.72274
G1 X59.612 Y128.075 E51.74419
G1 F1811 X59.764 Y128.602 E51.78382
G1 F1839 X59.816 Y128.894 E51.80493
G1 F1876.8 X59.838 Y129.17 E51.82424
G1 F1922.3 X59.861 Y129.447 E51.84316
G1 F1947.5 X59.864 Y129.751 E51.86359
G1 F1934.9 X59.848 Y130.024 E51.88208
G1 F1900.8 X59.831 Y130.297 E51.90092
G1 F1862.1 X59.787 Y130.595 E51.92209
G1 F1819.3 X59.65 Y131.127 E51.9616
G1 F1800 X59.541 Y131.419 E51.98426
G1 X59.302 Y131.909 E52.0239
G1 X59.146 Y132.167 E52.04582
G1 X58.821 Y132.605 E52.08547
G1 X58.615 Y132.835 E52.10792
G1 X58.215 Y133.205 E52.14754
G1 X57.981 Y133.385 E52.169
G1 X57.535 Y133.669 E52.20744
G1 X57.263 Y133.809 E52.22969
G1 X56.759 Y134.012 E52.26919
G1 X56.474 Y134.097 E52.29081
G1 X55.895 Y134.214 E52.33376
G1 X55.631 Y134.238 E52.35303
G1 X55.062 Y134.245 E52.3944
G1 X54.779 Y134.222 E52.41505
G1 X54.243 Y134.128 E52.45461
G1 X53.945 Y134.047 E52.47706
G1 X53.421 Y133.85 E52.51776
G1 X53.19 Y133.742 E52.5363
G1 X52.687 Y133.44 E52.57896
G1 X52.433 Y133.252 E52.60193
G1 X52.024 Y132.883 E52.64198
G1 X51.823 Y132.666 E52.66349
G1 X51.491 Y132.237 E52.70292
G1 X51.324 Y131.969 E52.72588
G1 X51.146 Y131.615 E52.75469
G1 X51.146 Y135.656 E53.04849
G1 X50.991 Y136.306 E53.09707
G1 X60.446 Y136.306 E53.78449
G1 X60.446 Y131.233 E54.15331
G1 F1819.3 X60.453 Y130.683 E54.19288
G1 F1862.1 X60.461 Y130.321 E54.21833
G1 F1900.8 X60.466 Y130.048 E54.23713
G1 F1934.9 X60.472 Y129.775 E54.2556
G1 F1947.5 X60.471 Y129.415 E54.27979
