;FLAVOR:Marlin
;TIME:3927
;Filament used: 21.9251m
;Layer height: 0.4
;MINX:86.962
;MINY:46.668
;MINZ:0.4
;MAXX:165.44
;MAXY:85.922
;MAXZ:70.28
;TARGET_MACHINE.NAME:VORON2 250
;Generated with Cura_SteamEngine 5.6.0
M140 S80
M105
M190 S80
M104 S245
M105
M109 S245
M82 ;absolute extrusion mode
START_PRINT
G92 E0
G92 E0
G1 F300 E-0.5
;LAYER_COUNT:175
;LAYER:0
M107
M204 S1000
G1 F600 Z0.68
G0 F9000 X88.089 Y67.563 Z0.68
;TYPE:SKIRT
G1 F600 Z0.4
G1 F120 E0
G1 F1800 X88.335 Y67.275 E0.04504
G1 X99.988 Y54.39 E2.111
G1 X100.602 Y53.734 E2.21785
G1 X101.132 Y53.225 E2.30524
G1 X101.512 Y52.911 E2.36386
G1 X101.894 Y52.64 E2.41956
G1 X102.483 Y52.265 E2.50259
G1 X103.956 Y51.407 E2.70531
G1 X104.846 Y50.917 E2.82613
G1 X105.274 Y50.712 E2.88256
G1 X105.827 Y50.482 E2.95378
G1 X106.241 Y50.345 E3.00564
G1 X106.822 Y50.199 E3.07688
G1 X107.437 Y50.082 E3.15133
G1 X108.117 Y49.975 E3.23319
G1 X129.058 Y46.982 E5.74878
G1 X130.841 Y46.764 E5.96239
G1 X132.189 Y46.675 E6.12304
G1 X132.451 Y46.668 E6.15421
G1 X133.671 Y46.674 E6.29929
G1 X133.936 Y46.685 E6.33083
G1 X135.3 Y46.788 E6.4935
G1 X135.562 Y46.817 E6.52485
G1 X136.896 Y47.019 E6.68529
G1 X138.089 Y47.272 E6.83032
G1 X138.347 Y47.336 E6.86193
G1 X139.689 Y47.721 E7.02796
G1 X139.945 Y47.805 E7.06
G1 X141.098 Y48.228 E7.20605
G1 X141.335 Y48.325 E7.2365
G1 X142.46 Y48.826 E7.38295
G1 X142.693 Y48.94 E7.4138
G1 X144.007 Y49.646 E7.59118
G1 X145.126 Y50.344 E7.74802
G1 X146.119 Y51.046 E7.89263
G1 X146.345 Y51.218 E7.92641
G1 X147.38 Y52.065 E8.08545
G1 X148.358 Y52.931 E8.24079
G1 X163.378 Y66.678 E10.66213
G1 X163.922 Y67.194 E10.7513
G1 X164.323 Y67.641 E10.82271
G1 X164.512 Y67.887 E10.8596
G1 X164.86 Y68.418 E10.9351
G1 X165.125 Y69.001 E11.01125
G1 X165.292 Y69.61 E11.08635
G1 X165.36 Y69.972 E11.13015
G1 X165.427 Y70.637 E11.20963
G1 X165.44 Y71.5 E11.31227
G1 X165.438 Y80.306 E12.35947
G1 X165.425 Y81.07 E12.45034
G1 X165.372 Y81.64 E12.51841
G1 X165.23 Y82.218 E12.58919
G1 X165.141 Y82.495 E12.62379
G1 X164.899 Y83.091 E12.70029
G1 X164.546 Y83.665 E12.78042
G1 X164.306 Y83.964 E12.82602
G1 X163.999 Y84.304 E12.88049
G1 X163.58 Y84.704 E12.94938
G1 X163.017 Y85.087 E13.03036
G1 X162.672 Y85.263 E13.07641
G1 X162.375 Y85.392 E13.11492
G1 X161.743 Y85.6 E13.19404
G1 X161.374 Y85.682 E13.23899
G1 X160.61 Y85.768 E13.33042
G1 X159.942 Y85.777 E13.40987
G1 X146.122 Y85.775 E15.05333
G1 X145.435 Y85.765 E15.13503
G1 X145.033 Y85.739 E15.18294
G1 X142.406 Y85.444 E15.4973
G1 X139.723 Y85.217 E15.8175
G1 X136.997 Y85.063 E16.14219
G1 X134.261 Y84.985 E16.46768
G1 X131.598 Y84.985 E16.78437
G1 X128.862 Y85.063 E17.10986
G1 X126.139 Y85.217 E17.43419
G1 X123.452 Y85.445 E17.75488
G1 X121.818 Y85.635 E17.9505
G1 X120.862 Y85.736 E18.06482
G1 X120.495 Y85.759 E18.10855
G1 X119.515 Y85.774 E18.2251
G1 X92.425 Y85.775 E21.44662
G1 X91.654 Y85.761 E21.53832
G1 X91.074 Y85.707 E21.60759
G1 X90.468 Y85.55 E21.68203
G1 X90.113 Y85.426 E21.72675
G1 X89.584 Y85.193 E21.79549
G1 X89.087 Y84.876 E21.86559
G1 X88.819 Y84.676 E21.90536
G1 X88.339 Y84.253 E21.98144
G1 X87.912 Y83.728 E22.06192
G1 X87.757 Y83.501 E22.09461
G1 X87.496 Y83.053 E22.15626
G1 X87.304 Y82.609 E22.21379
G1 X87.208 Y82.34 E22.24775
G1 X87.05 Y81.775 E22.31752
G1 X86.977 Y81.049 E22.40429
G1 X86.963 Y80.127 E22.51395
G1 X86.962 Y71.287 E23.56519
G1 X86.977 Y70.42 E23.66831
G1 X87.03 Y69.844 E23.73709
G1 X87.199 Y69.195 E23.81685
G1 X87.318 Y68.886 E23.85622
G1 X87.447 Y68.59 E23.89462
G1 X87.742 Y68.031 E23.96979
G1 X88.089 Y67.563 E24.03907
G0 F9000 X88.666 Y68.057
G1 F1800 X88.899 Y67.785 E24.08166
G1 X100.543 Y54.909 E26.14611
G1 X101.157 Y54.253 E26.25296
G1 X101.618 Y53.809 E26.32907
G1 X101.952 Y53.531 E26.38075
G1 X102.334 Y53.26 E26.43645
G1 X102.865 Y52.922 E26.5113
G1 X104.323 Y52.073 E26.71194
G1 X105.213 Y51.583 E26.83276
G1 X105.601 Y51.398 E26.88387
G1 X106.066 Y51.204 E26.94379
G1 X106.48 Y51.067 E26.99565
G1 X107.005 Y50.937 E27.05997
G1 X107.556 Y50.833 E27.12665
G1 X108.225 Y50.727 E27.2072
G1 X129.151 Y47.736 E29.72099
G1 X130.891 Y47.522 E29.92946
G1 X132.212 Y47.435 E30.0869
G1 X132.448 Y47.428 E30.11497
G1 X133.639 Y47.433 E30.25661
G1 X133.879 Y47.443 E30.28517
G1 X135.218 Y47.544 E30.44486
G1 X135.449 Y47.569 E30.47249
G1 X136.739 Y47.763 E30.62762
G1 X137.907 Y48.01 E30.76959
G1 X138.138 Y48.067 E30.79788
G1 X139.452 Y48.443 E30.96041
G1 X139.684 Y48.519 E30.98944
G1 X140.812 Y48.932 E31.13229
G1 X141.026 Y49.019 E31.15976
G1 X142.128 Y49.51 E31.30323
G1 X142.334 Y49.61 E31.33046
G1 X143.605 Y50.291 E31.50194
G1 X144.687 Y50.965 E31.65353
G1 X145.68 Y51.667 E31.79815
G1 X145.864 Y51.806 E31.82557
G1 X146.876 Y52.634 E31.98106
G1 X147.845 Y53.492 E32.13498
G1 X162.857 Y67.231 E34.55497
G1 X163.358 Y67.703 E34.63682
G1 X163.72 Y68.104 E34.70107
G1 X163.909 Y68.35 E34.73796
G1 X164.193 Y68.785 E34.79974
G1 X164.407 Y69.258 E34.86147
G1 X164.546 Y69.757 E34.92307
G1 X164.604 Y70.052 E34.95883
G1 X164.667 Y70.649 E35.03022
G1 X164.68 Y71.5 E35.13143
G1 X164.678 Y80.295 E36.17732
G1 X164.668 Y81 E36.26117
G1 X164.62 Y81.517 E36.32291
G1 X164.506 Y81.986 E36.38031
G1 X164.417 Y82.263 E36.41491
G1 X164.22 Y82.744 E36.47672
G1 X163.953 Y83.189 E36.53843
G1 X163.713 Y83.488 E36.58403
G1 X163.474 Y83.754 E36.62655
G1 X163.098 Y84.113 E36.68837
G1 X162.672 Y84.41 E36.75013
G1 X162.327 Y84.586 E36.79619
G1 X162.137 Y84.67 E36.82089
G1 X161.505 Y84.878 E36.90001
G1 X161.285 Y84.927 E36.92682
G1 X160.6 Y85.008 E37.00884
G1 X159.942 Y85.017 E37.0871
G1 X146.133 Y85.015 E38.72925
G1 X145.446 Y85.005 E38.81096
G1 X145.118 Y84.984 E38.85004
G1 X142.483 Y84.688 E39.16537
G1 X139.766 Y84.458 E39.48962
G1 X137.026 Y84.303 E39.81598
G1 X134.283 Y84.225 E40.14231
G1 X131.576 Y84.225 E40.46422
G1 X128.833 Y84.303 E40.79055
G1 X126.096 Y84.458 E41.11655
G1 X123.364 Y84.69 E41.44261
G1 X121.738 Y84.879 E41.63727
G1 X120.782 Y84.98 E41.75159
G1 X120.483 Y84.999 E41.78722
G1 X119.515 Y85.014 E41.90235
G1 X92.437 Y85.015 E45.12244
G1 X91.724 Y85.004 E45.20723
G1 X91.206 Y84.956 E45.2691
G1 X90.659 Y84.814 E45.3363
G1 X90.419 Y84.73 E45.36654
G1 X89.944 Y84.521 E45.42825
G1 X89.496 Y84.235 E45.49146
G1 X89.278 Y84.07 E45.52397
G1 X88.889 Y83.726 E45.58573
G1 X88.537 Y83.296 E45.65181
G1 X88.414 Y83.118 E45.67754
G1 X88.153 Y82.67 E45.7392
G1 X88.018 Y82.35 E45.7805
G1 X87.94 Y82.135 E45.8077
G1 X87.8 Y81.634 E45.86956
G1 X87.737 Y81.037 E45.94095
G1 X87.723 Y80.127 E46.04918
G1 X87.722 Y71.298 E47.09911
G1 X87.734 Y70.49 E47.19521
G1 X87.782 Y69.972 E47.25707
G1 X87.908 Y69.468 E47.31885
G1 X88.015 Y69.19 E47.35427
G1 X88.144 Y68.894 E47.39267
G1 X88.388 Y68.435 E47.45449
G1 X88.666 Y68.057 E47.51029
G1 F300 E47.01029
G1 F600 Z0.68
;MESH:corner-top-c-primo.stl
G0 F9000 X104.307 Y79.194 Z0.68
;TYPE:WALL-INNER
G1 F600 Z0.4
G1 F120 E47.51029
G1 F1642.3 X104.104 Y79.203 E47.53677
G1 F1654.2 X95.376 Y79.206 E48.6662
G1 F1644.2 X95.213 Y79.193 E48.68749
G1 F1676.5 X94.949 Y79.112 E48.72275
G1 F1747.1 X94.7 Y79.01 E48.75571
G1 F1788.2 X94.333 Y78.79 E48.80693
G1 F1800 X94.1 Y78.586 E48.84376
G1 X93.877 Y78.304 E48.88651
G1 F1762.9 X93.662 Y77.905 E48.94155
G1 F1678.5 X93.54 Y77.559 E48.98833
G1 F1646.2 X93.53 Y77.357 E49.01463
G1 F1658.2 X93.528 Y71.939 E49.71404
G1 F1618.9 X93.597 Y71.413 E49.78418
G1 F1577.9 X93.729 Y71.165 E49.82229
G1 F1603.8 X93.832 Y71.002 E49.84803
G1 F1648.2 X93.96 Y70.843 E49.87454
G1 F1662.2 X101.386 Y62.633 E51.30012
G1 F1638.3 X101.592 Y62.439 E51.3371
G1 X101.766 Y62.336 E51.36351
G1 F1710 X102.021 Y62.23 E51.39808
G1 F1781.2 X102.276 Y62.143 E51.43046
G1 F1800 X102.746 Y62.073 E51.48697
G1 X103.035 Y62.092 E51.52141
G1 X103.355 Y62.159 E51.56029
G1 X103.604 Y62.25 E51.59182
G1 X103.773 Y62.336 E51.61437
G1 X104.013 Y62.5 E51.64893
G1 X104.298 Y62.773 E51.69587
G1 F1742.7 X104.59 Y63.214 E51.76083
G1 F1624.7 X104.73 Y63.472 E51.79951
G1 F1576 X104.858 Y64.334 E51.91786
G1 F1588.9 X104.978 Y64.878 E51.99292
G1 X105.121 Y65.374 E52.06246
G1 F1590.7 X105.312 Y65.896 E52.13726
G1 X105.539 Y66.404 E52.21213
G1 X105.787 Y66.874 E52.28364
G1 X106.082 Y67.348 E52.35877
G1 X106.39 Y67.78 E52.43017
G1 X106.595 Y68.035 E52.47419
G1 F1594.4 X106.961 Y68.441 E52.54758
G1 F1592.5 X107.108 Y68.59 E52.57571
G1 X107.508 Y68.962 E52.64913
G1 F1579.7 X108.132 Y69.467 E52.75791
G1 F1634.4 X108.378 Y69.827 E52.81501
G1 F1753.8 X108.546 Y70.167 E52.8613
G1 F1800 X108.596 Y70.359 E52.88489
G1 X108.675 Y70.858 E52.94497
G1 X108.638 Y71.215 E52.98765
G1 X108.609 Y71.386 E53.00828
G1 X105.67 Y78.115 E53.88148
G1 X105.586 Y78.258 E53.9012
G1 X105.478 Y78.414 E53.92377
G1 X105.281 Y78.631 E53.95862
G1 X105.096 Y78.79 E53.98763
G1 F1788.2 X104.807 Y78.975 E54.0287
G1 F1744.9 X104.56 Y79.096 E54.06245
G1 F1670.3 X104.307 Y79.194 E54.09721
G1 F300 E53.59721
G1 F600 Z0.68
G0 F9000 X108.559 Y79.179 Z0.68
G1 F600 Z0.4
G1 F120 E54.09721
G1 F1634.4 X108.299 Y79.085 E54.13342
G1 F1731.6 X108.009 Y78.923 E54.17449
G1 F1800 X107.8 Y78.79 E54.20394
G1 X107.509 Y78.524 E54.25083
G1 X107.323 Y78.278 E54.2875
G1 X107.243 Y78.133 E54.3072
G1 X107.144 Y77.921 E54.33502
G1 X107.038 Y77.495 E54.38723
G1 F1802.4 X107.025 Y77.235 E54.41814
G1 F1807.1 X107.055 Y76.921 E54.45551
G1 F1814.3 X107.114 Y76.67 E54.48593
G1 F1831.3 X107.183 Y76.485 E54.509
G1 F1824 X109.298 Y71.686 E55.12446
G1 F1800 X109.403 Y71.549 E55.14498
G1 X109.696 Y71.245 E55.19519
G1 X109.986 Y71.046 E55.23702
G1 X110.143 Y70.969 E55.25781
G1 X110.454 Y70.864 E55.29685
G1 F1765.2 X110.557 Y70.82 E55.31043
G1 F1672.4 X110.793 Y70.763 E55.3415
G1 F1581.5 X111.006 Y70.741 E55.37049
G1 F1570.6 X111.862 Y70.862 E55.48831
G1 F1592.5 X112.343 Y70.901 E55.55317
G1 X112.86 Y70.91 E55.62267
G1 F1588.9 X113.404 Y70.884 E55.69604
G1 F1590.7 X113.884 Y70.831 E55.76103
G1 F1592.5 X114.439 Y70.73 E55.83685
G1 F1590.7 X114.933 Y70.607 E55.90536
G1 F1588.9 X115.445 Y70.443 E55.97779
G1 F1624.7 X116.175 Y70.16 E56.08094
G1 F1714.3 X116.699 Y70.135 E56.14644
G1 F1783.6 X116.955 Y70.155 E56.17726
G1 F1800 X117.135 Y70.2 E56.19932
G1 X117.566 Y70.346 E56.25344
G1 X117.883 Y70.551 E56.29833
G1 X118.157 Y70.807 E56.34292
G1 X118.289 Y70.979 E56.36871
G1 X118.416 Y71.188 E56.39779
G1 F1783.6 X118.494 Y71.336 E56.41787
G1 F1718.6 X118.6 Y71.59 E56.45215
G1 F1650.2 X118.655 Y71.798 E56.48006
G1 F1642.3 X118.67 Y72.035 E56.51101
G1 F1660.2 X118.671 Y77.292 E57.18881
G1 F1650.2 X118.66 Y77.495 E57.21518
G1 F1666.3 X118.594 Y77.741 E57.2479
G1 F1742.7 X118.465 Y78.034 E57.28723
G1 F1797.6 X118.36 Y78.232 E57.31391
G1 F1800 X118.186 Y78.477 E57.34965
G1 X118.008 Y78.67 E57.38087
G1 X117.67 Y78.921 E57.43094
G1 F1785.9 X117.47 Y79.024 E57.4579
G1 F1722.9 X117.2 Y79.138 E57.49431
G1 F1652.2 X116.988 Y79.193 E57.52269
G1 F1644.2 X116.755 Y79.207 E57.55307
G1 F1660.2 X108.887 Y79.209 E58.56752
G1 F1630.5 X108.559 Y79.179 E58.61076
G1 F300 E58.11076
G1 F600 Z0.68
G0 F9000 X111.091 Y69.868 Z0.68
G1 F600 Z0.4
G1 F120 E58.61076
G1 F1636.4 X110.588 Y69.682 E58.68091
G1 F1765.2 X110.47 Y69.626 E58.69675
G1 F1800 X110.043 Y69.468 E58.75089
G1 X109.66 Y69.297 E58.80077
G1 F1674.4 X108.703 Y68.81 E58.93804
G1 F1581.5 X108.301 Y68.504 E59.00642
G1 F1598.1 X107.942 Y68.201 E59.06935
G1 F1596.3 X107.583 Y67.852 E59.13649
G1 F1594.4 X107.257 Y67.49 E59.20189
G1 X106.941 Y67.084 E59.27096
G1 X106.673 Y66.684 E59.3356
G1 F1596.3 X106.418 Y66.242 E59.40403
G1 F1598.1 X106.218 Y65.834 E59.46489
G1 F1596.3 X106.02 Y65.346 E59.53551
G1 F1594.4 X105.861 Y64.857 E59.60454
G1 X105.742 Y64.381 E59.67041
G1 X105.656 Y63.895 E59.73667
G1 F1579.7 X105.591 Y63.346 E59.81158
G1 F1624.7 X105.61 Y62.929 E59.86658
G1 F1738.2 X105.638 Y62.667 E59.89903
G1 F1795.3 X105.654 Y62.339 E59.93818
G1 F1800 X105.699 Y61.926 E59.98759
G1 X105.799 Y61.36 E60.05594
G1 X105.919 Y60.894 E60.11316
G1 X106.077 Y60.415 E60.17314
G1 X106.262 Y59.961 E60.23144
G1 X106.489 Y59.502 E60.29234
G1 X106.713 Y59.119 E60.3451
G1 X107.016 Y58.673 E60.40922
G1 X107.329 Y58.276 E60.46934
G1 X107.652 Y57.922 E60.52633
G1 X108.02 Y57.569 E60.58697
G1 X108.396 Y57.258 E60.64499
G1 X108.753 Y56.999 E60.69744
G1 X109.156 Y56.745 E60.75409
G1 X109.664 Y56.475 E60.82251
G1 F1809.5 X110.126 Y56.277 E60.88197
G1 F1826.4 X110.507 Y56.141 E60.92938
G1 F1881.7 X110.998 Y56.018 E60.98696
G1 F1959.9 X111.484 Y55.92 E61.04111
G1 F1988.4 X111.965 Y55.85 E61.09343
G1 F1957.1 X112.549 Y55.8 E61.15754
G1 F1876.5 X113.028 Y55.783 E61.21221
G1 F1819.1 X113.539 Y55.816 E61.27247
G1 F1804.7 X114.024 Y55.885 E61.33057
G1 F1800 X114.438 Y55.975 E61.38095
G1 X114.994 Y56.134 E61.44972
G1 X115.447 Y56.302 E61.50718
G1 X115.907 Y56.51 E61.56721
G1 X116.344 Y56.745 E61.62622
G1 X116.765 Y57.012 E61.6855
G1 X117.172 Y57.31 E61.74549
G1 X117.539 Y57.623 E61.80285
G1 X117.847 Y57.922 E61.8539
G1 X118.223 Y58.339 E61.92067
G1 X118.483 Y58.672 E61.97091
G1 X118.808 Y59.154 E62.04004
G1 X119.048 Y59.574 E62.09756
G1 X119.237 Y59.961 E62.14878
G1 X119.436 Y60.453 E62.21189
G1 X119.58 Y60.894 E62.26706
G1 X119.7 Y61.358 E62.32406
G1 X119.79 Y61.853 E62.38389
G1 X119.851 Y62.422 E62.45194
G1 X119.866 Y62.938 E62.51333
G1 F1824 X119.841 Y63.346 E62.5613
G1 F1951.5 X119.743 Y63.906 E62.62366
G1 F2124.2 X119.638 Y64.389 E62.67346
G1 F2206.5 X119.511 Y64.857 E62.72051
G1 F2195.8 X119.363 Y65.338 E62.76957
G1 F2091.7 X119.2 Y65.794 E62.81912
G1 F1926.8 X119.01 Y66.254 E62.87441
G1 F1819.1 X118.803 Y66.63 E62.92492
G1 F1800 X118.534 Y67.032 E62.98244
G1 X118.225 Y67.434 E63.04273
G1 X117.899 Y67.799 E63.10093
G1 X117.484 Y68.202 E63.16972
G1 X117.132 Y68.495 E63.22419
G1 X116.755 Y68.769 E63.27961
G1 F1676.5 X115.855 Y69.351 E63.41646
G1 F1583.3 X115.424 Y69.536 E63.47987
G1 F1600 X114.954 Y69.705 E63.54669
G1 X114.484 Y69.84 E63.61211
G1 X113.99 Y69.946 E63.6797
G1 F1598.1 X113.465 Y70.017 E63.75066
G1 F1596.3 X113.007 Y70.048 E63.81222
G1 X112.526 Y70.049 E63.87672
G1 F1594.4 X112.019 Y70.016 E63.94493
G1 X111.542 Y69.951 E64.00956
G1 F1570.6 X111.091 Y69.868 E64.07205
G1 F300 E63.57205
G1 F600 Z0.68
G0 F9000 X119.527 Y80.065 Z0.68
G1 F600 Z0.4
G1 F120 E64.07205
G1 F1797.6 X119.526 Y78.296 E64.2827
G1 F1714.3 X119.49 Y77.567 E64.37384
G1 F1648.2 X119.496 Y72.035 E65.09229
G1 F1642.3 X119.488 Y71.714 E65.13414
G1 F1710 X119.528 Y70.94 E65.23116
G1 F1800 X119.529 Y68.6 E65.50943
G1 X119.564 Y67.651 E65.62236
G1 X119.665 Y66.725 E65.73313
G1 F1926.8 X119.871 Y65.853 E65.83267
G1 F2147.6 X120.127 Y64.93 E65.92814
G1 F2124.2 X120.403 Y64 E66.0259
G1 F1934.9 X120.567 Y63.499 E66.08422
G1 F1824 X120.668 Y63.222 E66.11882
G1 F1800 X121.122 Y62.293 E66.24178
G1 X121.584 Y61.5 E66.35092
G1 X122.09 Y60.747 E66.4588
G1 X122.646 Y60.035 E66.56623
G1 X123.328 Y59.282 E66.68705
G1 X123.998 Y58.637 E66.79764
G1 X124.649 Y58.09 E66.89876
G1 X125.483 Y57.485 E67.02129
G1 X126.272 Y56.995 E67.13173
G1 X127.098 Y56.559 E67.24281
G1 X127.882 Y56.209 E67.34491
G1 X128.769 Y55.884 E67.45725
G1 X129.738 Y55.607 E67.57709
G1 X130.665 Y55.41 E67.68979
G1 X131.58 Y55.285 E67.79962
G1 X132.482 Y55.223 E67.90713
G1 X133.403 Y55.223 E68.01666
G1 X134.35 Y55.287 E68.12953
G1 X135.26 Y55.412 E68.23876
G1 X136.185 Y55.61 E68.35125
G1 X137.079 Y55.866 E68.46184
G1 X137.964 Y56.186 E68.57375
G1 X138.817 Y56.565 E68.68475
G1 X139.643 Y57.001 E68.79582
G1 X140.429 Y57.492 E68.90603
G1 X141.197 Y58.046 E69.01865
G1 X141.911 Y58.643 E69.12932
G1 X142.635 Y59.346 E69.24933
G1 X143.253 Y60.035 E69.3594
G1 X143.791 Y60.721 E69.46307
G1 X144.35 Y61.555 E69.58247
G1 X144.821 Y62.376 E69.69502
G1 X145.231 Y63.222 E69.80682
G1 X145.546 Y64.007 E69.90741
G1 F1792.9 X145.669 Y64.37 E69.95317
G1 F1678.5 X145.918 Y64.99 E70.03837
G1 F1611.3 X145.997 Y65.369 E70.0898
G1 F1654.2 X146.11 Y65.844 E70.15298
G1 F1668.3 X146.27 Y66.751 E70.27115
G1 X146.369 Y67.669 E70.38962
G1 F1662.2 X146.403 Y68.658 E70.51706
G1 F1648.2 X146.411 Y77.516 E71.66746
G1 F1714.3 X146.375 Y78.283 E71.76334
G1 F1800 X146.375 Y80.02 E71.9699
G1 X148.141 Y80.019 E72.17991
G1 F1778.9 X148.443 Y80.01 E72.21627
G1 F1672.4 X149.06 Y79.971 E72.2954
G1 F1577.9 X157.176 Y79.963 E73.39643
G1 F1626.6 X157.619 Y79.997 E73.4549
G1 F1747.1 X158.078 Y80.019 E73.5112
