;FLAVOR:Marlin
;TIME:3862
;Filament used: 21.833m
;Layer height: 0.4
;MINX:91.464
;MINY:70.755
;MINZ:0.4
;MAXX:169.942
;MAXY:110.015
;MAXZ:70.28
;TARGET_MACHINE.NAME:VORON2 250
;Generated with Cura_SteamEngine 5.6.0
M140 S80
M105
M190 S80
M104 S245
M105
M109 S245
M82 ;absolute extrusion mode
START_PRINT
G92 E0
G92 E0
G1 F300 E-0.5
;LAYER_COUNT:175
;LAYER:0
M107
M204 S1000
G1 F600 Z0.68
G0 F9000 X92.913 Y91.35 Z0.68
;TYPE:SKIRT
G1 F600 Z0.4
G1 F120 E0
G1 F1800 X93.183 Y91.086 E0.04491
G1 X108.505 Y77.057 E2.51538
G1 X110.044 Y75.714 E2.75828
G1 X110.983 Y74.987 E2.8995
G1 X112.154 Y74.188 E3.06808
G1 X112.359 Y74.06 E3.09682
G1 X113.594 Y73.349 E3.26629
G1 X113.831 Y73.223 E3.29821
G1 X114.929 Y72.691 E3.4433
G1 X115.163 Y72.588 E3.4737
G1 X116.312 Y72.125 E3.62102
G1 X116.56 Y72.035 E3.65239
G1 X118.026 Y71.567 E3.83539
G1 X119.173 Y71.278 E3.97606
G1 X120.518 Y71.023 E4.13885
G1 X120.773 Y70.986 E4.16949
G1 X122.153 Y70.828 E4.33467
G1 X123.475 Y70.758 E4.49211
G1 X123.722 Y70.755 E4.52148
G1 X125.197 Y70.79 E4.69694
G1 X126.476 Y70.9 E4.84959
G1 X127.913 Y71.081 E5.02183
G1 X148.757 Y74.062 E7.5258
G1 X149.797 Y74.228 E7.65104
G1 X150.243 Y74.329 E7.70542
G1 X150.884 Y74.515 E7.78479
G1 X151.365 Y74.69 E7.84566
G1 X151.846 Y74.909 E7.90851
G1 X152.719 Y75.368 E8.0258
G1 X153.907 Y76.053 E8.18888
G1 X154.647 Y76.496 E8.29144
G1 X155.306 Y76.945 E8.38627
G1 X155.57 Y77.147 E8.4258
G1 X155.838 Y77.375 E8.46765
G1 X156.071 Y77.592 E8.50551
G1 X156.328 Y77.854 E8.54915
G1 X156.977 Y78.55 E8.66232
G1 X168.259 Y91.024 E10.66244
G1 X168.779 Y91.622 E10.75668
G1 X169.217 Y92.241 E10.84685
G1 X169.376 Y92.519 E10.88494
G1 X169.652 Y93.095 E10.96089
G1 X169.834 Y93.713 E11.0375
G1 X169.921 Y94.498 E11.13143
G1 X169.941 Y95.613 E11.26404
G1 X169.942 Y104.312 E12.29852
G1 X169.927 Y105.133 E12.39617
G1 X169.838 Y105.883 E12.48598
G1 X169.791 Y106.099 E12.51227
G1 X169.609 Y106.714 E12.58854
G1 X169.312 Y107.318 E12.66858
G1 X169.11 Y107.628 E12.71258
G1 X168.86 Y107.971 E12.76306
G1 X168.441 Y108.464 E12.84
G1 X167.834 Y108.959 E12.93314
G1 X167.619 Y109.101 E12.96378
G1 X167.075 Y109.404 E13.03783
G1 X166.718 Y109.547 E13.08356
G1 X166.397 Y109.654 E13.1238
G1 X165.836 Y109.796 E13.19262
G1 X165.253 Y109.852 E13.26227
G1 X164.424 Y109.867 E13.36087
G1 X137.195 Y109.867 E16.59891
G1 X136.497 Y109.857 E16.68193
G1 X136.092 Y109.831 E16.73019
G1 X133.485 Y109.537 E17.04217
G1 X130.804 Y109.309 E17.36215
G1 X128.078 Y109.154 E17.68684
G1 X125.343 Y109.075 E18.01222
G1 X122.678 Y109.075 E18.32914
G1 X119.944 Y109.152 E18.6544
G1 X117.221 Y109.305 E18.97872
G1 X114.545 Y109.531 E19.29808
G1 X111.911 Y109.829 E19.61331
G1 X111.509 Y109.855 E19.66122
G1 X110.655 Y109.867 E19.76279
G1 X96.956 Y109.869 E21.39186
G1 X96.186 Y109.856 E21.48344
G1 X95.58 Y109.794 E21.55588
G1 X95.241 Y109.721 E21.59712
G1 X94.97 Y109.649 E21.63046
G1 X94.368 Y109.44 E21.70624
G1 X93.77 Y109.113 E21.78729
G1 X93.408 Y108.849 E21.84057
G1 X93.12 Y108.61 E21.88508
G1 X92.702 Y108.21 E21.95388
G1 X92.351 Y107.751 E22.02259
G1 X92.125 Y107.373 E22.07497
G1 X91.912 Y106.956 E22.13065
G1 X91.688 Y106.422 E22.19951
G1 X91.535 Y105.806 E22.27499
G1 X91.48 Y105.185 E22.34913
G1 X91.464 Y104.13 E22.47461
G1 X91.465 Y95.282 E23.5268
G1 X91.479 Y94.549 E23.61398
G1 X91.534 Y93.963 E23.68398
G1 X91.743 Y93.221 E23.77565
G1 X91.879 Y92.883 E23.81897
G1 X92.28 Y92.142 E23.91917
G1 X92.46 Y91.887 E23.95629
G1 X92.913 Y91.35 E24.03983
G0 F9000 X93.445 Y91.893
G1 F1800 X93.696 Y91.647 E24.08163
G1 X109.005 Y77.63 E26.55
G1 X110.544 Y76.287 E26.7929
G1 X111.412 Y75.615 E26.92344
G1 X112.557 Y74.833 E27.08833
G1 X112.762 Y74.705 E27.11707
G1 X113.95 Y74.02 E27.28015
G1 X114.163 Y73.907 E27.30882
G1 X115.237 Y73.386 E27.45077
G1 X115.447 Y73.293 E27.47809
G1 X116.572 Y72.839 E27.62235
G1 X116.792 Y72.759 E27.65019
G1 X118.213 Y72.304 E27.82763
G1 X119.315 Y72.025 E27.96281
G1 X120.629 Y71.775 E28.12187
G1 X120.859 Y71.741 E28.14952
G1 X122.214 Y71.586 E28.31171
G1 X122.437 Y71.568 E28.33831
G1 X123.485 Y71.518 E28.46308
G1 X123.705 Y71.515 E28.48924
G1 X125.132 Y71.547 E28.65898
G1 X126.381 Y71.654 E28.80806
G1 X127.805 Y71.833 E28.97873
G1 X148.638 Y74.813 E31.48139
G1 X149.631 Y74.97 E31.60094
G1 X150.034 Y75.06 E31.65005
G1 X150.627 Y75.23 E31.72341
G1 X151.05 Y75.382 E31.77686
G1 X151.531 Y75.601 E31.83971
G1 X152.34 Y76.027 E31.94844
G1 X153.517 Y76.705 E32.10996
G1 X154.22 Y77.125 E32.20735
G1 X154.844 Y77.549 E32.29706
G1 X155.108 Y77.751 E32.33659
G1 X155.321 Y77.932 E32.36983
G1 X155.529 Y78.125 E32.40358
G1 X155.772 Y78.372 E32.44478
G1 X156.413 Y79.06 E32.5566
G1 X167.688 Y91.526 E34.55546
G1 X168.161 Y92.064 E34.64065
G1 X168.557 Y92.618 E34.72163
G1 X168.716 Y92.896 E34.75971
G1 X168.939 Y93.365 E34.82147
G1 X169.086 Y93.864 E34.88333
G1 X169.161 Y94.512 E34.9609
G1 X169.181 Y95.613 E35.09186
G1 X169.182 Y104.302 E36.12514
G1 X169.172 Y105.047 E36.21375
G1 X169.095 Y105.721 E36.29442
G1 X169.048 Y105.937 E36.32071
G1 X168.899 Y106.434 E36.38241
G1 X168.675 Y106.903 E36.44422
G1 X168.473 Y107.213 E36.48822
G1 X168.247 Y107.522 E36.53374
G1 X167.909 Y107.917 E36.59556
G1 X167.409 Y108.329 E36.67261
G1 X167.243 Y108.441 E36.69642
G1 X166.792 Y108.698 E36.75815
G1 X166.435 Y108.841 E36.80389
G1 X166.21 Y108.917 E36.83213
G1 X165.706 Y109.045 E36.89396
G1 X165.181 Y109.095 E36.95668
G1 X164.412 Y109.107 E37.04814
G1 X137.206 Y109.107 E40.28345
G1 X136.508 Y109.097 E40.36646
G1 X136.177 Y109.076 E40.4059
G1 X133.559 Y108.781 E40.7192
G1 X130.847 Y108.55 E41.04288
G1 X128.107 Y108.394 E41.36925
G1 X125.365 Y108.315 E41.69546
G1 X122.657 Y108.315 E42.01749
G1 X119.915 Y108.392 E42.34369
G1 X117.178 Y108.546 E42.66969
G1 X114.468 Y108.775 E42.99311
G1 X111.826 Y109.074 E43.3093
G1 X111.498 Y109.095 E43.34838
G1 X110.655 Y109.107 E43.44864
G1 X96.967 Y109.109 E45.0764
G1 X96.256 Y109.099 E45.16096
G1 X95.739 Y109.051 E45.22271
G1 X95.436 Y108.986 E45.25956
G1 X95.165 Y108.914 E45.29291
G1 X94.675 Y108.742 E45.35466
G1 X94.216 Y108.497 E45.41654
G1 X93.89 Y108.261 E45.4644
G1 X93.646 Y108.061 E45.50191
G1 X93.271 Y107.702 E45.56365
G1 X92.955 Y107.289 E45.62549
G1 X92.782 Y106.991 E45.66647
G1 X92.613 Y106.662 E45.71045
G1 X92.412 Y106.183 E45.77223
G1 X92.287 Y105.679 E45.83398
G1 X92.24 Y105.173 E45.89441
G1 X92.224 Y104.13 E46.01846
G1 X92.225 Y95.294 E47.06922
G1 X92.236 Y94.621 E47.14927
G1 X92.285 Y94.103 E47.21114
G1 X92.475 Y93.427 E47.29465
G1 X92.549 Y93.241 E47.31845
G1 X92.906 Y92.573 E47.40852
G1 X93.043 Y92.374 E47.43725
G1 X93.445 Y91.893 E47.5118
G1 F300 E47.0118
G1 F600 Z0.68
;MESH:corner-top-c-primo-mirrored.stl
G0 F9000 X98.224 Y95.564 Z0.68
;TYPE:WALL-INNER
G1 F600 Z0.4
G1 F120 E47.5118
G1 F1483.7 X98.35 Y95.36 E47.54639
G1 F1567 X98.497 Y95.165 E47.57975
G1 F1626.6 X98.639 Y95.002 E47.6082
G1 F1654.2 X98.767 Y94.873 E47.63171
G1 F1662.2 X106.813 Y87.51 E49.03622
G1 F1634.4 X107.166 Y87.236 E49.09474
G1 F1699.4 X107.663 Y87.083 E49.16024
G1 F1800 X107.953 Y87.037 E49.19516
G1 X108.254 Y87.03 E49.23096
G1 X108.441 Y87.05 E49.25333
G1 X108.721 Y87.116 E49.28754
G1 X108.931 Y87.195 E49.31422
G1 X109.187 Y87.33 E49.34864
G1 X109.376 Y87.468 E49.37647
G1 X109.518 Y87.592 E49.39888
G1 X109.776 Y87.91 E49.44758
G1 X109.911 Y88.133 E49.47858
G1 X109.982 Y88.331 E49.5036
G1 F1792.9 X110.046 Y88.568 E49.5329
G1 F1727.3 X110.104 Y88.843 E49.56773
G1 F1642.3 X110.118 Y89.109 E49.60245
G1 F1630.5 X110.084 Y89.332 E49.63207
G1 F1654.2 X109.895 Y90.243 E49.75246
G1 F1656.2 X109.772 Y91.082 E49.86206
G1 F1658.2 X109.699 Y91.912 E49.96962
G1 F1662.2 X109.674 Y92.755 E50.07822
G1 F1664.2 X109.674 Y101.291 E51.17613
G1 F1654.2 X109.663 Y101.495 E51.20256
G1 F1678.5 X109.567 Y101.816 E51.24529
G1 F1756.1 X109.373 Y102.199 E51.29762
G1 F1800 X109.217 Y102.42 E51.32979
G1 X109.061 Y102.599 E51.35803
G1 X108.876 Y102.756 E51.38688
G1 X108.661 Y102.898 E51.41752
G1 F1729.5 X108.241 Y103.102 E51.47531
G1 F1617 X107.935 Y103.192 E51.51753
G1 F1581.5 X107.729 Y103.203 E51.54546
G1 F1592.5 X99.996 Y103.202 E52.58485
G1 F1549.3 X99.594 Y103.157 E52.64074
G1 F1552.8 X99.357 Y103.047 E52.67675
G1 F1693.1 X98.98 Y102.783 E52.73494
G1 F1800 X98.773 Y102.608 E52.76718
G1 X98.6 Y102.415 E52.798
G1 X98.433 Y102.174 E52.83287
G1 F1729.5 X98.226 Y101.749 E52.89138
G1 F1617 X98.139 Y101.447 E52.93298
G1 F1581.5 X98.128 Y101.24 E52.96104
G1 F1592.5 X98.129 Y96.254 E53.6312
G1 F1576 X98.145 Y96.013 E53.66401
G1 F1500 X98.224 Y95.564 E53.72906
G1 F300 E53.22906
G1 F600 Z0.68
G0 F9000 X139.685 Y103.255 Z0.68
G1 F600 Z0.4
G1 F120 E53.72906
G1 F1609.4 X139.446 Y103.151 E53.76373
G1 F1720.8 X139.064 Y102.898 E53.82073
G1 F1800 X138.864 Y102.729 E53.85187
G1 X138.714 Y102.568 E53.87803
G1 X138.539 Y102.325 E53.91364
G1 X138.451 Y102.16 E53.93588
G1 F1751.6 X138.321 Y101.862 E53.97561
G1 F1670.3 X138.24 Y101.559 E54.01581
G1 F1648.2 X138.23 Y101.356 E54.0422
G1 F1660.2 X138.23 Y96.104 E54.71936
G1 F1640.3 X138.251 Y95.831 E54.75509
G1 F1642.3 X138.308 Y95.639 E54.7812
G1 F1714.3 X138.432 Y95.375 E54.81762
G1 F1783.6 X138.538 Y95.19 E54.8432
G1 F1800 X138.687 Y94.973 E54.87451
G1 X138.795 Y94.849 E54.89406
G1 X138.992 Y94.67 E54.92572
G1 X139.282 Y94.472 E54.96747
G1 X139.572 Y94.349 E55.00493
G1 X139.799 Y94.287 E55.03292
G1 F1762.9 X140.324 Y94.229 E55.09705
G1 F1686.8 X140.5 Y94.233 E55.11939
G1 F1605.6 X140.76 Y94.266 E55.15433
G1 F1577.9 X141.503 Y94.554 E55.26244
G1 F1590.7 X141.989 Y94.704 E55.33088
G1 F1592.5 X142.49 Y94.826 E55.40019
G1 F1594.4 X143.019 Y94.923 E55.47239
G1 F1592.5 X143.526 Y94.978 E55.54094
G1 F1590.7 X144.054 Y95.002 E55.61206
G1 F1592.5 X144.57 Y94.991 E55.68143
G1 X145.108 Y94.946 E55.754
G1 F1615.1 X145.98 Y94.818 E55.8708
G1 F1680.6 X146.395 Y94.921 E55.92526
G1 F1762.9 X146.852 Y95.099 E55.98481
G1 F1802.4 X147.083 Y95.23 E56.01635
G1 X147.377 Y95.499 E56.06368
G1 F1809.5 X147.484 Y95.632 E56.08387
G1 F1824 X147.602 Y95.807 E56.10864
G1 F1836.2 X147.7 Y95.983 E56.13212
G1 F1843.7 X149.718 Y100.578 E56.7148
G1 F1836.2 X149.788 Y100.762 E56.73774
G1 F1819.1 X149.852 Y101.062 E56.77384
G1 F1807.1 X149.876 Y101.397 E56.81362
G1 F1800 X149.86 Y101.585 E56.83606
G1 X149.814 Y101.824 E56.865
G1 X149.766 Y101.984 E56.88487
G1 X149.692 Y102.163 E56.9079
G1 X149.525 Y102.459 E56.94832
G1 X149.298 Y102.715 E56.989
G1 X149.112 Y102.871 E57.01787
G1 X148.898 Y103.013 E57.04841
G1 X148.751 Y103.088 E57.06804
G1 F1751.6 X148.476 Y103.208 E57.10471
G1 F1670.3 X148.169 Y103.291 E57.14546
G1 F1650.2 X147.966 Y103.3 E57.17182
G1 F1662.2 X140.081 Y103.299 E58.18722
G1 F1617 X139.685 Y103.255 E58.23997
G1 F300 E57.73997
G1 F600 Z0.68
G0 F9000 X145.349 Y94.045 Z0.68
G1 F600 Z0.4
G1 F120 E58.23997
G1 F1596.3 X144.884 Y94.108 E58.30289
G1 X144.379 Y94.141 E58.37075
G1 X143.894 Y94.14 E58.43579
G1 X143.386 Y94.105 E58.50407
G1 X142.909 Y94.037 E58.56869
G1 X142.42 Y93.932 E58.63575
G1 F1594.4 X141.956 Y93.8 E58.70052
G1 X141.427 Y93.606 E58.77616
G1 F1579.7 X141.043 Y93.444 E58.83264
G1 F1642.3 X140.619 Y93.176 E58.89802
G1 F1762.9 X140.413 Y93.032 E58.92854
G1 F1800 X140.136 Y92.856 E58.96756
G1 X139.718 Y92.548 E59.02931
G1 X139.361 Y92.244 E59.08507
G1 X139.053 Y91.945 E59.13612
G1 X138.678 Y91.529 E59.20272
G1 X138.369 Y91.129 E59.26283
G1 X138.096 Y90.718 E59.3215
G1 F1811.9 X137.888 Y90.349 E59.37154
G1 F1918.7 X137.701 Y89.888 E59.42705
G1 F2098.2 X137.517 Y89.361 E59.48399
G1 F2206.5 X137.363 Y88.85 E59.53577
G1 F2199.4 X137.246 Y88.411 E59.57999
G1 F2101.4 X137.145 Y87.931 E59.62995
G1 F1934.9 X137.058 Y87.436 E59.68555
G1 F1821.6 X137.035 Y86.947 E59.74308
G1 F1800 X137.054 Y86.438 E59.80365
G1 X137.111 Y85.942 E59.86302
G1 X137.184 Y85.529 E59.91289
G1 X137.3 Y85.057 E59.97069
G1 X137.465 Y84.543 E60.03489
G1 X137.664 Y84.052 E60.09789
G1 X137.87 Y83.632 E60.15352
G1 X138.14 Y83.168 E60.21736
G1 X138.418 Y82.761 E60.27598
G1 X138.729 Y82.368 E60.33558
G1 X139.054 Y82.012 E60.3929
G1 X139.356 Y81.718 E60.44302
G1 X139.796 Y81.35 E60.51123
G1 X140.214 Y81.05 E60.57242
G1 X140.623 Y80.799 E60.62949
G1 X141.071 Y80.563 E60.6897
G1 X141.517 Y80.367 E60.74763
G1 X141.994 Y80.198 E60.80781
G1 X142.391 Y80.083 E60.85697
G1 X142.965 Y79.96 E60.92677
G1 F1809.5 X143.44 Y79.901 E60.9834
G1 F1826.4 X143.871 Y79.875 E61.034
G1 F1892.1 X144.432 Y79.897 E61.09751
G1 F1976.9 X144.936 Y79.942 E61.1523
G1 F2002.9 X145.334 Y79.998 E61.19526
G1 F1974 X145.906 Y80.11 E61.25846
G1 F1902.6 X146.38 Y80.233 E61.31355
G1 F1836.2 X146.859 Y80.4 E61.37269
G1 F1807.1 X147.311 Y80.601 E61.43128
G1 F1800 X147.746 Y80.835 E61.49002
G1 X148.158 Y81.095 E61.54796
G1 X148.541 Y81.373 E61.60423
G1 X148.889 Y81.661 E61.65795
G1 X149.251 Y82.012 E61.71791
G1 X149.626 Y82.428 E61.78452
G1 X149.886 Y82.761 E61.83476
G1 X150.186 Y83.202 E61.89819
G1 X150.458 Y83.678 E61.96338
G1 X150.69 Y84.167 E62.02775
G1 X151.004 Y85.057 E62.13998
G1 X151.107 Y85.464 E62.1899
G1 X151.205 Y86.019 E62.25692
G1 X151.249 Y86.438 E62.30703
G1 F1680.6 X151.303 Y87.526 E62.44577
G1 F1587 X151.247 Y87.995 E62.50948
G1 F1600 X151.161 Y88.479 E62.57525
G1 F1601.9 X151.041 Y88.951 E62.64032
G1 F1600 X150.887 Y89.426 E62.70713
G1 F1601.9 X150.701 Y89.894 E62.77442
G1 F1603.8 X150.479 Y90.348 E62.84188
G1 X150.238 Y90.764 E62.90604
G1 F1601.9 X149.959 Y91.182 E62.9732
G1 X149.643 Y91.584 E63.04153
G1 F1600 X149.321 Y91.942 E63.10595
G1 F1601.9 X148.956 Y92.298 E63.17408
G1 X148.587 Y92.61 E63.23865
G1 F1585.2 X148.2 Y92.9 E63.30395
G1 F1676.5 X147.236 Y93.395 E63.44232
G1 F1800 X146.785 Y93.59 E63.50075
G1 F1668.3 X145.854 Y93.95 E63.62882
G1 F1574.2 X145.349 Y94.045 E63.69869
G1 F300 E63.19869
G1 F600 Z0.68
G0 F9000 X163.284 Y95.463 Z0.68
G1 F600 Z0.4
G1 F120 E63.69869
G1 F1563.4 X163.356 Y95.847 E63.75218
G1 F1642.3 X163.374 Y96.101 E63.78537
G1 F1660.2 X163.374 Y101.407 E64.46949
G1 F1650.2 X163.363 Y101.61 E64.49586
G1 F1668.3 X163.287 Y101.871 E64.53074
G1 F1742.7 X163.17 Y102.125 E64.56509
G1 F1795.3 X163.045 Y102.363 E64.59715
G1 F1800 X162.804 Y102.678 E64.64431
G1 X162.573 Y102.873 E64.68026
G1 X162.353 Y103.018 E64.71159
G1 X162.209 Y103.091 E64.73079
G1 F1751.6 X161.939 Y103.208 E64.76675
G1 F1670.3 X161.632 Y103.291 E64.80751
G1 F1650.2 X161.429 Y103.3 E64.83387
G1 F1662.2 X152.907 Y103.299 E65.9313
G1 F1646.2 X152.668 Y103.284 E65.96244
G1 F1652.2 X152.462 Y103.229 E65.99006
G1 F1718.6 X152.207 Y103.121 E66.02455
G1 F1783.6 X152.059 Y103.044 E66.04458
G1 F1800 X151.861 Y102.924 E66.07211
G1 X151.731 Y102.826 E66.09147
G1 X151.556 Y102.662 E66.11999
G1 X151.346 Y102.413 E66.15873
G1 X151.251 Y102.255 E66.18065
G1 F1824 X150.396 Y100.281 E66.4331
G1 F1843.7 X148.377 Y95.679 E67.01657
G1 F1836.2 X148.311 Y95.489 E67.04001
G1 F1816.7 X148.227 Y94.919 E67.1079
G1 F1800 X148.297 Y94.51 E67.15724
G1 X148.36 Y94.297 E67.18366
G1 F1762.9 X148.526 Y93.929 E67.23268
G1 F1644.2 X148.76 Y93.563 E67.28923
G1 F1581.5 X149.405 Y93.042 E67.40145
G1 F1594.4 X149.814 Y92.662 E67.4764
G1 F1592.5 X150.183 Y92.271 E67.54867
G1 X150.531 Y91.846 E67.6225
G1 X150.829 Y91.428 E67.6915
G1 X151.129 Y90.941 E67.76838
G1 X151.375 Y90.474 E67.83932
G1 X151.598 Y89.964 E67.91414
G1 F1590.7 X151.781 Y89.464 E67.98579
G1 X151.933 Y88.935 E68.05985
G1 F1592.5 X152.05 Y88.396 E68.13399
G1 F1583.3 X152.16 Y87.661 E68.23446
G1 F1652.2 X152.362 Y87.221 E68.29719
G1 F1769.7 X152.538 Y86.944 E68.33688
G1 F1800 X152.905 Y86.571 E68.39911
G1 X153.074 Y86.455 E68.42348
G1 X153.358 Y86.314 E68.46119
G1 X153.611 Y86.232 E68.49282
G1 X153.918 Y86.171 E68.53004
G1 X154.463 Y86.196 E68.59492
G1 X154.752 Y86.28 E68.63071
G1 F1760.6 X155.054 Y86.399 E68.67017
G1 F1678.5 X155.374 Y86.585 E68.71737
G1 F1650.2 X155.518 Y86.729 E68.74379
G1 F1660.2 X162.916 Y94.911 E70.16601
G1 F1628.6 X163.105 Y95.161 E70.2072
G1 F1552.8 X163.284 Y95.463 E70.2556
G1 F300 E69.7556
G1 F600 Z0.68
G0 F9000 X164.23 Y104.156 Z0.68
G1 F600 Z0.4
G1 F120 E70.2556
G1 F1795.3 X164.228 Y102.383 E70.46699
G1 F1710 X164.193 Y101.682 E70.55485
G1 F1650.2 X164.198 Y96.101 E71.2788
G1 F1642.3 X164.189 Y95.757 E71.32365
G1 F1563.4 X164.156 Y95.287 E71.38816
G1 F1506.6 X164.156 Y95.112 E71.41302
