;FLAVOR:Marlin
;TIME:4261
;Filament used: 25.2185m
;Layer height: 0.4
;MINX:84.505
;MINY:70.912
;MINZ:0.4
;MAXX:162.984
;MAXY:113.946
;MAXZ:70.28
;TARGET_MACHINE.NAME:VORON2 250
;Generated with Cura_SteamEngine 5.6.0
M140 S80
M105
M190 S80
M104 S245
M105
M109 S245
M82 ;absolute extrusion mode
START_PRINT
G92 E0
G92 E0
G1 F300 E-0.5
;LAYER_COUNT:175
;LAYER:0
M107
M204 S1000
G1 F600 Z0.68
G0 F9000 X97.414 Y82.546 Z0.68
;TYPE:SKIRT
G1 F600 Z0.4
G1 F120 E0
G1 F1800 X98.218 Y81.69 E0.13966
G1 X98.612 Y81.309 E0.20483
G1 X98.864 Y81.092 E0.24438
G1 X99.105 Y80.903 E0.2808
G1 X99.401 Y80.693 E0.32396
G1 X100.151 Y80.216 E0.42966
G1 X101.488 Y79.44 E0.61349
G1 X102.416 Y78.926 E0.73965
G1 X102.84 Y78.724 E0.7955
G1 X103.374 Y78.511 E0.86387
G1 X103.831 Y78.362 E0.92103
G1 X104.357 Y78.226 E0.98564
G1 X104.712 Y78.152 E1.02876
G1 X105.798 Y77.98 E1.15952
G1 X126.612 Y75.004 E3.65987
G1 X128.184 Y74.807 E3.84827
G1 X128.708 Y74.759 E3.91085
G1 X129.848 Y74.695 E4.04663
G1 X130.099 Y74.69 E4.07648
G1 X131.369 Y74.704 E4.22752
G1 X131.626 Y74.716 E4.25811
G1 X132.873 Y74.816 E4.40688
G1 X133.126 Y74.845 E4.43716
G1 X134.345 Y75.026 E4.58372
G1 X134.599 Y75.073 E4.61443
G1 X136.038 Y75.395 E4.78979
G1 X137.055 Y75.686 E4.91558
G1 X137.332 Y75.777 E4.95026
G1 X138.682 Y76.269 E5.12113
G1 X138.928 Y76.369 E5.15271
G1 X140 Y76.848 E5.29233
G1 X140.206 Y76.948 E5.31957
G1 X141.376 Y77.57 E5.47714
G1 X142.596 Y78.318 E5.64732
G1 X142.805 Y78.457 E5.67717
G1 X143.884 Y79.237 E5.8355
G1 X144.752 Y79.941 E5.9684
G1 X146 Y81.043 E6.16639
G1 X160.968 Y94.745 E8.57955
G1 X161.493 Y95.24 E8.66536
G1 X161.946 Y95.744 E8.74595
G1 X162.154 Y96.044 E8.78936
G1 X162.342 Y96.351 E8.83217
G1 X162.613 Y96.876 E8.90243
G1 X162.846 Y97.664 E9.00015
G1 X162.918 Y98.056 E9.04754
G1 X162.974 Y98.636 E9.11684
G1 X162.984 Y99.121 E9.17453
G1 X162.984 Y108.314 E10.26775
G1 X162.97 Y109.102 E10.36147
G1 X162.917 Y109.676 E10.43002
G1 X162.749 Y110.325 E10.50974
G1 X162.647 Y110.615 E10.5463
G1 X162.418 Y111.144 E10.61485
G1 X162.124 Y111.618 E10.68118
G1 X161.988 Y111.809 E10.70906
G1 X161.577 Y112.305 E10.78566
G1 X160.985 Y112.803 E10.87766
G1 X160.688 Y113.008 E10.92058
G1 X160.188 Y113.303 E10.98961
G1 X159.543 Y113.551 E11.07179
G1 X159.303 Y113.622 E11.10155
G1 X158.639 Y113.76 E11.1822
G1 X158.272 Y113.789 E11.22598
G1 X157.728 Y113.802 E11.29069
G1 X143.666 Y113.8 E12.96293
G1 X142.98 Y113.79 E13.04452
G1 X142.579 Y113.764 E13.09231
G1 X139.997 Y113.475 E13.40127
G1 X137.303 Y113.246 E13.72279
G1 X134.58 Y113.092 E14.04713
G1 X131.844 Y113.014 E14.37262
G1 X129.182 Y113.014 E14.68918
G1 X126.446 Y113.092 E15.01468
G1 X123.72 Y113.246 E15.33937
G1 X121.013 Y113.475 E15.66243
G1 X118.373 Y113.768 E15.97831
G1 X118.053 Y113.79 E16.01645
G1 X117.527 Y113.802 E16.07902
G1 X89.956 Y113.8 E19.35773
G1 X89.196 Y113.787 E19.44812
G1 X88.615 Y113.733 E19.51751
G1 X87.875 Y113.532 E19.6087
G1 X87.582 Y113.421 E19.64596
G1 X87.057 Y113.18 E19.71466
G1 X86.585 Y112.869 E19.78188
G1 X86.345 Y112.686 E19.81777
G1 X85.915 Y112.307 E19.88593
G1 X85.545 Y111.868 E19.9542
G1 X85.383 Y111.645 E19.98698
G1 X85.082 Y111.161 E20.05476
G1 X84.86 Y110.652 E20.1208
G1 X84.747 Y110.335 E20.16082
G1 X84.59 Y109.77 E20.23055
G1 X84.518 Y109.052 E20.31637
G1 X84.505 Y108.307 E20.40497
G1 X84.507 Y99.192 E21.48892
G1 X84.521 Y98.472 E21.57456
G1 X84.575 Y97.899 E21.643
G1 X84.74 Y97.262 E21.72125
G1 X84.859 Y96.92 E21.76431
G1 X85.088 Y96.388 E21.83319
G1 X85.395 Y95.899 E21.90185
G1 X85.64 Y95.587 E21.94903
G1 X86.202 Y94.945 E22.05049
G1 X97.414 Y82.546 E24.03841
G0 F9000 X97.968 Y83.066
G1 F1800 X98.772 Y82.21 E24.17807
G1 X99.108 Y81.884 E24.23374
G1 X99.334 Y81.689 E24.26924
G1 X99.546 Y81.522 E24.30133
G1 X99.81 Y81.334 E24.33987
G1 X100.533 Y80.873 E24.44184
G1 X101.857 Y80.104 E24.62392
G1 X102.744 Y79.611 E24.7446
G1 X103.124 Y79.429 E24.7947
G1 X103.611 Y79.233 E24.85713
G1 X104.022 Y79.098 E24.90858
G1 X104.514 Y78.97 E24.96903
G1 X104.831 Y78.903 E25.00756
G1 X105.906 Y78.732 E25.13701
G1 X126.707 Y75.758 E27.6358
G1 X128.254 Y75.564 E27.8212
G1 X128.751 Y75.518 E27.88056
G1 X129.865 Y75.455 E28.01325
G1 X130.091 Y75.45 E28.04013
G1 X131.333 Y75.463 E28.18783
G1 X131.566 Y75.474 E28.21557
G1 X132.787 Y75.571 E28.36123
G1 X133.015 Y75.597 E28.38852
G1 X134.209 Y75.774 E28.53206
G1 X134.434 Y75.815 E28.55926
G1 X135.829 Y76.126 E28.72922
G1 X136.846 Y76.417 E28.85502
G1 X137.072 Y76.491 E28.8833
G1 X138.396 Y76.973 E29.05085
G1 X138.618 Y77.063 E29.07934
G1 X139.668 Y77.532 E29.2161
G1 X139.874 Y77.632 E29.24333
G1 X140.979 Y78.218 E29.39207
G1 X142.176 Y78.951 E29.55898
G1 X142.36 Y79.073 E29.58524
G1 X143.405 Y79.827 E29.73848
G1 X144.249 Y80.511 E29.86767
G1 X145.487 Y81.604 E30.06406
G1 X160.447 Y95.298 E32.47588
G1 X160.972 Y95.793 E32.56168
G1 X161.321 Y96.177 E32.62339
G1 X161.529 Y96.477 E32.6668
G1 X161.666 Y96.699 E32.69782
G1 X161.904 Y97.161 E32.75963
G1 X162.117 Y97.88 E32.8488
G1 X162.162 Y98.132 E32.87924
G1 X162.214 Y98.652 E32.94139
G1 X162.224 Y99.137 E32.99908
G1 X162.224 Y108.303 E34.08909
G1 X162.213 Y109.032 E34.17579
G1 X162.165 Y109.549 E34.23754
G1 X162.03 Y110.078 E34.30246
G1 X161.949 Y110.314 E34.33213
G1 X161.743 Y110.791 E34.39392
G1 X161.505 Y111.177 E34.44785
G1 X161.369 Y111.368 E34.47573
G1 X161.036 Y111.767 E34.53753
G1 X160.55 Y112.18 E34.61338
G1 X160.302 Y112.353 E34.64934
G1 X159.854 Y112.617 E34.71117
G1 X159.327 Y112.822 E34.77842
G1 X159.087 Y112.893 E34.80818
G1 X158.579 Y113.002 E34.86997
G1 X158.212 Y113.031 E34.91375
G1 X157.728 Y113.042 E34.97132
G1 X143.677 Y113.04 E36.64225
G1 X142.991 Y113.03 E36.72384
G1 X142.664 Y113.009 E36.7628
G1 X140.074 Y112.719 E37.07273
G1 X137.346 Y112.487 E37.39831
G1 X134.609 Y112.332 E37.72431
G1 X131.866 Y112.254 E38.05064
G1 X129.16 Y112.254 E38.37243
G1 X126.417 Y112.332 E38.69876
G1 X123.677 Y112.487 E39.02512
G1 X120.941 Y112.719 E39.35165
G1 X118.32 Y113.01 E39.66525
G1 X118.035 Y113.03 E39.69923
G1 X117.527 Y113.042 E39.75965
G1 X89.967 Y113.04 E43.03706
G1 X89.266 Y113.03 E43.12043
G1 X88.748 Y112.982 E43.18229
G1 X88.139 Y112.819 E43.25726
G1 X87.899 Y112.73 E43.2877
G1 X87.427 Y112.513 E43.34948
G1 X87.042 Y112.262 E43.40414
G1 X86.848 Y112.116 E43.43301
G1 X86.458 Y111.772 E43.49485
G1 X86.157 Y111.418 E43.55011
G1 X86.029 Y111.244 E43.5758
G1 X85.755 Y110.803 E43.63754
G1 X85.574 Y110.393 E43.69084
G1 X85.479 Y110.131 E43.72398
G1 X85.34 Y109.631 E43.78569
G1 X85.278 Y109.039 E43.85648
G1 X85.265 Y108.307 E43.94354
G1 X85.267 Y99.205 E45.02594
G1 X85.278 Y98.544 E45.10456
G1 X85.327 Y98.026 E45.16643
G1 X85.459 Y97.508 E45.23
G1 X85.557 Y97.221 E45.26606
G1 X85.763 Y96.743 E45.32796
G1 X86.039 Y96.303 E45.38973
G1 X86.212 Y96.088 E45.42254
G1 X86.766 Y95.455 E45.52258
G1 X97.968 Y83.066 E47.50882
G1 F300 E47.00882
G1 F600 Z0.68
;MESH:corner-bottom-c-primo.stl
G0 F9000 X106.618 Y96.047 Z0.68
;TYPE:WALL-INNER
G1 F600 Z0.4
G1 F120 E47.50882
G1 F2079 X107.26 Y95.698 E47.58405
G1 F2114.4 X107.741 Y95.486 E47.63727
G1 F2111.1 X108.129 Y95.344 E47.67916
G1 F2107.9 X108.589 Y95.212 E47.72776
G1 F2114.4 X109.057 Y95.108 E47.77629
G1 F2117.6 X109.487 Y95.044 E47.82024
G1 F2111.1 X109.965 Y95.005 E47.86886
G1 F2104.6 X110.418 Y94.999 E47.91494
G1 F2120.9 X111.036 Y95.035 E47.97742
G1 F2137.5 X111.509 Y95.103 E48.02527
G1 F2134.2 X111.979 Y95.206 E48.07353
G1 F2137.5 X112.436 Y95.336 E48.12111
G1 F2140.8 X112.898 Y95.505 E48.1703
G1 F2137.5 X113.326 Y95.697 E48.21728
G1 F2098.2 X113.747 Y95.91 E48.26541
G1 F300 E47.76541
G1 F600 Z0.68
G0 F9000 X117.133 Y100.907 Z0.68
G1 F600 Z0.4
G1 F120 E48.26541
G1 F2242.6 X117.163 Y101.47 E48.31922
G1 F2387.4 X117.17 Y101.939 E48.36128
G1 F2375 X117.16 Y102.432 E48.40572
G1 F2250 X117.138 Y102.841 E48.44469
G1 F2044.8 X117.099 Y103.319 E48.49489
G1 F1881.7 X116.981 Y103.86 E48.55788
G1 F1816.7 X116.861 Y104.26 E48.60708
G1 F1800 X116.65 Y104.779 E48.67371
G1 X116.435 Y105.215 E48.73152
G1 X116.228 Y105.574 E48.7808
G1 X115.914 Y106.04 E48.84762
G1 X115.613 Y106.421 E48.90536
G1 X115.282 Y106.783 E48.96369
G1 X114.937 Y107.115 E49.02063
G1 X114.56 Y107.427 E49.07883
G1 X114.155 Y107.717 E49.13806
G1 X113.746 Y107.969 E49.19519
G1 X113.519 Y108.088 E49.22567
G1 X117.073 Y108.089 E49.64831
G1 X117.073 Y104.293 E50.09973
G1 F1863.8 X117.099 Y103.319 E50.21163
G1 F300 E49.71163
G1 F600 Z0.68
G0 F9000 X117.133 Y100.907 Z0.68
G1 F600 Z0.4
G1 F120 E50.21163
G1 F1954.3 X117.073 Y100.025 E50.30846
G1 F1800 X117.074 Y96.625 E50.71278
G1 X117.109 Y95.676 E50.82571
G1 F1718.6 X117.165 Y94.817 E50.93293
G1 F1654.2 X117.332 Y93.881 E51.05596
G1 F1664.2 X117.555 Y92.987 E51.17447
G1 F1662.2 X117.847 Y92.081 E51.29706
G1 X118.19 Y91.223 E51.41605
G1 X118.642 Y90.299 E51.54851
G1 X119.111 Y89.493 E51.6686
G1 X119.632 Y88.726 E51.788
G1 X120.167 Y88.041 E51.89993
G1 X120.801 Y87.333 E52.02232
G1 F1660.2 X121.461 Y86.692 E52.14094
G1 F1638.3 X121.71 Y86.464 E52.18505
G1 F1703.6 X122.964 Y85.552 E52.37988
G1 F1800 X123.819 Y85.02 E52.49963
G1 X124.651 Y84.581 E52.6115
G1 X125.499 Y84.205 E52.72181
G1 X126.39 Y83.884 E52.83443
G1 X127.286 Y83.63 E52.94518
G1 X128.212 Y83.435 E53.05772
G1 X129.126 Y83.31 E53.16742
G1 X130.028 Y83.248 E53.27494
G1 X130.95 Y83.248 E53.38458
G1 X131.895 Y83.312 E53.49722
G1 X132.806 Y83.439 E53.6066
G1 X133.73 Y83.635 E53.71893
G1 X134.624 Y83.889 E53.82945
G1 X135.514 Y84.211 E53.942
G1 X136.355 Y84.586 E54.0515
G1 X137.191 Y85.03 E54.16407
G1 X137.974 Y85.515 E54.2736
G1 X138.743 Y86.071 E54.38645
G1 X139.508 Y86.715 E54.50536
G1 X140.128 Y87.315 E54.60797
G1 X140.799 Y88.061 E54.72729
G1 X141.34 Y88.75 E54.83146
G1 X141.896 Y89.579 E54.95016
G1 X142.33 Y90.33 E55.05331
G1 X142.777 Y91.246 E55.17452
G1 X143.092 Y92.029 E55.27489
G1 X143.249 Y92.507 E55.33472
G1 F1753.8 X143.407 Y92.925 E55.38926
G1 F1666.3 X143.51 Y93.247 E55.43269
G1 F1648.2 X143.655 Y93.863 E55.51487
G1 F1668.3 X143.815 Y94.776 E55.6338
G1 F1666.3 X143.914 Y95.692 E55.75216
G1 F1664.2 X143.948 Y96.618 E55.87134
G1 F1660.2 X143.949 Y105.201 E56.97798
G1 F1648.2 X143.956 Y105.476 E57.0137
G1 F1714.3 X143.917 Y106.359 E57.12407
G1 F1800 X143.918 Y108.044 E57.32445
G1 X145.325 Y108.044 E57.49176
G1 F1767.4 X145.74 Y108.031 E57.54205
G1 F1638.3 X146.307 Y107.985 E57.61637
G1 F1572.4 X146.742 Y107.996 E57.67561
G1 F1581.5 X154.664 Y107.989 E58.74784
G1 F1674.4 X155.393 Y108.044 E58.8413
G1 F1797.6 X157.228 Y108.045 E59.0598
G1 F1800 X157.228 Y106.573 E59.23485
G1 F1765.2 X157.213 Y106.086 E59.29394
G1 F1646.2 X157.173 Y105.547 E59.36421
G1 F1581.5 X157.179 Y100.172 E60.09171
G1 F1567 X157.165 Y99.749 E60.14953
G1 F1491.8 X157.134 Y99.314 E60.2121
G1 F1443 X157.134 Y99.106 E60.24296
G1 X156.98 Y98.965 E60.27393
G1 F1498.4 X156.721 Y98.681 E60.32884
G1 F1607.5 X156.257 Y98.219 E60.41603
G1 F1660.2 X148.15 Y90.799 E61.833
G1 F1644.2 X147.903 Y90.583 E61.87572
G1 F1710 X147.312 Y89.99 E61.98052
G1 F1800 X141.479 Y84.65 E62.92095
G1 X140.639 Y83.932 E63.05236
G1 X139.751 Y83.273 E63.18387
G1 X138.822 Y82.677 E63.31512
G1 X137.853 Y82.143 E63.44669
G1 X136.862 Y81.683 E63.57662
G1 X135.818 Y81.281 E63.70966
G1 X134.761 Y80.955 E63.8412
G1 X133.697 Y80.703 E63.97123
G1 X132.607 Y80.524 E64.10259
G1 X131.493 Y80.418 E64.23566
G1 X130.396 Y80.385 E64.36617
G1 X129.284 Y80.43 E64.49852
G1 X128.148 Y80.552 E64.63439
G1 F1792.9 X120.216 Y81.691 E65.59109
G1 F1701.5 X119.544 Y81.825 E65.67729
G1 F1642.3 X119.221 Y81.862 E65.71967
G1 F1658.2 X105.69 Y83.8 E67.48421
G1 F1648.2 X105.312 Y83.905 E67.53516
G1 F1644.2 X105.099 Y83.996 E67.56531
G1 F1654.2 X104.95 Y84.073 E67.58701
G1 F1660.2 X102.607 Y85.44 E67.93676
G1 F1662.2 X102.337 Y85.671 E67.98252
G1 F1646.2 X99.591 Y88.708 E68.51491
G1 F1703.6 X99.117 Y89.185 E68.5994
G1 F1788.2 X97.547 Y90.914 E68.87895
G1 F1697.3 X97.095 Y91.479 E68.97021
G1 F1636.4 X96.799 Y91.79 E69.02637
G1 F1660.2 X90.957 Y98.248 E70.14916
G1 F1634.4 X90.652 Y98.601 E70.21026
G1 F1556.3 X90.414 Y98.91 E70.2639
G1 F1508.3 X90.296 Y99.039 E70.28871
G1 X90.296 Y99.214 E70.31355
G1 F1544 X90.276 Y99.459 E70.34763
G1 F1620.9 X90.254 Y99.988 E70.41755
G1 F1652.2 X90.257 Y105.591 E71.14347
G1 F1716.4 X90.22 Y106.474 E71.25368
G1 F1800 X90.22 Y108.088 E71.44562
G1 X91.639 Y108.088 E71.61437
G1 F1678.5 X92.382 Y108.034 E71.70937
G1 F1613.2 X92.926 Y108.057 E71.78161
G1 F1648.2 X102.487 Y108.051 E73.02332
G1 F1714.3 X103.464 Y108.088 E73.1454
G1 F1800 X107.07 Y108.089 E73.57422
G1 X106.772 Y107.928 E73.6145
G1 X106.36 Y107.667 E73.6725
G1 X105.965 Y107.377 E73.73077
G1 X105.659 Y107.12 E73.77829
G1 X105.309 Y106.783 E73.83607
G1 X104.923 Y106.355 E73.90461
G1 X104.677 Y106.04 E73.95214
G1 X104.363 Y105.573 E74.01906
G1 F1841.2 X104.171 Y105.206 E74.06722
G1 F1962.7 X103.982 Y104.759 E74.12014
G1 X104.09 Y105.231 E74.17295
G1 F1841.2 X104.071 Y105.612 E74.2173
G1 F1800 X103.981 Y105.914 E74.25478
G1 X103.902 Y106.112 E74.28013
G1 X103.657 Y106.515 E74.33621
G1 X103.397 Y106.754 E74.37821
G1 X103.109 Y106.954 E74.41991
G1 F1742.7 X102.659 Y107.165 E74.48096
G1 F1662.2 X102.415 Y107.222 E74.51322
G1 F1648.2 X102.212 Y107.232 E74.53962
G1 F1658.2 X92.926 Y107.232 E75.73835
G1 F1613.2 X92.527 Y107.187 E75.79162
G1 F1607.5 X92.285 Y107.081 E75.8268
G1 F1718.6 X91.838 Y106.775 E75.89427
G1 F1800 X91.681 Y106.642 E75.91874
G1 X91.528 Y106.467 E75.94639
G1 X91.364 Y106.215 E75.98214
G1 F1783.6 X91.239 Y105.971 E76.01504
G1 F1718.6 X91.123 Y105.678 E76.05429
G1 F1656.2 X91.086 Y105.519 E76.07539
G1 F1650.2 X91.075 Y105.316 E76.10176
G1 F1662.2 X91.076 Y99.988 E76.78789
G1 F1620.9 X91.118 Y99.599 E76.83956
G1 F1545.8 X91.184 Y99.349 E76.87536
G1 F1559.9 X91.327 Y99.112 E76.91335
G1 F1634.4 X91.567 Y98.8 E76.9649
G1 F1660.2 X97.409 Y92.342 E78.08769
G1 F1648.2 X97.548 Y92.204 E78.11313
G1 F1624.7 X97.673 Y92.097 E78.13481
G1 F1664.2 X97.966 Y91.957 E78.17657
G1 F1756.1 X98.219 Y91.869 E78.20922
G1 F1797.6 X98.549 Y91.789 E78.24966
G1 F1800 X98.763 Y91.769 E78.27522
G1 X98.953 Y91.767 E78.29781
G1 X99.288 Y91.822 E78.33818
G1 F1802.4 X99.476 Y91.874 E78.36135
G1 F1811.9 X99.766 Y92.004 E78.39889
G1 F1828.9 X99.988 Y92.135 E78.42906
G1 F1843.7 X100.108 Y92.245 E78.44796
G1 F1846.2 X104.136 Y96.271 E79.10828
G1 F1797.6 X104.259 Y96.412 E79.13056
G1 F1596.3 X104.533 Y96.758 E79.18974
G1 F1461.5 X104.592 Y96.916 E79.21444
G1 X104.66 Y97.18 E79.25437
G1 X104.689 Y97.399 E79.28673
G1 F1537.1 X104.643 Y97.753 E79.33644
G1 F1797.6 X104.441 Y98.202 E79.39507
G1 X104.643 Y97.753 E79.45369
G1 F1537.1 X104.834 Y97.438 E79.50499
G1 F1461.5 X105.195 Y97.031 E79.58467
G1 X105.597 Y96.64 E79.6668
G1 X105.909 Y96.38 E79.72628
G1 F1547.5 X106.188 Y96.238 E79.76959
G1 F1594.4 X105.919 Y96.318 E79.80726
G1 F1503.3 X105.402 Y96.248 E79.88155
G1 F1461.5 X105.165 Y96.168 E79.91819
G1 F1547.5 X104.94 Y95.996 E79.95736
G1 F1742.7 X104.547 Y95.642 E80.02233
G1 F1843.7 X100.475 Y91.573 E80.69068
G1 F1828.9 X100.313 Y91.372 E80.72089
G1 F1811.9 X100.165 Y91.099 E80.75758
G1 F1802.4 X100.09 Y90.919 E80.78074
G1 F1800 X100.011 Y90.608 E80.8189
G1 X99.983 Y90.246 E80.86207
G1 F1790.6 X100.054 Y89.763 E80.92043
G1 F1740.5 X100.168 Y89.42 E80.96489
G1 F1666.3 X100.254 Y89.211 E80.99392
G1 F1646.2 X100.383 Y89.052 E81.02054
G1 F1660.2 X102.928 Y86.244 E81.50916
G1 F1662.2 X103.125 Y86.081 E81.54209
G1 X105.384 Y84.773 E81.87824
G1 F1658.2 X105.808 Y84.615 E81.93665
G1 X119.337 Y82.68 E83.70088
G1 F1642.3 X119.577 Y82.662 E83.73225
G1 F1650.2 X119.8 Y82.689 E83.76139
G1 F1727.3 X120.108 Y82.777 E83.80109
G1 F1792.9 X120.311 Y82.851 E83.82688
G1 F1800 X120.588 Y82.994 E83.86395
G1 X120.767 Y83.12 E83.88998
G1 X120.997 Y83.335 E83.92742
G1 X121.137 Y83.509 E83.95398
G1 X121.298 Y83.774 E83.99086
G1 X121.418 Y84.063 E84.02807
G1 X121.462 Y84.239 E84.04964
G1 X121.489 Y84.402 E84.06929
G1 X121.504 Y84.627 E84.09611
G1 X121.484 Y84.896 E84.12818
G1 X121.418 Y85.199 E84.16506
G1 F1781.2 X121.326 Y85.467 E84.19911
G1 F1714.3 X121.216 Y85.703 E84.23162
G1 F1642.3 X121.096 Y85.89 E84.26058
G1 F1638.3 X120.174 Y86.799 E84.42975
G1 F1662.2 X119.548 Y87.498 E84.55058
G1 X118.944 Y88.272 E84.67701
