;FLAVOR:Marlin
;TIME:4297
;Filament used: 25.1379m
;Layer height: 0.4
;MINX:47.433
;MINY:57.946
;MINZ:0.4
;MAXX:125.913
;MAXY:100.978
;MAXZ:70.28
;TARGET_MACHINE.NAME:VORON2 250
;Generated with Cura_SteamEngine 5.6.0
M140 S80
M105
M190 S80
M104 S245
M105
M109 S245
M82 ;absolute extrusion mode
START_PRINT
G92 E0
G92 E0
G1 F300 E-0.5
;LAYER_COUNT:175
;LAYER:0
M107
M204 S1000
G1 F600 Z0.68
G0 F9000 X64.535 Y67.97 Z0.68
;TYPE:SKIRT
G1 F600 Z0.4
G1 F120 E0
G1 F1800 X65.879 Y66.791 E0.21261
G1 X66.07 Y66.633 E0.24209
G1 X67.043 Y65.887 E0.38789
G1 X67.25 Y65.739 E0.41815
G1 X68.277 Y65.057 E0.56476
G1 X69.559 Y64.316 E0.74084
G1 X69.792 Y64.193 E0.77218
G1 X70.975 Y63.622 E0.92839
G1 X72.276 Y63.091 E1.09549
G1 X72.511 Y63.005 E1.12525
G1 X73.682 Y62.621 E1.2718
G1 X73.935 Y62.549 E1.30308
G1 X75.396 Y62.189 E1.48202
G1 X76.702 Y61.955 E1.6398
G1 X78.017 Y61.798 E1.79729
G1 X78.33 Y61.773 E1.83463
G1 X79.61 Y61.718 E1.98699
G1 X79.863 Y61.716 E2.01707
G1 X81.275 Y61.758 E2.18506
G1 X82.47 Y61.866 E2.32775
G1 X83.861 Y62.042 E2.49448
G1 X104.691 Y65.021 E4.99677
G1 X105.721 Y65.186 E5.12082
G1 X106.243 Y65.296 E5.18426
G1 X106.704 Y65.427 E5.24125
G1 X107.208 Y65.603 E5.30473
G1 X107.627 Y65.779 E5.35878
G1 X108.189 Y66.058 E5.43339
G1 X109.031 Y66.525 E5.54789
G1 X109.837 Y66.992 E5.65867
G1 X110.684 Y67.499 E5.77606
G1 X111.121 Y67.792 E5.83862
G1 X111.601 Y68.16 E5.91055
G1 X111.939 Y68.462 E5.96445
G1 X112.419 Y68.946 E6.04551
G1 X112.925 Y69.488 E6.13369
G1 X124.242 Y82.002 E8.14013
G1 X124.699 Y82.522 E8.22245
G1 X125.15 Y83.143 E8.31372
G1 X125.287 Y83.374 E8.34566
G1 X125.575 Y83.952 E8.42246
G1 X125.807 Y84.79 E8.52586
G1 X125.851 Y85.059 E8.55827
G1 X125.902 Y85.635 E8.62704
G1 X125.912 Y86.359 E8.71314
G1 X125.913 Y95.295 E9.7758
G1 X125.9 Y96.105 E9.87214
G1 X125.848 Y96.675 E9.9402
G1 X125.729 Y97.178 E10.00167
G1 X125.641 Y97.472 E10.03817
G1 X125.415 Y98.066 E10.11374
G1 X125.097 Y98.618 E10.1895
G1 X124.739 Y99.069 E10.25798
G1 X124.51 Y99.319 E10.29829
G1 X124.132 Y99.676 E10.36012
G1 X123.714 Y99.983 E10.4218
G1 X123.49 Y100.126 E10.4534
G1 X122.928 Y100.429 E10.52933
G1 X122.293 Y100.645 E10.60909
G1 X121.937 Y100.721 E10.65238
G1 X121.639 Y100.768 E10.68826
G1 X121.093 Y100.815 E10.75343
G1 X120.17 Y100.831 E10.86321
G1 X93.197 Y100.832 E14.07081
G1 X92.491 Y100.822 E14.15477
G1 X92.084 Y100.796 E14.20327
G1 X89.408 Y100.493 E14.52353
G1 X86.738 Y100.266 E14.84219
G1 X84.015 Y100.112 E15.16652
G1 X81.278 Y100.033 E15.49214
G1 X78.613 Y100.033 E15.80906
G1 X75.882 Y100.11 E16.13396
G1 X73.155 Y100.264 E16.45876
G1 X70.485 Y100.49 E16.77741
G1 X69.051 Y100.658 E16.94911
G1 X67.768 Y100.794 E17.10254
G1 X67.439 Y100.813 E17.14173
G1 X66.426 Y100.831 E17.26221
G1 X53.043 Y100.832 E18.8537
G1 X52.066 Y100.813 E18.96991
G1 X51.431 Y100.753 E19.04576
G1 X50.81 Y100.594 E19.12199
G1 X50.197 Y100.323 E19.20169
G1 X49.844 Y100.127 E19.24971
G1 X49.363 Y99.808 E19.31834
G1 X48.939 Y99.427 E19.38613
G1 X48.762 Y99.245 E19.41632
G1 X48.343 Y98.744 E19.49399
G1 X47.908 Y97.95 E19.60165
G1 X47.763 Y97.602 E19.64649
G1 X47.557 Y96.982 E19.72418
G1 X47.445 Y96.066 E19.83392
G1 X47.435 Y95.284 E19.92692
G1 X47.433 Y86.362 E20.98792
G1 X47.448 Y85.626 E21.07546
G1 X47.534 Y84.901 E21.16228
G1 X47.61 Y84.553 E21.20464
G1 X47.774 Y83.998 E21.27346
G1 X48.021 Y83.474 E21.34235
G1 X48.356 Y82.951 E21.41621
G1 X48.915 Y82.294 E21.51879
G1 X49.657 Y81.589 E21.64051
G1 X64.535 Y67.97 E24.03911
G0 F9000 X65.036 Y68.541
G1 F1800 X66.362 Y67.377 E24.24894
G1 X66.533 Y67.236 E24.27529
G1 X67.485 Y66.505 E24.41803
G1 X67.671 Y66.372 E24.44522
G1 X68.658 Y65.715 E24.58622
G1 X69.916 Y64.987 E24.75906
G1 X70.123 Y64.877 E24.78694
G1 X71.262 Y64.326 E24.9374
G1 X72.54 Y63.804 E25.10157
G1 X72.748 Y63.727 E25.12795
G1 X73.891 Y63.352 E25.271
G1 X74.118 Y63.287 E25.29908
G1 X75.531 Y62.937 E25.47219
G1 X76.792 Y62.71 E25.62456
G1 X78.107 Y62.553 E25.78205
G1 X78.363 Y62.532 E25.81259
G1 X79.617 Y62.478 E25.96185
G1 X79.841 Y62.476 E25.98849
G1 X81.207 Y62.515 E26.151
G1 X82.375 Y62.62 E26.29046
G1 X83.753 Y62.794 E26.45563
G1 X104.571 Y65.771 E28.95647
G1 X105.564 Y65.93 E29.07606
G1 X106.086 Y66.04 E29.1395
G1 X106.455 Y66.145 E29.18512
G1 X106.916 Y66.305 E29.24315
G1 X107.289 Y66.46 E29.29119
G1 X107.851 Y66.739 E29.3658
G1 X108.65 Y67.183 E29.4745
G1 X109.447 Y67.644 E29.58399
G1 X110.263 Y68.132 E29.69706
G1 X110.661 Y68.397 E29.75392
G1 X111.096 Y68.728 E29.81893
G1 X111.4 Y68.998 E29.86728
G1 X111.863 Y69.464 E29.9454
G1 X112.361 Y69.998 E30.03223
G1 X123.671 Y82.504 E32.0374
G1 X124.128 Y83.024 E32.11973
G1 X124.496 Y83.531 E32.19423
G1 X124.633 Y83.762 E32.22616
G1 X124.863 Y84.228 E32.28796
G1 X125.058 Y84.918 E32.37323
G1 X125.094 Y85.129 E32.39868
G1 X125.142 Y85.646 E32.46043
G1 X125.152 Y86.359 E32.54523
G1 X125.153 Y95.285 E33.6067
G1 X125.143 Y96.036 E33.69601
G1 X125.096 Y96.554 E33.75787
G1 X125.001 Y96.96 E33.80745
G1 X124.913 Y97.254 E33.84395
G1 X124.726 Y97.739 E33.90576
G1 X124.467 Y98.19 E33.96761
G1 X124.177 Y98.558 E34.02333
G1 X123.988 Y98.766 E34.05675
G1 X123.61 Y99.123 E34.11858
G1 X123.305 Y99.342 E34.16323
G1 X123.081 Y99.485 E34.19483
G1 X122.623 Y99.73 E34.2566
G1 X122.132 Y99.902 E34.31847
G1 X121.813 Y99.971 E34.35728
G1 X121.571 Y100.011 E34.38645
G1 X121.08 Y100.055 E34.44507
G1 X120.17 Y100.071 E34.55331
G1 X93.208 Y100.072 E37.7596
G1 X92.502 Y100.062 E37.84356
G1 X92.17 Y100.041 E37.88312
G1 X89.489 Y99.737 E38.20399
G1 X86.781 Y99.507 E38.52718
G1 X84.044 Y99.352 E38.85318
G1 X81.3 Y99.273 E39.17963
G1 X78.592 Y99.273 E39.50166
G1 X75.852 Y99.35 E39.82763
G1 X73.112 Y99.505 E40.15399
G1 X70.397 Y99.735 E40.47801
G1 X68.971 Y99.902 E40.64875
G1 X67.722 Y100.035 E40.79812
G1 X67.425 Y100.053 E40.8335
G1 X66.426 Y100.071 E40.95232
G1 X53.058 Y100.072 E42.54203
G1 X52.081 Y100.053 E42.65824
G1 X51.564 Y100.003 E42.72
G1 X51.061 Y99.874 E42.78176
G1 X50.505 Y99.628 E42.85406
G1 X50.264 Y99.494 E42.88685
G1 X49.831 Y99.207 E42.94863
G1 X49.484 Y98.897 E43.00396
G1 X49.307 Y98.715 E43.03415
G1 X48.974 Y98.315 E43.09604
G1 X48.61 Y97.658 E43.18536
G1 X48.465 Y97.31 E43.2302
G1 X48.303 Y96.816 E43.29202
G1 X48.205 Y96.056 E43.38315
G1 X48.195 Y95.284 E43.47496
G1 X48.193 Y86.373 E44.53465
G1 X48.203 Y85.712 E44.61326
G1 X48.277 Y85.059 E44.69141
G1 X48.339 Y84.768 E44.72679
G1 X48.486 Y84.269 E44.78866
G1 X48.708 Y83.799 E44.85047
G1 X48.991 Y83.368 E44.91178
G1 X49.439 Y82.845 E44.99368
G1 X50.17 Y82.15 E45.11363
G1 X65.036 Y68.541 E47.51037
G1 F300 E47.01037
G1 F600 Z0.68
;MESH:corner-bottom-c-primo-mirrored.stl
G0 F9000 X54.19 Y86.524 Z0.68
;TYPE:WALL-INNER
G1 F600 Z0.4
G1 F120 E47.51037
G1 F1509.9 X54.398 Y86.214 E47.5633
G1 F1596.3 X54.5 Y86.085 E47.58535
G1 F1640.3 X54.757 Y85.817 E47.6338
G1 F1662.2 X62.853 Y78.409 E49.04697
G1 F1632.5 X63.11 Y78.213 E49.08935
G1 F1630.5 X63.306 Y78.131 E49.11724
G1 F1707.9 X63.573 Y78.06 E49.15187
G1 F1781.2 X63.785 Y78.019 E49.17782
G1 F1800 X64.123 Y77.992 E49.21814
G1 X64.37 Y78.009 E49.24758
G1 X64.693 Y78.079 E49.28689
G1 X64.946 Y78.174 E49.31902
G1 X65.231 Y78.322 E49.35721
G1 X65.591 Y78.657 E49.41569
G1 X65.778 Y78.927 E49.45475
G1 X65.917 Y79.208 E49.49203
G1 F1774.3 X66.006 Y79.453 E49.52348
G1 F1710 X66.075 Y79.702 E49.55582
G1 F1634.4 X66.117 Y79.921 E49.58503
G1 F1618.9 X66.081 Y80.165 E49.61764
G1 F1654.2 X65.957 Y80.734 E49.693
G1 F1660.2 X65.866 Y81.204 E49.75472
G1 F1658.2 X65.744 Y82.045 E49.86442
G1 F1660.2 X65.671 Y82.875 E49.97185
G1 X65.645 Y83.719 E50.08072
G1 F1656.2 X65.642 Y92.3 E51.18978
G1 F1636.4 X65.622 Y92.546 E51.22207
G1 F1674.4 X65.477 Y92.922 E51.27358
G1 F1765.2 X65.336 Y93.174 E51.3086
G1 F1800 X65.243 Y93.314 E51.32859
G1 X65.075 Y93.512 E51.35947
G1 X64.917 Y93.663 E51.38546
G1 F1795.3 X64.638 Y93.859 E51.42611
G1 F1740.5 X64.429 Y93.985 E51.45612
G1 F1613.2 X64.125 Y94.128 E51.5007
G1 F1554.5 X63.904 Y94.155 E51.53136
G1 F1581.5 X63.701 Y94.166 E51.55888
G1 F1592.5 X56.011 Y94.166 E52.59249
G1 F1572.4 X55.728 Y94.145 E52.63112
G1 F1579.7 X55.542 Y94.084 E52.65764
G1 F1664.2 X55.326 Y93.978 E52.68859
G1 F1760.6 X55.132 Y93.867 E52.71576
G1 F1800 X54.811 Y93.64 E52.76252
G1 X54.628 Y93.457 E52.79329
G1 X54.419 Y93.167 E52.8358
G1 F1729.5 X54.2 Y92.716 E52.89786
G1 F1617 X54.11 Y92.41 E52.94008
G1 F1581.5 X54.099 Y92.203 E52.96813
G1 F1592.5 X54.1 Y87.218 E53.63817
G1 F1581.5 X54.111 Y87.016 E53.66555
G1 F1554.5 X54.139 Y86.793 E53.69649
G1 F1493.4 X54.19 Y86.524 E53.73574
G1 F300 E53.23574
G1 F600 Z0.68
G0 F9000 X93.32 Y87.531 Z0.68
G1 F600 Z0.4
G1 F120 E53.73574
G1 F2041.8 X93.28 Y88.007 E53.78582
G1 F2250 X93.258 Y88.413 E53.8245
G1 F2370.9 X93.247 Y88.949 E53.8729
G1 X93.258 Y89.465 E53.9195
G1 F2250 X93.28 Y89.872 E53.95827
G1 F2044.8 X93.32 Y90.35 E54.00849
G1 F1863.8 X93.346 Y91.324 E54.12039
G1 F1800 X93.346 Y95.119 E54.57169
G1 X96.897 Y95.12 E54.99397
G1 X96.596 Y94.957 E55.03467
G1 X96.252 Y94.742 E55.08292
G1 X95.856 Y94.459 E55.1408
G1 X95.43 Y94.1 E55.20705
G1 X95.13 Y93.808 E55.25683
G1 X94.76 Y93.398 E55.32251
G1 X94.459 Y93.009 E55.381
G1 X94.19 Y92.604 E55.43881
G1 X93.951 Y92.185 E55.49618
G1 X93.733 Y91.734 E55.55575
G1 X93.558 Y91.291 E55.61239
G1 F1816.7 X93.437 Y90.893 E55.6614
G1 F1881.7 X93.32 Y90.35 E55.72459
G1 F300 E55.22459
G1 F600 Z0.68
G0 F9000 X93.32 Y87.531 Z0.68
G1 F600 Z0.4
G1 F120 E55.72459
G1 F1879.1 X93.437 Y86.992 E55.78742
G1 F1816.7 X93.559 Y86.589 E55.83703
G1 F1800 X93.767 Y86.073 E55.90319
G1 X93.983 Y85.639 E55.96084
G1 X94.233 Y85.211 E56.01978
G1 X94.507 Y84.809 E56.07764
G1 X94.805 Y84.432 E56.13478
G1 X95.136 Y84.07 E56.19311
G1 X95.486 Y83.733 E56.25089
G1 X95.856 Y83.426 E56.30807
G1 F1846.2 X96.198 Y83.201 E56.35553
G1 F1968.3 X96.597 Y82.981 E56.40508
G1 F1982.6 X96.238 Y83.079 E56.44526
G1 F1863.8 X95.913 Y83.11 E56.48276
G1 F1807.1 X95.716 Y83.109 E56.50609
G1 F1800 X95.313 Y83.007 E56.55553
G1 X94.912 Y82.809 E56.60871
G1 X94.663 Y82.605 E56.64699
G1 X94.492 Y82.422 E56.67677
G1 X94.378 Y82.272 E56.69918
G1 F1762.9 X94.217 Y82.021 E56.73539
G1 F1684.7 X94.075 Y81.707 E56.77917
G1 F1652.2 X93.845 Y80.53 E56.93455
G1 F1658.2 X93.594 Y79.58 E57.06139
G1 X93.285 Y78.664 E57.18618
G1 F1660.2 X92.913 Y77.771 E57.31091
G1 X92.483 Y76.904 E57.43569
G1 F1662.2 X91.99 Y76.063 E57.56123
G1 F1664.2 X91.468 Y75.291 E57.68109
G1 X90.855 Y74.51 E57.80879
G1 X90.21 Y73.793 E57.93283
G1 F1656.2 X89.417 Y73.019 E58.07605
G1 F1684.7 X89.268 Y72.81 E58.10867
G1 F1738.2 X89.169 Y72.641 E58.13279
G1 F1778.9 X89.066 Y72.427 E58.16136
G1 F1800 X88.965 Y72.081 E58.20423
G1 X88.918 Y71.801 E58.23799
G1 X88.932 Y71.449 E58.27988
G1 X88.973 Y71.199 E58.31001
G1 X89.085 Y70.872 E58.35111
G1 X89.322 Y70.478 E58.40579
G1 X89.508 Y70.276 E58.43844
G1 X89.722 Y70.095 E58.47177
G1 X89.899 Y69.979 E58.49694
G1 X90.233 Y69.83 E58.54043
G1 F1774.3 X90.427 Y69.767 E58.56504
G1 F1710 X90.666 Y69.712 E58.59574
G1 F1650.2 X90.878 Y69.692 E58.62336
G1 F1642.3 X91.081 Y69.71 E58.64992
G1 F1656.2 X104.591 Y71.644 E60.41384
G1 F1652.2 X104.9 Y71.745 E60.45596
G1 F1654.2 X105.056 Y71.816 E60.47814
G1 F1662.2 X107.284 Y73.106 E60.80967
G1 X107.484 Y73.269 E60.8429
G1 F1660.2 X109.992 Y76.04 E61.32478
G1 F1644.2 X110.128 Y76.209 E61.35302
G1 F1652.2 X110.22 Y76.378 E61.37795
G1 F1714.3 X110.317 Y76.634 E61.41213
G1 F1778.9 X110.382 Y76.863 E61.44078
G1 F1800 X110.434 Y77.322 E61.49571
G1 X110.402 Y77.662 E61.53632
G1 X110.354 Y77.865 E61.56113
G1 F1802.4 X110.224 Y78.205 E61.60436
G1 F1811.9 X110.025 Y78.5 E61.6464
G1 F1821.6 X109.897 Y78.651 E61.66966
G1 F1836.2 X105.829 Y82.713 E62.3398
G1 F1638.3 X105.275 Y83.195 E62.43575
G1 F1471 X105.073 Y83.254 E62.46637
G1 X104.796 Y83.311 E62.50752
G1 F1474.1 X104.536 Y83.332 E62.5454
G1 F1600 X104.136 Y83.227 E62.60073
G1 X104.507 Y83.413 E62.65625
G1 F1474.1 X104.821 Y83.673 E62.71545
G1 F1471 X105.222 Y84.063 E62.79685
G1 X105.55 Y84.427 E62.86815
G1 F1475.7 X105.702 Y84.626 E62.90447
G1 F1531.9 X105.78 Y84.779 E62.92847
G1 X105.736 Y84.613 E62.95246
G1 F1475.7 X105.739 Y84.393 E62.98438
G1 F1471 X105.77 Y84.16 E63.01858
G1 X105.839 Y83.855 E63.06409
G1 F1577.9 X106.085 Y83.524 E63.12003
G1 F1762.9 X106.255 Y83.331 E63.15126
G1 F1838.7 X110.257 Y79.333 E63.80981
G1 F1836.2 X110.384 Y79.218 E63.82978
G1 F1819.1 X110.708 Y79.008 E63.87521
G1 F1807.1 X110.958 Y78.902 E63.90737
G1 F1800 X111.401 Y78.798 E63.96149
G1 X111.758 Y78.806 E64.00395
G1 X112 Y78.843 E64.03307
G1 X112.217 Y78.9 E64.05975
G1 F1742.7 X112.614 Y79.062 E64.11241
G1 F1660.2 X112.867 Y79.23 E64.15157
G1 F1646.2 X113.011 Y79.374 E64.17805
G1 F1662.2 X118.834 Y85.81 E65.29574
G1 F1650.2 X119.012 Y86.031 E65.33255
G1 F1600 X119.16 Y86.25 E65.36791
G1 F1535.4 X119.255 Y86.426 E65.39579
G1 F1567 X119.332 Y86.864 E65.45654
G1 F1646.2 X119.344 Y87.084 E65.48519
G1 F1656.2 X119.342 Y92.417 E66.17446
G1 F1636.4 X119.322 Y92.659 E66.20622
G1 F1650.2 X119.259 Y92.84 E66.23108
G1 F1705.7 X119.175 Y93.042 E66.25854
G1 F1765.2 X119.014 Y93.32 E66.29749
G1 F1800 X118.763 Y93.674 E66.3491
G1 X118.397 Y93.941 E66.40297
G1 F1765.2 X118.085 Y94.106 E66.44577
G1 F1674.4 X117.791 Y94.227 E66.48642
G1 F1632.5 X117.577 Y94.255 E66.51472
G1 F1652.2 X117.398 Y94.264 E66.53794
G1 F1660.2 X108.183 Y94.264 E67.72606
G1 F1640.3 X107.909 Y94.243 E67.76192
G1 F1642.3 X107.722 Y94.187 E67.78736
G1 F1705.7 X107.496 Y94.086 E67.81842
G1 F1769.7 X107.354 Y94.008 E67.83802
G1 F1795.3 X107.134 Y93.868 E67.86911
G1 F1800 X106.914 Y93.691 E67.90269
G1 X106.715 Y93.501 E67.93541
G1 X106.479 Y93.06 E67.99489
G1 X106.393 Y92.803 E68.02712
G1 X106.343 Y92.562 E68.05639
G1 F1843.7 X106.338 Y92.27 E68.09029
G1 F1932.2 X106.375 Y92.02 E68.11829
G1 F2026.7 X106.433 Y91.789 E68.14345
G1 F1982.6 X106.255 Y92.221 E68.19389
G1 F1848.6 X106.104 Y92.523 E68.23299
G1 F1800 X106.016 Y92.672 E68.25357
G1 X105.769 Y93.036 E68.30588
G1 X105.434 Y93.462 E68.37033
G1 X105.117 Y93.808 E68.42613
G1 X104.761 Y94.15 E68.48484
G1 X104.389 Y94.458 E68.54227
G1 X103.984 Y94.748 E68.6015
G1 X103.649 Y94.957 E68.64846
G1 X103.351 Y95.119 E68.6888
G1 F1795.3 X107.102 Y95.118 E69.13603
G1 F1701.5 X107.811 Y95.077 E69.22538
G1 F1640.3 X108.183 Y95.088 E69.27394
G1 F1660.2 X117.398 Y95.088 E70.46206
G1 F1638.3 X117.831 Y95.076 E70.51866
G1 F1703.6 X118.663 Y95.12 E70.62334
G1 F1800 X120.201 Y95.12 E70.80624
G1 X120.201 Y93.698 E70.97534
G1 F1765.2 X120.186 Y93.213 E71.03419
G1 F1674.4 X120.159 Y92.731 E71.0959
G1 F1640.3 X120.169 Y92.293 E71.15307
G1 F1660.2 X120.169 Y87.084 E71.82469
G1 F1628.6 X120.153 Y86.599 E71.88847
G1 F1551 X120.127 Y86.25 E71.93677
G1 F1506.6 X120.127 Y86.076 E71.96149
G1 X120.009 Y85.946 E71.98643
G1 F1568.8 X119.658 Y85.503 E72.06355
G1 F1632.5 X113.397 Y78.588 E73.28671
G1 F1710 X112.828 Y77.896 E73.39886
G1 F1800 X111.373 Y76.288 E73.65674
G1 F1712.1 X110.796 Y75.708 E73.75903
G1 F1644.2 X110.604 Y75.486 E73.79724
G1 F1660.2 X108.029 Y72.644 E74.2917
G1 F1662.2 X107.74 Y72.42 E74.33879
G1 X105.442 Y71.089 E74.68077
G1 F1654.2 X105.17 Y70.961 E74.71967
G1 F1648.2 X104.927 Y70.877 E74.75306
G1 F1650.2 X104.703 Y70.822 E74.78298
G1 F1654.2 X91.197 Y68.892 E76.54845
G1 F1642.3 X90.9 Y68.857 E76.58743
G1 F1710 X90.167 Y68.712 E76.68096
G1 F1800 X82.245 Y67.58 E77.6326
G1 X81.134 Y67.46 E77.76549
G1 X80.023 Y67.416 E77.89771
G1 X78.924 Y67.446 E78.02846
G1 X77.812 Y67.553 E78.1613
G1 X76.74 Y67.727 E78.29045
G1 X75.657 Y67.984 E78.42282
G1 X74.6 Y68.31 E78.55436
G1 X73.556 Y68.713 E78.68744
G1 X72.565 Y69.172 E78.81732
G1 X71.586 Y69.711 E78.95022
G1 X70.668 Y70.303 E79.08011
G1 X69.77 Y70.969 E79.21307
G1 X68.904 Y71.714 E79.34892
G1 X63.21 Y76.924 E80.26672
G1 F1697.3 X62.631 Y77.517 E80.37124
G1 F1632.5 X62.297 Y77.802 E80.42881
G1 F1658.2 X54.082 Y85.323 E81.8666
G1 F1636.4 X53.881 Y85.516 E81.90305
G1 F1530.2 X53.437 Y85.995 E81.99441
G1 F1450.7 X53.283 Y86.135 E82.02512
G1 X53.283 Y86.343 E82.05581
G1 F1493.4 X53.256 Y86.718 E82.1097
G1 F1563.4 X53.24 Y87.218 E82.17819
G1 F1581.5 X53.245 Y92.485 E82.89107
G1 F1678.5 X53.19 Y93.255 E82.98952
G1 F1800 X53.19 Y95.075 E83.20595
G1 X54.862 Y95.074 E83.40478
