;FLAVOR:Marlin
;TIME:1495
;Filament used: 8.85444m
;Layer height: 0.4
;MINX:96.421
;MINY:68.001
;MINZ:0.4
;MAXX:150.706
;MAXY:122.287
;MAXZ:29.08
;TARGET_MACHINE.NAME:VORON2 250
;Generated with Cura_SteamEngine 5.6.0
M140 S80
M105
M190 S80
M104 S245
M105
M109 S245
M82 ;absolute extrusion mode
START_PRINT
G92 E0
G92 E0
G1 F300 E-0.5
;LAYER_COUNT:72
;LAYER:0
M107
M204 S1000
G1 F600 Z0.68
G0 F9000 X97.972 Y83.389 Z0.68
;TYPE:SKIRT
G1 F600 Z0.4
G1 F120 E0
G1 F1800 X98.719 Y82.616 E0.12783
G1 X111.182 Y70.152 E2.2239
G1 X111.733 Y69.619 E2.31507
G1 X112.138 Y69.279 E2.37795
G1 X112.56 Y68.974 E2.43987
G1 X113.003 Y68.701 E2.50175
G1 X113.399 Y68.513 E2.55388
G1 X113.736 Y68.379 E2.59701
G1 X114.183 Y68.234 E2.65289
G1 X114.644 Y68.121 E2.70934
G1 X115.312 Y68.023 E2.78963
G1 X115.8 Y68.001 E2.84772
G1 X116.494 Y68.042 E2.93039
G1 X116.997 Y68.123 E2.99098
G1 X117.616 Y68.281 E3.06695
G1 X117.917 Y68.386 E3.10486
G1 X118.364 Y68.574 E3.16253
G1 X119.084 Y68.932 E3.25815
G1 X134.754 Y77.159 E5.36282
G1 X136.05 Y77.868 E5.53849
G1 X136.508 Y78.138 E5.60172
G1 X137.172 Y78.556 E5.69502
G1 X137.601 Y78.844 E5.75647
G1 X138.243 Y79.303 E5.85032
G1 X138.578 Y79.557 E5.90032
G1 X139.291 Y80.133 E6.00932
G1 X139.672 Y80.463 E6.06926
G1 X140.257 Y80.998 E6.16353
G1 X141.196 Y81.912 E6.31936
G1 X146.303 Y87.017 E7.17807
G1 X147.275 Y88.024 E7.34451
G1 X147.45 Y88.218 E7.37558
G1 X147.81 Y88.646 E7.44208
G1 X148.378 Y89.402 E7.55453
G1 X148.516 Y89.604 E7.58363
G1 X148.972 Y90.343 E7.68689
G1 X149.422 Y91.189 E7.80084
G1 X149.741 Y91.907 E7.89428
G1 X149.994 Y92.578 E7.97955
G1 X150.241 Y93.373 E8.07855
G1 X150.308 Y93.623 E8.10933
G1 X150.451 Y94.252 E8.18604
G1 X150.588 Y95.069 E8.28455
G1 X150.624 Y95.36 E8.31942
G1 X150.682 Y96.026 E8.39892
G1 X150.706 Y96.85 E8.49695
G1 X150.67 Y97.781 E8.60775
G1 X150.586 Y98.576 E8.70282
G1 X150.418 Y99.536 E8.81871
G1 X150.357 Y99.807 E8.85175
G1 X150.153 Y100.562 E8.94475
G1 X149.931 Y101.228 E9.02823
G1 X149.586 Y102.083 E9.13788
G1 X149.243 Y102.796 E9.23197
G1 X149.115 Y103.034 E9.2641
G1 X148.652 Y103.814 E9.37197
G1 X148.149 Y104.544 E9.47739
G1 X147.737 Y105.07 E9.55685
G1 X147.198 Y105.682 E9.65383
G1 X146.303 Y106.611 E9.80723
G1 X135.032 Y117.882 E11.70275
G1 X134.021 Y118.857 E11.86978
G1 X133.807 Y119.049 E11.90397
G1 X133.187 Y119.559 E11.99944
G1 X132.407 Y120.121 E12.11376
G1 X131.732 Y120.54 E12.20824
G1 X131.123 Y120.873 E12.29078
G1 X130.849 Y121.008 E12.32711
G1 X130.112 Y121.335 E12.42299
G1 X129.255 Y121.65 E12.53157
G1 X128.677 Y121.824 E12.60335
G1 X127.785 Y122.035 E12.71236
G1 X126.933 Y122.178 E12.81509
G1 X126.665 Y122.211 E12.8472
G1 X125.77 Y122.279 E12.95394
G1 X124.894 Y122.287 E13.05812
G1 X124.016 Y122.234 E13.16272
G1 X123.215 Y122.133 E13.25873
G1 X122.494 Y121.999 E13.34594
G1 X121.644 Y121.785 E13.45017
G1 X120.845 Y121.527 E13.55002
G1 X120.591 Y121.432 E13.58227
G1 X119.738 Y121.071 E13.69242
G1 X119.012 Y120.703 E13.78921
G1 X118.437 Y120.369 E13.86829
G1 X117.686 Y119.87 E13.97551
G1 X116.991 Y119.336 E14.07974
G1 X116.793 Y119.169 E14.11054
G1 X116.247 Y118.676 E14.19802
G1 X115.462 Y117.917 E14.32787
G1 X110.314 Y112.771 E15.19348
G1 X109.314 Y111.739 E15.36437
G1 X108.921 Y111.308 E15.43373
G1 X108.418 Y110.72 E15.52575
G1 X108.063 Y110.28 E15.59298
G1 X107.646 Y109.728 E15.67525
G1 X107.289 Y109.228 E15.74831
G1 X106.888 Y108.629 E15.83403
G1 X106.596 Y108.163 E15.89943
G1 X106.226 Y107.53 E15.98662
G1 X105.548 Y106.289 E16.15479
G1 X97.148 Y90.275 E18.30524
G1 X96.883 Y89.7 E18.38053
G1 X96.696 Y89.195 E18.44457
G1 X96.564 Y88.729 E18.50217
G1 X96.45 Y88.165 E18.5706
G1 X96.421 Y87.647 E18.63229
G1 X96.425 Y87.178 E18.68807
G1 X96.486 Y86.544 E18.76381
G1 X96.573 Y86.087 E18.81913
G1 X96.702 Y85.611 E18.87778
G1 X96.876 Y85.116 E18.94017
G1 X97.131 Y84.551 E19.01389
G1 X97.323 Y84.235 E19.05786
G1 X97.573 Y83.873 E19.11018
G1 X97.972 Y83.389 E19.18477
G0 F9000 X98.519 Y83.917
G1 F1800 X99.256 Y83.154 E19.31092
G1 X105.754 Y76.663 E20.40315
G1 X106.353 Y76.054 E20.50473
G1 X111.711 Y70.697 E21.40574
G1 X112.224 Y70.199 E21.49076
G1 X112.586 Y69.893 E21.54713
G1 X112.959 Y69.621 E21.60203
G1 X113.402 Y69.348 E21.66391
G1 X113.684 Y69.218 E21.70083
G1 X113.971 Y69.102 E21.73765
G1 X114.418 Y68.957 E21.79353
G1 X114.754 Y68.873 E21.83472
G1 X115.422 Y68.775 E21.915
G1 X115.755 Y68.76 E21.95464
G1 X116.449 Y68.801 E22.03732
G1 X116.812 Y68.86 E22.08105
G1 X117.369 Y69 E22.14935
G1 X117.625 Y69.088 E22.18154
G1 X118.026 Y69.255 E22.2332
G1 X118.731 Y69.605 E22.3268
G1 X134.389 Y77.826 E24.42988
G1 X135.664 Y78.523 E24.60267
G1 X136.122 Y78.793 E24.6659
G1 X136.749 Y79.187 E24.75396
G1 X137.159 Y79.462 E24.81267
G1 X137.784 Y79.909 E24.90405
G1 X138.101 Y80.149 E24.95133
G1 X138.793 Y80.707 E25.05704
G1 X139.159 Y81.024 E25.11462
G1 X139.727 Y81.543 E25.20612
G1 X140.659 Y82.449 E25.36069
G1 X145.756 Y87.545 E26.2178
G1 X146.712 Y88.535 E26.38146
G1 X146.868 Y88.707 E26.40908
G1 X147.228 Y89.135 E26.47558
G1 X147.75 Y89.831 E26.57904
G1 X147.888 Y90.033 E26.60814
G1 X148.302 Y90.701 E26.70159
G1 X148.728 Y91.498 E26.80906
G1 X149.03 Y92.176 E26.89732
G1 X149.268 Y92.804 E26.97719
G1 X149.507 Y93.57 E27.07261
G1 X149.567 Y93.793 E27.10007
G1 X149.701 Y94.378 E27.17144
G1 X149.838 Y95.195 E27.26996
G1 X149.867 Y95.427 E27.29776
G1 X149.922 Y96.048 E27.3719
G1 X149.946 Y96.872 E27.46993
G1 X149.914 Y97.701 E27.56859
G1 X149.83 Y98.496 E27.66365
G1 X149.676 Y99.371 E27.76931
G1 X149.623 Y99.609 E27.7983
G1 X149.419 Y100.364 E27.89131
G1 X149.226 Y100.945 E27.96411
G1 X148.901 Y101.754 E28.06779
G1 X148.573 Y102.437 E28.15789
G1 X148.461 Y102.646 E28.18609
G1 X147.998 Y103.426 E28.29395
G1 X147.55 Y104.076 E28.38783
G1 X147.166 Y104.568 E28.46205
G1 X146.65 Y105.155 E28.55499
G1 X145.766 Y106.074 E28.70663
G1 X134.504 Y117.335 E30.60056
G1 X133.493 Y118.31 E30.76758
G1 X133.323 Y118.463 E30.79478
G1 X132.742 Y118.943 E30.8844
G1 X132.005 Y119.476 E30.99256
G1 X131.367 Y119.873 E31.08192
G1 X130.758 Y120.206 E31.16447
G1 X130.54 Y120.314 E31.1934
G1 X129.849 Y120.622 E31.28336
G1 X129.036 Y120.922 E31.38642
G1 X128.458 Y121.096 E31.4582
G1 X127.659 Y121.286 E31.55586
G1 X126.84 Y121.424 E31.65463
G1 X126.606 Y121.453 E31.68267
G1 X125.762 Y121.519 E31.78335
G1 X124.938 Y121.528 E31.88134
G1 X124.111 Y121.48 E31.97985
G1 X123.31 Y121.379 E32.07586
G1 X122.678 Y121.262 E32.15229
G1 X121.877 Y121.062 E32.25047
G1 X121.108 Y120.814 E32.34656
G1 X120.886 Y120.732 E32.3747
G1 X120.08 Y120.392 E32.47873
G1 X119.394 Y120.046 E32.5701
G1 X118.819 Y119.712 E32.64918
G1 X118.149 Y119.267 E32.74482
G1 X117.479 Y118.753 E32.84524
G1 X117.302 Y118.605 E32.87268
G1 X116.775 Y118.129 E32.95713
G1 X115.999 Y117.38 E33.08539
G1 X110.86 Y112.242 E33.94956
G1 X109.876 Y111.227 E34.11768
G1 X109.483 Y110.796 E34.18704
G1 X109.009 Y110.242 E34.27374
G1 X108.669 Y109.821 E34.3381
G1 X108.264 Y109.286 E34.41789
G1 X107.92 Y108.805 E34.48821
G1 X107.532 Y108.226 E34.5711
G1 X107.252 Y107.779 E34.63382
G1 X106.893 Y107.166 E34.7183
G1 X106.221 Y105.936 E34.88498
G1 X97.837 Y89.954 E37.03118
G1 X97.596 Y89.436 E37.09912
G1 X97.409 Y88.931 E37.16316
G1 X97.309 Y88.578 E37.20679
G1 X97.206 Y88.069 E37.26855
G1 X97.181 Y87.649 E37.31858
G1 X97.182 Y87.251 E37.36591
G1 X97.243 Y86.617 E37.44165
G1 X97.307 Y86.286 E37.48174
G1 X97.436 Y85.81 E37.54039
G1 X97.572 Y85.422 E37.58928
G1 X97.781 Y84.946 E37.65111
G1 X97.973 Y84.63 E37.69508
G1 X98.162 Y84.354 E37.73486
G1 X98.519 Y83.917 E37.80196
G1 F300 E37.30196
G1 F600 Z0.68
;MESH:corner-leg-lock-c-primo.stl(3)
G0 F9000 X107.569 Y82.18 Z0.68
;TYPE:WALL-INNER
G1 F600 Z0.4
G1 F120 E37.80196
G1 F1800 X102.351 Y87.401 E38.67976
G1 X111.164 Y104.177 E40.93328
G1 X111.642 Y105.025 E41.04904
G1 X112.136 Y105.789 E41.15723
G1 X112.729 Y106.602 E41.2769
G1 X113.351 Y107.347 E41.39231
G1 X114.012 Y108.052 E41.50723
G1 X120.327 Y114.366 E42.56919
G1 X120.609 Y114.623 E42.61456
G1 X120.979 Y114.923 E42.6712
G1 X121.383 Y115.209 E42.73007
G1 X121.782 Y115.453 E42.78568
G1 X122.206 Y115.672 E42.84243
G1 X122.659 Y115.87 E42.90123
G1 X123.098 Y116.026 E42.95663
G1 X123.557 Y116.155 E43.01333
G1 X124.037 Y116.253 E43.07159
G1 X124.504 Y116.319 E43.12767
G1 X124.994 Y116.352 E43.18608
G1 X125.463 Y116.352 E43.24185
G1 X125.954 Y116.319 E43.30037
G1 X126.419 Y116.254 E43.35621
G1 X126.892 Y116.156 E43.41365
G1 X127.27 Y116.05 E43.46033
G1 X127.278 Y116.057 E43.4616
G1 X127.799 Y115.87 E43.52742
G1 X128.252 Y115.673 E43.58617
G1 X128.67 Y115.456 E43.64218
G1 X129.074 Y115.208 E43.69855
G1 X129.479 Y114.923 E43.75744
G1 X129.842 Y114.627 E43.81314
G1 X130.165 Y114.328 E43.86548
G1 X142.74 Y101.757 E45.97997
G1 X143.033 Y101.439 E46.03139
G1 X143.345 Y101.055 E46.09023
G1 X143.623 Y100.66 E46.14767
G1 X143.874 Y100.251 E46.20474
G1 X144.093 Y99.826 E46.26159
G1 X144.285 Y99.384 E46.3189
G1 X144.471 Y98.863 E46.38468
G1 X144.465 Y98.855 E46.38587
G1 X144.571 Y98.477 E46.43256
G1 X144.669 Y98 E46.49047
G1 X144.734 Y97.539 E46.54583
G1 X144.767 Y97.047 E46.60447
G1 X144.767 Y96.568 E46.66143
G1 X144.734 Y96.09 E46.71841
G1 X144.667 Y95.615 E46.77546
G1 X144.57 Y95.143 E46.83276
G1 X144.441 Y94.683 E46.88957
G1 X144.285 Y94.244 E46.94498
G1 X144.088 Y93.791 E47.00372
G1 X143.868 Y93.367 E47.06053
G1 X143.624 Y92.968 E47.11614
G1 X143.338 Y92.564 E47.17501
G1 X143.042 Y92.2 E47.2308
G1 X142.743 Y91.879 E47.28297
G1 X136.397 Y85.531 E48.35039
G1 X135.762 Y84.936 E48.45387
G1 X135.015 Y84.313 E48.56954
G1 X134.209 Y83.719 E48.68861
G1 X133.441 Y83.228 E48.79701
G1 X132.593 Y82.748 E48.91288
G1 X115.814 Y73.935 E51.16672
G1 X110.595 Y79.153 E52.04435
G1 X117.689 Y86.244 E53.23714
G1 X118.052 Y85.986 E53.2901
G1 X118.83 Y85.508 E53.39869
G1 X119.623 Y85.094 E53.50507
G1 X120.44 Y84.74 E53.61095
G1 X121.226 Y84.455 E53.71038
G1 X121.39 Y84.409 E53.73063
G1 X121.564 Y84.374 E53.75174
G1 X121.775 Y84.352 E53.77697
G1 X121.997 Y84.37 E53.80345
G1 X122.343 Y84.444 E53.84553
G1 X122.525 Y84.52 E53.86898
G1 X122.82 Y84.702 E53.9102
G1 X122.987 Y84.83 E53.93523
G1 X123.124 Y84.983 E53.95965
G1 X123.228 Y85.15 E53.98304
G1 X123.299 Y85.323 E54.00528
G1 X123.392 Y85.617 E54.04195
G1 X123.431 Y85.787 E54.06269
G1 X123.444 Y85.949 E54.08202
G1 X123.415 Y86.272 E54.12059
G1 X123.356 Y86.539 E54.1531
G1 X123.185 Y86.878 E54.19826
G1 X123.044 Y87.071 E54.22668
G1 X122.7 Y87.375 E54.28127
G1 X122.509 Y87.48 E54.30719
G1 X121.667 Y87.782 E54.41357
G1 X121.059 Y88.046 E54.49239
G1 X120.471 Y88.351 E54.57116
G1 X119.914 Y88.69 E54.6487
G1 X119.36 Y89.081 E54.72934
G1 X118.844 Y89.5 E54.80839
G1 X118.36 Y89.953 E54.88722
G1 X117.915 Y90.429 E54.96471
G1 X117.488 Y90.954 E55.04518
G1 X117.106 Y91.498 E55.12423
G1 X116.76 Y92.066 E55.20332
G1 X116.454 Y92.656 E55.28236
G1 X116.191 Y93.266 E55.36136
G1 X115.912 Y94.044 E55.45965
G1 X115.835 Y94.195 E55.4798
G1 X115.616 Y94.509 E55.52533
G1 X115.405 Y94.693 E55.55862
G1 X114.997 Y94.912 E55.61369
G1 X114.798 Y94.983 E55.63881
G1 X114.573 Y95.016 E55.66586
G1 X114.17 Y94.999 E55.71382
G1 X114.01 Y94.977 E55.73303
G1 X113.844 Y94.93 E55.75354
G1 X113.677 Y94.852 E55.77546
G1 X113.527 Y94.767 E55.79597
G1 X113.338 Y94.633 E55.82352
G1 X113.187 Y94.472 E55.84977
G1 X113.03 Y94.261 E55.88104
G1 X112.936 Y94.112 E55.90199
G1 X112.86 Y93.93 E55.92545
G1 X112.781 Y93.601 E55.96568
G1 X112.754 Y93.379 E55.99228
G1 X112.769 Y93.164 E56.01791
G1 X112.819 Y92.969 E56.04185
G1 X113.143 Y92.054 E56.15728
G1 X113.542 Y91.142 E56.27566
G1 X113.956 Y90.358 E56.38109
G1 X114.394 Y89.647 E56.4804
G1 X114.658 Y89.273 E56.53484
G1 X107.569 Y82.18 E57.72738
G1 F300 E57.22738
G1 F600 Z0.68
G0 F9000 X125.399 Y100.549 Z0.68
G1 F600 Z0.4
G1 F120 E57.72738
G1 F1800 X125.066 Y100.55 E57.76698
G1 X124.766 Y100.523 E57.8028
G1 X124.42 Y100.465 E57.84452
G1 X124.109 Y100.383 E57.88277
G1 X123.666 Y100.21 E57.93932
G1 X123.299 Y100.016 E57.98869
G1 X122.976 Y99.799 E58.03496
G1 X122.761 Y99.625 E58.06786
G1 X122.392 Y99.253 E58.13017
G1 X122.062 Y98.814 E58.19548
G1 X121.806 Y98.332 E58.26038
G1 X121.64 Y97.873 E58.31842
G1 X121.529 Y97.363 E58.38049
G1 X121.497 Y97.082 E58.41412
G1 X121.489 Y96.864 E58.44006
G1 X121.495 Y96.598 E58.4717
G1 X121.528 Y96.271 E58.51079
G1 X121.63 Y95.793 E58.56891
G1 X121.806 Y95.304 E58.63071
G1 X121.921 Y95.065 E58.66226
G1 X122.046 Y94.849 E58.69193
G1 X122.349 Y94.425 E58.75391
G1 X122.743 Y94.016 E58.82144
G1 X123.108 Y93.732 E58.87644
G1 X123.33 Y93.591 E58.90771
G1 X123.56 Y93.467 E58.93879
G1 X124.039 Y93.267 E59.00051
G1 X124.56 Y93.133 E59.06449
G1 X124.844 Y93.092 E59.09861
G1 X125.332 Y93.075 E59.15668
G1 X125.643 Y93.096 E59.19375
G1 X126.099 Y93.176 E59.2488
G1 X126.557 Y93.32 E59.30589
G1 X126.887 Y93.461 E59.34857
G1 X127.3 Y93.698 E59.4052
G1 X127.525 Y93.861 E59.43824
G1 X127.744 Y94.046 E59.47233
G1 X127.946 Y94.244 E59.50596
G1 X128.132 Y94.459 E59.53977
G1 X128.403 Y94.825 E59.59393
G1 X128.611 Y95.222 E59.64723
G1 X128.722 Y95.478 E59.68041
G1 X128.814 Y95.749 E59.71444
G1 X128.898 Y96.1 E59.75736
G1 X128.962 Y96.577 E59.81459
G1 X128.969 Y96.853 E59.84743
G1 X128.951 Y97.158 E59.88376
G1 X128.879 Y97.628 E59.9403
G1 X128.804 Y97.902 E59.97409
G1 X128.682 Y98.245 E60.01738
G1 X128.617 Y98.393 E60.0366
G1 X128.447 Y98.715 E60.0799
G1 X128.363 Y98.852 E60.09901
G1 X128.144 Y99.155 E60.14347
G1 X127.953 Y99.378 E60.17839
G1 X127.673 Y99.645 E60.2244
G1 X127.346 Y99.898 E60.27356
G1 X127.134 Y100.031 E60.30332
G1 X126.906 Y100.156 E60.33425
G1 X126.474 Y100.339 E60.39004
G1 X126.174 Y100.434 E60.42746
G1 X125.705 Y100.522 E60.48421
G1 X125.399 Y100.549 E60.52074
G0 F9000 X125.316 Y99.792
;TYPE:WALL-OUTER
G1 F1800 X125.121 Y99.792 E60.54393
G1 X124.927 Y99.778 E60.56706
G1 X124.503 Y99.706 E60.6182
G1 X124.282 Y99.64 E60.64563
G1 X123.951 Y99.506 E60.68809
G1 X123.755 Y99.404 E60.71437
G1 X123.412 Y99.177 E60.76328
G1 X123.219 Y99.014 E60.79332
G1 X122.956 Y98.743 E60.83823
G1 X122.709 Y98.409 E60.88763
G1 X122.5 Y98.015 E60.94067
G1 X122.366 Y97.649 E60.98702
G1 X122.279 Y97.242 E61.03651
G1 X122.255 Y97.027 E61.06224
G1 X122.249 Y96.811 E61.08794
G1 X122.257 Y96.594 E61.11376
G1 X122.279 Y96.39 E61.13816
G1 X122.362 Y95.996 E61.18604
G1 X122.495 Y95.627 E61.23268
G1 X122.605 Y95.399 E61.26279
G1 X122.711 Y95.219 E61.28763
G1 X122.925 Y94.922 E61.33116
G1 X123.237 Y94.594 E61.385
G1 X123.547 Y94.352 E61.43176
G1 X123.746 Y94.228 E61.45965
G1 X123.91 Y94.142 E61.48167
G1 X124.293 Y93.983 E61.53098
G1 X124.725 Y93.875 E61.58394
G1 X124.912 Y93.849 E61.60639
G1 X125.334 Y93.835 E61.6566
G1 X125.55 Y93.85 E61.68235
G1 X125.931 Y93.918 E61.72837
G1 X126.356 Y94.056 E61.78151
G1 X126.536 Y94.135 E61.80489
G1 X126.901 Y94.346 E61.85502
G1 X127.056 Y94.459 E61.87783
G1 X127.228 Y94.605 E61.90466
G1 X127.382 Y94.754 E61.93015
G1 X127.521 Y94.911 E61.95508
G1 X127.745 Y95.213 E61.9998
G1 X127.953 Y95.606 E62.05267
G1 X128.02 Y95.768 E62.07352
G1 X128.097 Y96.007 E62.10338
G1 X128.146 Y96.211 E62.12833
G1 X128.202 Y96.605 E62.17566
G1 X128.209 Y96.825 E62.20183
G1 X128.199 Y97.052 E62.22885
G1 X128.149 Y97.405 E62.27125
G1 X128.099 Y97.612 E62.29657
G1 X127.945 Y98.039 E62.35055
G1 X127.747 Y98.407 E62.40025
G1 X127.503 Y98.741 E62.44944
G1 X127.386 Y98.872 E62.47032
G1 X127.206 Y99.045 E62.50001
G1 X126.91 Y99.276 E62.54466
G1 X126.712 Y99.398 E62.57232
G1 X126.516 Y99.5 E62.5986
G1 X126.145 Y99.651 E62.64623
G1 X125.962 Y99.704 E62.66888
G1 X125.575 Y99.773 E62.71563
G1 X125.316 Y99.792 E62.74651
G0 F9000 X125.121 Y99.792
G0 X124.927 Y99.778
G0 X124.917 Y99.777
G1 F300 E62.24651
G1 F600 Z0.68
G0 F9000 X114.589 Y94.264 Z0.68
G1 F600 Z0.4
G1 F120 E62.74651
G1 F1800 X114.134 Y94.231 E62.80077
G1 X113.834 Y94.069 E62.84131
G1 X113.605 Y93.761 E62.88695
G1 X113.51 Y93.384 E62.93319
G1 X113.535 Y93.223 E62.95256
G1 X113.869 Y92.282 E63.0713
G1 X114.203 Y91.519 E63.17035
G1 X114.603 Y90.757 E63.27269
G1 X115.055 Y90.026 E63.3749
G1 X115.602 Y89.257 E63.48712
G1 X115.517 Y89.056 E63.51308
G1 X107.569 Y81.105 E64.85
G1 X101.768 Y86.909 E65.82584
G1 X101.673 Y87.069 E65.84797
G1 X101.594 Y87.295 E65.87644
