;FLAVOR:Marlin
;TIME:2448
;Filament used: 15.8198m
;Layer height: 0.4
;MINX:110.125
;MINY:86.932
;MINZ:0.32
;MAXX:171.396
;MAXY:148.205
;MAXZ:40.2
;TARGET_MACHINE.NAME:VORON2 250
;Generated with Cura_SteamEngine 5.6.0
M140 S60
M105
M190 S60
M104 S215
M105
M109 S215
M82 ;absolute extrusion mode
START_PRINT
G92 E0
G92 E0
G1 F300 E-0.5
;LAYER_COUNT:100
;LAYER:0
M107
G1 F600 Z0.6
G0 F3600 X111.83 Y91.167 Z0.6
;TYPE:SKIRT
G1 F600 Z0.32
G1 F120 E0
G1 F1800 X112.146 Y90.81 E0.0463
G1 X113.991 Y88.968 E0.29946
G1 X114.471 Y88.555 E0.36095
G1 X114.944 Y88.258 E0.41519
G1 X115.576 Y87.917 E0.48493
G1 X116.01 Y87.718 E0.53129
G1 X116.578 Y87.498 E0.59044
G1 X117.016 Y87.356 E0.63515
G1 X117.692 Y87.179 E0.70301
G1 X118.128 Y87.092 E0.74618
G1 X118.739 Y87.006 E0.8061
G1 X119.111 Y86.972 E0.84237
G1 X119.654 Y86.95 E0.89514
G1 X120.684 Y86.937 E0.99517
G1 X127.35 Y86.932 E1.64249
G1 X128.236 Y86.952 E1.72855
G1 X129.111 Y87.018 E1.81376
G1 X130.785 Y87.192 E1.97719
G1 X133.526 Y87.437 E2.24442
G1 X136.259 Y87.604 E2.51031
G1 X138.954 Y87.693 E2.77215
G1 X141.66 Y87.706 E3.03493
G1 X144.39 Y87.642 E3.3001
G1 X147.057 Y87.503 E3.55944
G1 X150.744 Y87.188 E3.91877
G1 X152.351 Y87.02 E4.07567
G1 X152.991 Y86.969 E4.13802
G1 X154.269 Y86.939 E4.26216
G1 X161.102 Y86.935 E4.92569
G1 X161.863 Y86.946 E4.99959
G1 X162.636 Y86.989 E5.07477
G1 X163.004 Y87.029 E5.11072
G1 X163.408 Y87.096 E5.15049
G1 X163.911 Y87.198 E5.20032
G1 X164.256 Y87.285 E5.23488
G1 X164.826 Y87.457 E5.29269
G1 X165.21 Y87.595 E5.33232
G1 X165.679 Y87.794 E5.38179
G1 X165.975 Y87.936 E5.41367
G1 X166.653 Y88.298 E5.4883
G1 X167.047 Y88.542 E5.53331
G1 X167.521 Y88.875 E5.58956
G1 X167.856 Y89.14 E5.63104
G1 X168.415 Y89.635 E5.70354
G1 X168.673 Y89.89 E5.73877
G1 X169.072 Y90.331 E5.79652
G1 X169.26 Y90.554 E5.82484
G1 X169.493 Y90.858 E5.86204
G1 X169.832 Y91.347 E5.91982
G1 X170.035 Y91.675 E5.95727
G1 X170.303 Y92.159 E6.011
G1 X170.5 Y92.564 E6.05473
G1 X170.756 Y93.179 E6.11942
G1 X170.897 Y93.583 E6.16097
G1 X171.1 Y94.288 E6.23221
G1 X171.199 Y94.729 E6.2761
G1 X171.303 Y95.371 E6.33926
G1 X171.342 Y95.743 E6.37558
G1 X171.386 Y96.666 E6.46531
G1 X171.394 Y104.307 E7.20731
G1 X171.375 Y105.025 E7.27705
G1 X171.282 Y106.208 E7.39228
G1 X171.219 Y106.764 E7.44662
G1 X170.955 Y109.446 E7.70832
G1 X170.762 Y112.188 E7.97525
G1 X170.652 Y114.851 E8.23406
G1 X170.615 Y117.592 E8.50026
G1 X170.655 Y120.314 E8.76461
G1 X170.772 Y123.013 E9.02695
G1 X170.965 Y125.707 E9.28922
G1 X171.11 Y127.263 E9.44098
G1 X171.326 Y129.388 E9.64839
G1 X171.382 Y130.228 E9.73014
G1 X171.396 Y131.164 E9.82104
G1 X171.394 Y137.989 E10.4838
G1 X171.382 Y138.667 E10.54965
G1 X171.346 Y139.375 E10.61849
G1 X171.302 Y139.813 E10.66123
G1 X171.187 Y140.504 E10.72926
G1 X171.1 Y140.877 E10.76645
G1 X170.894 Y141.591 E10.83861
G1 X170.759 Y141.973 E10.87796
G1 X170.506 Y142.573 E10.94119
G1 X170.341 Y142.914 E10.97798
G1 X170.027 Y143.488 E11.04151
G1 X169.831 Y143.804 E11.07762
G1 X169.407 Y144.409 E11.14936
G1 X169.085 Y144.807 E11.19907
G1 X168.599 Y145.332 E11.26854
G1 X168.34 Y145.584 E11.30364
G1 X167.857 Y146.006 E11.36592
G1 X167.568 Y146.232 E11.40154
G1 X166.92 Y146.684 E11.47827
G1 X166.576 Y146.895 E11.51745
G1 X165.981 Y147.213 E11.58297
G1 X165.65 Y147.367 E11.61842
G1 X165.007 Y147.625 E11.6857
G1 X164.605 Y147.76 E11.72688
G1 X164.058 Y147.911 E11.78198
G1 X163.686 Y147.994 E11.81899
G1 X163.018 Y148.107 E11.88478
G1 X162.603 Y148.153 E11.92533
G1 X161.814 Y148.195 E12.00205
G1 X161.068 Y148.204 E12.0745
G1 X154.183 Y148.205 E12.74308
G1 X153.322 Y148.186 E12.82671
G1 X152.392 Y148.117 E12.91727
G1 X150.696 Y147.942 E13.08283
G1 X147.94 Y147.695 E13.35153
G1 X145.22 Y147.531 E13.61614
G1 X142.519 Y147.443 E13.87857
G1 X139.816 Y147.431 E14.14105
G1 X137.083 Y147.497 E14.40652
G1 X134.414 Y147.637 E14.66606
G1 X130.793 Y147.947 E15.01897
G1 X129.143 Y148.119 E15.18006
G1 X128.229 Y148.184 E15.26904
G1 X127.134 Y148.201 E15.37538
G1 X120.205 Y148.197 E16.04824
G1 X119.413 Y148.178 E16.12517
G1 X118.533 Y148.106 E16.21091
G1 X118.045 Y148.031 E16.25885
G1 X117.44 Y147.9 E16.31896
G1 X117.034 Y147.791 E16.35978
G1 X116.555 Y147.635 E16.4087
G1 X116.115 Y147.463 E16.45458
G1 X115.38 Y147.125 E16.53314
G1 X114.986 Y146.914 E16.57654
G1 X114.541 Y146.641 E16.62724
G1 X114.286 Y146.47 E16.65705
G1 X113.847 Y146.15 E16.7098
G1 X113.548 Y145.91 E16.74703
G1 X113.241 Y145.634 E16.78712
G1 X112.914 Y145.318 E16.83128
G1 X112.659 Y145.045 E16.86756
G1 X112.178 Y144.477 E16.93983
G1 X111.907 Y144.115 E16.98375
G1 X111.548 Y143.57 E17.04712
G1 X111.356 Y143.24 E17.08419
G1 X111.055 Y142.65 E17.14851
G1 X110.884 Y142.261 E17.18977
G1 X110.635 Y141.597 E17.25864
G1 X110.503 Y141.176 E17.30148
G1 X110.358 Y140.584 E17.36067
G1 X110.276 Y140.154 E17.40318
G1 X110.22 Y139.76 E17.44182
G1 X110.159 Y139.09 E17.50715
G1 X110.145 Y138.815 E17.53389
G1 X110.125 Y137.685 E17.64364
G1 X110.13 Y130.865 E18.30591
G1 X110.15 Y130 E18.38993
G1 X110.222 Y129.059 E18.48157
G1 X110.356 Y127.803 E18.60423
G1 X110.613 Y125.027 E18.87495
G1 X110.782 Y122.376 E19.13291
G1 X110.88 Y119.629 E19.39983
G1 X110.901 Y116.91 E19.66387
G1 X110.843 Y114.222 E19.92495
G1 X110.711 Y111.527 E20.18697
G1 X110.498 Y108.795 E20.45307
G1 X110.389 Y107.797 E20.55056
G1 X110.384 Y107.634 E20.56639
G1 X110.197 Y105.789 E20.74647
G1 X110.138 Y104.909 E20.83212
G1 X110.125 Y104.018 E20.91865
G1 X110.127 Y97.187 E21.58199
G1 X110.137 Y96.528 E21.64599
G1 X110.18 Y95.722 E21.72437
G1 X110.227 Y95.306 E21.76502
G1 X110.333 Y94.674 E21.82725
G1 X110.445 Y94.188 E21.87568
G1 X110.657 Y93.469 E21.94847
G1 X110.876 Y92.888 E22.00877
G1 X111.208 Y92.177 E22.08497
G1 X111.39 Y91.832 E22.12284
G1 X111.533 Y91.593 E22.14989
G1 X111.83 Y91.167 E22.20032
G0 F3600 X112.453 Y91.602
G1 F1800 X112.683 Y91.348 E22.23359
G1 X114.528 Y89.506 E22.48676
G1 X114.923 Y89.168 E22.53724
G1 X115.306 Y88.926 E22.58124
G1 X115.895 Y88.607 E22.64628
G1 X116.284 Y88.427 E22.68791
G1 X116.852 Y88.207 E22.74706
G1 X117.21 Y88.091 E22.7836
G1 X117.842 Y87.924 E22.84708
G1 X118.234 Y87.845 E22.88591
G1 X118.845 Y87.759 E22.94583
G1 X119.179 Y87.729 E22.97839
G1 X119.664 Y87.71 E23.02552
G1 X120.685 Y87.697 E23.12468
G1 X127.334 Y87.692 E23.77034
G1 X128.179 Y87.71 E23.85241
G1 X129.032 Y87.774 E23.93548
G1 X130.707 Y87.948 E24.09901
G1 X133.48 Y88.196 E24.36936
G1 X136.224 Y88.364 E24.63632
G1 X138.929 Y88.453 E24.89914
G1 X141.674 Y88.466 E25.1657
G1 X144.413 Y88.402 E25.43175
G1 X147.101 Y88.262 E25.69312
G1 X150.823 Y87.944 E26.05587
G1 X152.411 Y87.778 E26.21092
G1 X153.051 Y87.727 E26.27326
G1 X154.269 Y87.699 E26.39157
G1 X161.092 Y87.695 E27.05413
G1 X161.822 Y87.705 E27.12502
G1 X162.557 Y87.745 E27.1965
G1 X162.881 Y87.779 E27.22814
G1 X163.258 Y87.841 E27.26524
G1 X163.726 Y87.935 E27.31159
G1 X164.036 Y88.013 E27.34264
G1 X164.606 Y88.185 E27.40045
G1 X164.952 Y88.31 E27.43618
G1 X165.352 Y88.48 E27.47838
G1 X165.618 Y88.607 E27.507
G1 X166.255 Y88.946 E27.57708
G1 X166.61 Y89.164 E27.61753
G1 X167.084 Y89.497 E27.67378
G1 X167.384 Y89.735 E27.71097
G1 X167.881 Y90.176 E27.77549
G1 X168.139 Y90.431 E27.81072
G1 X168.491 Y90.821 E27.86173
G1 X168.679 Y91.044 E27.89006
G1 X168.869 Y91.292 E27.92039
G1 X169.187 Y91.749 E27.97446
G1 X169.37 Y92.043 E28.00809
G1 X169.638 Y92.527 E28.06181
G1 X169.799 Y92.858 E28.09755
G1 X170.039 Y93.431 E28.15788
G1 X170.167 Y93.795 E28.19535
G1 X170.359 Y94.457 E28.26228
G1 X170.449 Y94.852 E28.30162
G1 X170.547 Y95.45 E28.36047
G1 X170.586 Y95.822 E28.39679
G1 X170.626 Y96.667 E28.47893
G1 X170.634 Y104.288 E29.21899
G1 X170.617 Y104.966 E29.28485
G1 X170.527 Y106.122 E29.39744
G1 X170.464 Y106.678 E29.45178
G1 X170.197 Y109.393 E29.71669
G1 X170.004 Y112.135 E29.98362
G1 X169.892 Y114.841 E30.24662
G1 X169.855 Y117.582 E30.51281
G1 X169.895 Y120.325 E30.7792
G1 X170.014 Y123.067 E31.04572
G1 X170.208 Y125.778 E31.30965
G1 X170.354 Y127.34 E31.46199
G1 X170.568 Y129.439 E31.66688
G1 X170.622 Y130.24 E31.74483
G1 X170.636 Y131.164 E31.83457
G1 X170.634 Y137.976 E32.49606
G1 X170.623 Y138.628 E32.55939
G1 X170.587 Y139.336 E32.62823
G1 X170.552 Y139.69 E32.66277
G1 X170.447 Y140.332 E32.72594
G1 X170.369 Y140.668 E32.75944
G1 X170.177 Y141.338 E32.82712
G1 X170.042 Y141.72 E32.86646
G1 X169.821 Y142.244 E32.92168
G1 X169.674 Y142.55 E32.95465
G1 X169.381 Y143.087 E33.01405
G1 X169.185 Y143.403 E33.05016
G1 X168.815 Y143.933 E33.11293
G1 X168.527 Y144.291 E33.15755
G1 X168.069 Y144.787 E33.22311
G1 X167.81 Y145.039 E33.2582
G1 X167.389 Y145.407 E33.31249
G1 X167.1 Y145.633 E33.34812
G1 X166.523 Y146.036 E33.41646
G1 X166.179 Y146.247 E33.45565
G1 X165.66 Y146.524 E33.51278
G1 X165.329 Y146.678 E33.54823
G1 X164.764 Y146.905 E33.60736
G1 X164.403 Y147.027 E33.64436
G1 X163.856 Y147.178 E33.69947
G1 X163.522 Y147.252 E33.73269
G1 X162.932 Y147.352 E33.7908
G1 X162.562 Y147.394 E33.82696
G1 X161.805 Y147.435 E33.90057
G1 X161.068 Y147.444 E33.97215
G1 X154.2 Y147.445 E34.63908
G1 X153.339 Y147.426 E34.72271
G1 X152.47 Y147.361 E34.80733
G1 X150.764 Y147.185 E34.97387
G1 X147.986 Y146.936 E35.24472
G1 X145.255 Y146.771 E35.5104
G1 X142.544 Y146.683 E35.77379
G1 X139.801 Y146.671 E36.04016
G1 X137.06 Y146.737 E36.30641
G1 X134.37 Y146.878 E36.56798
G1 X130.714 Y147.191 E36.9243
G1 X129.088 Y147.361 E37.08306
G1 X128.217 Y147.424 E37.16786
G1 X127.134 Y147.441 E37.27304
G1 X120.223 Y147.437 E37.94415
G1 X119.431 Y147.418 E38.02108
G1 X118.646 Y147.354 E38.09756
G1 X118.206 Y147.288 E38.14076
G1 X117.601 Y147.157 E38.20088
G1 X117.269 Y147.068 E38.23425
G1 X116.79 Y146.912 E38.28317
G1 X116.431 Y146.772 E38.32059
G1 X115.738 Y146.455 E38.39459
G1 X115.382 Y146.265 E38.43378
G1 X114.963 Y146.009 E38.48146
G1 X114.734 Y145.856 E38.5082
G1 X114.295 Y145.536 E38.56096
G1 X114.055 Y145.344 E38.5908
G1 X113.768 Y145.087 E38.62821
G1 X113.468 Y144.798 E38.66866
G1 X113.238 Y144.553 E38.70129
G1 X112.785 Y144.02 E38.76922
G1 X112.541 Y143.696 E38.80861
G1 X112.205 Y143.188 E38.86775
G1 X112.013 Y142.858 E38.90483
G1 X111.75 Y142.342 E38.96107
G1 X111.596 Y141.994 E38.99802
G1 X111.347 Y141.33 E39.06688
G1 X111.241 Y140.995 E39.101
G1 X111.105 Y140.442 E39.1563
G1 X111.023 Y140.012 E39.19881
G1 X110.977 Y139.69 E39.2304
G1 X110.918 Y139.051 E39.29271
G1 X110.905 Y138.801 E39.31702
G1 X110.885 Y137.686 E39.42532
G1 X110.89 Y130.882 E40.08603
G1 X110.908 Y130.058 E40.16607
G1 X110.978 Y129.14 E40.25547
G1 X111.112 Y127.884 E40.37813
G1 X111.37 Y125.097 E40.64992
G1 X111.542 Y122.403 E40.91206
G1 X111.64 Y119.656 E41.17898
G1 X111.661 Y116.916 E41.44506
G1 X111.603 Y114.206 E41.70828
G1 X111.469 Y111.468 E41.97448
G1 X111.256 Y108.736 E42.24058
G1 X111.149 Y107.772 E42.33476
G1 X111.143 Y107.59 E42.35245
G1 X110.955 Y105.737 E42.53331
G1 X110.898 Y104.898 E42.61497
G1 X110.885 Y104.018 E42.70043
G1 X110.887 Y97.198 E43.3627
G1 X110.896 Y96.567 E43.42398
G1 X110.935 Y95.807 E43.49788
G1 X110.977 Y95.432 E43.53452
G1 X111.083 Y94.8 E43.59675
G1 X111.174 Y94.403 E43.6363
G1 X111.386 Y93.684 E43.7091
G1 X111.565 Y93.21 E43.7583
G1 X111.897 Y92.499 E43.8345
G1 X112.045 Y92.217 E43.86542
G1 X112.156 Y92.028 E43.88671
G1 X112.453 Y91.602 E43.93714
G1 F300 E43.43714
G1 F600 Z0.6
;MESH:feet-c-primo.stl
G0 F3600 X115.771 Y137.596 Z0.6
;TYPE:WALL-INNER
G1 F600 Z0.32
G1 F120 E43.93714
G1 F2400 X115.725 Y138.13 E43.97577
G1 F2656.3 X115.719 Y138.863 E44.02352
G1 F2692.9 X115.774 Y139.247 E44.04844
G1 F2703.6 X115.857 Y139.651 E44.07483
G1 F2719.7 X116.07 Y140.234 E44.11432
G1 F2708.9 X116.275 Y140.613 E44.14183
G1 F2752.5 X116.442 Y140.881 E44.16168
G1 F2769.2 X116.545 Y141.02 E44.17249
G1 F2752.5 X116.852 Y141.38 E44.20223
G1 F2747 X117.245 Y141.732 E44.23546
G1 F2763.6 X117.427 Y141.873 E44.24987
G1 F2758.1 X117.701 Y142.046 E44.2702
G1 F2725.1 X118.089 Y142.256 E44.29821
G1 F2741.5 X118.63 Y142.453 E44.33454
G1 F2725.1 X119.072 Y142.552 E44.3633
G1 F2741.5 X119.381 Y142.597 E44.383
G1 F2747 X119.55 Y142.609 E44.39367
G1 F2656.3 X120.193 Y142.606 E44.43555
G1 F2391.6 X120.73 Y142.558 E44.47456
G1 F300 E43.97456
G1 F600 Z0.6
G0 F3600 X159.909 Y142.313 Z0.6
G1 F600 Z0.32
G1 F120 E44.47456
G1 F1800 X159.444 Y142.045 E44.52614
G1 X159.276 Y141.929 E44.54576
G1 X158.804 Y141.525 E44.60548
G1 X156.683 Y139.404 E44.89378
G1 X156.28 Y138.931 E44.95351
G1 X156.163 Y138.764 E44.97311
G1 X155.896 Y138.299 E45.02465
G1 X155.825 Y138.152 E45.04034
G1 X155.599 Y137.52 E45.10485
G1 X155.488 Y136.911 E45.16435
G1 X155.471 Y136.712 E45.18355
G1 X155.472 Y136.078 E45.24448
G1 X155.596 Y135.377 E45.31291
G1 X155.813 Y134.774 E45.3745
G1 X155.896 Y134.597 E45.39329
G1 X156.177 Y134.107 E45.44758
G1 X156.298 Y133.943 E45.46717
G1 X156.683 Y133.494 E45.52402
G1 X157.225 Y133.035 E45.59229
G1 X157.791 Y132.703 E45.65536
G1 X157.963 Y132.623 E45.67359
G1 X158.534 Y132.412 E45.7321
G1 X159.268 Y132.281 E45.80376
G1 X159.903 Y132.28 E45.8648
G1 X160.1 Y132.297 E45.8838
G1 X160.716 Y132.408 E45.94396
G1 X161.338 Y132.633 E46.00754
G1 X161.486 Y132.704 E46.02332
G1 X161.955 Y132.972 E46.07524
G1 X162.122 Y133.089 E46.09483
G1 X162.594 Y133.492 E46.15449
G1 X164.716 Y135.614 E46.44293
G1 X165.118 Y136.086 E46.50252
G1 X165.235 Y136.253 E46.52212
G1 X165.504 Y136.722 E46.57408
G1 F1809.5 X165.581 Y136.896 E46.59228
G1 F1945.9 X165.717 Y137.402 E46.63886
G1 F2150.9 X165.75 Y137.596 E46.65469
G1 F1997.1 X165.683 Y136.878 E46.71716
G1 F1809.5 X165.679 Y130.513 E47.32572
G1 F1800 X165.572 Y129.243 E47.44822
G1 X165.258 Y127.904 E47.58041
G1 X164.504 Y125.1 E47.85949
G1 X163.972 Y122.062 E48.15593
G1 X163.713 Y119.087 E48.44296
G1 X163.714 Y116.032 E48.7366
G1 X163.973 Y113.061 E49.02324
G1 X164.495 Y110.083 E49.31384
G1 X165.253 Y107.233 E49.59729
G1 X165.566 Y105.922 E49.72684
G1 X165.678 Y104.7 E49.84479
G1 F1809.5 X165.682 Y98.261 E50.46042
G1 F1997.1 X165.749 Y97.543 E50.52289
G1 F2150.9 X165.716 Y97.736 E50.53864
G1 F1945.9 X165.58 Y98.243 E50.58531
G1 F1809.5 X165.503 Y98.416 E50.60341
G1 F1800 X165.234 Y98.885 E50.65538
G1 X165.118 Y99.053 E50.675
G1 X164.716 Y99.525 E50.73459
G1 X162.594 Y101.646 E51.02297
G1 X162.123 Y102.048 E51.08248
G1 X161.955 Y102.166 E51.10222
G1 X161.486 Y102.435 E51.15418
G1 X161.335 Y102.508 E51.1703
G1 X160.717 Y102.731 E51.23345
G1 X160.1 Y102.842 E51.29371
G1 X159.903 Y102.86 E51.31272
G1 X159.267 Y102.858 E51.37385
G1 X158.526 Y102.721 E51.44628
G1 X157.952 Y102.512 E51.50499
G1 X157.791 Y102.435 E51.52215
G1 X157.248 Y102.119 E51.58253
G1 X156.697 Y101.657 E51.65165
G1 X156.21 Y101.089 E51.72356
G1 X155.896 Y100.543 E51.7841
G1 X155.814 Y100.365 E51.80293
G1 X155.603 Y99.776 E51.86307
G1 X155.472 Y99.063 E51.93275
G1 X155.471 Y98.427 E51.99388
G1 X155.488 Y98.228 E52.01307
G1 X155.6 Y97.618 E52.07268
G1 X155.823 Y96.99 E52.13674
G1 X155.896 Y96.837 E52.15303
G1 X156.163 Y96.373 E52.20449
G1 X156.281 Y96.206 E52.22414
G1 X156.683 Y95.735 E52.28366
G1 X158.804 Y93.614 E52.57196
G1 X159.276 Y93.21 E52.63168
G1 X159.444 Y93.093 E52.65136
G1 X159.913 Y92.824 E52.70332
G1 F1809.5 X160.088 Y92.746 E52.72164
G1 F1945.9 X160.596 Y92.614 E52.76831
G1 F2150.9 X160.786 Y92.581 E52.78382
G1 F1997.1 X160.071 Y92.648 E52.84603
G1 F1809.5 X153.64 Y92.652 E53.4609
G1 F1800 X152.413 Y92.761 E53.5793
G1 X151.096 Y93.073 E53.70939
G1 X148.291 Y93.825 E53.98851
G1 X145.252 Y94.357 E54.28505
G1 X142.275 Y94.617 E54.57228
G1 X139.208 Y94.615 E54.86706
G1 X136.231 Y94.353 E55.15431
G1 X133.182 Y93.814 E55.45191
G1 X130.422 Y93.077 E55.72648
G1 X129.105 Y92.761 E55.85666
G1 X127.875 Y92.653 E55.97534
G1 X120.102 Y92.652 E56.72245
G1 X119.485 Y92.664 E56.78176
G1 X119.186 Y92.701 E56.81072
G1 X133.028 Y106.541 E58.69211
G1 X133.38 Y106.287 E58.73383
G1 X135.161 Y105.312 E58.92898
G1 X135.325 Y105.238 E58.94628
G1 X137.238 Y104.558 E59.14142
G1 X139.359 Y104.162 E59.3488
G1 X141.503 Y104.106 E59.55494
G1 X143.519 Y104.379 E59.75048
G1 X143.695 Y104.417 E59.76779
G1 X145.573 Y104.982 E59.95629
G1 X145.742 Y105.048 E59.97372
G1 X147.576 Y105.941 E60.16979
G1 X149.341 Y107.165 E60.37623
G1 X150.807 Y108.587 E60.57254
G1 X150.924 Y108.72 E60.58956
