;FLAVOR:Marlin
;TIME:1636
;Filament used: 8.8485m
;Layer height: 0.4
;MINX:50.916
;MINY:97.554
;MINZ:0.32
;MAXX:110.716
;MAXY:147.354
;MAXZ:25.4
;TARGET_MACHINE.NAME:VORON2 250
;Generated with Cura_SteamEngine 5.6.0
M140 S60
M105
M190 S60
M104 S215
M105
M109 S215
M82 ;absolute extrusion mode
START_PRINT
G92 E0
G92 E0
G1 F300 E-0.5
;LAYER_COUNT:63
;LAYER:0
M107
G1 F600 Z0.6
G0 F3600 X55.091 Y98.506 Z0.6
;TYPE:SKIRT
G1 F600 Z0.32
G1 F120 E0
G1 F1800 X55.848 Y98.152 E0.0845
G1 X56.379 Y97.962 E0.14152
G1 X56.888 Y97.811 E0.1952
G1 X57.322 Y97.712 E0.24021
G1 X58.029 Y97.61 E0.31244
G1 X58.914 Y97.559 E0.40207
G1 X102.186 Y97.554 E4.77734
G1 X102.855 Y97.563 E4.84498
G1 X103.713 Y97.622 E4.93194
G1 X104.411 Y97.732 E5.00339
G1 X104.859 Y97.838 E5.04994
G1 X105.612 Y98.082 E5.12997
G1 X106.172 Y98.319 E5.19146
G1 X106.699 Y98.591 E5.25142
G1 X107.3 Y98.966 E5.32305
G1 X107.887 Y99.409 E5.3974
G1 X108.217 Y99.704 E5.44216
G1 X108.671 Y100.172 E5.50809
G1 X109.058 Y100.637 E5.56925
G1 X109.332 Y101.013 E5.6163
G1 X109.606 Y101.448 E5.66828
G1 X109.909 Y102.026 E5.73426
G1 X110.185 Y102.668 E5.80492
G1 X110.413 Y103.354 E5.87801
G1 X110.553 Y103.936 E5.93854
G1 X110.673 Y104.779 E6.02463
G1 X110.711 Y105.606 E6.10834
G1 X110.716 Y138.789 E9.4635
G1 X110.697 Y139.757 E9.56139
G1 X110.675 Y140.099 E9.59605
G1 X110.627 Y140.532 E9.6401
G1 X110.535 Y141.063 E9.69459
G1 X110.39 Y141.655 E9.75621
G1 X110.178 Y142.288 E9.82371
G1 X109.956 Y142.803 E9.88041
G1 X109.684 Y143.326 E9.94002
G1 X109.335 Y143.888 E10.00691
G1 X108.947 Y144.413 E10.07291
G1 X108.651 Y144.758 E10.11888
G1 X108.122 Y145.287 E10.19452
G1 X107.771 Y145.588 E10.24127
G1 X107.197 Y146.01 E10.31331
G1 X106.686 Y146.324 E10.37395
G1 X106.127 Y146.611 E10.43749
G1 X105.731 Y146.779 E10.48098
G1 X105.283 Y146.938 E10.52905
G1 X104.565 Y147.142 E10.60452
G1 X103.884 Y147.267 E10.67452
G1 X102.891 Y147.344 E10.77523
G1 X102.335 Y147.354 E10.83145
G1 X59.445 Y147.354 E15.1681
G1 X58.79 Y147.345 E15.23433
G1 X57.883 Y147.281 E15.32627
G1 X57.163 Y147.159 E15.4001
G1 X56.603 Y147.014 E15.45859
G1 X56.115 Y146.853 E15.51055
G1 X55.546 Y146.624 E15.57257
G1 X54.961 Y146.331 E15.63872
G1 X54.486 Y146.04 E15.69505
G1 X54.018 Y145.705 E15.75324
G1 X53.542 Y145.311 E15.81572
G1 X52.972 Y144.748 E15.89672
G1 X52.681 Y144.405 E15.9422
G1 X52.343 Y143.949 E15.9996
G1 X51.97 Y143.359 E16.07017
G1 X51.68 Y142.804 E16.13349
G1 X51.459 Y142.282 E16.1908
G1 X51.283 Y141.764 E16.24612
G1 X51.123 Y141.162 E16.3091
G1 X50.977 Y140.29 E16.3985
G1 X50.925 Y139.525 E16.47603
G1 X50.916 Y138.9 E16.53923
G1 X50.917 Y106.015 E19.86426
G1 X50.937 Y105.104 E19.95639
G1 X50.989 Y104.478 E20.0199
G1 X51.098 Y103.84 E20.08535
G1 X51.213 Y103.366 E20.13466
G1 X51.445 Y102.653 E20.21048
G1 X51.642 Y102.184 E20.26191
G1 X51.999 Y101.499 E20.34001
G1 X52.317 Y101 E20.39984
G1 X52.641 Y100.558 E20.45525
G1 X52.986 Y100.148 E20.50943
G1 X53.543 Y99.591 E20.58908
G1 X53.989 Y99.219 E20.6478
G1 X54.417 Y98.911 E20.70112
G1 X55.091 Y98.506 E20.78062
G0 F3600 X55.415 Y99.193
G1 F1800 X54.861 Y99.528 E20.84608
G1 X54.433 Y99.836 E20.8994
G1 X54.032 Y100.173 E20.95236
G1 X53.568 Y100.637 E21.01871
G1 X53.223 Y101.047 E21.07289
G1 X52.932 Y101.447 E21.1229
G1 X52.641 Y101.906 E21.17786
G1 X52.317 Y102.533 E21.24922
G1 X52.148 Y102.943 E21.29405
G1 X51.952 Y103.545 E21.35807
G1 X51.837 Y104.019 E21.40739
G1 X51.739 Y104.604 E21.46736
G1 X51.695 Y105.164 E21.52416
G1 X51.677 Y106.031 E21.61184
G1 X51.676 Y138.9 E24.93525
G1 X51.685 Y139.514 E24.99734
G1 X51.735 Y140.238 E25.07072
G1 X51.858 Y140.967 E25.14547
G1 X52.018 Y141.569 E25.20845
G1 X52.178 Y142.035 E25.25827
G1 X52.354 Y142.452 E25.30403
G1 X52.644 Y143.007 E25.36735
G1 X52.954 Y143.496 E25.42589
G1 X53.292 Y143.952 E25.48328
G1 X53.55 Y144.254 E25.52344
G1 X54.074 Y144.768 E25.59766
G1 X54.5 Y145.117 E25.65334
G1 X54.927 Y145.421 E25.70634
G1 X55.301 Y145.651 E25.75073
G1 X55.886 Y145.944 E25.81689
G1 X56.396 Y146.147 E25.87239
G1 X56.838 Y146.291 E25.91939
G1 X57.352 Y146.423 E25.97305
G1 X58.007 Y146.531 E26.04017
G1 X58.8 Y146.585 E26.12054
G1 X59.455 Y146.594 E26.18677
G1 X102.321 Y146.594 E30.52099
G1 X102.877 Y146.584 E30.57721
G1 X103.747 Y146.519 E30.66543
G1 X104.428 Y146.394 E30.73543
G1 X105.072 Y146.208 E30.80321
G1 X105.434 Y146.079 E30.84207
G1 X105.83 Y145.911 E30.88556
G1 X106.288 Y145.676 E30.93761
G1 X106.799 Y145.362 E30.99825
G1 X107.276 Y145.011 E31.05813
G1 X107.627 Y144.71 E31.10488
G1 X108.074 Y144.263 E31.1688
G1 X108.37 Y143.918 E31.21476
G1 X108.723 Y143.438 E31.27501
G1 X109.011 Y142.973 E31.33031
G1 X109.258 Y142.502 E31.38409
G1 X109.48 Y141.987 E31.44079
G1 X109.668 Y141.417 E31.50148
G1 X109.796 Y140.885 E31.5568
G1 X109.878 Y140.404 E31.60614
G1 X109.919 Y140.019 E31.64529
G1 X109.938 Y139.71 E31.67659
G1 X109.956 Y138.774 E31.77125
G1 X109.951 Y105.606 E35.12489
G1 X109.914 Y104.814 E35.20506
G1 X109.814 Y104.114 E35.27655
G1 X109.674 Y103.532 E35.33708
G1 X109.465 Y102.91 E35.40343
G1 X109.212 Y102.329 E35.4675
G1 X108.962 Y101.851 E35.52204
G1 X108.718 Y101.461 E35.56856
G1 X108.444 Y101.085 E35.6156
G1 X108.124 Y100.7 E35.66622
G1 X107.71 Y100.271 E35.7265
G1 X107.38 Y99.976 E35.77125
G1 X106.844 Y99.574 E35.839
G1 X106.3 Y99.238 E35.90365
G1 X105.826 Y98.996 E35.95746
G1 X105.318 Y98.783 E36.01315
G1 X104.684 Y98.578 E36.08053
G1 X104.236 Y98.472 E36.12707
G1 X103.66 Y98.38 E36.18605
G1 X102.845 Y98.323 E36.26866
G1 X102.176 Y98.314 E36.33631
G1 X58.958 Y98.318 E40.70612
G1 X58.073 Y98.369 E40.79575
G1 X57.434 Y98.464 E40.86107
G1 X57.06 Y98.551 E40.89989
G1 X56.635 Y98.678 E40.94474
G1 X56.104 Y98.868 E41.00176
G1 X55.415 Y99.193 E41.07879
G0 F3600 X55.742 Y99.879
G1 F1800 X56.36 Y99.584 E41.14803
G1 X56.891 Y99.394 E41.20506
G1 X57.238 Y99.29 E41.24168
G1 X57.549 Y99.215 E41.27403
G1 X58.117 Y99.128 E41.33213
G1 X59.002 Y99.077 E41.42176
G1 X102.166 Y99.074 E45.78611
G1 X102.835 Y99.083 E45.85376
G1 X103.543 Y99.131 E45.92551
G1 X104.061 Y99.212 E45.97852
G1 X104.509 Y99.318 E46.02507
G1 X105.027 Y99.485 E46.0801
G1 X105.48 Y99.673 E46.12969
G1 X105.954 Y99.915 E46.1835
G1 X106.39 Y100.183 E46.23525
G1 X106.873 Y100.543 E46.29616
G1 X107.203 Y100.838 E46.34091
G1 X107.541 Y101.188 E46.39011
G1 X107.83 Y101.533 E46.43561
G1 X108.104 Y101.909 E46.48266
G1 X108.29 Y102.206 E46.51809
G1 X108.517 Y102.636 E46.56725
G1 X108.746 Y103.155 E46.62461
G1 X108.936 Y103.713 E46.68421
G1 X109.062 Y104.226 E46.73762
G1 X109.155 Y104.85 E46.80141
G1 X109.191 Y105.606 E46.87794
G1 X109.196 Y138.76 E50.23017
G1 X109.179 Y139.666 E50.32179
G1 X109.163 Y139.942 E50.34974
G1 X109.129 Y140.278 E50.38389
G1 X109.056 Y140.711 E50.42829
G1 X108.946 Y141.179 E50.4769
G1 X108.758 Y141.749 E50.53759
G1 X108.584 Y142.151 E50.58188
G1 X108.363 Y142.576 E50.63031
G1 X108.109 Y142.99 E50.67942
G1 X107.793 Y143.423 E50.73362
G1 X107.497 Y143.768 E50.77958
G1 X107.132 Y144.133 E50.83178
G1 X106.781 Y144.434 E50.87853
G1 X106.351 Y144.748 E50.93236
G1 X105.941 Y145 E50.98102
G1 X105.483 Y145.235 E51.03307
G1 X105.179 Y145.363 E51.06642
G1 X104.817 Y145.492 E51.10528
G1 X104.291 Y145.646 E51.1607
G1 X103.61 Y145.771 E51.2307
G1 X102.863 Y145.824 E51.30642
G1 X102.307 Y145.834 E51.36265
G1 X59.465 Y145.834 E55.69444
G1 X58.81 Y145.825 E55.76067
G1 X58.128 Y145.781 E55.82977
G1 X57.539 Y145.686 E55.8901
G1 X57.071 Y145.567 E55.93892
G1 X56.673 Y145.439 E55.9812
G1 X56.223 Y145.263 E56.03005
G1 X55.696 Y145.002 E56.08951
G1 X55.366 Y144.801 E56.12858
G1 X54.982 Y144.529 E56.17616
G1 X54.556 Y144.18 E56.23185
G1 X54.128 Y143.76 E56.29248
G1 X53.87 Y143.458 E56.33264
G1 X53.594 Y143.086 E56.37947
G1 X53.316 Y142.652 E56.43159
G1 X53.053 Y142.154 E56.48853
G1 X52.897 Y141.788 E56.52876
G1 X52.737 Y141.322 E56.57858
G1 X52.593 Y140.774 E56.63587
G1 X52.493 Y140.185 E56.69627
G1 X52.445 Y139.503 E56.7654
G1 X52.436 Y138.9 E56.82638
G1 X52.437 Y106.046 E60.14827
G1 X52.453 Y105.224 E60.2314
G1 X52.497 Y104.664 E60.2882
G1 X52.576 Y104.198 E60.33599
G1 X52.691 Y103.724 E60.3853
G1 X52.851 Y103.233 E60.43752
G1 X53.02 Y102.823 E60.48236
G1 X53.284 Y102.311 E60.5406
G1 X53.547 Y101.893 E60.59054
G1 X53.808 Y101.533 E60.6355
G1 X54.108 Y101.172 E60.68296
G1 X54.523 Y100.753 E60.74258
G1 X54.877 Y100.453 E60.7895
G1 X55.305 Y100.145 E60.84282
G1 X55.742 Y99.879 E60.89455
G1 F300 E60.39455
G1 F600 Z0.6
;MESH:pipe-base-mount-23pt4-40x50x25.stl
G0 F3600 X62.304 Y112.248 Z0.6
;TYPE:WALL-INNER
G1 F600 Z0.32
G1 F120 E60.89455
G1 F1800 X61.79 Y112.2 E60.94674
G1 X61.565 Y112.156 E60.96992
G1 X61.165 Y112.035 E61.01218
G1 X60.954 Y111.947 E61.03529
G1 X60.578 Y111.744 E61.0785
G1 X60.398 Y111.623 E61.10043
G1 X60.074 Y111.358 E61.14275
G1 X59.913 Y111.197 E61.16577
G1 X59.648 Y110.874 E61.20802
G1 X59.527 Y110.693 E61.23003
G1 X59.324 Y110.317 E61.27323
G1 X59.236 Y110.106 E61.29635
G1 X59.087 Y109.616 E61.34813
G1 X59.031 Y109.062 E61.40443
G1 X59.031 Y108.846 E61.42627
G1 X59.071 Y108.425 E61.46903
G1 X59.115 Y108.202 E61.49202
G1 X59.236 Y107.803 E61.53417
G1 X59.324 Y107.592 E61.55729
G1 X59.527 Y107.216 E61.60049
G1 X59.648 Y107.035 E61.62251
G1 X59.978 Y106.634 E61.67502
G1 X60.397 Y106.286 E61.73009
G1 X60.578 Y106.165 E61.7521
G1 X60.954 Y105.962 E61.79531
G1 X61.165 Y105.874 E61.81842
G1 X61.655 Y105.725 E61.87021
G1 X62.208 Y105.669 E61.92641
G1 X62.424 Y105.669 E61.94825
G1 X62.846 Y105.709 E61.99111
G1 X63.069 Y105.753 E62.01409
G1 X63.468 Y105.874 E62.05625
G1 X63.679 Y105.962 E62.07936
G1 X64.055 Y106.165 E62.12257
G1 X64.236 Y106.286 E62.14458
G1 X64.559 Y106.551 E62.18683
G1 X64.72 Y106.712 E62.20985
G1 X64.985 Y107.036 E62.25217
G1 X65.106 Y107.216 E62.2741
G1 X65.309 Y107.592 E62.3173
G1 X65.397 Y107.803 E62.34042
G1 X65.518 Y108.203 E62.38267
G1 X65.562 Y108.428 E62.40585
G1 X65.603 Y108.871 E62.45084
G1 X65.601 Y109.06 E62.46995
G1 X65.558 Y109.51 E62.51566
G1 X65.518 Y109.706 E62.53588
G1 X65.385 Y110.142 E62.58197
G1 X65.309 Y110.317 E62.60126
G1 X65.05 Y110.793 E62.65605
G1 X64.631 Y111.3 E62.72256
G1 X64.148 Y111.688 E62.7852
G1 X63.596 Y111.991 E62.84887
G1 X63.041 Y112.164 E62.90765
G1 X62.843 Y112.2 E62.928
G1 X62.304 Y112.248 E62.98271
G1 F300 E62.48271
G1 F600 Z0.6
G0 F3600 X62.422 Y139.239 Z0.6
G1 F600 Z0.32
G1 F120 E62.98271
G1 F1800 X62.21 Y139.239 E63.00415
G1 X61.79 Y139.2 E63.0468
G1 X61.566 Y139.156 E63.06988
G1 X61.165 Y139.035 E63.11223
G1 X60.954 Y138.947 E63.13534
G1 X60.578 Y138.744 E63.17855
G1 X60.398 Y138.623 E63.20048
G1 X59.985 Y138.285 E63.25444
G1 X59.648 Y137.874 E63.30818
G1 X59.527 Y137.693 E63.33019
G1 X59.324 Y137.317 E63.3734
G1 X59.236 Y137.106 E63.39651
G1 X59.087 Y136.616 E63.4483
G1 X59.031 Y136.062 E63.5046
G1 X59.031 Y135.846 E63.52644
G1 X59.071 Y135.425 E63.5692
G1 X59.115 Y135.202 E63.59218
G1 X59.236 Y134.803 E63.63434
G1 X59.324 Y134.592 E63.65745
G1 X59.527 Y134.216 E63.70066
G1 X59.648 Y134.035 E63.72267
G1 X59.913 Y133.712 E63.76492
G1 X60.074 Y133.551 E63.78794
G1 X60.398 Y133.286 E63.83026
G1 X60.578 Y133.165 E63.85219
G1 X60.954 Y132.962 E63.89539
G1 X61.165 Y132.874 E63.91851
G1 X61.564 Y132.753 E63.96067
G1 X61.787 Y132.709 E63.98365
G1 X62.302 Y132.66 E64.03596
G1 X62.945 Y132.718 E64.10124
G1 X63.602 Y132.92 E64.17073
G1 X64.148 Y133.221 E64.23377
G1 X64.632 Y133.609 E64.29649
G1 X65.058 Y134.127 E64.36431
G1 X65.309 Y134.592 E64.41774
G1 X65.385 Y134.766 E64.43693
G1 X65.518 Y135.203 E64.48312
G1 X65.562 Y135.428 E64.5063
G1 X65.601 Y135.848 E64.54895
G1 X65.603 Y136.037 E64.56806
G1 X65.562 Y136.481 E64.61315
G1 X65.518 Y136.706 E64.63633
G1 X65.397 Y137.106 E64.67858
G1 X65.309 Y137.317 E64.7017
G1 X65.106 Y137.693 E64.7449
G1 X64.985 Y137.873 E64.76683
G1 X64.72 Y138.197 E64.80915
G1 X64.559 Y138.358 E64.83217
G1 X64.235 Y138.623 E64.8745
G1 X64.055 Y138.744 E64.89643
G1 X63.679 Y138.947 E64.93963
G1 X63.468 Y139.035 E64.96275
G1 X62.98 Y139.182 E65.01428
G1 X62.422 Y139.239 E65.07099
G1 F300 E64.57099
G1 F600 Z0.6
G0 F3600 X81.139 Y135.69 Z0.6
G1 F600 Z0.32
G1 F120 E65.07099
G1 F1800 X79.936 Y135.664 E65.19266
G1 X78.838 Y135.545 E65.30433
G1 X77.738 Y135.333 E65.4176
G1 X76.776 Y135.064 E65.5186
G1 X75.727 Y134.677 E65.63165
G1 X74.637 Y134.164 E65.75345
G1 X73.685 Y133.609 E65.86488
G1 X72.833 Y133.017 E65.96978
G1 X71.923 Y132.261 E66.0894
G1 X71.155 Y131.509 E66.19808
G1 X70.443 Y130.683 E66.30834
G1 X69.807 Y129.81 E66.41755
G1 X69.19 Y128.79 E66.53808
G1 X68.737 Y127.878 E66.64105
G1 X68.311 Y126.81 E66.75731
G1 X67.996 Y125.764 E66.86776
G1 X67.763 Y124.676 E66.98026
G1 X67.618 Y123.508 E67.09927
G1 X67.576 Y122.413 E67.21006
G1 X67.626 Y121.312 E67.3215
G1 X67.755 Y120.285 E67.42616
G1 X67.996 Y119.144 E67.54407
G1 X68.311 Y118.099 E67.65443
G1 X68.717 Y117.075 E67.76581
G1 X69.19 Y116.119 E67.87365
G1 X69.807 Y115.098 E67.99427
G1 X70.446 Y114.221 E68.10399
G1 X71.155 Y113.399 E68.21375
G1 X71.945 Y112.626 E68.3255
G1 X72.833 Y111.891 E68.44205
G1 X73.764 Y111.25 E68.55634
G1 X74.723 Y110.699 E68.66817
G1 X75.727 Y110.232 E68.78013
G1 X76.685 Y109.875 E68.8835
G1 X77.832 Y109.554 E69.00393
G1 X78.855 Y109.36 E69.10921
G1 X80.032 Y109.238 E69.22886
G1 X81.067 Y109.217 E69.33353
G1 X82.253 Y109.293 E69.45369
G1 X83.346 Y109.459 E69.56548
G1 X84.421 Y109.714 E69.67719
G1 X85.385 Y110.028 E69.7797
G1 X86.407 Y110.453 E69.89161
G1 X87.402 Y110.968 E70.00489
G1 X88.333 Y111.555 E70.11618
G1 X89.254 Y112.251 E70.2329
G1 X90.081 Y112.995 E70.34538
G1 X90.865 Y113.833 E70.46141
G1 X91.498 Y114.631 E70.5644
G1 X92.165 Y115.635 E70.68627
G1 X92.672 Y116.558 E70.79275
G1 X93.122 Y117.564 E70.90418
G1 X93.507 Y118.68 E71.02355
G1 X93.779 Y119.756 E71.13576
G1 X93.946 Y120.747 E71.23738
G1 X94.042 Y121.843 E71.34862
G1 X94.042 Y123.066 E71.47228
G1 X93.946 Y124.162 E71.58352
G1 X93.759 Y125.247 E71.69484
G1 X93.495 Y126.271 E71.80176
G1 X93.108 Y127.378 E71.92034
G1 X92.672 Y128.35 E72.02805
G1 X92.145 Y129.307 E72.13852
G1 X91.545 Y130.213 E72.24839
G1 X90.804 Y131.147 E72.36894
G1 X90.047 Y131.945 E72.48015
G1 X89.218 Y132.685 E72.59251
G1 X88.333 Y133.353 E72.70462
G1 X87.396 Y133.943 E72.81658
G1 X86.501 Y134.412 E72.91875
G1 X85.386 Y134.879 E73.04097
G1 X84.327 Y135.221 E73.1535
G1 X83.346 Y135.45 E73.25535
G1 X82.253 Y135.616 E73.36713
G1 X81.139 Y135.69 E73.48002
G1 F300 E72.98002
G1 F600 Z0.6
G0 F3600 X99.422 Y139.239 Z0.6
G1 F600 Z0.32
G1 F120 E73.48002
G1 F1800 X99.21 Y139.239 E73.50145
G1 X98.79 Y139.2 E73.5441
G1 X98.566 Y139.156 E73.56719
G1 X98.165 Y139.035 E73.60954
G1 X97.954 Y138.947 E73.63265
G1 X97.578 Y138.744 E73.67586
G1 X97.398 Y138.623 E73.69779
G1 X97.074 Y138.358 E73.74011
G1 X96.913 Y138.197 E73.76313
G1 X96.648 Y137.873 E73.80545
G1 X96.527 Y137.693 E73.82738
G1 X96.324 Y137.317 E73.87059
G1 X96.236 Y137.106 E73.8937
G1 X96.115 Y136.707 E73.93586
G1 X96.071 Y136.484 E73.95884
G1 X96.032 Y136.062 E74.00169
G1 X96.031 Y135.846 E74.02353
G1 X96.089 Y135.288 E74.08026
G1 X96.275 Y134.694 E74.14319
G1 X96.571 Y134.134 E74.20724
G1 X96.913 Y133.712 E74.26216
G1 X97.031 Y133.588 E74.27947
G1 X97.398 Y133.286 E74.32752
G1 X97.551 Y133.18 E74.34634
G1 X97.954 Y132.962 E74.39267
G1 X98.129 Y132.886 E74.41196
G1 X98.564 Y132.753 E74.45795
G1 X98.736 Y132.716 E74.47574
G1 X99.323 Y132.66 E74.53536
G1 X99.846 Y132.71 E74.58849
G1 X100.069 Y132.754 E74.61147
G1 X100.468 Y132.875 E74.65363
G1 X100.679 Y132.962 E74.6767
G1 X101.055 Y133.165 E74.71991
G1 X101.235 Y133.286 E74.74184
G1 X101.559 Y133.551 E74.78416
G1 X101.72 Y133.712 E74.80718
G1 X101.985 Y134.036 E74.8495
G1 X102.105 Y134.216 E74.87138
G1 X102.308 Y134.592 E74.91458
G1 X102.397 Y134.804 E74.93783
G1 X102.518 Y135.204 E74.98008
G1 X102.561 Y135.428 E75.00315
G1 X102.606 Y135.954 E75.05652
G1 X102.55 Y136.572 E75.11927
G1 X102.397 Y137.105 E75.17534
G1 X102.308 Y137.317 E75.19858
G1 X102.105 Y137.693 E75.24179
G1 X101.985 Y137.873 E75.26366
G1 X101.644 Y138.282 E75.3175
G1 X101.235 Y138.623 E75.37135
G1 X101.055 Y138.744 E75.39328
G1 X100.679 Y138.947 E75.43648
G1 X100.468 Y139.035 E75.4596
G1 X99.98 Y139.182 E75.51113
G1 X99.422 Y139.239 E75.56784
G1 F300 E75.06784
G1 F600 Z0.6
