;FLAVOR:Marlin
;TIME:2329
;Filament used: 9.01946m
;Layer height: 0.32
;MINX:51.216
;MINY:97.854
;MINZ:0.24
;MAXX:110.416
;MAXY:147.054
;MAXZ:25.16
;TARGET_MACHINE.NAME:VORON2 250
;Generated with Cura_SteamEngine 5.6.0
M140 S60
M105
M190 S60
M104 S215
M105
M109 S215
M82 ;absolute extrusion mode
START_PRINT
G92 E0
G92 E0
G1 F300 E-0.5
;LAYER_COUNT:78
;LAYER:0
M107
G1 F600 Z0.52
G0 F3600 X55.033 Y98.88 Z0.52
;TYPE:SKIRT
G1 F600 Z0.24
G1 F120 E0
G1 F1800 X55.681 Y98.549 E0.04647
G1 X56.133 Y98.361 E0.07773
G1 X56.824 Y98.135 E0.12416
G1 X57.326 Y98.016 E0.1571
G1 X58.056 Y97.909 E0.20422
G1 X58.913 Y97.86 E0.25903
G1 X102.145 Y97.854 E3.01981
G1 X103.103 Y97.873 E3.081
G1 X103.801 Y97.93 E3.12572
G1 X104.359 Y98.027 E3.16189
G1 X104.829 Y98.141 E3.19277
G1 X105.476 Y98.349 E3.23617
G1 X106.005 Y98.568 E3.27273
G1 X106.521 Y98.832 E3.30975
G1 X107.11 Y99.201 E3.35413
G1 X107.581 Y99.551 E3.3916
G1 X107.931 Y99.851 E3.42104
G1 X108.444 Y100.368 E3.46755
G1 X108.803 Y100.796 E3.50323
G1 X109.131 Y101.252 E3.5391
G1 X109.429 Y101.739 E3.57556
G1 X109.71 Y102.292 E3.61517
G1 X109.946 Y102.867 E3.65486
G1 X110.123 Y103.42 E3.69194
G1 X110.266 Y104.032 E3.73207
G1 X110.348 Y104.564 E3.76645
G1 X110.404 Y105.307 E3.81403
G1 X110.412 Y105.584 E3.83173
G1 X110.416 Y138.825 E5.95448
G1 X110.404 Y139.578 E6.00257
G1 X110.352 Y140.332 E6.05084
G1 X110.268 Y140.876 E6.08599
G1 X110.134 Y141.448 E6.1235
G1 X109.908 Y142.139 E6.16993
G1 X109.683 Y142.672 E6.20688
G1 X109.421 Y143.182 E6.24349
G1 X109.148 Y143.629 E6.27694
G1 X108.72 Y144.216 E6.32333
G1 X108.417 Y144.569 E6.35304
G1 X107.914 Y145.071 E6.39842
G1 X107.571 Y145.364 E6.42723
G1 X106.989 Y145.788 E6.47321
G1 X106.57 Y146.045 E6.5046
G1 X105.971 Y146.351 E6.54755
G1 X105.494 Y146.547 E6.58049
G1 X104.991 Y146.716 E6.61437
G1 X104.424 Y146.866 E6.65183
G1 X103.485 Y147.011 E6.7125
G1 X102.63 Y147.051 E6.76716
G1 X59.482 Y147.054 E9.52257
G1 X58.513 Y147.034 E9.58446
G1 X57.827 Y146.977 E9.62842
G1 X57.259 Y146.877 E9.66525
G1 X56.68 Y146.731 E9.70338
G1 X56.167 Y146.563 E9.73785
G1 X55.613 Y146.333 E9.77616
G1 X55.06 Y146.046 E9.81595
G1 X54.571 Y145.74 E9.85278
G1 X54.069 Y145.369 E9.89265
G1 X53.681 Y145.036 E9.9253
G1 X53.211 Y144.565 E9.96779
G1 X52.937 Y144.243 E9.99479
G1 X52.582 Y143.764 E10.03286
G1 X52.213 Y143.179 E10.07703
G1 X51.897 Y142.568 E10.12096
G1 X51.727 Y142.161 E10.14912
G1 X51.497 Y141.451 E10.19678
G1 X51.377 Y140.946 E10.22993
G1 X51.26 Y140.134 E10.28232
G1 X51.22 Y139.304 E10.33539
G1 X51.216 Y106.126 E12.45412
G1 X51.233 Y105.224 E12.51173
G1 X51.278 Y104.611 E12.55098
G1 X51.34 Y104.202 E12.57739
G1 X51.51 Y103.435 E12.62756
G1 X51.72 Y102.774 E12.67185
G1 X51.911 Y102.316 E12.70354
G1 X52.149 Y101.843 E12.73736
G1 X52.493 Y101.269 E12.78009
G1 X52.827 Y100.801 E12.81681
G1 X53.283 Y100.268 E12.8616
G1 X53.717 Y99.841 E12.90048
G1 X54.141 Y99.482 E12.93596
G1 X54.639 Y99.123 E12.97516
G1 X55.033 Y98.88 E13.00472
G0 F3600 X55.369 Y99.425
G1 F1800 X55.927 Y99.14 E13.04474
G1 X56.379 Y98.952 E13.076
G1 X56.972 Y98.758 E13.11584
G1 X57.474 Y98.639 E13.14879
G1 X58.093 Y98.548 E13.18874
G1 X58.95 Y98.499 E13.24356
G1 X102.132 Y98.494 E16.00114
G1 X103.09 Y98.513 E16.06233
G1 X103.693 Y98.561 E16.10096
G1 X104.208 Y98.649 E16.13432
G1 X104.678 Y98.763 E16.16521
G1 X105.233 Y98.941 E16.20243
G1 X105.713 Y99.138 E16.23556
G1 X106.229 Y99.402 E16.27257
G1 X106.729 Y99.715 E16.31024
G1 X107.164 Y100.037 E16.3448
G1 X107.514 Y100.337 E16.37424
G1 X107.955 Y100.781 E16.4142
G1 X108.283 Y101.17 E16.4467
G1 X108.611 Y101.626 E16.48257
G1 X108.858 Y102.029 E16.51275
G1 X109.139 Y102.582 E16.55237
G1 X109.336 Y103.062 E16.5855
G1 X109.513 Y103.615 E16.62258
G1 X109.633 Y104.129 E16.65628
G1 X109.715 Y104.661 E16.69066
G1 X109.764 Y105.327 E16.7333
G1 X109.772 Y105.584 E16.74972
G1 X109.776 Y138.815 E18.87184
G1 X109.765 Y139.536 E18.91789
G1 X109.719 Y140.234 E18.96256
G1 X109.635 Y140.778 E18.99771
G1 X109.511 Y141.3 E19.03197
G1 X109.318 Y141.892 E19.07173
G1 X109.113 Y142.381 E19.10559
G1 X108.875 Y142.848 E19.13907
G1 X108.602 Y143.295 E19.17251
G1 X108.234 Y143.799 E19.21236
G1 X107.931 Y144.152 E19.24207
G1 X107.498 Y144.584 E19.28113
G1 X107.155 Y144.877 E19.30994
G1 X106.654 Y145.242 E19.34952
G1 X106.235 Y145.499 E19.38091
G1 X105.726 Y145.76 E19.41744
G1 X105.29 Y145.941 E19.44759
G1 X104.827 Y146.097 E19.47879
G1 X104.26 Y146.247 E19.51624
G1 X103.455 Y146.372 E19.56827
G1 X102.63 Y146.411 E19.62101
G1 X59.494 Y146.414 E22.37565
G1 X58.564 Y146.396 E22.43505
G1 X57.936 Y146.346 E22.47528
G1 X57.414 Y146.256 E22.50911
G1 X56.877 Y146.122 E22.54445
G1 X56.41 Y145.971 E22.57579
G1 X55.906 Y145.764 E22.61059
G1 X55.399 Y145.503 E22.647
G1 X54.91 Y145.197 E22.68384
G1 X54.486 Y144.883 E22.71753
G1 X54.098 Y144.55 E22.75018
G1 X53.697 Y144.148 E22.78644
G1 X53.45 Y143.86 E22.81067
G1 X53.122 Y143.42 E22.84572
G1 X52.781 Y142.884 E22.88629
G1 X52.488 Y142.321 E22.92682
G1 X52.318 Y141.914 E22.95499
G1 X52.12 Y141.303 E22.996
G1 X52 Y140.798 E23.02915
G1 X51.899 Y140.103 E23.074
G1 X51.86 Y139.304 E23.12508
G1 X51.856 Y106.138 E25.24304
G1 X51.873 Y105.236 E25.30066
G1 X51.911 Y104.707 E25.33452
G1 X51.973 Y104.298 E25.36094
G1 X52.12 Y103.627 E25.40481
G1 X52.312 Y103.018 E25.44558
G1 X52.483 Y102.604 E25.47419
G1 X52.721 Y102.131 E25.508
G1 X53.014 Y101.641 E25.54446
G1 X53.348 Y101.173 E25.58118
G1 X53.733 Y100.723 E25.619
G1 X54.132 Y100.328 E25.65485
G1 X54.517 Y100 E25.68715
G1 X54.975 Y99.668 E25.72327
G1 X55.369 Y99.425 E25.75283
G0 F3600 X55.705 Y99.97
G1 F1800 X56.173 Y99.731 E25.78639
G1 X56.625 Y99.543 E25.81765
G1 X57.122 Y99.38 E25.85106
G1 X57.57 Y99.272 E25.88048
G1 X58.13 Y99.187 E25.91665
G1 X58.987 Y99.138 E25.97147
G1 X102.119 Y99.134 E28.72586
G1 X103.077 Y99.153 E28.78705
G1 X103.587 Y99.192 E28.81971
G1 X104.057 Y99.271 E28.85015
G1 X104.527 Y99.385 E28.88103
G1 X104.992 Y99.534 E28.91221
G1 X105.421 Y99.708 E28.94177
G1 X105.937 Y99.972 E28.97879
G1 X106.35 Y100.231 E29.00992
G1 X106.747 Y100.523 E29.04139
G1 X107.097 Y100.823 E29.07083
G1 X107.467 Y101.195 E29.10433
G1 X107.765 Y101.546 E29.13374
G1 X108.065 Y101.96 E29.16639
G1 X108.312 Y102.363 E29.19657
G1 X108.548 Y102.827 E29.22981
G1 X108.727 Y103.259 E29.25968
G1 X108.89 Y103.763 E29.2935
G1 X109 Y104.226 E29.32389
G1 X109.082 Y104.758 E29.35827
G1 X109.124 Y105.349 E29.3961
G1 X109.132 Y105.584 E29.41112
G1 X109.136 Y138.806 E31.53266
G1 X109.126 Y139.496 E31.57673
G1 X109.086 Y140.136 E31.61768
G1 X109.002 Y140.68 E31.65283
G1 X108.889 Y141.15 E31.6837
G1 X108.727 Y141.647 E31.71708
G1 X108.543 Y142.09 E31.74771
G1 X108.305 Y142.557 E31.78118
G1 X108.057 Y142.96 E31.8114
G1 X107.748 Y143.382 E31.8448
G1 X107.445 Y143.735 E31.87451
G1 X107.082 Y144.097 E31.90725
G1 X106.739 Y144.39 E31.93605
G1 X106.319 Y144.696 E31.96924
G1 X105.9 Y144.953 E32.00063
G1 X105.435 Y145.19 E32.03396
G1 X105.085 Y145.335 E32.05815
G1 X104.663 Y145.478 E32.0866
G1 X104.096 Y145.628 E32.12406
G1 X103.424 Y145.733 E32.16749
G1 X102.63 Y145.771 E32.21825
G1 X59.506 Y145.774 E34.97213
G1 X58.576 Y145.756 E35.03153
G1 X58.043 Y145.715 E35.06567
G1 X57.567 Y145.634 E35.0965
G1 X57.074 Y145.513 E35.12892
G1 X56.607 Y145.362 E35.16026
G1 X56.199 Y145.195 E35.18841
G1 X55.692 Y144.934 E35.22483
G1 X55.289 Y144.681 E35.25522
G1 X54.901 Y144.396 E35.28596
G1 X54.55 Y144.097 E35.3154
G1 X54.183 Y143.731 E35.3485
G1 X53.936 Y143.443 E35.37273
G1 X53.661 Y143.074 E35.40212
G1 X53.348 Y142.586 E35.43914
G1 X53.079 Y142.074 E35.47608
G1 X52.909 Y141.667 E35.50424
G1 X52.743 Y141.155 E35.53862
G1 X52.623 Y140.65 E35.57176
G1 X52.538 Y140.071 E35.60913
G1 X52.5 Y139.304 E35.65817
G1 X52.496 Y106.15 E37.77537
G1 X52.513 Y105.248 E37.83298
G1 X52.544 Y104.803 E37.86147
G1 X52.606 Y104.394 E37.88789
G1 X52.731 Y103.817 E37.92559
G1 X52.904 Y103.261 E37.96277
G1 X53.056 Y102.89 E37.98838
G1 X53.272 Y102.457 E38.01928
G1 X53.535 Y102.013 E38.05223
G1 X53.869 Y101.545 E38.08895
G1 X54.185 Y101.176 E38.11997
G1 X54.548 Y100.814 E38.15271
G1 X54.895 Y100.517 E38.18188
G1 X55.311 Y100.213 E38.21478
G1 X55.705 Y99.97 E38.24434
G1 F300 E37.74434
G1 F600 Z0.52
;MESH:pipe-base-mount-23pt4-40x50x25.stl
G0 F3600 X62.373 Y112.604 Z0.52
;TYPE:WALL-INNER
G1 F600 Z0.24
G1 F120 E38.24434
G1 F1800 X62.179 Y112.598 E38.25596
G1 X61.757 Y112.558 E38.28134
G1 X61.462 Y112.5 E38.29934
G1 X61.057 Y112.377 E38.32468
G1 X60.791 Y112.267 E38.34191
G1 X60.418 Y112.069 E38.36719
G1 X60.173 Y111.906 E38.38481
G1 X59.848 Y111.641 E38.40992
G1 X59.634 Y111.426 E38.42808
G1 X59.364 Y111.096 E38.4536
G1 X59.205 Y110.857 E38.47079
G1 X59.008 Y110.489 E38.49578
G1 X58.895 Y110.217 E38.51341
G1 X58.771 Y109.809 E38.53894
G1 X58.729 Y109.631 E38.54989
G1 X58.662 Y109.014 E38.58705
G1 X58.713 Y108.392 E38.62441
G1 X58.771 Y108.099 E38.64229
G1 X58.895 Y107.696 E38.66753
G1 X59.004 Y107.429 E38.6848
G1 X59.203 Y107.056 E38.71011
G1 X59.365 Y106.811 E38.72769
G1 X59.714 Y106.384 E38.76071
G1 X60.175 Y106.002 E38.79655
G1 X60.414 Y105.843 E38.81374
G1 X60.782 Y105.646 E38.83873
G1 X61.054 Y105.533 E38.85636
G1 X61.462 Y105.409 E38.88189
G1 X61.64 Y105.367 E38.89284
G1 X62.256 Y105.3 E38.92994
G1 X62.879 Y105.351 E38.96736
G1 X63.173 Y105.409 E38.9853
G1 X63.577 Y105.533 E39.0106
G1 X63.842 Y105.642 E39.02776
G1 X64.215 Y105.841 E39.05307
G1 X64.46 Y106.003 E39.07065
G1 X64.785 Y106.268 E39.09576
G1 X65 Y106.482 E39.11392
G1 X65.268 Y106.813 E39.13941
G1 X65.428 Y107.052 E39.15663
G1 X65.625 Y107.42 E39.18162
G1 X65.738 Y107.692 E39.19926
G1 X65.862 Y108.1 E39.22479
G1 X65.919 Y108.391 E39.24254
G1 X65.963 Y108.842 E39.26967
G1 X65.96 Y109.089 E39.28446
G1 X65.915 Y109.552 E39.31231
G1 X65.862 Y109.81 E39.32807
G1 X65.726 Y110.254 E39.35587
G1 X65.629 Y110.48 E39.3706
G1 X65.354 Y110.991 E39.40534
G1 X64.926 Y111.509 E39.44557
G1 X64.789 Y111.638 E39.45683
G1 X64.348 Y111.989 E39.49058
G1 X63.76 Y112.308 E39.53063
G1 X63.579 Y112.376 E39.5422
G1 X63.073 Y112.526 E39.5738
G1 X62.879 Y112.558 E39.58557
G1 X62.373 Y112.604 E39.61599
G0 F3600 X62.311 Y112.008
G1 F1800 X61.813 Y111.961 E39.64594
G1 X61.636 Y111.926 E39.65674
G1 X61.232 Y111.803 E39.68202
G1 X61.072 Y111.737 E39.69238
G1 X60.699 Y111.539 E39.71766
G1 X60.553 Y111.441 E39.72819
G1 X60.228 Y111.176 E39.7533
G1 X60.099 Y111.047 E39.76422
G1 X59.83 Y110.717 E39.78971
G1 X59.734 Y110.573 E39.80007
G1 X59.537 Y110.205 E39.82506
G1 X59.469 Y110.042 E39.83563
G1 X59.32 Y109.528 E39.86767
G1 X59.266 Y108.96 E39.90183
G1 X59.311 Y108.45 E39.93248
G1 X59.345 Y108.274 E39.94321
G1 X59.469 Y107.87 E39.96851
G1 X59.534 Y107.71 E39.97885
G1 X59.733 Y107.338 E40.00411
G1 X59.83 Y107.19 E40.0147
G1 X60.152 Y106.796 E40.04517
G1 X60.554 Y106.468 E40.07623
G1 X60.698 Y106.372 E40.08659
G1 X61.066 Y106.175 E40.11158
G1 X61.229 Y106.107 E40.12215
G1 X61.743 Y105.958 E40.15419
G1 X62.31 Y105.904 E40.18829
G1 X62.822 Y105.949 E40.21906
G1 X62.998 Y105.983 E40.22979
G1 X63.401 Y106.107 E40.25504
G1 X63.561 Y106.172 E40.26538
G1 X63.933 Y106.371 E40.29063
G1 X64.081 Y106.468 E40.30123
G1 X64.405 Y106.733 E40.32629
G1 X64.534 Y106.862 E40.33721
G1 X64.803 Y107.192 E40.3627
G1 X64.899 Y107.336 E40.37306
G1 X65.096 Y107.704 E40.39805
G1 X65.164 Y107.867 E40.40862
G1 X65.288 Y108.275 E40.43415
G1 X65.322 Y108.449 E40.44477
G1 X65.371 Y108.953 E40.47508
G1 X65.313 Y109.554 E40.51123
G1 X65.137 Y110.13 E40.54729
G1 X64.835 Y110.678 E40.58475
G1 X64.467 Y111.125 E40.61941
G1 X64.013 Y111.491 E40.65432
G1 X63.478 Y111.776 E40.69061
G1 X62.902 Y111.949 E40.72662
G1 X62.311 Y112.008 E40.76218
G1 F300 E40.26218
G1 F600 Z0.52
G0 F3600 X62.371 Y139.608 Z0.52
G1 F600 Z0.24
G1 F120 E40.76218
G1 F1800 X61.757 Y139.558 E40.79906
G1 X61.462 Y139.5 E40.81706
G1 X61.058 Y139.376 E40.84236
G1 X60.791 Y139.267 E40.85962
G1 X60.418 Y139.068 E40.88493
G1 X60.173 Y138.907 E40.90248
G1 X59.717 Y138.527 E40.93802
G1 X59.364 Y138.096 E40.97137
G1 X59.205 Y137.857 E40.98856
G1 X59.008 Y137.489 E41.01355
G1 X58.895 Y137.217 E41.03118
G1 X58.771 Y136.809 E41.05671
G1 X58.729 Y136.631 E41.06766
G1 X58.662 Y136.014 E41.10482
G1 X58.713 Y135.392 E41.14218
G1 X58.771 Y135.099 E41.16006
G1 X58.895 Y134.696 E41.18531
G1 X59.004 Y134.429 E41.20257
G1 X59.203 Y134.056 E41.22788
G1 X59.365 Y133.811 E41.24547
G1 X59.63 Y133.486 E41.27057
G1 X59.844 Y133.271 E41.28873
G1 X60.175 Y133.003 E41.31423
G1 X60.414 Y132.843 E41.33145
G1 X60.782 Y132.646 E41.35644
G1 X61.054 Y132.533 E41.37407
G1 X61.462 Y132.409 E41.3996
G1 X61.75 Y132.352 E41.41718
G1 X62.161 Y132.311 E41.44191
G1 X62.365 Y132.304 E41.45413
G1 X63.065 Y132.376 E41.49625
G1 X63.751 Y132.592 E41.53931
G1 X64.348 Y132.92 E41.58009
G1 X64.784 Y133.268 E41.61349
G1 X64.924 Y133.398 E41.62493
G1 X65.355 Y133.92 E41.66546
G1 X65.625 Y134.42 E41.69947
G1 X65.725 Y134.651 E41.71454
G1 X65.862 Y135.1 E41.74265
G1 X65.92 Y135.391 E41.76041
G1 X65.959 Y135.802 E41.78513
G1 X65.963 Y136.058 E41.80046
G1 X65.92 Y136.513 E41.82782
G1 X65.862 Y136.809 E41.84588
G1 X65.739 Y137.214 E41.87122
G1 X65.628 Y137.48 E41.88847
G1 X65.431 Y137.853 E41.91373
G1 X65.268 Y138.097 E41.93129
G1 X65.003 Y138.422 E41.9564
G1 X64.788 Y138.637 E41.9746
G1 X64.459 Y138.907 E42.00008
G1 X64.219 Y139.066 E42.01732
G1 X63.851 Y139.263 E42.04231
G1 X63.579 Y139.376 E42.05994
G1 X63.171 Y139.5 E42.08547
G1 X62.994 Y139.542 E42.09636
G1 X62.371 Y139.608 E42.13387
G0 F3600 X62.408 Y139
G1 F1800 X62.235 Y139.001 E42.14423
G1 X61.813 Y138.961 E42.1696
G1 X61.636 Y138.926 E42.18041
G1 X61.232 Y138.802 E42.20571
G1 X61.072 Y138.737 E42.21605
G1 X60.699 Y138.538 E42.24136
G1 X60.553 Y138.441 E42.25185
G1 X60.167 Y138.122 E42.28183
G1 X59.83 Y137.717 E42.31337
G1 X59.734 Y137.573 E42.32373
G1 X59.537 Y137.205 E42.34872
G1 X59.469 Y137.042 E42.3593
G1 X59.32 Y136.528 E42.39134
G1 X59.266 Y135.96 E42.42549
G1 X59.311 Y135.45 E42.45615
G1 X59.345 Y135.274 E42.46688
G1 X59.469 Y134.87 E42.49218
G1 X59.534 Y134.71 E42.50252
G1 X59.733 Y134.338 E42.52777
G1 X59.83 Y134.19 E42.53837
G1 X60.095 Y133.866 E42.56343
G1 X60.224 Y133.737 E42.57435
G1 X60.554 Y133.468 E42.59984
G1 X60.698 Y133.372 E42.6102
G1 X61.066 Y133.175 E42.63519
G1 X61.229 Y133.107 E42.64576
G1 X61.637 Y132.983 E42.67129
G1 X61.809 Y132.949 E42.68179
G1 X62.302 Y132.9 E42.71145
G1 X62.902 Y132.96 E42.74755
G1 X63.473 Y133.132 E42.78325
G1 X64.013 Y133.418 E42.81984
G1 X64.464 Y133.78 E42.85446
G1 X64.835 Y134.232 E42.88947
G1 X65.136 Y134.776 E42.92669
G1 X65.313 Y135.358 E42.96311
G1 X65.37 Y135.946 E42.99847
G1 X65.323 Y136.457 E43.0292
G1 X65.288 Y136.635 E43.04006
G1 X65.165 Y137.039 E43.06534
G1 X65.098 Y137.198 E43.07567
G1 X64.901 Y137.571 E43.10092
G1 X64.803 Y137.718 E43.1115
G1 X64.538 Y138.043 E43.13661
G1 X64.409 Y138.172 E43.14753
G1 X64.079 Y138.441 E43.17302
G1 X63.936 Y138.537 E43.18333
G1 X63.567 Y138.734 E43.20837
G1 X63.404 Y138.802 E43.21894
G1 X62.89 Y138.951 E43.25098
G1 X62.408 Y139 E43.27999
G1 F300 E42.77999
G1 F600 Z0.52
G0 F3600 X81.161 Y136.05 Z0.52
G1 F600 Z0.24
G1 F120 E43.27999
G1 F1800 X79.896 Y136.022 E43.35574
G1 X78.776 Y135.899 E43.4232
G1 X77.648 Y135.68 E43.49199
G1 X76.668 Y135.407 E43.55289
G1 X75.493 Y134.969 E43.62797
G1 X74.457 Y134.475 E43.69668
G1 X73.587 Y133.974 E43.75678
G1 X72.62 Y133.307 E43.82711
G1 X71.695 Y132.543 E43.89894
G1 X70.892 Y131.754 E43.96634
G1 X70.156 Y130.901 E44.03379
G1 X69.521 Y130.028 E44.09841
G1 X68.951 Y129.097 E44.16377
G1 X68.868 Y128.948 E44.17398
G1 X68.391 Y127.988 E44.23816
G1 X67.972 Y126.928 E44.30639
G1 X67.648 Y125.86 E44.37321
G1 X67.409 Y124.733 E44.44218
G1 X67.259 Y123.524 E44.51512
G1 X67.216 Y122.459 E44.57893
G1 X67.27 Y121.253 E44.6512
G1 X67.417 Y120.13 E44.71901
G1 X67.637 Y119.092 E44.78253
G1 X67.973 Y117.978 E44.85219
G1 X68.393 Y116.915 E44.92062
G1 X68.868 Y115.96 E44.98448
G1 X69.475 Y114.948 E45.05513
G1 X70.166 Y113.994 E45.12565
G1 X70.893 Y113.154 E45.19216
G1 X71.698 Y112.363 E45.25972
G1 X72.62 Y111.601 E45.33133
G1 X73.587 Y110.935 E45.40163
G1 X74.566 Y110.377 E45.46909
G1 X75.609 Y109.89 E45.53801
G1 X76.668 Y109.502 E45.60553
G1 X77.648 Y109.229 E45.66643
