;FLAVOR:Marlin
;TIME:2171
;Filament used: 10.6798m
;Layer height: 0.4
;MINX:77.361
;MINY:78.967
;MINZ:0.4
;MAXX:135.641
;MAXY:127.247
;MAXZ:39.08
;TARGET_MACHINE.NAME:VORON2 250
;Generated with Cura_SteamEngine 5.6.0
M140 S60
M105
M190 S60
M104 S215
M105
M109 S215
M82 ;absolute extrusion mode
START_PRINT
G92 E0
G92 E0
G1 F300 E-0.5
;LAYER_COUNT:97
;LAYER:0
M107
G1 F600 Z0.68
G0 F3600 X79.663 Y80.882 Z0.68
;TYPE:SKIRT
G1 F600 Z0.4
G1 F120 E0
G1 F1800 X80.166 Y80.456 E0.07919
G1 X80.641 Y80.123 E0.14889
G1 X81.195 Y79.8 E0.22594
G1 X81.722 Y79.551 E0.29597
G1 X82.33 Y79.326 E0.37385
G1 X82.847 Y79.181 E0.43837
G1 X83.598 Y79.043 E0.53011
G1 X84.392 Y78.982 E0.62578
G1 X85.32 Y78.968 E0.73729
G1 X127.852 Y78.967 E5.84729
G1 X128.579 Y78.979 E5.93465
G1 X129.394 Y79.04 E6.03284
G1 X130.028 Y79.149 E6.11013
G1 X130.582 Y79.294 E6.17893
G1 X131.195 Y79.514 E6.25718
G1 X131.742 Y79.765 E6.32949
G1 X132.262 Y80.058 E6.4012
G1 X132.798 Y80.426 E6.47932
G1 X133.304 Y80.847 E6.5584
G1 X133.725 Y81.266 E6.62976
G1 X134.153 Y81.772 E6.70939
G1 X134.486 Y82.247 E6.77908
G1 X134.81 Y82.802 E6.85629
G1 X135.064 Y83.34 E6.92777
G1 X135.27 Y83.89 E6.99834
G1 X135.44 Y84.502 E7.07465
G1 X135.559 Y85.155 E7.1544
G1 X135.613 Y85.728 E7.22354
G1 X135.629 Y86.033 E7.26024
G1 X135.64 Y86.853 E7.35877
G1 X135.641 Y119.456 E11.27585
G1 X135.629 Y120.207 E11.36609
G1 X135.568 Y120.998 E11.46141
G1 X135.479 Y121.535 E11.52681
G1 X135.322 Y122.16 E11.60423
G1 X135.123 Y122.733 E11.67711
G1 X134.879 Y123.279 E11.74896
G1 X134.513 Y123.926 E11.83827
G1 X134.168 Y124.421 E11.91076
G1 X133.749 Y124.923 E11.98932
G1 X133.347 Y125.326 E12.05771
G1 X132.853 Y125.745 E12.13553
G1 X132.367 Y126.088 E12.207
G1 X131.799 Y126.419 E12.28599
G1 X131.279 Y126.664 E12.35505
G1 X130.673 Y126.888 E12.43267
G1 X130.092 Y127.047 E12.50504
G1 X129.425 Y127.168 E12.58649
G1 X128.879 Y127.218 E12.65236
G1 X128.593 Y127.233 E12.68677
G1 X127.732 Y127.246 E12.79022
G1 X85.154 Y127.247 E17.90576
G1 X84.391 Y127.236 E17.99744
G1 X83.904 Y127.209 E18.05604
G1 X83.512 Y127.164 E18.10344
G1 X83.145 Y127.103 E18.14814
G1 X82.652 Y126.99 E18.20891
G1 X82.32 Y126.892 E18.2505
G1 X81.723 Y126.667 E18.32715
G1 X81.222 Y126.382 E18.3964
G1 X80.745 Y126.019 E18.46842
G1 X80.023 Y125.378 E18.58441
G1 X78.973 Y124.416 E18.75551
G1 X78.58 Y123.996 E18.82461
G1 X78.222 Y123.474 E18.90066
G1 X77.963 Y122.935 E18.97251
G1 X77.804 Y122.531 E19.02467
G1 X77.646 Y122.037 E19.08698
G1 X77.534 Y121.583 E19.14317
G1 X77.431 Y120.967 E19.2182
G1 X77.378 Y120.332 E19.29476
G1 X77.364 Y119.863 E19.35113
G1 X77.361 Y86.751 E23.32937
G1 X77.382 Y85.838 E23.43909
G1 X77.434 Y85.213 E23.51444
G1 X77.528 Y84.652 E23.58278
G1 X77.686 Y84.037 E23.65907
G1 X77.906 Y83.417 E23.73811
G1 X78.155 Y82.874 E23.80988
G1 X78.49 Y82.288 E23.89098
G1 X78.836 Y81.792 E23.96364
G1 X79.255 Y81.291 E24.04211
G1 X79.663 Y80.882 E24.11152
G0 F3600 X80.156 Y81.46
G1 F1800 X80.606 Y81.076 E24.18259
G1 X81.026 Y80.778 E24.24446
G1 X81.523 Y80.486 E24.31372
G1 X81.989 Y80.263 E24.37579
G1 X82.535 Y80.058 E24.44586
G1 X83.052 Y79.913 E24.51037
G1 X83.658 Y79.801 E24.58441
G1 X84.404 Y79.742 E24.67432
G1 X85.32 Y79.728 E24.78438
G1 X127.841 Y79.727 E29.89306
G1 X128.525 Y79.737 E29.97525
G1 X129.269 Y79.79 E30.06487
G1 X129.839 Y79.885 E30.13429
G1 X130.329 Y80.011 E30.19508
G1 X130.881 Y80.206 E30.26542
G1 X131.369 Y80.427 E30.32978
G1 X131.889 Y80.72 E30.40149
G1 X132.314 Y81.012 E30.46344
G1 X132.771 Y81.389 E30.53462
G1 X133.147 Y81.759 E30.598
G1 X133.533 Y82.212 E30.6695
G1 X133.831 Y82.632 E30.73138
G1 X134.124 Y83.13 E30.8008
G1 X134.352 Y83.607 E30.86431
G1 X134.558 Y84.157 E30.93488
G1 X134.693 Y84.641 E30.99525
G1 X134.802 Y85.227 E31.06686
G1 X134.854 Y85.77 E31.1324
G1 X134.869 Y86.043 E31.16525
G1 X134.88 Y86.853 E31.26257
G1 X134.881 Y119.445 E35.17834
G1 X134.871 Y120.151 E35.26317
G1 X134.818 Y120.874 E35.35026
G1 X134.729 Y121.411 E35.41566
G1 X134.604 Y121.911 E35.47758
G1 X134.405 Y122.484 E35.55046
G1 X134.187 Y122.966 E35.61402
G1 X133.888 Y123.494 E35.68692
G1 X133.582 Y123.937 E35.75161
G1 X133.208 Y124.389 E35.82209
G1 X132.854 Y124.748 E35.88267
G1 X132.411 Y125.126 E35.95263
G1 X131.981 Y125.433 E36.01611
G1 X131.472 Y125.733 E36.0871
G1 X131.013 Y125.952 E36.1482
G1 X130.468 Y126.156 E36.21811
G1 X129.953 Y126.3 E36.28236
G1 X129.355 Y126.411 E36.35544
G1 X128.838 Y126.459 E36.41782
G1 X128.581 Y126.473 E36.44874
G1 X127.732 Y126.486 E36.55076
G1 X85.164 Y126.487 E41.66508
G1 X84.431 Y126.477 E41.75316
G1 X83.99 Y126.454 E41.80621
G1 X83.637 Y126.414 E41.8489
G1 X83.27 Y126.353 E41.8936
G1 X82.867 Y126.261 E41.94326
G1 X82.535 Y126.163 E41.98485
G1 X82.05 Y125.978 E42.04721
G1 X81.598 Y125.721 E42.10968
G1 X81.25 Y125.451 E42.1626
G1 X80.536 Y124.817 E42.27732
G1 X79.528 Y123.896 E42.44137
G1 X79.173 Y123.517 E42.50376
G1 X78.879 Y123.088 E42.56624
G1 X78.669 Y122.653 E42.62428
G1 X78.527 Y122.297 E42.67033
G1 X78.384 Y121.855 E42.72614
G1 X78.272 Y121.401 E42.78232
G1 X78.188 Y120.903 E42.843
G1 X78.138 Y120.308 E42.91474
G1 X78.124 Y119.863 E42.96823
G1 X78.121 Y86.768 E46.94443
G1 X78.142 Y85.855 E47.05415
G1 X78.184 Y85.339 E47.11635
G1 X78.278 Y84.778 E47.18469
G1 X78.403 Y84.288 E47.24544
G1 X78.598 Y83.73 E47.31646
G1 X78.816 Y83.248 E47.38002
G1 X79.115 Y82.72 E47.45292
G1 X79.421 Y82.277 E47.51761
G1 X79.796 Y81.825 E47.58817
G1 X80.156 Y81.46 E47.64976
G1 F300 E47.14976
G1 F600 Z0.68
;MESH:pipe-base-mount-23pt4-40x50x39.stl
G0 F3600 X125.134 Y92.235 Z0.68
;TYPE:WALL-OUTER
G1 F600 Z0.4
G1 F120 E47.64976
G1 F1800 X125.663 Y92.154 E47.71144
G1 X126.16 Y91.971 E47.77247
G1 X126.611 Y91.689 E47.83377
G1 X126.998 Y91.321 E47.89531
G1 X127.301 Y90.887 E47.95631
G1 X127.515 Y90.391 E48.01856
G1 X127.615 Y89.902 E48.07608
G1 X127.62 Y89.337 E48.14119
G1 X127.515 Y88.823 E48.20165
G1 X127.301 Y88.327 E48.2639
G1 X126.998 Y87.893 E48.3249
G1 X126.637 Y87.55 E48.38229
G1 X126.169 Y87.246 E48.4466
G1 X125.662 Y87.059 E48.50887
G1 X125.115 Y86.981 E48.57255
G1 X124.594 Y87.009 E48.63268
G1 X124.087 Y87.136 E48.69291
G1 X123.608 Y87.374 E48.75455
G1 X123.187 Y87.699 E48.81584
G1 X122.866 Y88.075 E48.87281
G1 X122.58 Y88.57 E48.93869
G1 X122.418 Y89.113 E49.004
G1 X122.367 Y89.606 E49.06111
G1 X122.428 Y90.153 E49.12454
G1 X122.577 Y90.63 E49.18213
G1 X122.861 Y91.133 E49.2487
G1 X123.177 Y91.502 E49.30468
G1 X123.615 Y91.844 E49.36872
G1 X124.114 Y92.084 E49.43253
G1 X124.621 Y92.209 E49.49271
G1 X125.134 Y92.235 E49.5519
G0 F3600 X124.934 Y92.225
G1 F300 E49.0519
G1 F600 Z0.68
G0 F3600 X125.037 Y119.235 Z0.68
G1 F600 Z0.4
G1 F120 E49.5519
G1 F1800 X125.51 Y119.191 E49.60665
G1 X125.97 Y119.051 E49.66206
G1 X126.463 Y118.796 E49.72602
G1 X126.859 Y118.47 E49.78513
G1 X127.166 Y118.098 E49.84072
G1 X127.428 Y117.625 E49.90303
G1 X127.584 Y117.112 E49.96482
G1 X127.631 Y116.608 E50.02316
G1 X127.586 Y116.099 E50.08204
G1 X127.433 Y115.597 E50.14252
G1 X127.207 Y115.178 E50.19738
G1 X126.862 Y114.745 E50.26118
G1 X125.43 Y113.315 E50.4944
G1 X125.017 Y112.986 E50.55525
G1 X124.567 Y112.752 E50.6137
G1 X124.101 Y112.608 E50.66991
G1 X123.577 Y112.563 E50.73052
G1 X123.058 Y112.614 E50.79062
G1 X122.562 Y112.769 E50.8505
G1 X122.099 Y113.025 E50.91147
G1 X121.73 Y113.327 E50.96642
G1 X121.413 Y113.713 E51.02398
G1 X121.156 Y114.188 E51.08622
G1 X121.009 Y114.672 E51.14451
G1 X120.959 Y115.206 E51.20632
G1 X121.012 Y115.725 E51.26644
G1 X121.157 Y116.201 E51.32379
G1 X121.422 Y116.68 E51.38687
G1 X121.728 Y117.053 E51.44247
G1 X123.16 Y118.484 E51.67577
G1 X123.54 Y118.796 E51.73243
G1 X123.989 Y119.037 E51.79116
G1 X124.489 Y119.19 E51.85141
G1 X125.037 Y119.235 E51.91478
G0 F3600 X124.838 Y119.219
G1 F300 E51.41478
G1 F600 Z0.68
G0 F3600 X106.424 Y115.437 Z0.68
G1 F600 Z0.4
G1 F120 E51.91478
G1 F1800 X107.516 Y115.396 E52.04071
G1 X108.597 Y115.259 E52.16628
G1 X109.644 Y115.031 E52.28977
G1 X110.683 Y114.706 E52.41523
G1 X111.704 Y114.286 E52.54245
G1 X112.691 Y113.771 E52.67075
G1 X113.574 Y113.208 E52.79143
G1 X114.442 Y112.54 E52.91765
G1 X115.266 Y111.78 E53.04683
G1 X115.981 Y110.992 E53.16945
G1 X116.644 Y110.118 E53.29588
G1 X117.236 Y109.176 E53.42409
G1 X117.717 Y108.232 E53.54619
G1 X118.125 Y107.223 E53.67161
G1 X118.444 Y106.178 E53.79752
G1 X118.663 Y105.133 E53.92057
G1 X118.796 Y104.042 E54.04723
G1 X118.832 Y102.953 E54.17279
G1 X118.771 Y101.873 E54.29745
G1 X118.615 Y100.812 E54.42104
G1 X118.36 Y99.727 E54.54948
G1 X118.022 Y98.71 E54.67298
G1 X117.595 Y97.722 E54.79702
G1 X117.047 Y96.718 E54.92883
G1 X116.47 Y95.849 E55.04904
G1 X115.784 Y94.99 E55.17573
G1 X115.03 Y94.199 E55.30166
G1 X114.206 Y93.48 E55.42769
G1 X113.351 Y92.854 E55.54981
G1 X112.409 Y92.284 E55.67669
G1 X111.429 Y91.805 E55.8024
G1 X110.428 Y91.419 E55.92603
G1 X109.376 Y91.116 E56.05219
G1 X108.299 Y90.91 E56.17856
G1 X107.225 Y90.798 E56.303
G1 X106.142 Y90.782 E56.42782
G1 X105.017 Y90.866 E56.55782
G1 X103.992 Y91.034 E56.67752
G1 X102.931 Y91.303 E56.80366
G1 X101.91 Y91.663 E56.92842
G1 X100.903 Y92.121 E57.05591
G1 X99.955 Y92.656 E57.18135
G1 X99.067 Y93.268 E57.30564
G1 X98.224 Y93.97 E57.43206
G1 X97.445 Y94.737 E57.55804
G1 X96.732 Y95.584 E57.68563
G1 X96.117 Y96.46 E57.80898
G1 X95.56 Y97.422 E57.93708
G1 X95.109 Y98.388 E58.05994
G1 X94.741 Y99.403 E58.18436
G1 X94.458 Y100.462 E58.31068
G1 X94.274 Y101.526 E58.43512
G1 X94.182 Y102.6 E58.55934
G1 X94.187 Y103.734 E58.69003
G1 X94.285 Y104.773 E58.81029
G1 X94.488 Y105.885 E58.94056
G1 X94.77 Y106.902 E59.06218
G1 X95.149 Y107.922 E59.18758
G1 X95.611 Y108.891 E59.31129
G1 X96.099 Y109.718 E59.42195
G1 X96.054 Y110.02 E59.45714
G1 X82.771 Y120.645 E61.41735
G1 X82.71 Y120.416 E61.44466
G1 X82.68 Y120.069 E61.4848
G1 X82.68 Y86.135 E65.39539
G1 X82.717 Y85.759 E65.43893
G1 X82.815 Y85.431 E65.47838
G1 X82.971 Y85.129 E65.51755
G1 X83.211 Y84.824 E65.56227
G1 X83.487 Y84.595 E65.6036
G1 X83.826 Y84.421 E65.64752
G1 X84.154 Y84.323 E65.68697
G1 X84.529 Y84.287 E65.73038
G1 X128.474 Y84.287 E70.79465
G1 X128.851 Y84.323 E70.83829
G1 X129.178 Y84.42 E70.8776
G1 X129.479 Y84.576 E70.91667
G1 X129.79 Y84.819 E70.96215
G1 X130.012 Y85.089 E71.00243
G1 X130.187 Y85.43 E71.0466
G1 X130.285 Y85.76 E71.08627
G1 X130.321 Y86.135 E71.12969
G1 X130.322 Y120.079 E75.04143
G1 X130.285 Y120.455 E75.08497
G1 X130.19 Y120.779 E75.12388
G1 X130.032 Y121.085 E75.16357
G1 X129.792 Y121.39 E75.20829
G1 X129.518 Y121.617 E75.2493
G1 X129.177 Y121.793 E75.29352
G1 X128.849 Y121.891 E75.33297
G1 X128.474 Y121.927 E75.37638
G1 X84.786 Y121.926 E80.41104
G1 X97.464 Y111.785 E82.28196
G1 X97.769 Y111.806 E82.31719
G1 X98.44 Y112.438 E82.42342
G1 X99.315 Y113.126 E82.55169
G1 X100.208 Y113.709 E82.67459
G1 X101.159 Y114.22 E82.79901
G1 X102.16 Y114.647 E82.92442
G1 X103.205 Y114.99 E83.05117
G1 X104.257 Y115.232 E83.17557
G1 X105.329 Y115.382 E83.30031
G1 X106.424 Y115.437 E83.42666
G0 F3600 X106.225 Y115.427
G1 F300 E82.92666
G1 F600 Z0.68
G0 F3600 X89.364 Y93.627 Z0.68
G1 F600 Z0.4
G1 F120 E83.42666
G1 F1800 X89.897 Y93.582 E83.4883
G1 X90.392 Y93.43 E83.54797
G1 X90.868 Y93.173 E83.61031
G1 X91.254 Y92.855 E83.66795
G1 X91.571 Y92.469 E83.72551
G1 X91.82 Y92.012 E83.78548
G1 X91.973 Y91.512 E83.84574
G1 X92.018 Y90.961 E83.90945
G1 X91.97 Y90.48 E83.96516
G1 X91.833 Y90.028 E84.01958
G1 X91.581 Y89.54 E84.08288
G1 X91.245 Y89.133 E84.1437
G1 X89.87 Y87.756 E84.36795
G1 X89.464 Y87.419 E84.42876
G1 X89.015 Y87.177 E84.48754
G1 X88.518 Y87.025 E84.54743
G1 X88.04 Y86.979 E84.60277
G1 X87.493 Y87.023 E84.66601
G1 X87.032 Y87.164 E84.72157
G1 X86.539 Y87.418 E84.78548
G1 X86.143 Y87.744 E84.84459
G1 X85.813 Y88.143 E84.90426
G1 X85.59 Y88.56 E84.95876
G1 X85.419 Y89.089 E85.02282
G1 X85.373 Y89.568 E85.07828
G1 X85.417 Y90.116 E85.14163
G1 X85.586 Y90.646 E85.20574
G1 X85.795 Y91.037 E85.25683
G1 X86.115 Y91.44 E85.31614
G1 X87.548 Y92.875 E85.54984
G1 X87.928 Y93.187 E85.6065
G1 X88.377 Y93.428 E85.66523
G1 X88.874 Y93.58 E85.72512
G1 X89.364 Y93.627 E85.78185
G0 F3600 X89.165 Y93.608
G1 F300 E85.28185
G1 F600 Z0.68
G0 F3600 X125.666 Y121.069 Z0.68
;TYPE:SKIN
G1 F600 Z0.4
G1 F120 E85.78185
G1 F1346.5 X125.002 Y121.083 E85.88852
G1 X124.33 Y121.069 E85.99648
G1 F1422 X123.922 Y121.136 E86.05936
G1 F1654.2 X123.513 Y121.204 E86.11356
G1 F1800 X86.845 Y121.203 E90.51904
G1 X97.578 Y112.618 E92.17032
G1 X97.935 Y112.957 E92.22947
G1 X98.838 Y113.672 E92.36785
G1 X99.814 Y114.315 E92.50827
G1 X100.873 Y114.884 E92.65271
G1 X101.904 Y115.322 E92.78729
G1 X103.053 Y115.699 E92.93258
G1 X104.091 Y115.937 E93.06052
G1 X105.292 Y116.104 E93.20621
G1 X106.387 Y116.159 E93.33793
G1 X107.57 Y116.116 E93.48016
G1 X108.706 Y115.973 E93.61772
G1 X109.873 Y115.718 E93.76124
G1 X110.888 Y115.399 E93.88906
G1 X112.045 Y114.923 E94.03938
G1 X113.008 Y114.421 E94.16985
G1 X114.016 Y113.782 E94.31324
G1 X114.895 Y113.103 E94.44669
G1 X115.804 Y112.263 E94.59539
G1 X116.522 Y111.471 E94.72383
G1 X117.245 Y110.519 E94.86745
G1 X117.836 Y109.585 E95.00024
G1 X118.377 Y108.527 E95.14301
G1 X118.811 Y107.451 E95.28241
G1 X119.145 Y106.355 E95.42007
G1 X119.376 Y105.251 E95.55558
G1 X119.514 Y104.12 E95.69247
G1 X119.555 Y102.953 E95.83277
G1 X119.492 Y101.823 E95.96874
G1 X119.323 Y100.674 E96.10827
G1 X119.06 Y99.542 E96.2479
G1 X118.706 Y98.474 E96.38308
G1 X118.258 Y97.435 E96.51902
G1 X117.661 Y96.339 E96.66897
G1 X117.078 Y95.457 E96.79599
G1 X116.34 Y94.528 E96.93854
G1 X115.509 Y93.655 E97.08335
G1 X114.675 Y92.931 E97.21603
G1 X113.777 Y92.269 E97.35007
G1 X112.764 Y91.655 E97.49239
G1 X111.738 Y91.152 E97.62968
G1 X110.71 Y90.752 E97.76221
G1 X109.559 Y90.417 E97.90623
G1 X108.37 Y90.191 E98.05164
G1 X107.302 Y90.079 E98.18066
G1 X106.081 Y90.062 E98.32737
G1 X104.888 Y90.154 E98.47113
G1 X103.88 Y90.32 E98.59387
G1 X102.758 Y90.602 E98.73286
G1 X101.674 Y90.981 E98.87083
G1 X100.605 Y91.462 E99.01167
G1 X99.509 Y92.081 E99.1629
G1 X98.656 Y92.673 E99.28764
G1 X97.762 Y93.412 E99.427
G1 X96.912 Y94.248 E99.57024
G1 X96.146 Y95.162 E99.71352
G1 X95.498 Y96.087 E99.84921
G1 X94.955 Y97.022 E99.97911
G1 X94.457 Y98.078 E100.11938
G1 X94.038 Y99.231 E100.26678
G1 X93.746 Y100.334 E100.40386
G1 X93.562 Y101.401 E100.53395
G1 X93.462 Y102.528 E100.66988
G1 X93.468 Y103.808 E100.82367
G1 X93.565 Y104.833 E100.94737
G1 X93.792 Y106.085 E101.10024
G1 X94.074 Y107.095 E101.22623
G1 X94.472 Y108.176 E101.36463
G1 X94.988 Y109.261 E101.50898
G1 X95.264 Y109.727 E101.57405
G1 X83.402 Y119.217 E103.39917
G1 X83.403 Y91.29 E106.75446
G1 F1781.2 X83.41 Y91.056 E106.78288
G1 F1508.3 X83.54 Y90.348 E106.88609
G1 F1339.9 X83.524 Y89.606 E107.00588
G1 F1343.8 X83.537 Y88.937 E107.11357
G1 F1420.6 X83.47 Y88.526 E107.17696
G1 F1654.2 X83.403 Y88.115 E107.2314
G1 F1800 X83.402 Y86.181 E107.46377
G1 X83.432 Y85.89 E107.49891
G1 X83.489 Y85.702 E107.52252
G1 X83.578 Y85.527 E107.5461
G1 X83.734 Y85.33 E107.57629
G1 X83.887 Y85.201 E107.60034
G1 X84.099 Y85.094 E107.62887
G1 X84.289 Y85.037 E107.6527
G1 X84.574 Y85.009 E107.68711
G1 X86.325 Y85.01 E107.89748
G1 F1778.9 X86.556 Y85.018 E107.92558
G1 F1508.3 X87.26 Y85.147 E108.0282
G1 F1339.9 X88.091 Y85.131 E108.16236
G1 F1345.1 X88.669 Y85.144 E108.25531
G1 F1422 X89.078 Y85.077 E108.31834
G1 F1654.2 X89.487 Y85.01 E108.37252
G1 F1800 X123.453 Y85.009 E112.45336
G1 F1729.5 X123.699 Y85.041 E112.48438
G1 F1471 X124.282 Y85.148 E112.57153
G1 F1341.2 X125.157 Y85.131 E112.71264
G1 F1328.2 X125.917 Y85.158 E112.83647
G1 F1393.1 X126.319 Y85.084 E112.89993
G1 F1640.3 X126.721 Y85.009 E112.95384
G1 F1800 X128.43 Y85.009 E113.15917
G1 X128.717 Y85.037 E113.19381
G1 X128.907 Y85.094 E113.21765
G1 X129.089 Y85.187 E113.2422
G1 X129.284 Y85.339 E113.27191
G1 X129.402 Y85.484 E113.29437
G1 X129.514 Y85.703 E113.32392
G1 X129.571 Y85.895 E113.34798
G1 X129.599 Y86.179 E113.38227
G1 X129.6 Y88.276 E113.63422
G1 F1736 X129.572 Y88.503 E113.66271
G1 F1490.2 X129.47 Y89.094 E113.74974
G1 F1345.1 X129.473 Y90.091 E113.91003
G1 F1503.3 X129.578 Y90.712 E114.00064
G1 F1749.4 X129.6 Y90.938 E114.02871
G1 F1800 X129.6 Y115.13 E116.93525
