;FLAVOR:Marlin
;TIME:2241
;Filament used: 10.9593m
;Layer height: 0.4
;MINX:63.103
;MINY:80.099
;MINZ:0.32
;MAXX:121.383
;MAXY:128.379
;MAXZ:40.2
;TARGET_MACHINE.NAME:VORON2 250
;Generated with Cura_SteamEngine 5.6.0
M140 S60
M105
M190 S60
M104 S215
M105
M109 S215
M82 ;absolute extrusion mode
START_PRINT
G92 E0
G92 E0
G1 F300 E-0.5
;LAYER_COUNT:100
;LAYER:0
M107
G1 F600 Z0.6
G0 F3600 X65.909 Y81.586 Z0.6
;TYPE:SKIRT
G1 F600 Z0.32
G1 F120 E0
G1 F1800 X65.403 Y82.014 E0.06436
G1 X64.984 Y82.435 E0.12203
G1 X64.561 Y82.944 E0.1863
G1 X64.228 Y83.424 E0.24303
G1 X63.869 Y84.061 E0.31404
G1 X63.652 Y84.541 E0.36519
G1 X63.423 Y85.186 E0.43165
G1 X63.298 Y85.658 E0.47907
G1 X63.183 Y86.303 E0.54269
G1 X63.114 Y87.183 E0.62841
G1 X63.103 Y87.878 E0.6959
G1 X63.105 Y121.028 E3.915
G1 X63.136 Y121.712 E3.98148
G1 X63.172 Y122.102 E4.01952
G1 X63.275 Y122.713 E4.07969
G1 X63.387 Y123.167 E4.12509
G1 X63.541 Y123.653 E4.1746
G1 X63.701 Y124.059 E4.21698
G1 X63.959 Y124.598 E4.27501
G1 X64.312 Y125.119 E4.33612
G1 X64.75 Y125.584 E4.39815
G1 X65.392 Y126.173 E4.48275
G1 X66.479 Y127.142 E4.62416
G1 X66.925 Y127.486 E4.67886
G1 X67.423 Y127.777 E4.73487
G1 X67.962 Y127.99 E4.79115
G1 X68.434 Y128.135 E4.83909
G1 X68.979 Y128.257 E4.89333
G1 X69.265 Y128.3 E4.92141
G1 X69.689 Y128.341 E4.96278
G1 X70.357 Y128.371 E5.02771
G1 X70.894 Y128.379 E5.07986
G1 X113.541 Y128.379 E9.22118
G1 X114.334 Y128.366 E9.29819
G1 X114.62 Y128.351 E9.326
G1 X115.168 Y128.301 E9.37944
G1 X115.831 Y128.181 E9.44487
G1 X116.393 Y128.028 E9.50143
G1 X116.999 Y127.805 E9.56413
G1 X117.535 Y127.554 E9.62161
G1 X118.116 Y127.215 E9.68693
G1 X118.66 Y126.825 E9.75193
G1 X119.093 Y126.455 E9.80723
G1 X119.529 Y126.014 E9.86745
G1 X119.908 Y125.556 E9.92518
G1 X120.256 Y125.055 E9.98442
G1 X120.614 Y124.423 E10.05495
G1 X120.826 Y123.958 E10.10458
G1 X121.066 Y123.282 E10.17424
G1 X121.198 Y122.774 E10.2252
G1 X121.308 Y122.148 E10.28692
G1 X121.371 Y121.343 E10.36533
G1 X121.383 Y120.601 E10.4374
G1 X121.383 Y87.926 E13.61036
G1 X121.372 Y87.165 E13.68427
G1 X121.355 Y86.852 E13.71471
G1 X121.298 Y86.271 E13.7714
G1 X121.181 Y85.627 E13.83496
G1 X121.014 Y85.026 E13.89553
G1 X120.81 Y84.482 E13.95195
G1 X120.556 Y83.943 E14.00981
G1 X120.227 Y83.378 E14.0733
G1 X119.89 Y82.899 E14.13017
G1 X119.463 Y82.394 E14.19439
G1 X118.985 Y81.925 E14.25942
G1 X118.53 Y81.551 E14.31661
G1 X118.059 Y81.224 E14.37229
G1 X117.427 Y80.867 E14.44278
G1 X116.94 Y80.646 E14.49471
G1 X116.318 Y80.424 E14.55884
G1 X115.765 Y80.28 E14.61433
G1 X115.105 Y80.167 E14.67936
G1 X114.412 Y80.113 E14.74686
G1 X113.601 Y80.099 E14.82562
G1 X70.93 Y80.099 E18.96927
G1 X70.171 Y80.11 E19.04298
G1 X69.868 Y80.126 E19.07244
G1 X69.293 Y80.18 E19.12853
G1 X68.639 Y80.299 E19.19308
G1 X68.027 Y80.469 E19.25476
G1 X67.477 Y80.675 E19.31179
G1 X66.939 Y80.929 E19.36956
G1 X66.384 Y81.253 E19.43197
G1 X65.909 Y81.586 E19.4883
G0 F3600 X66.349 Y82.206
G1 F1800 X66.769 Y81.908 E19.53831
G1 X67.267 Y81.615 E19.59442
G1 X67.744 Y81.387 E19.64575
G1 X68.294 Y81.181 E19.70279
G1 X68.778 Y81.046 E19.75158
G1 X69.365 Y80.937 E19.80956
G1 X69.91 Y80.885 E19.86272
G1 X70.182 Y80.87 E19.88917
G1 X70.941 Y80.859 E19.96288
G1 X113.589 Y80.859 E24.1043
G1 X114.353 Y80.871 E24.1785
G1 X115.046 Y80.925 E24.24599
G1 X115.577 Y81.016 E24.29831
G1 X116.066 Y81.141 E24.34732
G1 X116.626 Y81.338 E24.40497
G1 X117.113 Y81.559 E24.4569
G1 X117.629 Y81.851 E24.51447
G1 X118.047 Y82.138 E24.56371
G1 X118.502 Y82.512 E24.62091
G1 X118.885 Y82.888 E24.67303
G1 X119.271 Y83.34 E24.73074
G1 X119.572 Y83.763 E24.78116
G1 X119.87 Y84.27 E24.83827
G1 X120.098 Y84.749 E24.88978
G1 X120.302 Y85.293 E24.9462
G1 X120.434 Y85.766 E24.99389
G1 X120.542 Y86.345 E25.05108
G1 X120.596 Y86.895 E25.10475
G1 X120.612 Y87.176 E25.13208
G1 X120.623 Y87.937 E25.20598
G1 X120.623 Y120.59 E28.37681
G1 X120.613 Y121.287 E28.4445
G1 X120.559 Y122.019 E28.51578
G1 X120.462 Y122.583 E28.57135
G1 X120.33 Y123.091 E28.62232
G1 X120.134 Y123.643 E28.6792
G1 X119.922 Y124.108 E28.72883
G1 X119.63 Y124.624 E28.7864
G1 X119.322 Y125.071 E28.83911
G1 X118.943 Y125.529 E28.89684
G1 X118.599 Y125.877 E28.94436
G1 X118.166 Y126.247 E28.99967
G1 X117.73 Y126.56 E29.05179
G1 X117.209 Y126.867 E29.11051
G1 X116.733 Y127.093 E29.16168
G1 X116.189 Y127.296 E29.21806
G1 X115.693 Y127.434 E29.26806
G1 X115.098 Y127.544 E29.32681
G1 X114.578 Y127.592 E29.37752
G1 X114.322 Y127.606 E29.40242
G1 X113.529 Y127.619 E29.47944
G1 X70.904 Y127.619 E33.61861
G1 X70.391 Y127.612 E33.66843
G1 X69.723 Y127.582 E33.73337
G1 X69.378 Y127.548 E33.76703
G1 X69.092 Y127.505 E33.79512
G1 X68.602 Y127.394 E33.8439
G1 X68.241 Y127.283 E33.88058
G1 X67.757 Y127.092 E33.93111
G1 X67.309 Y126.83 E33.9815
G1 X66.985 Y126.575 E34.02154
G1 X65.906 Y125.613 E34.16192
G1 X65.264 Y125.024 E34.24652
G1 X64.909 Y124.644 E34.29702
G1 X64.617 Y124.214 E34.34749
G1 X64.407 Y123.779 E34.3944
G1 X64.265 Y123.421 E34.4318
G1 X64.125 Y122.985 E34.47627
G1 X64.013 Y122.531 E34.52167
G1 X63.929 Y122.032 E34.57081
G1 X63.893 Y121.642 E34.60884
G1 X63.865 Y121.028 E34.66853
G1 X63.863 Y87.889 E37.88655
G1 X63.872 Y87.239 E37.94968
G1 X63.932 Y86.433 E38.02816
G1 X64.033 Y85.853 E38.08533
G1 X64.158 Y85.381 E38.13275
G1 X64.345 Y84.854 E38.18705
G1 X64.562 Y84.374 E38.2382
G1 X64.855 Y83.854 E38.29616
G1 X65.148 Y83.427 E38.34645
G1 X65.526 Y82.968 E38.40419
G1 X65.896 Y82.592 E38.45542
G1 X66.349 Y82.206 E38.51321
G1 F300 E38.01321
G1 F600 Z0.6
;MESH:pipe-base-mount-23pt4-40x50x40.stl
G0 F3600 X111.004 Y93.258 Z0.6
;TYPE:WALL-OUTER
G1 F600 Z0.32
G1 F120 E38.51321
G1 F1800 X111.526 Y93.147 E38.5645
G1 X112.01 Y92.933 E38.61537
G1 X112.442 Y92.617 E38.66681
G1 X112.791 Y92.229 E38.71697
G1 X113.056 Y91.767 E38.76817
G1 X113.22 Y91.251 E38.82021
G1 X113.275 Y90.739 E38.8697
G1 X113.219 Y90.211 E38.92073
G1 X113.056 Y89.708 E38.97156
G1 X112.79 Y89.247 E39.02271
G1 X112.445 Y88.865 E39.07219
G1 X112.01 Y88.544 E39.12415
G1 X111.529 Y88.331 E39.17471
G1 X111.007 Y88.22 E39.226
G1 X110.454 Y88.225 E39.27916
G1 X109.961 Y88.33 E39.32761
G1 X109.476 Y88.545 E39.3786
G1 X109.048 Y88.858 E39.42956
G1 X108.694 Y89.252 E39.48047
G1 X108.432 Y89.704 E39.53069
G1 X108.267 Y90.213 E39.58212
G1 X108.212 Y90.726 E39.63171
G1 X108.266 Y91.252 E39.68253
G1 X108.43 Y91.765 E39.73429
G1 X108.688 Y92.213 E39.78398
G1 X109.068 Y92.635 E39.83857
G1 X109.502 Y92.944 E39.88977
G1 X109.975 Y93.149 E39.93932
G1 X110.486 Y93.256 E39.9895
G1 X111.004 Y93.258 E40.03929
G0 F3600 X110.804 Y93.258
G1 F300 E39.53929
G1 F600 Z0.6
G0 F3600 X110.876 Y120.267 Z0.6
G1 F600 Z0.32
G1 F120 E40.03929
G1 F1800 X110.876 Y120.267
G1 X111.37 Y120.189 E40.08736
G1 X111.89 Y119.997 E40.14064
G1 X112.337 Y119.706 E40.19191
G1 X112.711 Y119.334 E40.24261
G1 X112.999 Y118.89 E40.29347
G1 X113.188 Y118.399 E40.34404
G1 X113.27 Y117.85 E40.3974
G1 X113.244 Y117.341 E40.44638
G1 X113.107 Y116.829 E40.49733
G1 X112.868 Y116.361 E40.54783
G1 X112.559 Y115.976 E40.59528
G1 X111.122 Y114.537 E40.79075
G1 X110.709 Y114.2 E40.84198
G1 X110.239 Y113.961 E40.89266
G1 X109.724 Y113.824 E40.94388
G1 X109.208 Y113.798 E40.99354
G1 X108.672 Y113.879 E41.04564
G1 X108.184 Y114.068 E41.09594
G1 X107.722 Y114.37 E41.149
G1 X107.36 Y114.735 E41.19841
G1 X107.073 Y115.176 E41.24898
G1 X106.885 Y115.663 E41.29915
G1 X106.801 Y116.191 E41.35054
G1 X106.829 Y116.723 E41.40175
G1 X106.961 Y117.214 E41.45061
G1 X107.202 Y117.7 E41.50275
G1 X107.515 Y118.088 E41.55067
G1 X108.95 Y119.526 E41.74593
G1 X109.367 Y119.866 E41.79765
G1 X109.834 Y120.102 E41.84794
G1 X110.346 Y120.239 E41.89888
G1 X110.876 Y120.267 E41.94989
G0 F3600 X110.676 Y120.257
G1 F300 E41.44989
G1 F600 Z0.6
G0 F3600 X92.152 Y116.718 Z0.6
G1 F600 Z0.32
G1 F120 E41.94989
G1 F1800 X93.294 Y116.676 E42.05973
G1 X94.355 Y116.54 E42.16254
G1 X95.431 Y116.305 E42.2684
G1 X96.461 Y115.984 E42.3721
G1 X97.489 Y115.562 E42.47891
G1 X98.479 Y115.049 E42.58608
G1 X99.41 Y114.457 E42.69212
G1 X100.275 Y113.792 E42.79699
G1 X101.114 Y113.017 E42.90677
G1 X101.842 Y112.217 E43.01074
G1 X102.494 Y111.357 E43.11447
G1 X103.088 Y110.417 E43.22134
G1 X103.586 Y109.445 E43.32631
G1 X104.011 Y108.399 E43.43483
G1 X104.332 Y107.341 E43.5411
G1 X104.556 Y106.284 E43.64495
G1 X104.688 Y105.189 E43.75096
G1 X104.723 Y104.088 E43.85684
G1 X104.662 Y102.987 E43.96283
G1 X104.503 Y101.906 E44.06784
G1 X104.247 Y100.825 E44.17462
G1 X103.899 Y99.774 E44.28103
G1 X103.462 Y98.769 E44.38636
G1 X102.934 Y97.801 E44.49235
G1 X102.339 Y96.901 E44.59604
G1 X101.629 Y96.01 E44.70555
G1 X100.876 Y95.222 E44.81031
G1 X100.051 Y94.503 E44.91549
G1 X99.175 Y93.86 E45.01994
G1 X98.222 Y93.284 E45.12697
G1 X97.23 Y92.798 E45.23314
G1 X96.183 Y92.397 E45.3409
G1 X95.15 Y92.101 E45.44419
G1 X94.061 Y91.892 E45.55077
G1 X92.972 Y91.779 E45.656
G1 X91.874 Y91.763 E45.76155
G1 X90.768 Y91.846 E45.86815
G1 X89.695 Y92.02 E45.97263
G1 X88.613 Y92.297 E46.07998
G1 X87.579 Y92.662 E46.18537
G1 X86.541 Y93.136 E46.29505
G1 X85.612 Y93.665 E46.39781
G1 X84.701 Y94.294 E46.50421
G1 X83.86 Y94.993 E46.60932
G1 X83.055 Y95.792 E46.71834
G1 X82.366 Y96.61 E46.82113
G1 X81.732 Y97.509 E46.92687
G1 X81.177 Y98.471 E47.03361
G1 X80.708 Y99.475 E47.14012
G1 X80.337 Y100.498 E47.24472
G1 X80.051 Y101.571 E47.35145
G1 X79.865 Y102.648 E47.4565
G1 X79.773 Y103.736 E47.56145
G1 X79.779 Y104.883 E47.67169
G1 X79.879 Y105.937 E47.77345
G1 X80.083 Y107.052 E47.8824
G1 X80.372 Y108.088 E47.98578
G1 X80.761 Y109.126 E48.09233
G1 X81.227 Y110.107 E48.19671
G1 X81.723 Y110.944 E48.29023
G1 X81.678 Y111.245 E48.31948
G1 X67.948 Y122.228 E50.00942
G1 X67.816 Y122.202 E50.02235
G1 X67.744 Y122.016 E50.04152
G1 X67.654 Y121.625 E50.08009
G1 X67.623 Y121.217 E50.11942
G1 X67.625 Y87.251 E53.38409
G1 X67.665 Y86.785 E53.42905
G1 X67.785 Y86.34 E53.47334
G1 X67.975 Y85.931 E53.51669
G1 X68.238 Y85.555 E53.56079
G1 X68.557 Y85.236 E53.60416
G1 X68.938 Y84.969 E53.64887
G1 X69.343 Y84.781 E53.69179
G1 X69.79 Y84.66 E53.7363
G1 X70.268 Y84.619 E53.78241
G1 X114.231 Y84.621 E58.00796
G1 X114.696 Y84.66 E58.05281
G1 X115.143 Y84.781 E58.09732
G1 X115.551 Y84.97 E58.14054
G1 X115.927 Y85.233 E58.18464
G1 X116.248 Y85.555 E58.22834
G1 X116.511 Y85.931 E58.27244
G1 X116.7 Y86.339 E58.31566
G1 X116.822 Y86.786 E58.3602
G1 X116.862 Y87.264 E58.4063
G1 X116.862 Y121.227 E61.67069
G1 X116.822 Y121.691 E61.71545
G1 X116.7 Y122.139 E61.76008
G1 X116.512 Y122.544 E61.80299
G1 X116.245 Y122.925 E61.84771
G1 X115.927 Y123.244 E61.891
G1 X115.551 Y123.507 E61.93511
G1 X115.143 Y123.696 E61.97833
G1 X114.696 Y123.817 E62.02284
G1 X114.218 Y123.859 E62.06896
G1 X70.256 Y123.858 E66.2944
G1 X69.942 Y123.838 E66.32465
G1 X69.625 Y123.78 E66.35562
G1 X83.088 Y113.009 E68.0128
G1 X83.393 Y113.031 E68.04219
G1 X84.066 Y113.668 E68.13126
G1 X84.936 Y114.356 E68.23786
G1 X85.858 Y114.962 E68.34391
G1 X86.82 Y115.479 E68.44888
G1 X87.84 Y115.916 E68.55554
G1 X88.893 Y116.26 E68.66201
G1 X89.962 Y116.509 E68.76751
G1 X91.046 Y116.662 E68.87273
G1 X92.152 Y116.718 E68.97917
G0 F3600 X91.953 Y116.708
G1 F300 E68.47917
G1 F600 Z0.6
G0 F3600 X75.311 Y94.678 Z0.6
G1 F600 Z0.32
G1 F120 E68.97917
G1 F1800 X75.846 Y94.588 E69.03132
G1 X76.307 Y94.41 E69.07882
G1 X76.754 Y94.12 E69.13003
G1 X77.141 Y93.725 E69.18318
G1 X77.413 Y93.303 E69.23144
G1 X77.598 Y92.824 E69.28079
G1 X77.686 Y92.285 E69.33328
G1 X77.652 Y91.729 E69.38682
G1 X77.527 Y91.267 E69.43282
G1 X77.283 Y90.776 E69.48552
G1 X76.974 Y90.391 E69.53297
G1 X75.537 Y88.951 E69.72851
G1 X75.121 Y88.613 E69.78002
G1 X74.649 Y88.374 E69.83088
G1 X74.142 Y88.238 E69.88133
G1 X73.632 Y88.213 E69.93041
G1 X73.085 Y88.294 E69.98356
G1 X72.596 Y88.48 E70.03384
G1 X72.148 Y88.772 E70.08524
G1 X71.775 Y89.145 E70.13594
G1 X71.487 Y89.589 E70.18681
G1 X71.297 Y90.082 E70.23759
G1 X71.217 Y90.627 E70.29054
G1 X71.246 Y91.14 E70.33992
G1 X71.38 Y91.648 E70.39042
G1 X71.616 Y92.115 E70.44071
G1 X71.956 Y92.532 E70.49243
G1 X73.365 Y93.941 E70.68395
G1 X73.782 Y94.281 E70.73566
G1 X74.25 Y94.518 E70.78608
G1 X74.783 Y94.654 E70.83896
G1 X75.311 Y94.678 E70.88976
G0 F3600 X75.111 Y94.669
G1 F300 E70.38976
G1 F600 Z0.6
G0 F3600 X111.084 Y93.98 Z0.6
;TYPE:SKIN
G1 F600 Z0.32
G1 F120 E70.88976
G1 F1800 X111.749 Y93.838 E70.95579
G1 X112.262 Y93.612 E71.01023
G1 X112.481 Y93.486 E71.03476
G1 X112.93 Y93.155 E71.08893
G1 X113.376 Y92.656 E71.15392
G1 X113.727 Y92.051 E71.22184
G1 X113.933 Y91.381 E71.28991
G1 X113.998 Y90.739 E71.35257
G1 X113.928 Y90.059 E71.41895
G1 X113.718 Y89.408 E71.48537
G1 X113.381 Y88.826 E71.55068
G1 X112.935 Y88.333 E71.61524
G1 X112.38 Y87.918 E71.68253
G1 X111.75 Y87.639 E71.74944
G1 X111.088 Y87.498 E71.81517
G1 X110.377 Y87.503 E71.88421
G1 X109.741 Y87.638 E71.94735
G1 X109.107 Y87.916 E72.01457
G1 X108.559 Y88.32 E72.08069
G1 X108.111 Y88.818 E72.14573
G1 X107.81 Y89.34 E72.20425
G1 X107.728 Y89.527 E72.22407
G1 X107.558 Y90.058 E72.27822
G1 X107.485 Y90.736 E72.34444
G1 X107.566 Y91.431 E72.41238
G1 X107.781 Y92.087 E72.47942
G1 X108.113 Y92.659 E72.54364
G1 X108.557 Y93.153 E72.60814
G1 X109.11 Y93.563 E72.67499
G1 X109.753 Y93.841 E72.74301
G1 X110.407 Y93.978 E72.8079
G1 X111.084 Y93.98 E72.87364
G1 F300 E72.37364
G1 F600 Z0.6
G0 F3600 X110.897 Y120.988 Z0.6
G1 F600 Z0.32
G1 F120 E72.87364
G1 F1800 X111.6 Y120.883 E72.94267
G1 X112.22 Y120.644 E73.00719
G1 X112.792 Y120.271 E73.0735
G1 X113.272 Y119.793 E73.13928
G1 X113.583 Y119.316 E73.19458
G1 X113.677 Y119.138 E73.21413
G1 X113.889 Y118.592 E73.271
G1 X113.994 Y117.886 E73.34031
G1 X113.961 Y117.233 E73.40381
G1 X113.785 Y116.566 E73.47079
G1 X113.477 Y115.965 E73.53637
G1 X113.098 Y115.496 E73.59493
G1 X111.635 Y114.028 E73.79618
G1 X111.108 Y113.592 E73.8626
G1 X110.495 Y113.28 E73.9294
G1 X109.829 Y113.113 E73.99607
G1 X109.191 Y113.074 E74.05814
G1 X108.517 Y113.176 E74.12434
G1 X107.855 Y113.42 E74.19285
G1 X107.294 Y113.783 E74.25773
G1 X106.786 Y114.298 E74.32798
G1 X106.428 Y114.848 E74.39171
G1 X106.186 Y115.462 E74.45579
G1 X106.075 Y116.151 E74.52356
G1 X106.113 Y116.839 E74.59048
G1 X106.291 Y117.501 E74.65704
G1 X106.596 Y118.102 E74.72249
G1 X107.006 Y118.604 E74.78543
G1 X108.459 Y120.055 E74.98483
G1 X108.966 Y120.473 E75.04864
G1 X109.573 Y120.779 E75.11465
G1 X110.23 Y120.955 E75.1807
G1 X110.897 Y120.988 E75.24555
G1 F300 E74.74555
G1 F600 Z0.6
G0 F3600 X92.115 Y117.44 Z0.6
G1 F600 Z0.32
G1 F120 E75.24555
G1 F1800 X93.359 Y117.395 E75.36643
G1 X94.473 Y117.253 E75.47548
G1 X95.594 Y117.009 E75.58689
G1 X96.698 Y116.666 E75.69915
G1 X97.807 Y116.21 E75.81559
G1 X98.909 Y115.635 E75.93629
G1 X99.809 Y115.062 E76.0399
G1 X100.717 Y114.364 E76.15111
G1 X101.586 Y113.565 E76.26575
G1 X102.39 Y112.688 E76.38128
G1 X103.071 Y111.792 E76.49057
G1 X103.715 Y110.777 E76.60729
G1 X104.228 Y109.776 E76.71652
G1 X104.691 Y108.645 E76.83519
G1 X105.02 Y107.567 E76.94464
G1 X105.262 Y106.439 E77.05667
G1 X105.406 Y105.267 E77.17134
G1 X105.446 Y104.089 E77.28579
G1 X105.383 Y102.947 E77.39686
G1 X105.204 Y101.736 E77.51573
G1 X104.939 Y100.618 E77.62731
G1 X104.575 Y99.516 E77.74
G1 X104.121 Y98.472 E77.85056
G1 X103.565 Y97.45 E77.96353
G1 X102.883 Y96.42 E78.08349
G1 X102.152 Y95.511 E78.19676
G1 X101.392 Y94.715 E78.30364
G1 X100.485 Y93.925 E78.42044
G1 X99.556 Y93.246 E78.53218
G1 X98.593 Y92.664 E78.64144
G1 X97.462 Y92.113 E78.76361
G1 X96.407 Y91.712 E78.87321
G1 X95.261 Y91.386 E78.98891
G1 X94.099 Y91.168 E79.10371
G1 X93.046 Y91.06 E79.2065
G1 X91.812 Y91.043 E79.32635
G1 X90.692 Y91.129 E79.43543
G1 X89.574 Y91.308 E79.54537
G1 X88.434 Y91.596 E79.65955
G1 X87.344 Y91.979 E79.77174
G1 X86.209 Y92.496 E79.89286
G1 X85.252 Y93.037 E79.99961
G1 X84.252 Y93.726 E80.11753
G1 X83.326 Y94.504 E80.23498
G1 X82.516 Y95.311 E80.34601
G1 X81.8 Y96.161 E80.45393
G1 X81.13 Y97.11 E80.56674
G1 X80.533 Y98.145 E80.68277
G1 X80.049 Y99.178 E80.79354
G1 X79.642 Y100.301 E80.90953
G1 X79.338 Y101.448 E81.02476
G1 X79.153 Y102.523 E81.13069
G1 X79.053 Y103.665 E81.24201
G1 X79.06 Y104.958 E81.36757
G1 X79.159 Y105.998 E81.46901
G1 X79.38 Y107.216 E81.58922
