;FLAVOR:Marlin
;TIME:1545
;Filament used: 8.45277m
;Layer height: 0.4
;MINX:50.916
;MINY:97.554
;MINZ:0.32
;MAXX:110.716
;MAXY:147.354
;MAXZ:25.4
;TARGET_MACHINE.NAME:VORON2 250
;Generated with Cura_SteamEngine 5.6.0
M140 S60
M105
M190 S60
M104 S215
M105
M109 S215
M82 ;absolute extrusion mode
START_PRINT
G92 E0
G92 E0
G1 F300 E-0.5
;LAYER_COUNT:63
;LAYER:0
M107
G1 F600 Z0.6
G0 F3600 X55.327 Y98.787 Z0.6
;TYPE:SKIRT
G1 F600 Z0.32
G1 F120 E0
G1 F1800 X55.889 Y98.486 E0.06446
G1 X56.464 Y98.228 E0.12818
G1 X57.143 Y97.979 E0.20131
G1 X57.631 Y97.839 E0.25264
G1 X58.323 Y97.694 E0.32413
G1 X58.754 Y97.633 E0.36814
G1 X59.68 Y97.565 E0.46202
G1 X60.077 Y97.555 E0.50218
G1 X101.188 Y97.554 E4.65894
G1 X101.957 Y97.566 E4.73671
G1 X102.762 Y97.615 E4.81825
G1 X103.341 Y97.696 E4.87737
G1 X104.092 Y97.861 E4.95511
G1 X104.632 Y98.023 E5.01211
G1 X105.209 Y98.242 E5.07452
G1 X105.724 Y98.479 E5.13184
G1 X106.414 Y98.852 E5.21115
G1 X106.976 Y99.218 E5.27896
G1 X107.49 Y99.614 E5.34456
G1 X107.913 Y99.99 E5.40179
G1 X108.361 Y100.445 E5.46635
G1 X108.717 Y100.857 E5.52141
G1 X109.075 Y101.327 E5.58114
G1 X109.458 Y101.917 E5.65227
G1 X109.776 Y102.501 E5.7195
G1 X110.07 Y103.157 E5.79219
G1 X110.274 Y103.729 E5.85359
G1 X110.421 Y104.244 E5.90774
G1 X110.557 Y104.857 E5.97123
G1 X110.663 Y105.597 E6.04682
G1 X110.692 Y106.112 E6.09897
G1 X110.716 Y107.384 E6.22761
G1 X110.715 Y137.836 E9.30663
G1 X110.697 Y138.751 E9.39917
G1 X110.643 Y139.507 E9.4758
G1 X110.552 Y140.089 E9.53536
G1 X110.428 Y140.642 E9.59267
G1 X110.251 Y141.244 E9.65611
G1 X110.031 Y141.844 E9.72073
G1 X109.728 Y142.502 E9.79397
G1 X109.38 Y143.118 E9.86551
G1 X109.064 Y143.594 E9.92328
G1 X108.679 Y144.099 E9.98749
G1 X108.343 Y144.484 E10.03915
G1 X107.838 Y144.988 E10.11129
G1 X107.404 Y145.362 E10.16922
G1 X106.856 Y145.773 E10.23848
G1 X106.432 Y146.048 E10.28958
G1 X105.711 Y146.441 E10.37261
G1 X105.259 Y146.645 E10.42275
G1 X104.504 Y146.922 E10.50406
G1 X103.96 Y147.078 E10.56128
G1 X103.504 Y147.177 E10.60847
G1 X103.109 Y147.242 E10.64894
G1 X102.551 Y147.303 E10.7057
G1 X102.189 Y147.326 E10.74237
G1 X100.824 Y147.354 E10.88042
G1 X60.444 Y147.354 E14.96327
G1 X59.673 Y147.342 E15.04124
G1 X58.921 Y147.298 E15.1174
G1 X58.056 Y147.166 E15.20588
G1 X57.533 Y147.038 E15.26032
G1 X57.038 Y146.888 E15.31262
G1 X56.469 Y146.681 E15.37384
G1 X55.855 Y146.406 E15.44186
G1 X55.325 Y146.12 E15.50275
G1 X54.692 Y145.713 E15.57885
G1 X54.183 Y145.325 E15.64356
G1 X53.719 Y144.916 E15.7061
G1 X53.272 Y144.464 E15.77038
G1 X52.914 Y144.049 E15.82579
G1 X52.578 Y143.609 E15.88177
G1 X52.17 Y142.981 E15.95749
G1 X51.82 Y142.333 E16.03196
G1 X51.611 Y141.87 E16.08332
G1 X51.358 Y141.176 E16.15801
G1 X51.21 Y140.654 E16.21287
G1 X51.063 Y139.979 E16.28272
G1 X50.967 Y139.287 E16.35336
G1 X50.944 Y138.853 E16.3973
G1 X50.916 Y137.436 E16.5406
G1 X50.917 Y107.032 E19.61477
G1 X50.94 Y106.066 E19.71248
G1 X51.001 Y105.309 E19.78926
G1 X51.075 Y104.841 E19.83717
G1 X51.242 Y104.119 E19.9121
G1 X51.378 Y103.672 E19.95934
G1 X51.612 Y103.041 E20.02739
G1 X51.838 Y102.546 E20.08241
G1 X52.238 Y101.815 E20.16666
G1 X52.559 Y101.323 E20.22606
G1 X52.969 Y100.789 E20.29413
G1 X53.323 Y100.389 E20.34814
G1 X53.763 Y99.949 E20.41106
G1 X54.253 Y99.524 E20.47664
G1 X54.708 Y99.182 E20.5342
G1 X55.327 Y98.787 E20.60844
G0 F3600 X55.686 Y99.457
G1 F1800 X56.248 Y99.156 E20.6729
G1 X56.727 Y98.941 E20.72599
G1 X57.353 Y98.71 E20.79346
G1 X57.841 Y98.57 E20.84479
G1 X58.43 Y98.447 E20.90563
G1 X58.861 Y98.386 E20.94964
G1 X59.7 Y98.325 E21.0347
G1 X60.077 Y98.315 E21.07283
G1 X101.177 Y98.314 E25.22848
G1 X101.913 Y98.325 E25.30291
G1 X102.657 Y98.368 E25.37826
G1 X103.236 Y98.449 E25.43737
G1 X103.876 Y98.59 E25.50364
G1 X104.362 Y98.734 E25.55489
G1 X104.939 Y98.953 E25.61729
G1 X105.365 Y99.149 E25.6647
G1 X106.001 Y99.49 E25.73767
G1 X106.514 Y99.822 E25.79945
G1 X106.987 Y100.184 E25.85968
G1 X107.372 Y100.524 E25.91161
G1 X107.787 Y100.944 E25.97131
G1 X108.112 Y101.318 E26.02141
G1 X108.47 Y101.788 E26.08115
G1 X108.819 Y102.329 E26.14625
G1 X109.107 Y102.862 E26.2075
G1 X109.355 Y103.415 E26.26878
G1 X109.544 Y103.939 E26.3251
G1 X109.679 Y104.409 E26.37455
G1 X109.815 Y105.022 E26.43804
G1 X109.904 Y105.641 E26.50127
G1 X109.932 Y106.127 E26.55049
G1 X109.956 Y107.384 E26.67761
G1 X109.955 Y137.821 E29.75512
G1 X109.937 Y138.736 E29.84765
G1 X109.892 Y139.391 E29.91404
G1 X109.81 Y139.923 E29.96846
G1 X109.686 Y140.476 E30.02576
G1 X109.537 Y140.984 E30.07929
G1 X109.339 Y141.529 E30.13792
G1 X109.065 Y142.13 E30.20471
G1 X108.745 Y142.7 E30.2708
G1 X108.459 Y143.134 E30.32336
G1 X108.106 Y143.599 E30.38238
G1 X107.77 Y143.984 E30.43405
G1 X107.341 Y144.413 E30.4954
G1 X106.946 Y144.755 E30.54822
G1 X106.442 Y145.135 E30.61205
G1 X106.018 Y145.41 E30.66314
G1 X105.398 Y145.748 E30.73454
G1 X104.946 Y145.952 E30.78469
G1 X104.292 Y146.192 E30.85512
G1 X103.799 Y146.335 E30.90703
G1 X103.343 Y146.434 E30.95421
G1 X102.987 Y146.492 E30.99068
G1 X102.503 Y146.545 E31.03991
G1 X102.173 Y146.566 E31.07334
G1 X100.808 Y146.594 E31.21139
G1 X60.455 Y146.594 E35.29151
G1 X59.717 Y146.583 E35.36614
G1 X58.965 Y146.539 E35.4423
G1 X58.237 Y146.428 E35.51676
G1 X57.714 Y146.3 E35.5712
G1 X57.298 Y146.174 E35.61515
G1 X56.729 Y145.967 E35.67638
G1 X56.216 Y145.737 E35.73322
G1 X55.686 Y145.451 E35.79411
G1 X55.151 Y145.107 E35.85842
G1 X54.684 Y144.753 E35.91768
G1 X54.258 Y144.38 E35.97493
G1 X53.846 Y143.966 E36.03398
G1 X53.518 Y143.588 E36.08459
G1 X53.182 Y143.148 E36.14056
G1 X52.838 Y142.619 E36.20436
G1 X52.513 Y142.02 E36.27327
G1 X52.304 Y141.557 E36.32463
G1 X52.089 Y140.967 E36.38813
G1 X51.953 Y140.492 E36.43808
G1 X51.806 Y139.817 E36.50793
G1 X51.726 Y139.246 E36.56623
G1 X51.704 Y138.838 E36.60754
G1 X51.676 Y137.436 E36.74933
G1 X51.677 Y107.049 E39.82178
G1 X51.698 Y106.125 E39.91524
G1 X51.752 Y105.428 E39.98592
G1 X51.826 Y104.96 E40.03383
G1 X51.97 Y104.338 E40.09838
G1 X52.091 Y103.935 E40.14093
G1 X52.305 Y103.354 E40.20353
G1 X52.506 Y102.909 E40.2529
G1 X52.875 Y102.23 E40.33104
G1 X53.196 Y101.738 E40.39044
G1 X53.54 Y101.291 E40.44747
G1 X53.862 Y100.925 E40.49676
G1 X54.263 Y100.522 E40.55424
G1 X54.71 Y100.132 E40.61422
G1 X55.165 Y99.79 E40.67177
G1 X55.686 Y99.457 E40.73429
G0 F3600 X56.047 Y100.126
G1 F1800 X55.622 Y100.398 E40.78531
G1 X55.167 Y100.74 E40.84287
G1 X54.802 Y101.058 E40.89181
G1 X54.401 Y101.461 E40.9493
G1 X54.113 Y101.791 E40.99358
G1 X53.8 Y102.2 E41.04566
G1 X53.513 Y102.643 E41.09903
G1 X53.199 Y103.222 E41.16563
G1 X52.998 Y103.667 E41.215
G1 X52.819 Y104.154 E41.26746
G1 X52.698 Y104.557 E41.31
G1 X52.577 Y105.079 E41.36418
G1 X52.503 Y105.547 E41.41209
G1 X52.458 Y106.142 E41.47242
G1 X52.437 Y107.066 E41.56587
G1 X52.436 Y137.436 E44.63661
G1 X52.464 Y138.823 E44.77688
G1 X52.485 Y139.204 E44.81546
G1 X52.558 Y139.708 E44.86695
G1 X52.695 Y140.328 E44.93115
G1 X52.819 Y140.755 E44.97611
G1 X52.997 Y141.244 E45.02873
G1 X53.206 Y141.707 E45.08009
G1 X53.505 Y142.255 E45.14321
G1 X53.786 Y142.687 E45.19532
G1 X54.122 Y143.127 E45.25129
G1 X54.418 Y143.466 E45.2968
G1 X54.795 Y143.843 E45.35071
G1 X55.143 Y144.147 E45.39743
G1 X55.61 Y144.501 E45.45668
G1 X56.047 Y144.782 E45.50921
G1 X56.577 Y145.068 E45.57011
G1 X57.038 Y145.273 E45.62112
G1 X57.555 Y145.459 E45.67667
G1 X57.895 Y145.562 E45.71259
G1 X58.418 Y145.69 E45.76703
G1 X59.009 Y145.78 E45.82748
G1 X59.761 Y145.824 E45.90365
G1 X60.466 Y145.834 E45.97494
G1 X100.792 Y145.834 E50.05233
G1 X102.157 Y145.806 E50.19038
G1 X102.454 Y145.787 E50.22047
G1 X102.865 Y145.742 E50.26227
G1 X103.221 Y145.684 E50.29874
G1 X103.636 Y145.593 E50.3417
G1 X104.078 Y145.463 E50.38828
G1 X104.633 Y145.259 E50.44807
G1 X105.085 Y145.055 E50.49821
G1 X105.604 Y144.772 E50.55798
G1 X106.028 Y144.497 E50.60908
G1 X106.487 Y144.149 E50.66732
G1 X106.841 Y143.84 E50.71483
G1 X107.231 Y143.448 E50.77074
G1 X107.532 Y143.101 E50.81719
G1 X107.853 Y142.676 E50.87104
G1 X108.109 Y142.284 E50.91838
G1 X108.401 Y141.76 E50.97903
G1 X108.625 Y141.269 E51.0336
G1 X108.823 Y140.724 E51.09223
G1 X108.944 Y140.31 E51.13584
G1 X109.068 Y139.757 E51.19314
G1 X109.14 Y139.278 E51.24212
G1 X109.177 Y138.721 E51.29856
G1 X109.195 Y137.806 E51.3911
G1 X109.196 Y107.384 E54.46709
G1 X109.172 Y106.142 E54.59269
G1 X109.145 Y105.686 E54.63888
G1 X109.073 Y105.187 E54.68986
G1 X108.937 Y104.574 E54.75335
G1 X108.814 Y104.151 E54.79789
G1 X108.641 Y103.675 E54.8491
G1 X108.438 Y103.223 E54.8992
G1 X108.15 Y102.69 E54.96045
G1 X107.865 Y102.249 E55.01354
G1 X107.507 Y101.779 E55.07328
G1 X107.214 Y101.443 E55.11836
G1 X106.833 Y101.06 E55.17298
G1 X106.486 Y100.756 E55.21963
G1 X106.053 Y100.426 E55.27467
G1 X105.591 Y100.13 E55.33015
G1 X105.008 Y99.82 E55.39691
G1 X104.624 Y99.645 E55.43958
G1 X104.146 Y99.463 E55.4913
G1 X103.66 Y99.319 E55.54255
G1 X103.075 Y99.192 E55.60308
G1 X102.554 Y99.121 E55.65624
G1 X101.872 Y99.084 E55.7253
G1 X101.166 Y99.074 E55.79669
G1 X60.077 Y99.075 E59.95123
G1 X59.721 Y99.085 E59.98724
G1 X58.968 Y99.139 E60.06358
G1 X58.537 Y99.2 E60.10759
G1 X58.051 Y99.301 E60.15778
G1 X57.563 Y99.441 E60.20911
G1 X56.992 Y99.653 E60.2707
G1 X56.562 Y99.848 E60.31844
G1 X56.047 Y100.126 E60.37761
G1 F300 E59.87761
G1 F600 Z0.6
;MESH:pipe-base-mount-23pt4-40x50x25.stl
G0 F3600 X62.88 Y112.321 Z0.6
;TYPE:WALL-INNER
G1 F600 Z0.32
G1 F120 E60.37761
G1 F1800 X62.683 Y112.315 E60.39754
G1 X62.299 Y112.27 E60.43663
G1 X62.059 Y112.215 E60.46153
G1 X61.697 Y112.09 E60.50025
G1 X61.463 Y111.978 E60.52648
G1 X61.129 Y111.768 E60.56637
G1 X60.929 Y111.609 E60.59221
G1 X60.659 Y111.339 E60.63081
G1 X60.501 Y111.141 E60.65643
G1 X60.294 Y110.813 E60.69564
G1 X60.181 Y110.576 E60.72219
G1 X60.055 Y110.212 E60.76114
G1 X60.01 Y110.036 E60.77951
G1 X59.955 Y109.587 E60.82524
G1 X59.945 Y109.403 E60.84388
G1 X60 Y108.937 E60.89132
G1 X60.055 Y108.697 E60.91622
G1 X60.181 Y108.333 E60.95516
G1 X60.293 Y108.097 E60.98158
G1 X60.539 Y107.711 E61.02786
G1 X60.659 Y107.569 E61.04665
G1 X61.02 Y107.21 E61.09813
G1 X61.459 Y106.931 E61.15072
G1 X61.695 Y106.819 E61.17714
G1 X62.059 Y106.693 E61.21608
G1 X62.235 Y106.648 E61.23445
G1 X62.683 Y106.593 E61.28009
G1 X62.866 Y106.583 E61.29862
G1 X63.334 Y106.638 E61.34627
G1 X63.574 Y106.693 E61.37116
G1 X63.938 Y106.819 E61.41011
G1 X64.175 Y106.932 E61.43666
G1 X64.503 Y107.139 E61.47587
G1 X64.701 Y107.297 E61.50149
G1 X64.971 Y107.567 E61.54009
G1 X65.13 Y107.767 E61.56593
G1 X65.34 Y108.101 E61.60582
G1 X65.452 Y108.335 E61.63205
G1 X65.577 Y108.697 E61.67077
G1 X65.628 Y108.91 E61.69292
G1 X65.689 Y109.419 E61.74475
G1 X65.623 Y110.057 E61.80961
G1 X65.451 Y110.577 E61.86498
G1 X65.354 Y110.787 E61.88837
G1 X65.085 Y111.209 E61.93897
G1 X64.974 Y111.338 E61.95618
G1 X64.63 Y111.682 E62.00537
G1 X64.09 Y112.03 E62.07033
G1 X63.436 Y112.257 E62.14032
G1 X62.88 Y112.321 E62.19691
G1 F300 E61.69691
G1 F600 Z0.6
G0 F3600 X62.765 Y138.325 Z0.6
G1 F600 Z0.32
G1 F120 E62.19691
G1 F1800 X62.299 Y138.27 E62.24436
G1 X62.059 Y138.215 E62.26925
G1 X61.697 Y138.09 E62.30797
G1 X61.463 Y137.978 E62.3342
G1 X61.072 Y137.73 E62.38102
G1 X60.929 Y137.609 E62.39996
G1 X60.572 Y137.251 E62.45108
G1 X60.294 Y136.813 E62.50353
G1 X60.181 Y136.576 E62.53008
G1 X60.055 Y136.212 E62.56903
G1 X60.01 Y136.036 E62.5874
G1 X59.955 Y135.587 E62.63314
G1 X59.945 Y135.403 E62.65177
G1 X60 Y134.937 E62.69921
G1 X60.055 Y134.697 E62.72411
G1 X60.181 Y134.333 E62.76305
G1 X60.293 Y134.097 E62.78947
G1 X60.501 Y133.768 E62.82882
G1 X60.659 Y133.569 E62.85452
G1 X60.931 Y133.297 E62.89341
G1 X61.13 Y133.138 E62.91916
G1 X61.459 Y132.931 E62.95847
G1 X61.694 Y132.819 E62.98479
G1 X62.059 Y132.693 E63.02383
G1 X62.299 Y132.638 E63.04873
G1 X62.79 Y132.581 E63.09871
G1 X63.43 Y132.648 E63.16377
G1 X64.014 Y132.847 E63.22615
G1 X64.175 Y132.932 E63.24456
G1 X64.599 Y133.207 E63.29566
G1 X65.051 Y133.646 E63.35937
G1 X65.376 Y134.162 E63.42103
G1 X65.452 Y134.335 E63.44013
G1 X65.611 Y134.815 E63.49126
G1 X65.687 Y135.405 E63.55141
G1 X65.677 Y135.587 E63.56984
G1 X65.628 Y135.999 E63.61179
G1 X65.577 Y136.211 E63.63384
G1 X65.451 Y136.577 E63.67298
G1 X65.338 Y136.812 E63.69934
G1 X65.132 Y137.139 E63.73842
G1 X64.974 Y137.338 E63.76411
G1 X64.7 Y137.612 E63.80329
G1 X64.501 Y137.77 E63.82898
G1 X64.174 Y137.976 E63.86806
G1 X63.938 Y138.089 E63.89451
G1 X63.574 Y138.215 E63.93346
G1 X63.398 Y138.26 E63.95183
G1 X62.949 Y138.315 E63.99757
G1 X62.765 Y138.325 E64.0162
G1 F300 E63.5162
G1 F600 Z0.6
G0 F3600 X81.431 Y135.48 Z0.6
G1 F600 Z0.32
G1 F120 E64.0162
G1 F1800 X80.216 Y135.481 E64.13905
G1 X79.208 Y135.395 E64.24134
G1 X78.031 Y135.193 E64.36209
G1 X76.967 Y134.913 E64.47333
G1 X75.909 Y134.536 E64.5869
G1 X74.994 Y134.121 E64.68848
G1 X73.946 Y133.537 E64.80979
G1 X73.056 Y132.934 E64.91849
G1 X72.211 Y132.252 E65.02828
G1 X71.37 Y131.442 E65.14634
G1 X70.672 Y130.649 E65.25316
G1 X69.99 Y129.723 E65.36944
G1 X69.434 Y128.821 E65.47658
G1 X68.933 Y127.824 E65.5894
G1 X68.52 Y126.799 E65.70113
G1 X68.199 Y125.747 E65.81234
G1 X67.966 Y124.673 E65.92346
G1 X67.828 Y123.609 E66.03194
G1 X67.776 Y122.413 E66.15299
G1 X67.826 Y121.315 E66.26412
G1 X67.972 Y120.201 E66.37772
G1 X68.197 Y119.167 E66.48472
G1 X68.518 Y118.117 E66.59573
G1 X68.948 Y117.055 E66.71158
G1 X69.43 Y116.095 E66.8202
G1 X70.034 Y115.12 E66.93616
G1 X70.702 Y114.224 E67.04917
G1 X71.425 Y113.409 E67.15932
G1 X72.2 Y112.664 E67.26802
G1 X73.093 Y111.947 E67.38381
G1 X73.932 Y111.379 E67.48626
G1 X74.982 Y110.792 E67.60789
G1 X75.989 Y110.34 E67.71949
G1 X77.042 Y109.973 E67.83224
G1 X78.019 Y109.718 E67.93434
G1 X79.195 Y109.517 E68.05497
G1 X80.2 Y109.429 E68.15697
G1 X81.416 Y109.428 E68.27992
G1 X82.425 Y109.514 E68.38232
G1 X83.506 Y109.694 E68.49312
G1 X84.574 Y109.968 E68.6046
G1 X85.723 Y110.372 E68.72775
G1 X86.639 Y110.787 E68.82943
G1 X87.689 Y111.372 E68.95096
G1 X88.603 Y111.996 E69.06286
G1 X89.427 Y112.66 E69.16986
G1 X90.256 Y113.458 E69.28621
G1 X90.987 Y114.292 E69.39834
G1 X91.631 Y115.168 E69.50827
G1 X92.198 Y116.088 E69.61754
G1 X92.7 Y117.084 E69.73032
G1 X93.111 Y118.105 E69.8416
G1 X93.433 Y119.161 E69.95323
G1 X93.674 Y120.284 E70.06936
G1 X93.812 Y121.396 E70.18266
G1 X93.856 Y122.447 E70.28902
G1 X93.806 Y123.593 E70.405
G1 X93.669 Y124.659 E70.51367
G1 X93.436 Y125.739 E70.62539
G1 X93.115 Y126.792 E70.73669
G1 X92.705 Y127.812 E70.84785
G1 X92.178 Y128.855 E70.966
G1 X91.653 Y129.709 E71.06736
G1 X90.968 Y130.64 E71.18423
G1 X90.208 Y131.499 E71.3002
G1 X89.434 Y132.242 E71.40868
G1 X88.585 Y132.928 E71.51905
G1 X87.7 Y133.529 E71.62721
G1 X86.651 Y134.116 E71.74875
G1 X85.645 Y134.567 E71.86023
G1 X84.587 Y134.937 E71.97355
G1 X83.617 Y135.189 E72.07489
G1 X82.531 Y135.381 E72.1864
G1 X81.431 Y135.48 E72.29807
G1 F300 E71.79807
G1 F600 Z0.6
G0 F3600 X98.765 Y138.325 Z0.6
G1 F600 Z0.32
G1 F120 E72.29807
G1 F1800 X98.299 Y138.27 E72.34551
G1 X98.059 Y138.215 E72.37041
G1 X97.697 Y138.09 E72.40913
G1 X97.463 Y137.978 E72.43536
G1 X97.129 Y137.768 E72.47525
G1 X96.929 Y137.609 E72.50109
G1 X96.659 Y137.339 E72.53969
G1 X96.501 Y137.141 E72.56531
G1 X96.294 Y136.813 E72.60452
G1 X96.181 Y136.577 E72.63098
G1 X96.055 Y136.211 E72.67012
G1 X96.004 Y135.999 E72.69216
G1 X95.943 Y135.488 E72.7442
G1 X96.009 Y134.852 E72.80885
G1 X96.181 Y134.332 E72.86423
G1 X96.293 Y134.097 E72.89055
G1 X96.581 Y133.656 E72.94381
G1 X96.996 Y133.231 E73.00387
G1 X97.459 Y132.932 E73.0596
G1 X97.619 Y132.844 E73.07806
G1 X98.199 Y132.65 E73.1399
G1 X98.753 Y132.587 E73.19627
G1 X98.949 Y132.593 E73.2161
G1 X99.334 Y132.638 E73.25529
G1 X99.573 Y132.693 E73.28009
G1 X99.939 Y132.819 E73.31923
G1 X100.175 Y132.932 E73.34569
G1 X100.503 Y133.139 E73.3849
G1 X100.701 Y133.297 E73.41051
G1 X100.971 Y133.567 E73.44912
G1 X101.129 Y133.767 E73.47489
G1 X101.34 Y134.101 E73.51484
G1 X101.452 Y134.336 E73.54116
G1 X101.577 Y134.697 E73.57979
G1 X101.631 Y134.937 E73.60466
G1 X101.687 Y135.402 E73.65202
G1 X101.677 Y135.587 E73.67075
G1 X101.623 Y136.036 E73.71648
G1 X101.577 Y136.212 E73.73487
