;FLAVOR:Marlin
;TIME:2265
;Filament used: 8.65826m
;Layer height: 0.32
;MINX:95.4
;MINY:100.4
;MINZ:0.24
;MAXX:154.6
;MAXY:149.6
;MAXZ:25.16
;TARGET_MACHINE.NAME:VORON2 250
;Generated with Cura_SteamEngine 5.6.0
M140 S60
M105
M190 S60
M104 S215
M105
M109 S215
M82 ;absolute extrusion mode
START_PRINT
G92 E0
G92 E0
G1 F300 E-0.5
;LAYER_COUNT:78
;LAYER:0
M107
G1 F600 Z0.52
G0 F3600 X98.215 Y102.656 Z0.52
;TYPE:SKIRT
G1 F600 Z0.24
G1 F120 E0
G1 F1800 X98.617 Y102.311 E0.03383
G1 X99.051 Y101.983 E0.06857
G1 X99.669 Y101.591 E0.1153
G1 X100.326 Y101.245 E0.16272
G1 X100.778 Y101.044 E0.19431
G1 X101.399 Y100.818 E0.23651
G1 X101.95 Y100.663 E0.27307
G1 X102.545 Y100.539 E0.31188
G1 X103.044 Y100.469 E0.34406
G1 X103.744 Y100.418 E0.38888
G1 X104.304 Y100.4 E0.42466
G1 X145.323 Y100.4 E3.04411
G1 X146.262 Y100.418 E3.10408
G1 X147.031 Y100.476 E3.15333
G1 X147.435 Y100.536 E3.17941
G1 X148.173 Y100.692 E3.22758
G1 X148.848 Y100.895 E3.27259
G1 X149.349 Y101.092 E3.30697
G1 X149.819 Y101.311 E3.34008
G1 X150.348 Y101.599 E3.37855
G1 X150.731 Y101.84 E3.40744
G1 X151.41 Y102.336 E3.46114
G1 X151.83 Y102.697 E3.49651
G1 X152.276 Y103.141 E3.5367
G1 X152.662 Y103.585 E3.57427
G1 X153.063 Y104.118 E3.61686
G1 X153.388 Y104.625 E3.65532
G1 X153.716 Y105.233 E3.69944
G1 X153.914 Y105.669 E3.73002
G1 X154.173 Y106.371 E3.7778
G1 X154.313 Y106.855 E3.80997
G1 X154.444 Y107.457 E3.84932
G1 X154.519 Y107.964 E3.88205
G1 X154.577 Y108.649 E3.92595
G1 X154.599 Y109.258 E3.96486
G1 X154.6 Y140.311 E5.94789
G1 X154.58 Y141.317 E6.01214
G1 X154.538 Y141.913 E6.0503
G1 X154.475 Y142.356 E6.07887
G1 X154.311 Y143.152 E6.13077
G1 X154.133 Y143.758 E6.17111
G1 X153.961 Y144.214 E6.20223
G1 X153.768 Y144.648 E6.23256
G1 X153.448 Y145.262 E6.27678
G1 X153.157 Y145.734 E6.31219
G1 X152.642 Y146.437 E6.36784
G1 X152.228 Y146.911 E6.40803
G1 X151.845 Y147.289 E6.44239
G1 X151.391 Y147.681 E6.48069
G1 X150.869 Y148.072 E6.52234
G1 X150.42 Y148.358 E6.55634
G1 X149.674 Y148.755 E6.6103
G1 X149.222 Y148.956 E6.64189
G1 X148.601 Y149.182 E6.6841
G1 X148.05 Y149.337 E6.72065
G1 X147.455 Y149.461 E6.75946
G1 X146.956 Y149.531 E6.79164
G1 X146.255 Y149.582 E6.83652
G1 X145.654 Y149.6 E6.87492
G1 X104.613 Y149.599 E9.49578
G1 X103.737 Y149.582 E9.55173
G1 X102.968 Y149.524 E9.60097
G1 X102.565 Y149.464 E9.62699
G1 X101.827 Y149.308 E9.67516
G1 X101.151 Y149.105 E9.72024
G1 X100.615 Y148.893 E9.75705
G1 X100.21 Y148.704 E9.78559
G1 X99.604 Y148.374 E9.82965
G1 X99.16 Y148.09 E9.86331
G1 X98.782 Y147.813 E9.89323
G1 X98.425 Y147.53 E9.92233
G1 X98.138 Y147.273 E9.94693
G1 X97.666 Y146.796 E9.98978
G1 X97.325 Y146.4 E10.02315
G1 X96.985 Y145.952 E10.05907
G1 X96.662 Y145.464 E10.09644
G1 X96.494 Y145.171 E10.11801
G1 X96.249 Y144.701 E10.15186
G1 X96.061 Y144.271 E10.18182
G1 X95.849 Y143.694 E10.22108
G1 X95.678 Y143.11 E10.25994
G1 X95.575 Y142.646 E10.29029
G1 X95.487 Y142.09 E10.32624
G1 X95.445 Y141.645 E10.35478
G1 X95.429 Y141.35 E10.37365
G1 X95.4 Y139.942 E10.46358
G1 X95.4 Y109.606 E12.40082
G1 X95.413 Y108.78 E12.45358
G1 X95.465 Y108.051 E12.50025
G1 X95.515 Y107.69 E12.52352
G1 X95.629 Y107.099 E12.56196
G1 X95.753 Y106.608 E12.5943
G1 X95.893 Y106.174 E12.62342
G1 X96.041 Y105.782 E12.65018
G1 X96.234 Y105.349 E12.68045
G1 X96.576 Y104.695 E12.72758
G1 X96.843 Y104.265 E12.7599
G1 X97.347 Y103.577 E12.81437
G1 X97.687 Y103.181 E12.8477
G1 X98.215 Y102.656 E12.89525
G0 F3600 X98.633 Y103.141
G1 F1800 X99.003 Y102.822 E12.92644
G1 X99.437 Y102.494 E12.96118
G1 X99.968 Y102.157 E13.00135
G1 X100.586 Y101.83 E13.04599
G1 X101.038 Y101.629 E13.07758
G1 X101.574 Y101.434 E13.11401
G1 X102.081 Y101.29 E13.14767
G1 X102.676 Y101.166 E13.18648
G1 X103.132 Y101.103 E13.21587
G1 X103.765 Y101.058 E13.2564
G1 X104.325 Y101.04 E13.29218
G1 X145.311 Y101.04 E15.90952
G1 X146.25 Y101.058 E15.9695
G1 X146.937 Y101.109 E16.01349
G1 X147.341 Y101.169 E16.03957
G1 X147.99 Y101.305 E16.08192
G1 X148.615 Y101.491 E16.12356
G1 X149.08 Y101.673 E16.15545
G1 X149.514 Y101.874 E16.18599
G1 X150.007 Y102.141 E16.22179
G1 X150.39 Y102.382 E16.25069
G1 X150.994 Y102.823 E16.29845
G1 X151.378 Y103.151 E16.3307
G1 X151.824 Y103.595 E16.37089
G1 X152.152 Y103.971 E16.40275
G1 X152.525 Y104.464 E16.44223
G1 X152.825 Y104.93 E16.47762
G1 X153.133 Y105.498 E16.51888
G1 X153.331 Y105.934 E16.54946
G1 X153.558 Y106.549 E16.59133
G1 X153.698 Y107.033 E16.6235
G1 X153.811 Y107.552 E16.65742
G1 X153.881 Y108.019 E16.68758
G1 X153.937 Y108.673 E16.72949
G1 X153.959 Y109.258 E16.76688
G1 X153.96 Y140.298 E18.74907
G1 X153.94 Y141.304 E18.81333
G1 X153.904 Y141.825 E18.84668
G1 X153.848 Y142.228 E18.87266
G1 X153.696 Y142.974 E18.92128
G1 X153.534 Y143.532 E18.95839
G1 X153.362 Y143.988 E18.98951
G1 X153.2 Y144.352 E19.01495
G1 X152.88 Y144.966 E19.05917
G1 X152.613 Y145.397 E19.09154
G1 X152.159 Y146.017 E19.14062
G1 X151.778 Y146.455 E19.17769
G1 X151.395 Y146.833 E19.21205
G1 X151.006 Y147.17 E19.24492
G1 X150.525 Y147.532 E19.28336
G1 X150.076 Y147.818 E19.31736
G1 X149.414 Y148.17 E19.36524
G1 X148.962 Y148.371 E19.39683
G1 X148.426 Y148.566 E19.43325
G1 X147.919 Y148.71 E19.46691
G1 X147.324 Y148.834 E19.50572
G1 X146.868 Y148.897 E19.53512
G1 X146.235 Y148.942 E19.57564
G1 X145.654 Y148.96 E19.61276
G1 X104.625 Y148.959 E22.23285
G1 X103.749 Y148.942 E22.2888
G1 X103.062 Y148.891 E22.3328
G1 X102.659 Y148.831 E22.35881
G1 X102.01 Y148.695 E22.40116
G1 X101.385 Y148.509 E22.4428
G1 X100.884 Y148.312 E22.47718
G1 X100.515 Y148.141 E22.50315
G1 X99.948 Y147.834 E22.54433
G1 X99.538 Y147.573 E22.57536
G1 X99.178 Y147.31 E22.60383
G1 X98.852 Y147.053 E22.63034
G1 X98.565 Y146.796 E22.65495
G1 X98.15 Y146.377 E22.69261
G1 X97.835 Y146.013 E22.72335
G1 X97.495 Y145.565 E22.75926
G1 X97.217 Y145.146 E22.79137
G1 X97.061 Y144.874 E22.8114
G1 X96.835 Y144.443 E22.84247
G1 X96.662 Y144.05 E22.86989
G1 X96.45 Y143.473 E22.90915
G1 X96.303 Y142.971 E22.94255
G1 X96.2 Y142.507 E22.97291
G1 X96.124 Y142.029 E23.00381
G1 X96.084 Y141.61 E23.03069
G1 X96.069 Y141.337 E23.04815
G1 X96.04 Y139.929 E23.13809
G1 X96.04 Y109.616 E25.07386
G1 X96.053 Y108.79 E25.12661
G1 X96.099 Y108.139 E25.16829
G1 X96.149 Y107.778 E25.19156
G1 X96.25 Y107.256 E25.22551
G1 X96.374 Y106.765 E25.25785
G1 X96.492 Y106.4 E25.28235
G1 X96.64 Y106.008 E25.30911
G1 X96.802 Y105.644 E25.33455
G1 X97.12 Y105.033 E25.37854
G1 X97.387 Y104.603 E25.41086
G1 X97.833 Y103.994 E25.45906
G1 X98.173 Y103.598 E25.49239
G1 X98.633 Y103.141 E25.5338
G0 F3600 X99.052 Y103.625
G1 F1800 X99.389 Y103.333 E25.56228
G1 X99.823 Y103.005 E25.59702
G1 X100.268 Y102.722 E25.63069
G1 X100.848 Y102.414 E25.67263
G1 X101.259 Y102.23 E25.70139
G1 X101.751 Y102.049 E25.73487
G1 X102.213 Y101.916 E25.76557
G1 X102.764 Y101.8 E25.80152
G1 X103.22 Y101.737 E25.83092
G1 X103.786 Y101.698 E25.86715
G1 X104.346 Y101.68 E25.90293
G1 X145.299 Y101.68 E28.51817
G1 X146.238 Y101.698 E28.57814
G1 X146.843 Y101.742 E28.61688
G1 X147.247 Y101.802 E28.64296
G1 X147.858 Y101.931 E28.68284
G1 X148.382 Y102.087 E28.71775
G1 X148.847 Y102.269 E28.74964
G1 X149.211 Y102.438 E28.77527
G1 X149.666 Y102.683 E28.80827
G1 X150.049 Y102.924 E28.83717
G1 X150.578 Y103.31 E28.87899
G1 X150.962 Y103.638 E28.91124
G1 X151.343 Y104.017 E28.94556
G1 X151.643 Y104.359 E28.97461
G1 X151.988 Y104.812 E29.01097
G1 X152.263 Y105.236 E29.04324
G1 X152.55 Y105.763 E29.08156
G1 X152.748 Y106.199 E29.11214
G1 X152.944 Y106.729 E29.14823
G1 X153.073 Y107.17 E29.17757
G1 X153.178 Y107.649 E29.20889
G1 X153.243 Y108.074 E29.23634
G1 X153.297 Y108.698 E29.27634
G1 X153.319 Y109.258 E29.31213
G1 X153.32 Y140.286 E31.29356
G1 X153.301 Y141.262 E31.3559
G1 X153.27 Y141.737 E31.38629
G1 X153.214 Y142.14 E31.41228
G1 X153.081 Y142.798 E31.45515
G1 X152.935 Y143.307 E31.48896
G1 X152.777 Y143.728 E31.51768
G1 X152.615 Y144.092 E31.54312
G1 X152.336 Y144.629 E31.58177
G1 X152.069 Y145.06 E31.61414
G1 X151.675 Y145.598 E31.65673
G1 X151.328 Y145.999 E31.69059
G1 X150.945 Y146.377 E31.72495
G1 X150.619 Y146.66 E31.75252
G1 X150.181 Y146.992 E31.78762
G1 X149.732 Y147.278 E31.82162
G1 X149.152 Y147.586 E31.86355
G1 X148.741 Y147.77 E31.89231
G1 X148.249 Y147.951 E31.92579
G1 X147.787 Y148.084 E31.95649
G1 X147.236 Y148.2 E31.99245
G1 X146.78 Y148.263 E32.02184
G1 X146.214 Y148.302 E32.05807
G1 X145.654 Y148.32 E32.09385
G1 X104.637 Y148.319 E34.71318
G1 X103.761 Y148.302 E34.76913
G1 X103.156 Y148.258 E34.80786
G1 X102.753 Y148.198 E34.83388
G1 X102.142 Y148.069 E34.87376
G1 X101.618 Y147.913 E34.90868
G1 X101.153 Y147.731 E34.94056
G1 X100.784 Y147.56 E34.96654
G1 X100.29 Y147.293 E35.00239
G1 X99.915 Y147.056 E35.03072
G1 X99.573 Y146.807 E35.05774
G1 X99.279 Y146.576 E35.08162
G1 X98.992 Y146.319 E35.10622
G1 X98.633 Y145.957 E35.13878
G1 X98.345 Y145.626 E35.16679
G1 X98.005 Y145.178 E35.20271
G1 X97.772 Y144.827 E35.22961
G1 X97.627 Y144.575 E35.24818
G1 X97.421 Y144.185 E35.27634
G1 X97.248 Y143.792 E35.30377
G1 X97.051 Y143.253 E35.34041
G1 X96.928 Y142.832 E35.36842
G1 X96.825 Y142.368 E35.39877
G1 X96.761 Y141.968 E35.42464
G1 X96.723 Y141.574 E35.44992
G1 X96.709 Y141.324 E35.46591
G1 X96.68 Y139.916 E35.55584
G1 X96.68 Y109.626 E37.49015
G1 X96.693 Y108.8 E37.5429
G1 X96.733 Y108.227 E37.57958
G1 X96.783 Y107.866 E37.60285
G1 X96.871 Y107.413 E37.63232
G1 X96.995 Y106.922 E37.66466
G1 X97.091 Y106.625 E37.6846
G1 X97.225 Y106.268 E37.70895
G1 X97.387 Y105.904 E37.73439
G1 X97.664 Y105.371 E37.77275
G1 X97.931 Y104.941 E37.80507
G1 X98.319 Y104.411 E37.84702
G1 X98.659 Y104.015 E37.88035
G1 X99.052 Y103.625 E37.9157
G1 F300 E37.4157
G1 F600 Z0.52
;MESH:pipe-base-mount-23pt4-40x50x25.stl
G0 F3600 X107.015 Y115.231 Z0.52
;TYPE:WALL-INNER
G1 F600 Z0.24
G1 F120 E37.9157
G1 F1800 X106.457 Y115.177 E37.94927
G1 X106.292 Y115.15 E37.95928
G1 X106.116 Y115.1 E37.97023
G1 X105.749 Y114.97 E37.99354
G1 X105.452 Y114.826 E38.0133
G1 X105.124 Y114.62 E38.03649
G1 X104.861 Y114.41 E38.05664
G1 X104.59 Y114.139 E38.07958
G1 X104.38 Y113.876 E38.09973
G1 X104.174 Y113.548 E38.12292
G1 X104.03 Y113.252 E38.14263
G1 X103.901 Y112.885 E38.16592
G1 X103.837 Y112.642 E38.18096
G1 X103.781 Y112.16 E38.21001
G1 X103.774 Y112 E38.2196
G1 X103.781 Y111.84 E38.22919
G1 X103.823 Y111.457 E38.25225
G1 X103.901 Y111.115 E38.27325
G1 X104.03 Y110.748 E38.29654
G1 X104.174 Y110.452 E38.31625
G1 X104.475 Y109.979 E38.34982
G1 X104.883 Y109.568 E38.38449
G1 X105.052 Y109.428 E38.39762
G1 X105.452 Y109.174 E38.42599
G1 X105.748 Y109.03 E38.4457
G1 X106.115 Y108.901 E38.46899
G1 X106.358 Y108.837 E38.48403
G1 X106.84 Y108.781 E38.51308
G1 X107 Y108.774 E38.52267
G1 X107.16 Y108.781 E38.53226
G1 X107.543 Y108.823 E38.55533
G1 X107.885 Y108.901 E38.57633
G1 X108.252 Y109.03 E38.59962
G1 X108.548 Y109.174 E38.61932
G1 X108.876 Y109.38 E38.64251
G1 X109.139 Y109.59 E38.66266
G1 X109.41 Y109.861 E38.68561
G1 X109.62 Y110.124 E38.70575
G1 X109.826 Y110.452 E38.72894
G1 X109.97 Y110.749 E38.7487
G1 X110.1 Y111.116 E38.77201
G1 X110.171 Y111.406 E38.78989
G1 X110.218 Y111.84 E38.81602
G1 X110.227 Y112.014 E38.82645
G1 X110.177 Y112.543 E38.85826
G1 X110.138 Y112.774 E38.87229
G1 X109.892 Y113.443 E38.91496
G1 X109.558 Y113.97 E38.95232
G1 X109.45 Y114.098 E38.96234
G1 X109.139 Y114.41 E38.98872
G1 X109.001 Y114.532 E38.99974
G1 X108.548 Y114.826 E39.03208
G1 X108.342 Y114.939 E39.04614
G1 X107.688 Y115.16 E39.08747
G1 X107.015 Y115.231 E39.12799
G0 F3600 X107.019 Y114.631
G1 F1800 X106.422 Y114.564 E39.16395
G1 X105.949 Y114.404 E39.19385
G1 X105.771 Y114.318 E39.20568
G1 X105.443 Y114.112 E39.22887
G1 X105.285 Y113.986 E39.24097
G1 X105.014 Y113.715 E39.26391
G1 X104.888 Y113.557 E39.27601
G1 X104.682 Y113.229 E39.2992
G1 X104.596 Y113.051 E39.31103
G1 X104.434 Y112.594 E39.34006
G1 X104.378 Y112.096 E39.37007
G1 X104.378 Y111.904 E39.38156
G1 X104.42 Y111.521 E39.40463
G1 X104.466 Y111.316 E39.4172
G1 X104.596 Y110.949 E39.44051
G1 X104.682 Y110.771 E39.45235
G1 X104.944 Y110.356 E39.48173
G1 X105.371 Y109.933 E39.51772
G1 X105.771 Y109.682 E39.54599
G1 X105.949 Y109.596 E39.55782
G1 X106.406 Y109.434 E39.58685
G1 X106.904 Y109.378 E39.61685
G1 X107.096 Y109.378 E39.62835
G1 X107.479 Y109.42 E39.65141
G1 X107.684 Y109.466 E39.66399
G1 X108.051 Y109.596 E39.6873
G1 X108.229 Y109.682 E39.69914
G1 X108.557 Y109.888 E39.72233
G1 X108.715 Y110.014 E39.73442
G1 X108.986 Y110.285 E39.75737
G1 X109.112 Y110.443 E39.76947
G1 X109.318 Y110.771 E39.79266
G1 X109.404 Y110.949 E39.80449
G1 X109.534 Y111.316 E39.8278
G1 X109.577 Y111.49 E39.83853
G1 X109.631 Y111.999 E39.86917
G1 X109.581 Y112.479 E39.89807
G1 X109.543 Y112.657 E39.90896
G1 X109.366 Y113.142 E39.93987
G1 X109.052 Y113.651 E39.97568
G1 X108.632 Y114.059 E40.01073
G1 X108.229 Y114.318 E40.03941
G1 X108.066 Y114.399 E40.05031
G1 X107.6 Y114.564 E40.07991
G1 X107.019 Y114.631 E40.11492
G1 F300 E39.61492
G1 F600 Z0.52
G0 F3600 X107 Y141.226 Z0.52
G1 F600 Z0.24
G1 F120 E40.11492
G1 F1800 X106.84 Y141.219 E40.12451
G1 X106.457 Y141.177 E40.14758
G1 X106.115 Y141.099 E40.16858
G1 X105.748 Y140.97 E40.19187
G1 X105.452 Y140.826 E40.21157
G1 X104.98 Y140.526 E40.24505
G1 X104.475 Y140.023 E40.28773
G1 X104.174 Y139.548 E40.32139
G1 X104.03 Y139.252 E40.3411
G1 X103.901 Y138.885 E40.36439
G1 X103.837 Y138.642 E40.37943
G1 X103.781 Y138.16 E40.40848
G1 X103.774 Y138 E40.41807
G1 X103.781 Y137.84 E40.42766
G1 X103.823 Y137.457 E40.45073
G1 X103.901 Y137.115 E40.47173
G1 X104.03 Y136.748 E40.49502
G1 X104.174 Y136.452 E40.51472
G1 X104.38 Y136.124 E40.53791
G1 X104.59 Y135.861 E40.55806
G1 X104.861 Y135.59 E40.58101
G1 X105.124 Y135.38 E40.60115
G1 X105.452 Y135.174 E40.62434
G1 X105.749 Y135.03 E40.6441
G1 X106.116 Y134.9 E40.66741
G1 X106.292 Y134.85 E40.67837
G1 X106.457 Y134.823 E40.68838
G1 X107.02 Y134.768 E40.72224
G1 X107.684 Y134.845 E40.76226
G1 X107.884 Y134.9 E40.77468
G1 X108.356 Y135.068 E40.80467
G1 X108.548 Y135.174 E40.8178
G1 X109.005 Y135.47 E40.8504
G1 X109.139 Y135.59 E40.86117
G1 X109.432 Y135.883 E40.88598
G1 X109.558 Y136.031 E40.89761
G1 X109.873 Y136.531 E40.93299
G1 X109.97 Y136.749 E40.94728
G1 X110.139 Y137.229 E40.97774
G1 X110.177 Y137.457 E40.99158
G1 X110.229 Y137.933 E41.02025
G1 X110.218 Y138.16 E41.03386
G1 X110.171 Y138.594 E41.05999
G1 X110.1 Y138.884 E41.07787
G1 X109.97 Y139.251 E41.10117
G1 X109.826 Y139.548 E41.12094
G1 X109.62 Y139.876 E41.14412
G1 X109.41 Y140.139 E41.16427
G1 X109.139 Y140.41 E41.18722
G1 X108.876 Y140.62 E41.20737
G1 X108.548 Y140.826 E41.23055
G1 X108.252 Y140.97 E41.25026
G1 X107.885 Y141.099 E41.27355
G1 X107.642 Y141.163 E41.28859
G1 X107.16 Y141.219 E41.31765
G1 X107 Y141.226 E41.32723
G0 F3600 X107.096 Y140.622
G1 F1800 X106.904 Y140.622 E41.33873
G1 X106.521 Y140.58 E41.3618
G1 X106.316 Y140.534 E41.37437
G1 X105.949 Y140.404 E41.39768
G1 X105.771 Y140.318 E41.40952
G1 X105.355 Y140.054 E41.43901
G1 X104.944 Y139.643 E41.47381
G1 X104.682 Y139.229 E41.50314
G1 X104.596 Y139.051 E41.51498
G1 X104.434 Y138.594 E41.54401
G1 X104.378 Y138.096 E41.57401
G1 X104.378 Y137.904 E41.5855
G1 X104.42 Y137.521 E41.60857
G1 X104.466 Y137.316 E41.62115
G1 X104.596 Y136.949 E41.64446
G1 X104.682 Y136.771 E41.65629
G1 X104.888 Y136.443 E41.67948
G1 X105.014 Y136.285 E41.69158
G1 X105.285 Y136.014 E41.71453
G1 X105.443 Y135.888 E41.72662
G1 X105.771 Y135.682 E41.74981
G1 X105.949 Y135.596 E41.76165
G1 X106.422 Y135.436 E41.79154
G1 X106.987 Y135.368 E41.82561
G1 X107.529 Y135.426 E41.85825
G1 X107.684 Y135.466 E41.86783
G1 X108.155 Y135.635 E41.89779
G1 X108.634 Y135.942 E41.93185
G1 X109.049 Y136.347 E41.96656
G1 X109.366 Y136.857 E42.00251
G1 X109.543 Y137.342 E42.03342
G1 X109.581 Y137.521 E42.04438
G1 X109.623 Y137.917 E42.06822
G1 X109.622 Y138.096 E42.07894
G1 X109.577 Y138.51 E42.10387
G1 X109.534 Y138.684 E42.1146
G1 X109.404 Y139.051 E42.13791
G1 X109.318 Y139.229 E42.14974
G1 X109.112 Y139.557 E42.17293
G1 X108.986 Y139.715 E42.18503
G1 X108.715 Y139.986 E42.20798
G1 X108.557 Y140.112 E42.22007
G1 X108.229 Y140.318 E42.24326
G1 X108.051 Y140.404 E42.2551
G1 X107.594 Y140.566 E42.28413
