;FLAVOR:Marlin
;TIME:424
;Filament used: 1.65405m
;Layer height: 0.4
;MINX:89.795
;MINY:98.347
;MINZ:0.32
;MAXX:139.595
;MAXY:158.147
;MAXZ:3.4
;TARGET_MACHINE.NAME:VORON2 250
;Generated with Cura_SteamEngine 5.6.0
M140 S60
M105
M190 S60
M104 S215
M105
M109 S215
M82 ;absolute extrusion mode
START_PRINT
G92 E0
G92 E0
G1 F300 E-0.5
;LAYER_COUNT:8
;LAYER:0
M107
G1 F600 Z0.6
G0 F3600 X92.421 Y100.384 Z0.6
;TYPE:SKIRT
G1 F600 Z0.32
G1 F120 E0
G1 F1800 X92.764 Y100.093 E0.04548
G1 X93.371 Y99.653 E0.12128
G1 X93.788 Y99.397 E0.17076
G1 X94.452 Y99.056 E0.24623
G1 X94.854 Y98.887 E0.29032
G1 X95.605 Y98.641 E0.37023
G1 X96.133 Y98.516 E0.42509
G1 X96.868 Y98.405 E0.50025
G1 X97.562 Y98.358 E0.57058
G1 X97.963 Y98.348 E0.61114
G1 X131.077 Y98.347 E3.95932
G1 X131.841 Y98.359 E4.03658
G1 X132.659 Y98.419 E4.11951
G1 X133.17 Y98.5 E4.17182
G1 X133.886 Y98.672 E4.24628
G1 X134.52 Y98.882 E4.31381
G1 X135.017 Y99.093 E4.3684
G1 X135.537 Y99.361 E4.42755
G1 X136.144 Y99.737 E4.49975
G1 X136.635 Y100.099 E4.56143
G1 X137.086 Y100.491 E4.62184
G1 X137.476 Y100.885 E4.6779
G1 X137.875 Y101.35 E4.73985
G1 X138.176 Y101.756 E4.79095
G1 X138.567 Y102.381 E4.8655
G1 X138.876 Y102.986 E4.93418
G1 X139.055 Y103.421 E4.98175
G1 X139.236 Y103.967 E5.03991
G1 X139.417 Y104.677 E5.11399
G1 X139.528 Y105.361 E5.18406
G1 X139.577 Y106.004 E5.24926
G1 X139.589 Y106.337 E5.28295
G1 X139.595 Y149.569 E9.65417
G1 X139.575 Y150.544 E9.75278
G1 X139.514 Y151.269 E9.82634
G1 X139.417 Y151.841 E9.885
G1 X139.276 Y152.415 E9.94476
G1 X139.061 Y153.061 E10.01361
G1 X138.828 Y153.61 E10.07391
G1 X138.567 Y154.116 E10.13147
G1 X138.23 Y154.662 E10.19635
G1 X137.859 Y155.166 E10.25963
G1 X137.504 Y155.579 E10.31469
G1 X136.97 Y156.107 E10.39062
G1 X136.504 Y156.497 E10.45206
G1 X136.058 Y156.817 E10.50757
G1 X135.539 Y157.132 E10.56895
G1 X135.032 Y157.391 E10.62652
G1 X134.427 Y157.645 E10.69286
G1 X133.795 Y157.849 E10.76001
G1 X133.142 Y157.998 E10.82773
G1 X132.467 Y158.092 E10.89664
G1 X131.588 Y158.142 E10.98566
G1 X98.316 Y158.147 E14.34982
G1 X97.483 Y158.132 E14.43406
G1 X96.657 Y158.065 E14.51785
G1 X96.091 Y157.969 E14.5759
G1 X95.601 Y157.851 E14.62686
G1 X94.87 Y157.611 E14.70465
G1 X94.371 Y157.399 E14.75947
G1 X93.906 Y157.161 E14.81229
G1 X93.242 Y156.754 E14.89103
G1 X92.807 Y156.436 E14.94552
G1 X92.403 Y156.093 E14.9991
G1 X91.873 Y155.562 E15.07496
G1 X91.507 Y155.131 E15.13213
G1 X91.168 Y154.668 E15.19015
G1 X90.832 Y154.132 E15.25411
G1 X90.512 Y153.503 E15.32547
G1 X90.269 Y152.897 E15.39149
G1 X90.123 Y152.443 E15.43971
G1 X89.957 Y151.767 E15.51009
G1 X89.838 Y150.935 E15.59507
G1 X89.801 Y150.14 E15.67554
G1 X89.795 Y106.897 E20.04787
G1 X89.815 Y105.951 E20.14355
G1 X89.878 Y105.205 E20.21924
G1 X89.979 Y104.625 E20.27877
G1 X90.111 Y104.092 E20.33429
G1 X90.339 Y103.408 E20.40719
G1 X90.54 Y102.937 E20.45897
G1 X90.786 Y102.453 E20.51386
G1 X91.038 Y102.022 E20.56435
G1 X91.56 Y101.292 E20.65509
G1 X91.924 Y100.874 E20.71113
G1 X92.421 Y100.384 E20.7817
G0 F3600 X92.913 Y100.964
G1 F1800 X93.256 Y100.673 E20.82718
G1 X93.769 Y100.301 E20.89125
G1 X94.186 Y100.045 E20.94072
G1 X94.747 Y99.757 E21.00449
G1 X95.149 Y99.588 E21.04858
G1 X95.78 Y99.381 E21.11572
G1 X96.308 Y99.256 E21.17059
G1 X96.92 Y99.163 E21.23318
G1 X97.582 Y99.118 E21.30027
G1 X97.963 Y99.108 E21.3388
G1 X131.065 Y99.107 E24.68577
G1 X131.829 Y99.119 E24.76303
G1 X132.54 Y99.17 E24.83511
G1 X133.051 Y99.251 E24.88742
G1 X133.65 Y99.394 E24.94969
G1 X134.225 Y99.582 E25.01085
G1 X134.671 Y99.77 E25.05979
G1 X135.139 Y100.009 E25.11292
G1 X135.693 Y100.349 E25.17865
G1 X136.184 Y100.711 E25.24033
G1 X136.546 Y101.026 E25.28885
G1 X136.936 Y101.42 E25.3449
G1 X137.264 Y101.803 E25.39589
G1 X137.565 Y102.209 E25.44699
G1 X137.891 Y102.729 E25.50904
G1 X138.174 Y103.278 E25.5715
G1 X138.334 Y103.663 E25.61365
G1 X138.5 Y104.158 E25.66644
G1 X138.667 Y104.802 E25.73371
G1 X138.77 Y105.419 E25.79696
G1 X138.819 Y106.062 E25.86216
G1 X138.829 Y106.337 E25.88998
G1 X138.835 Y149.554 E30.25969
G1 X138.817 Y150.483 E30.35364
G1 X138.764 Y151.145 E30.42079
G1 X138.678 Y151.663 E30.47388
G1 X138.554 Y152.178 E30.52744
G1 X138.361 Y152.766 E30.59002
G1 X138.151 Y153.264 E30.64466
G1 X137.918 Y153.72 E30.69644
G1 X137.618 Y154.211 E30.75462
G1 X137.247 Y154.715 E30.8179
G1 X136.93 Y155.081 E30.86685
G1 X136.48 Y155.526 E30.93084
G1 X136.061 Y155.879 E30.98624
G1 X135.615 Y156.199 E31.04174
G1 X135.147 Y156.481 E31.09699
G1 X134.689 Y156.713 E31.1489
G1 X134.19 Y156.923 E31.20364
G1 X133.623 Y157.109 E31.26397
G1 X133.035 Y157.246 E31.32502
G1 X132.424 Y157.333 E31.38742
G1 X131.545 Y157.383 E31.47644
G1 X98.329 Y157.387 E34.83494
G1 X97.542 Y157.374 E34.91452
G1 X96.781 Y157.315 E34.9917
G1 X96.269 Y157.23 E35.04418
G1 X95.779 Y157.112 E35.09514
G1 X95.165 Y156.911 E35.16046
G1 X94.717 Y156.722 E35.20963
G1 X94.252 Y156.484 E35.26244
G1 X93.691 Y156.14 E35.32898
G1 X93.256 Y155.822 E35.38346
G1 X92.897 Y155.515 E35.43123
G1 X92.451 Y155.069 E35.495
G1 X92.119 Y154.68 E35.54671
G1 X91.81 Y154.261 E35.59935
G1 X91.508 Y153.784 E35.65643
G1 X91.217 Y153.218 E35.72078
G1 X90.993 Y152.664 E35.7812
G1 X90.847 Y152.21 E35.82942
G1 X90.696 Y151.588 E35.89414
G1 X90.597 Y150.899 E35.96452
G1 X90.561 Y150.14 E36.04135
G1 X90.555 Y106.913 E40.41207
G1 X90.575 Y105.967 E40.50774
G1 X90.627 Y105.334 E40.57196
G1 X90.718 Y104.804 E40.62633
G1 X90.833 Y104.33 E40.67565
G1 X91.039 Y103.704 E40.74228
G1 X91.219 Y103.279 E40.78895
G1 X91.442 Y102.837 E40.83901
G1 X91.694 Y102.406 E40.88949
G1 X92.135 Y101.789 E40.96617
G1 X92.459 Y101.414 E41.01628
G1 X92.913 Y100.964 E41.08091
G0 F3600 X93.405 Y101.544
G1 F1800 X93.748 Y101.253 E41.12639
G1 X94.167 Y100.949 E41.17873
G1 X94.584 Y100.693 E41.22821
G1 X95.042 Y100.458 E41.28026
G1 X95.444 Y100.289 E41.32435
G1 X95.959 Y100.12 E41.37915
G1 X96.426 Y100.007 E41.42774
G1 X96.972 Y99.921 E41.48362
G1 X97.603 Y99.878 E41.54757
G1 X97.963 Y99.868 E41.58399
G1 X131.053 Y99.867 E44.92974
G1 X131.817 Y99.879 E45.007
G1 X132.421 Y99.921 E45.06822
G1 X132.932 Y100.002 E45.12053
G1 X133.416 Y100.117 E45.17083
G1 X133.933 Y100.284 E45.22577
G1 X134.325 Y100.447 E45.26869
G1 X134.793 Y100.686 E45.32182
G1 X135.245 Y100.963 E45.37543
G1 X135.687 Y101.286 E45.43078
G1 X136.008 Y101.563 E45.47365
G1 X136.36 Y101.916 E45.52405
G1 X136.653 Y102.256 E45.56943
G1 X136.954 Y102.662 E45.62054
G1 X137.217 Y103.08 E45.67047
G1 X137.473 Y103.572 E45.72655
G1 X137.614 Y103.908 E45.76339
G1 X137.765 Y104.352 E45.81081
G1 X137.917 Y104.927 E45.87095
G1 X138.02 Y105.544 E45.93419
G1 X138.06 Y106.09 E45.98955
G1 X138.069 Y106.337 E46.01454
G1 X138.075 Y149.54 E50.38283
G1 X138.059 Y150.426 E50.47243
G1 X138.014 Y151.023 E50.53296
G1 X137.938 Y151.489 E50.5807
G1 X137.831 Y151.944 E50.62796
G1 X137.66 Y152.473 E50.68418
G1 X137.474 Y152.918 E50.73294
G1 X137.241 Y153.374 E50.78472
G1 X137.004 Y153.763 E50.83078
G1 X136.673 Y154.217 E50.88759
G1 X136.356 Y154.583 E50.93654
G1 X135.988 Y154.947 E50.98888
G1 X135.618 Y155.261 E51.03795
G1 X135.172 Y155.581 E51.09345
G1 X134.801 Y155.804 E51.13722
G1 X134.39 Y156.014 E51.18388
G1 X133.953 Y156.201 E51.23194
G1 X133.386 Y156.387 E51.29228
G1 X132.924 Y156.494 E51.34023
G1 X132.381 Y156.574 E51.39573
G1 X131.502 Y156.624 E51.48475
G1 X98.34 Y156.627 E54.83778
G1 X97.598 Y156.616 E54.91281
G1 X96.905 Y156.565 E54.98307
G1 X96.393 Y156.48 E55.03555
G1 X95.959 Y156.374 E55.08072
G1 X95.458 Y156.21 E55.13402
G1 X95.063 Y156.045 E55.17731
G1 X94.598 Y155.807 E55.23012
G1 X94.14 Y155.526 E55.28445
G1 X93.705 Y155.208 E55.33894
G1 X93.392 Y154.939 E55.38067
G1 X93.028 Y154.575 E55.43272
G1 X92.729 Y154.226 E55.47918
G1 X92.45 Y153.851 E55.52644
G1 X92.184 Y153.436 E55.57628
G1 X91.893 Y152.87 E55.64063
G1 X91.717 Y152.431 E55.68846
G1 X91.571 Y151.977 E55.73667
G1 X91.448 Y151.475 E55.78893
G1 X91.356 Y150.862 E55.85161
G1 X91.321 Y150.14 E55.9247
G1 X91.315 Y106.928 E60.2939
G1 X91.333 Y106.026 E60.38512
G1 X91.377 Y105.46 E60.44252
G1 X91.457 Y104.983 E60.49142
G1 X91.572 Y104.509 E60.54074
G1 X91.74 Y103.998 E60.59513
G1 X91.899 Y103.619 E60.63668
G1 X92.098 Y103.221 E60.68168
G1 X92.35 Y102.79 E60.73216
G1 X92.71 Y102.286 E60.79478
G1 X93.034 Y101.911 E60.84489
G1 X93.405 Y101.544 E60.89766
G1 F300 E60.39766
G1 F600 Z0.6
;MESH:pipe-base-mount-23pt4-test-fit.stl
G0 F3600 X101.262 Y113.035 Z0.6
;TYPE:WALL-INNER
G1 F600 Z0.32
G1 F120 E60.89766
G1 F1800 X101.09 Y113.032 E60.91505
G1 X100.686 Y112.995 E60.95607
G1 X100.47 Y112.953 E60.97832
G1 X100.074 Y112.838 E61.02001
G1 X99.87 Y112.756 E61.04224
G1 X99.507 Y112.568 E61.08358
G1 X99.323 Y112.449 E61.10573
G1 X99.004 Y112.196 E61.1469
G1 X98.855 Y112.054 E61.16771
G1 X98.585 Y111.746 E61.20912
G1 X98.453 Y111.562 E61.23202
G1 X98.251 Y111.208 E61.27323
G1 X98.162 Y111.015 E61.29472
G1 X98.027 Y110.627 E61.33626
G1 X97.981 Y110.449 E61.35485
G1 X97.906 Y109.918 E61.40907
G1 X97.928 Y109.39 E61.4625
G1 X97.959 Y109.167 E61.48527
G1 X98.058 Y108.77 E61.52664
G1 X98.127 Y108.57 E61.54803
G1 X98.297 Y108.197 E61.58948
G1 X98.405 Y108.009 E61.6114
G1 X98.642 Y107.676 E61.65273
G1 X98.752 Y107.545 E61.67002
G1 X99.073 Y107.236 E61.71507
G1 X99.25 Y107.097 E61.73783
G1 X99.6 Y106.874 E61.77979
G1 X99.785 Y106.778 E61.80086
G1 X100.161 Y106.626 E61.84187
G1 X100.374 Y106.563 E61.86433
G1 X100.794 Y106.483 E61.90756
G1 X100.991 Y106.467 E61.92754
G1 X101.4 Y106.467 E61.9689
G1 X101.615 Y106.487 E61.99073
G1 X102.017 Y106.563 E62.0321
G1 X102.231 Y106.627 E62.05468
G1 X102.606 Y106.779 E62.09559
G1 X102.79 Y106.874 E62.11653
G1 X103.14 Y107.097 E62.15849
G1 X103.317 Y107.236 E62.18125
G1 X103.608 Y107.515 E62.22201
G1 X103.746 Y107.675 E62.24337
G1 X103.984 Y108.008 E62.28476
G1 X104.094 Y108.196 E62.30678
G1 X104.264 Y108.57 E62.34832
G1 X104.336 Y108.777 E62.37048
G1 X104.431 Y109.171 E62.41146
G1 X104.461 Y109.383 E62.43311
G1 X104.484 Y109.924 E62.48786
G1 X104.401 Y110.512 E62.5479
G1 X104.196 Y111.109 E62.61173
G1 X103.938 Y111.562 E62.66444
G1 X103.834 Y111.713 E62.68298
G1 X103.536 Y112.054 E62.72877
G1 X103.388 Y112.195 E62.74943
G1 X103.052 Y112.463 E62.79289
G1 X102.88 Y112.571 E62.81343
G1 X102.518 Y112.757 E62.85458
G1 X102.319 Y112.837 E62.87626
G1 X101.893 Y112.961 E62.92112
G1 X101.704 Y112.995 E62.94054
G1 X101.262 Y113.035 E62.98541
G1 F300 E62.48541
G1 F600 Z0.6
G0 F3600 X128.3 Y113.032 Z0.6
G1 F600 Z0.32
G1 F120 E62.98541
G1 F1800 X128.129 Y113.035 E63.00271
G1 X127.686 Y112.995 E63.04768
G1 X127.497 Y112.961 E63.0671
G1 X127.074 Y112.838 E63.11164
G1 X126.87 Y112.756 E63.13387
G1 X126.504 Y112.566 E63.17557
G1 X126.338 Y112.46 E63.19548
G1 X126 Y112.193 E63.23903
G1 X125.855 Y112.054 E63.25934
G1 X125.556 Y111.711 E63.30535
G1 X125.453 Y111.562 E63.32366
G1 X125.194 Y111.106 E63.37669
G1 X124.986 Y110.498 E63.44166
G1 X124.909 Y109.875 E63.50513
G1 X124.927 Y109.391 E63.5541
G1 X124.96 Y109.167 E63.577
G1 X125.058 Y108.77 E63.61834
G1 X125.127 Y108.571 E63.63964
G1 X125.297 Y108.198 E63.68109
G1 X125.406 Y108.009 E63.70315
G1 X125.643 Y107.676 E63.74447
G1 X125.782 Y107.515 E63.76598
G1 X126.073 Y107.236 E63.80674
G1 X126.25 Y107.097 E63.8295
G1 X126.6 Y106.874 E63.87146
G1 X126.785 Y106.778 E63.89253
G1 X127.161 Y106.626 E63.93354
G1 X127.374 Y106.563 E63.956
G1 X127.794 Y106.483 E63.99923
G1 X127.991 Y106.467 E64.01921
G1 X128.4 Y106.467 E64.06057
G1 X128.615 Y106.487 E64.0824
G1 X129.017 Y106.563 E64.12377
G1 X129.231 Y106.627 E64.14635
G1 X129.606 Y106.779 E64.18726
G1 X129.79 Y106.874 E64.2082
G1 X130.14 Y107.097 E64.25016
G1 X130.317 Y107.236 E64.27292
G1 X130.639 Y107.546 E64.31811
G1 X130.746 Y107.674 E64.33498
G1 X130.984 Y108.008 E64.37645
G1 X131.094 Y108.196 E64.39847
G1 X131.264 Y108.57 E64.44001
G1 X131.335 Y108.777 E64.46214
G1 X131.431 Y109.171 E64.50314
G1 X131.461 Y109.383 E64.52479
G1 X131.486 Y109.91 E64.57814
G1 X131.411 Y110.449 E64.63316
G1 X131.364 Y110.627 E64.65177
G1 X131.228 Y111.015 E64.69335
G1 X131.141 Y111.207 E64.71466
G1 X130.937 Y111.561 E64.75597
G1 X130.805 Y111.746 E64.77895
G1 X130.535 Y112.054 E64.82036
G1 X130.388 Y112.195 E64.84096
G1 X130.067 Y112.45 E64.88241
G1 X129.88 Y112.571 E64.90493
G1 X129.521 Y112.756 E64.94576
G1 X129.319 Y112.836 E64.96773
G1 X128.92 Y112.953 E65.00977
G1 X128.704 Y112.995 E65.03202
G1 X128.3 Y113.032 E65.07304
G1 F300 E64.57304
G1 F600 Z0.6
G0 F3600 X114.648 Y141.487 Z0.6
G1 F600 Z0.32
G1 F120 E65.07304
G1 F1800 X113.572 Y141.439 E65.18195
G1 X112.49 Y141.302 E65.29222
G1 X111.481 Y141.091 E65.39645
G1 X110.401 Y140.77 E65.51037
G1 X109.397 Y140.382 E65.6192
G1 X108.463 Y139.929 E65.72416
G1 X107.555 Y139.398 E65.83052
G1 X106.692 Y138.795 E65.93697
G1 X105.795 Y138.049 E66.05493
G1 X105.078 Y137.348 E66.15632
G1 X104.34 Y136.498 E66.27013
G1 X103.731 Y135.669 E66.37414
G1 X103.12 Y134.675 E66.49212
G1 X102.634 Y133.706 E66.60172
G1 X102.228 Y132.705 E66.71094
G1 X101.931 Y131.767 E66.81043
G1 X101.668 Y130.611 E66.9303
G1 X101.529 Y129.647 E67.02878
G1 X101.458 Y128.463 E67.14871
G1 X101.483 Y127.385 E67.25773
G1 X101.595 Y126.323 E67.36571
G1 X101.796 Y125.263 E67.4748
G1 X102.087 Y124.205 E67.58574
G1 X102.453 Y123.207 E67.69322
G1 X102.911 Y122.212 E67.80398
G1 X103.441 Y121.272 E67.91309
G1 X104.031 Y120.398 E68.01971
G1 X104.688 Y119.576 E68.12611
G1 X105.411 Y118.807 E68.23283
G1 X106.202 Y118.091 E68.34071
G1 X107.133 Y117.378 E68.45928
G1 X107.993 Y116.827 E68.56255
G1 X108.946 Y116.319 E68.67174
G1 X109.92 Y115.898 E68.77903
G1 X110.949 Y115.548 E68.88893
G1 X112.061 Y115.273 E69.00475
G1 X113.13 Y115.101 E69.11423
G1 X114.102 Y115.02 E69.21285
G1 X115.289 Y115.02 E69.33287
G1 X116.352 Y115.112 E69.44075
G1 X117.422 Y115.292 E69.55046
G1 X118.442 Y115.548 E69.65679
G1 X119.47 Y115.898 E69.76659
G1 X120.39 Y116.294 E69.86786
G1 X121.393 Y116.825 E69.98261
G1 X122.275 Y117.39 E70.08852
G1 X123.191 Y118.092 E70.20521
G1 X123.98 Y118.807 E70.31287
G1 X124.703 Y119.576 E70.41959
G1 X125.359 Y120.398 E70.52593
G1 X125.999 Y121.351 E70.642
G1 X126.522 Y122.295 E70.75112
G1 X126.938 Y123.207 E70.85247
G1 X127.332 Y124.295 E70.96947
G1 X127.615 Y125.355 E71.0804
G1 X127.807 Y126.414 E71.18922
G1 X127.913 Y127.475 E71.29704
G1 X127.933 Y128.487 E71.39938
G1 X127.861 Y129.646 E71.51679
G1 X127.716 Y130.657 E71.62006
G1 X127.462 Y131.757 E71.73421
G1 X127.163 Y132.704 E71.83462
G1 X126.757 Y133.706 E71.94394
G1 X126.224 Y134.759 E72.06327
G1 X125.663 Y135.664 E72.17093
G1 X125.045 Y136.503 E72.27629
G1 X124.352 Y137.308 E72.38369
G1 X123.583 Y138.061 E72.49251
G1 X122.774 Y138.738 E72.59918
G1 X121.876 Y139.373 E72.71038
G1 X120.926 Y139.93 E72.82173
G1 X119.966 Y140.394 E72.92954
G1 X118.971 Y140.778 E73.03738
G1 X117.91 Y141.091 E73.14923
G1 X116.865 Y141.309 E73.25716
G1 X115.726 Y141.447 E73.37317
G1 X114.648 Y141.487 E73.48224
G1 F300 E72.98224
G1 F600 Z0.6
G0 F3600 X101.3 Y150.032 Z0.6
G1 F600 Z0.32
G1 F120 E73.48224
G1 F1800 X101.09 Y150.032 E73.50347
G1 X100.686 Y149.995 E73.54449
G1 X100.47 Y149.954 E73.56672
G1 X100.074 Y149.838 E73.60845
G1 X99.87 Y149.756 E73.63068
G1 X99.507 Y149.568 E73.67201
G1 X99.323 Y149.449 E73.69417
G1 X98.948 Y149.149 E73.74272
G1 X98.585 Y148.746 E73.79756
G1 X98.453 Y148.562 E73.82046
G1 X98.251 Y148.208 E73.86167
G1 X98.162 Y148.015 E73.88316
G1 X98.027 Y147.627 E73.9247
G1 X97.981 Y147.449 E73.94329
G1 X97.906 Y146.918 E73.99751
G1 X97.928 Y146.39 E74.05094
G1 X97.959 Y146.167 E74.07371
G1 X98.058 Y145.77 E74.11508
G1 X98.127 Y145.57 E74.13647
G1 X98.297 Y145.197 E74.17792
G1 X98.405 Y145.009 E74.19984
G1 X98.642 Y144.676 E74.24116
G1 X98.782 Y144.514 E74.26281
G1 X99.073 Y144.235 E74.30358
G1 X99.25 Y144.097 E74.32627
G1 X99.6 Y143.874 E74.36823
G1 X99.785 Y143.778 E74.3893
G1 X100.161 Y143.626 E74.43031
G1 X100.374 Y143.564 E74.45274
G1 X100.877 Y143.472 E74.50444
G1 X101.4 Y143.467 E74.55733
G1 X101.575 Y143.48 E74.57507
G1 X102.017 Y143.564 E74.62056
G1 X102.214 Y143.62 E74.64127
G1 X102.606 Y143.779 E74.68404
G1 X102.79 Y143.874 E74.70498
G1 X103.182 Y144.125 E74.75204
G1 X103.316 Y144.236 E74.76964
G1 X103.624 Y144.531 E74.81276
