;FLAVOR:Marlin
;TIME:2141
;Filament used: 10.5951m
;Layer height: 0.4
;MINX:77.361
;MINY:80.03
;MINZ:0.4
;MAXX:135.641
;MAXY:128.31
;MAXZ:39.08
;TARGET_MACHINE.NAME:VORON2 250
;Generated with Cura_SteamEngine 5.6.0
M140 S60
M105
M190 S60
M104 S215
M105
M109 S215
M82 ;absolute extrusion mode
START_PRINT
G92 E0
G92 E0
G1 F300 E-0.5
;LAYER_COUNT:97
;LAYER:0
M107
G1 F600 Z0.68
G0 F3600 X79.032 Y82.805 Z0.68
;TYPE:SKIRT
G1 F600 Z0.4
G1 F120 E0
G1 F1800 X80.765 Y81.244 E0.28022
G1 X81.219 Y80.894 E0.3491
G1 X81.783 Y80.582 E0.42654
G1 X82.32 Y80.386 E0.49522
G1 X82.658 Y80.287 E0.53753
G1 X83.048 Y80.194 E0.5857
G1 X83.403 Y80.129 E0.62906
G1 X83.882 Y80.07 E0.68705
G1 X84.406 Y80.041 E0.7501
G1 X85.174 Y80.03 E0.84238
G1 X127.852 Y80.03 E5.96993
G1 X128.599 Y80.042 E6.05969
G1 X129.379 Y80.102 E6.15367
G1 X129.915 Y80.191 E6.21895
G1 X130.504 Y80.336 E6.29183
G1 X131.228 Y80.589 E6.38398
G1 X131.759 Y80.836 E6.45434
G1 X132.321 Y81.158 E6.53216
G1 X132.75 Y81.453 E6.59471
G1 X133.307 Y81.912 E6.68142
G1 X133.666 Y82.265 E6.74191
G1 X134.126 Y82.803 E6.82696
G1 X134.477 Y83.296 E6.89967
G1 X134.814 Y83.874 E6.98005
G1 X135.066 Y84.409 E7.0511
G1 X135.27 Y84.953 E7.12091
G1 X135.44 Y85.565 E7.19722
G1 X135.559 Y86.218 E7.27697
G1 X135.613 Y86.791 E7.34611
G1 X135.629 Y87.096 E7.38281
G1 X135.64 Y87.916 E7.48134
G1 X135.641 Y120.52 E11.39854
G1 X135.629 Y121.274 E11.48914
G1 X135.569 Y122.056 E11.58337
G1 X135.466 Y122.66 E11.65699
G1 X135.321 Y123.226 E11.72719
G1 X135.123 Y123.796 E11.79968
G1 X134.879 Y124.342 E11.87153
G1 X134.513 Y124.989 E11.96084
G1 X134.168 Y125.484 E12.03333
G1 X133.749 Y125.986 E12.1119
G1 X133.347 Y126.389 E12.18028
G1 X132.853 Y126.808 E12.25811
G1 X132.367 Y127.151 E12.32958
G1 X131.799 Y127.482 E12.40856
G1 X131.279 Y127.727 E12.47762
G1 X130.673 Y127.951 E12.55525
G1 X130.092 Y128.11 E12.62762
G1 X129.425 Y128.231 E12.70906
G1 X128.879 Y128.281 E12.77494
G1 X128.593 Y128.296 E12.80934
G1 X127.732 Y128.309 E12.9128
G1 X85.149 Y128.31 E18.02893
G1 X84.417 Y128.298 E18.11689
G1 X83.599 Y128.235 E18.21546
G1 X83.039 Y128.141 E18.28368
G1 X82.414 Y127.98 E18.36122
G1 X81.798 Y127.759 E18.43985
G1 X81.264 Y127.514 E18.51044
G1 X80.682 Y127.182 E18.59094
G1 X80.24 Y126.877 E18.65546
G1 X79.685 Y126.416 E18.74214
G1 X79.276 Y126.008 E18.81155
G1 X78.85 Y125.505 E18.89075
G1 X78.517 Y125.03 E18.96044
G1 X78.193 Y124.475 E19.03765
G1 X77.939 Y123.936 E19.10924
G1 X77.712 Y123.319 E19.18823
G1 X77.559 Y122.757 E19.25821
G1 X77.44 Y122.097 E19.33878
G1 X77.39 Y121.55 E19.40478
G1 X77.375 Y121.264 E19.43919
G1 X77.362 Y120.402 E19.54276
G1 X77.361 Y87.865 E23.45192
G1 X77.378 Y86.958 E23.56091
G1 X77.421 Y86.365 E23.63234
G1 X77.479 Y85.978 E23.67936
G1 X77.576 Y85.508 E23.73701
G1 X77.75 Y84.904 E23.81253
G1 X77.948 Y84.379 E23.87995
G1 X78.19 Y83.855 E23.94929
G1 X78.548 Y83.319 E24.02673
G1 X79.032 Y82.805 E24.11156
G0 F3600 X79.541 Y83.369
G1 F1800 X81.229 Y81.846 E24.38471
G1 X81.64 Y81.529 E24.44707
G1 X82.095 Y81.278 E24.5095
G1 X82.535 Y81.115 E24.56587
G1 X82.836 Y81.026 E24.60359
G1 X83.185 Y80.942 E24.64671
G1 X83.54 Y80.877 E24.69007
G1 X83.925 Y80.829 E24.73669
G1 X84.417 Y80.801 E24.7959
G1 X85.185 Y80.79 E24.88818
G1 X127.841 Y80.79 E30.01308
G1 X128.544 Y80.8 E30.09755
G1 X129.255 Y80.852 E30.1832
G1 X129.791 Y80.941 E30.24848
G1 X130.32 Y81.073 E30.31398
G1 X130.911 Y81.28 E30.38922
G1 X131.384 Y81.497 E30.45174
G1 X131.89 Y81.784 E30.52163
G1 X132.319 Y82.079 E30.58419
G1 X132.774 Y82.454 E30.65503
G1 X133.133 Y82.807 E30.71552
G1 X133.509 Y83.246 E30.78496
G1 X133.822 Y83.682 E30.84945
G1 X134.128 Y84.201 E30.92183
G1 X134.354 Y84.676 E30.98503
G1 X134.558 Y85.22 E31.05483
G1 X134.693 Y85.704 E31.1152
G1 X134.802 Y86.29 E31.18682
G1 X134.854 Y86.833 E31.25235
G1 X134.869 Y87.106 E31.2852
G1 X134.88 Y87.916 E31.38253
G1 X134.881 Y120.509 E35.29841
G1 X134.871 Y121.219 E35.38372
G1 X134.819 Y121.932 E35.46962
G1 X134.729 Y122.475 E35.53574
G1 X134.603 Y122.977 E35.59793
G1 X134.405 Y123.547 E35.67042
G1 X134.187 Y124.029 E35.73398
G1 X133.888 Y124.557 E35.80688
G1 X133.582 Y125 E35.87157
G1 X133.208 Y125.452 E35.94206
G1 X132.854 Y125.811 E36.00263
G1 X132.411 Y126.189 E36.0726
G1 X131.981 Y126.496 E36.13608
G1 X131.472 Y126.796 E36.20706
G1 X131.013 Y127.015 E36.26816
G1 X130.468 Y127.219 E36.33808
G1 X129.953 Y127.363 E36.40233
G1 X129.355 Y127.474 E36.4754
G1 X128.838 Y127.522 E36.53778
G1 X128.581 Y127.536 E36.5687
G1 X127.732 Y127.549 E36.67072
G1 X85.16 Y127.55 E41.78553
G1 X84.473 Y127.54 E41.86808
G1 X83.725 Y127.485 E41.95819
G1 X83.165 Y127.391 E42.02641
G1 X82.667 Y127.263 E42.08819
G1 X82.112 Y127.067 E42.1589
G1 X81.638 Y126.852 E42.22144
G1 X81.114 Y126.556 E42.29374
G1 X80.672 Y126.251 E42.35826
G1 X80.219 Y125.875 E42.42899
G1 X79.854 Y125.515 E42.49059
G1 X79.47 Y125.065 E42.56166
G1 X79.172 Y124.645 E42.62354
G1 X78.879 Y124.147 E42.69296
G1 X78.651 Y123.67 E42.75647
G1 X78.444 Y123.116 E42.82753
G1 X78.306 Y122.619 E42.8895
G1 X78.197 Y122.027 E42.96182
G1 X78.149 Y121.509 E43.02432
G1 X78.135 Y121.252 E43.05525
G1 X78.122 Y120.402 E43.15738
G1 X78.121 Y87.879 E47.06485
G1 X78.138 Y86.972 E47.17385
G1 X78.173 Y86.478 E47.23335
G1 X78.231 Y86.091 E47.28036
G1 X78.32 Y85.663 E47.33288
G1 X78.462 Y85.17 E47.39452
G1 X78.638 Y84.698 E47.45505
G1 X78.856 Y84.227 E47.5174
G1 X79.145 Y83.794 E47.57995
G1 X79.541 Y83.369 E47.64974
G1 F300 E47.14974
G1 F600 Z0.68
;MESH:pipe-base-mount-23pt4-40x50x39.stl
G0 F3600 X123.574 Y94.815 Z0.68
;TYPE:WALL-OUTER
G1 F600 Z0.4
G1 F120 E47.64974
G1 F1800 X124.123 Y94.767 E47.71325
G1 X124.642 Y94.607 E47.77584
G1 X125.107 Y94.357 E47.83668
G1 X125.502 Y94.032 E47.89562
G1 X126.936 Y92.598 E48.12933
G1 X127.276 Y92.184 E48.19107
G1 X127.537 Y91.677 E48.25678
G1 X127.683 Y91.189 E48.31548
G1 X127.731 Y90.667 E48.37589
G1 X127.683 Y90.138 E48.43711
G1 X127.522 Y89.616 E48.50006
G1 X127.272 Y89.151 E48.5609
G1 X126.899 Y88.708 E48.62764
G1 X126.518 Y88.397 E48.68431
G1 X126.009 Y88.134 E48.75034
G1 X125.53 Y87.988 E48.80805
G1 X125.033 Y87.942 E48.86557
G1 X124.467 Y87.988 E48.93101
G1 X123.949 Y88.148 E48.99349
G1 X123.454 Y88.422 E49.05869
G1 X123.089 Y88.723 E49.11321
G1 X121.631 Y90.182 E49.35091
G1 X121.314 Y90.57 E49.40865
G1 X121.081 Y91.012 E49.46623
G1 X120.908 Y91.553 E49.53168
G1 X120.86 Y92.072 E49.59175
G1 X120.908 Y92.622 E49.65537
G1 X121.078 Y93.158 E49.72017
G1 X121.329 Y93.617 E49.78046
G1 X121.651 Y94.009 E49.83892
G1 X122.07 Y94.356 E49.90162
G1 X122.524 Y94.598 E49.9609
G1 X123.052 Y94.764 E50.02469
G1 X123.574 Y94.815 E50.08513
G0 F3600 X123.375 Y94.796
G1 F300 E49.58513
G1 F600 Z0.68
G0 F3600 X124.965 Y120.398 Z0.68
G1 F600 Z0.4
G1 F120 E50.08513
G1 F1800 X125.532 Y120.352 E50.15069
G1 X126.051 Y120.193 E50.21324
G1 X126.546 Y119.919 E50.27844
G1 X126.935 Y119.598 E50.33656
G1 X127.29 Y119.156 E50.40189
G1 X127.525 Y118.719 E50.45907
G1 X127.682 Y118.193 E50.52233
G1 X127.731 Y117.67 E50.58287
G1 X127.683 Y117.14 E50.6442
G1 X127.525 Y116.619 E50.70694
G1 X127.29 Y116.183 E50.76402
G1 X126.937 Y115.738 E50.82947
G1 X126.52 Y115.398 E50.89148
G1 X126.016 Y115.136 E50.95694
G1 X125.534 Y114.989 E51.01501
G1 X125.037 Y114.942 E51.07254
G1 X124.496 Y114.986 E51.13509
G1 X123.987 Y115.136 E51.19624
G1 X123.508 Y115.385 E51.25846
G1 X123.084 Y115.724 E51.32102
G1 X122.736 Y116.145 E51.38396
G1 X122.478 Y116.625 E51.44676
G1 X122.32 Y117.149 E51.50983
G1 X122.272 Y117.689 E51.57231
G1 X122.32 Y118.201 E51.63157
G1 X122.479 Y118.722 E51.69435
G1 X122.753 Y119.216 E51.75945
G1 X123.066 Y119.598 E51.81636
G1 X123.457 Y119.919 E51.87466
G1 X123.95 Y120.193 E51.93966
G1 X124.469 Y120.351 E52.00218
G1 X124.965 Y120.398 E52.05959
G0 F3600 X124.766 Y120.38
G1 F300 E51.55959
G1 F600 Z0.68
G0 F3600 X106.103 Y116.543 Z0.68
G1 F600 Z0.4
G1 F120 E52.05959
G1 F1800 X107.237 Y116.529 E52.19029
G1 X108.284 Y116.421 E52.31158
G1 X109.352 Y116.219 E52.43684
G1 X110.422 Y115.913 E52.56509
G1 X111.428 Y115.527 E52.68927
G1 X112.415 Y115.047 E52.81575
G1 X113.36 Y114.477 E52.94293
G1 X114.256 Y113.821 E53.0709
G1 X115.06 Y113.118 E53.19398
G1 X115.809 Y112.334 E53.31893
G1 X116.514 Y111.453 E53.44896
G1 X117.107 Y110.556 E53.57288
G1 X117.626 Y109.602 E53.69804
G1 X118.056 Y108.618 E53.82179
G1 X118.407 Y107.564 E53.94981
G1 X118.663 Y106.483 E54.07783
G1 X118.82 Y105.399 E54.20406
G1 X118.881 Y104.333 E54.3271
G1 X118.847 Y103.231 E54.45416
G1 X118.717 Y102.149 E54.57975
G1 X118.493 Y101.085 E54.70505
G1 X118.171 Y100.029 E54.83228
G1 X117.76 Y99.023 E54.95751
G1 X117.28 Y98.076 E55.07986
G1 X116.678 Y97.119 E55.21016
G1 X116.032 Y96.268 E55.33328
G1 X115.29 Y95.452 E55.46038
G1 X114.475 Y94.698 E55.58833
G1 X113.619 Y94.039 E55.71283
G1 X112.683 Y93.444 E55.84064
G1 X111.732 Y92.949 E55.96419
G1 X110.721 Y92.532 E56.09022
G1 X109.689 Y92.207 E56.21491
G1 X108.608 Y91.97 E56.34244
G1 X107.539 Y91.833 E56.46664
G1 X106.441 Y91.79 E56.59328
G1 X105.356 Y91.842 E56.71846
G1 X104.268 Y91.991 E56.84501
G1 X103.219 Y92.231 E56.96902
G1 X102.17 Y92.572 E57.09614
G1 X101.155 Y93.003 E57.22321
G1 X100.195 Y93.516 E57.34865
G1 X99.289 Y94.106 E57.47325
G1 X98.414 Y94.795 E57.60159
G1 X97.73 Y95.44 E57.70993
G1 X97.427 Y95.461 E57.74494
G1 X84.784 Y85.349 E59.61062
G1 X128.473 Y85.349 E64.64539
G1 X128.85 Y85.385 E64.68903
G1 X129.178 Y85.483 E64.72848
G1 X129.479 Y85.638 E64.7675
G1 X129.793 Y85.886 E64.81361
G1 X130.011 Y86.15 E64.85307
G1 X130.187 Y86.494 E64.8976
G1 X130.285 Y86.823 E64.93716
G1 X130.321 Y87.198 E64.98057
G1 X130.321 Y121.143 E68.89243
G1 X130.285 Y121.519 E68.93596
G1 X130.188 Y121.846 E68.97526
G1 X130.032 Y122.148 E69.01444
G1 X129.792 Y122.453 E69.05916
G1 X129.518 Y122.681 E69.10024
G1 X129.178 Y122.856 E69.14431
G1 X128.849 Y122.953 E69.18384
G1 X128.473 Y122.99 E69.22738
G1 X84.529 Y122.991 E74.29153
G1 X84.153 Y122.954 E74.33507
G1 X83.828 Y122.858 E74.37412
G1 X83.516 Y122.698 E74.41453
G1 X83.215 Y122.46 E74.45875
G1 X82.994 Y122.192 E74.49878
G1 X82.815 Y121.844 E74.54388
G1 X82.718 Y121.517 E74.58319
G1 X82.681 Y121.142 E74.62661
G1 X82.682 Y87.194 E78.53881
G1 X82.709 Y86.861 E78.57731
G1 X82.771 Y86.633 E78.60454
G1 X96.014 Y97.226 E80.55885
G1 X96.06 Y97.528 E80.59406
G1 X95.586 Y98.326 E80.70102
G1 X95.116 Y99.306 E80.82627
G1 X94.729 Y100.339 E80.9534
G1 X94.438 Y101.387 E81.07874
G1 X94.235 Y102.503 E81.20946
G1 X94.137 Y103.548 E81.33041
G1 X94.13 Y104.639 E81.45614
G1 X94.221 Y105.732 E81.58254
G1 X94.403 Y106.8 E81.70739
G1 X94.691 Y107.883 E81.83653
G1 X95.06 Y108.9 E81.96121
G1 X95.513 Y109.875 E82.0851
G1 X96.078 Y110.85 E82.21497
G1 X96.705 Y111.74 E82.34043
G1 X97.406 Y112.571 E82.46571
G1 X98.178 Y113.333 E82.59072
G1 X99.012 Y114.028 E82.71583
G1 X99.897 Y114.643 E82.84002
G1 X100.858 Y115.189 E82.9674
G1 X101.888 Y115.658 E83.09782
G1 X102.88 Y116.01 E83.21912
G1 X103.947 Y116.283 E83.34605
G1 X105.021 Y116.461 E83.4715
G1 X106.103 Y116.543 E83.59655
G0 F3600 X105.904 Y116.528
G1 F300 E83.09655
G1 F600 Z0.68
G0 F3600 X88.041 Y120.398 Z0.68
G1 F600 Z0.4
G1 F120 E83.59655
G1 F1800 X88.539 Y120.35 E83.65421
G1 X89.054 Y120.191 E83.71632
G1 X89.552 Y119.915 E83.78194
G1 X89.933 Y119.6 E83.83891
G1 X91.309 Y118.221 E84.06341
G1 X91.644 Y117.813 E84.12424
G1 X91.907 Y117.302 E84.19047
G1 X92.056 Y116.794 E84.25148
G1 X92.1 Y116.285 E84.31036
G1 X92.043 Y115.733 E84.37431
G1 X91.892 Y115.241 E84.43362
G1 X91.635 Y114.771 E84.49535
G1 X91.305 Y114.368 E84.55538
G1 X90.876 Y114.018 E84.61918
G1 X90.412 Y113.772 E84.6797
G1 X89.891 Y113.614 E84.74244
G1 X89.345 Y113.567 E84.8056
G1 X88.834 Y113.616 E84.86476
G1 X88.318 Y113.774 E84.92695
G1 X87.851 Y114.026 E84.9881
G1 X87.458 Y114.35 E85.0468
G1 X86.045 Y115.765 E85.27724
G1 X85.726 Y116.154 E85.33522
G1 X85.493 Y116.597 E85.3929
G1 X85.319 Y117.14 E85.45861
G1 X85.273 Y117.71 E85.52451
G1 X85.321 Y118.207 E85.58205
G1 X85.47 Y118.69 E85.6403
G1 X85.73 Y119.188 E85.70504
G1 X86.076 Y119.608 E85.76775
G1 X86.487 Y119.945 E85.829
G1 X86.929 Y120.178 E85.88658
G1 X87.472 Y120.352 E85.95229
G1 X88.041 Y120.398 E86.01808
G0 F3600 X87.842 Y120.382
G1 F300 E85.51808
G1 F600 Z0.68
G0 F3600 X128.507 Y91.335 Z0.68
;TYPE:SKIN
G1 F600 Z0.4
G1 F120 E86.01808
G1 F1411.8 X128.549 Y90.667 E86.12061
G1 F1501.6 X128.511 Y90.05 E86.20964
G1 F1678.5 X128.172 Y89.296 E86.31615
G1 F1800 X127.896 Y88.784 E86.38603
G1 X127.439 Y88.215 E86.47371
G1 X126.922 Y87.792 E86.55397
G1 X126.348 Y87.489 E86.63195
G1 F1678.5 X125.618 Y87.16 E86.73511
G1 F1500 X124.999 Y87.122 E86.82453
G1 F1408.9 X124.33 Y87.165 E86.92743
G1 F1565.2 X123.64 Y87.494 E87.03305
G1 F1800 X123.079 Y87.794 E87.10948
G1 X122.57 Y88.22 E87.18923
G1 X121.147 Y89.642 E87.43092
G1 X120.716 Y90.16 E87.51188
G1 X120.41 Y90.738 E87.59046
G1 X120.203 Y91.389 E87.67253
G1 X120.135 Y92.074 E87.75524
G1 X120.199 Y92.762 E87.83825
G1 X120.395 Y93.395 E87.91787
G1 X120.724 Y94.02 E88.00273
G1 X121.148 Y94.533 E88.08269
G1 X121.666 Y94.962 E88.16349
G1 X122.308 Y95.292 E88.25022
G1 X122.895 Y95.47 E88.32392
G1 X123.522 Y95.535 E88.39965
G1 X124.259 Y95.481 E88.48844
G1 X124.929 Y95.275 E88.57265
G1 X125.48 Y94.977 E88.64791
G1 X125.965 Y94.586 E88.72276
G1 X127.472 Y93.083 E88.97848
G1 X127.874 Y92.595 E89.05444
G1 X128.186 Y92.007 E89.13441
G1 F1567 X128.507 Y91.335 E89.23719
G1 F300 E88.73719
G1 F600 Z0.68
G0 F3600 X125.002 Y122.172 Z0.68
G1 F600 Z0.4
G1 F120 E89.23719
G1 F1414.7 X124.324 Y122.158 E89.34086
G1 F1572.4 X123.498 Y122.268 E89.45547
G1 F1795.3 X89.498 Y122.267 E93.55114
G1 F1561.6 X88.76 Y122.155 E93.65451
G1 F1408.9 X88.003 Y122.172 E93.77074
G1 F1414.7 X87.333 Y122.158 E93.87319
G1 F1572.4 X86.506 Y122.268 E93.98793
G1 F1800 X84.574 Y122.269 E94.22005
G1 X84.287 Y122.24 E94.25471
G1 X84.1 Y122.184 E94.27816
G1 X83.902 Y122.084 E94.30481
G1 X83.721 Y121.94 E94.3326
G1 X83.604 Y121.799 E94.35461
G1 X83.487 Y121.569 E94.38562
G1 X83.432 Y121.384 E94.4088
G1 X83.403 Y121.096 E94.44358
G1 F1797.6 X83.405 Y119.169 E94.67541
G1 F1563.4 X83.517 Y118.428 E94.77907
G1 F1408.9 X83.501 Y117.756 E94.88225
G1 F1414.7 X83.514 Y116.99 E94.99936
G1 F1572.4 X83.404 Y116.176 E95.11233
G1 F1800 X83.405 Y88.065 E98.48973
G1 X95.225 Y97.52 E100.30829
G1 X94.919 Y98.04 E100.38078
G1 X94.463 Y98.999 E100.50836
G1 X94.042 Y100.117 E100.65189
G1 X93.74 Y101.2 E100.78697
G1 X93.524 Y102.377 E100.93074
G1 X93.418 Y103.477 E101.06351
G1 X93.411 Y104.749 E101.21634
G1 X93.501 Y105.794 E101.34235
G1 X93.697 Y106.959 E101.48429
G1 X93.987 Y108.05 E101.61992
G1 X94.388 Y109.164 E101.76217
G1 X94.887 Y110.235 E101.90412
G1 X95.471 Y111.243 E102.04409
G1 X96.129 Y112.175 E102.18116
G1 X96.867 Y113.053 E102.31896
G1 X97.717 Y113.892 E102.46245
G1 X98.587 Y114.614 E102.59828
G1 X99.541 Y115.272 E102.73752
G1 X100.526 Y115.831 E102.87359
G1 X101.62 Y116.328 E103.01796
G1 X102.639 Y116.692 E103.14796
G1 X103.836 Y116.998 E103.2964
G1 X104.89 Y117.172 E103.42475
G1 X106.042 Y117.263 E103.56359
G1 X107.311 Y117.248 E103.71606
G1 X108.357 Y117.14 E103.8424
G1 X109.535 Y116.918 E103.98642
G1 X110.632 Y116.604 E104.12352
G1 X111.74 Y116.179 E104.26609
G1 X112.729 Y115.698 E104.39822
G1 X113.798 Y115.053 E104.54823
G1 X114.659 Y114.423 E104.67641
G1 X115.571 Y113.63 E104.82161
G1 X116.378 Y112.779 E104.96251
G1 X117.092 Y111.885 E105.09997
G1 X117.723 Y110.932 E105.2373
G1 X118.277 Y109.915 E105.37644
G1 X118.732 Y108.874 E105.51293
G1 X119.087 Y107.809 E105.64781
G1 X119.375 Y106.604 E105.79666
G1 X119.538 Y105.475 E105.93371
G1 X119.603 Y104.328 E106.07174
G1 X119.569 Y103.211 E106.206
G1 X119.434 Y102.061 E106.34512
G1 X119.193 Y100.905 E106.48699
G1 X118.859 Y99.804 E106.62522
G1 X118.422 Y98.732 E106.76431
G1 X117.921 Y97.741 E106.89772
G1 X117.248 Y96.673 E107.04939
G1 X116.594 Y95.814 E107.1791
G1 X115.82 Y94.96 E107.31757
G1 X114.947 Y94.151 E107.46057
G1 X114.028 Y93.442 E107.60003
G1 X113.084 Y92.842 E107.73441
G1 X111.993 Y92.274 E107.88219
G1 X110.929 Y91.839 E108.0203
G1 X109.913 Y91.519 E108.14828
G1 X108.691 Y91.251 E108.29858
G1 X107.637 Y91.116 E108.42625
G1 X106.404 Y91.068 E108.5745
G1 X105.318 Y91.12 E108.70513
