;FLAVOR:Marlin
;TIME:1281
;Filament used: 1.68254m
;Layer height: 0.24
;MINX:24.716
;MINY:54.165
;MINZ:0.2
;MAXX:166.384
;MAXY:195.833
;MAXZ:0.96
;Generated with Cura_SteamEngine 5.0.0
M140 S60
M105
M190 S60
M104 S220
M105
M109 S220
M82 ;absolute extrusion mode
START_PRINT
G92 E0
G92 E0
G1 F300 E-0.5
;LAYER_COUNT:3
;LAYER:0
M107
G1 F600 Z0.48
G0 F7200 X131.396 Y55.672 Z0.48
;TYPE:SKIRT
G1 F600 Z0.2
G1 F120 E0
G1 F1800 X131.877 Y55.204 E0.02511
G1 X132.292 Y54.856 E0.04538
G1 X132.754 Y54.572 E0.06567
G1 X133.253 Y54.36 E0.08596
G1 X133.777 Y54.223 E0.10622
G1 X134.316 Y54.165 E0.12651
G1 X134.857 Y54.187 E0.14677
G1 X135.389 Y54.288 E0.16703
G1 X135.901 Y54.466 E0.18731
G1 X136.381 Y54.717 E0.20758
G1 X136.962 Y55.165 E0.23503
G1 X137.268 Y55.455 E0.2508
G1 X164.877 Y83.065 E1.7118
G1 X165.345 Y83.546 E1.73692
G1 X165.693 Y83.961 E1.75718
G1 X165.977 Y84.423 E1.77747
G1 X166.189 Y84.922 E1.79776
G1 X166.326 Y85.446 E1.81802
G1 X166.384 Y85.985 E1.83831
G1 X166.362 Y86.526 E1.85857
G1 X166.261 Y87.058 E1.87883
G1 X166.083 Y87.57 E1.89911
G1 X165.832 Y88.05 E1.91938
G1 X165.386 Y88.628 E1.9467
G1 X165.1 Y88.931 E1.96229
G1 X59.699 Y194.33 E7.53969
G1 X59.208 Y194.804 E7.56523
G1 X58.792 Y195.151 E7.5855
G1 X58.329 Y195.432 E7.60577
G1 X57.83 Y195.643 E7.62604
G1 X57.305 Y195.777 E7.64631
G1 X56.766 Y195.833 E7.66659
G1 X56.225 Y195.81 E7.68685
G1 X55.693 Y195.706 E7.70713
G1 X55.182 Y195.526 E7.7274
G1 X54.703 Y195.273 E7.74767
G1 X54.127 Y194.826 E7.77495
G1 X53.823 Y194.537 E7.79065
G1 X26.213 Y166.925 E9.25173
G1 X25.747 Y166.443 E9.27681
G1 X25.4 Y166.027 E9.29708
G1 X25.118 Y165.564 E9.31737
G1 X24.907 Y165.065 E9.33764
G1 X24.772 Y164.54 E9.35792
G1 X24.716 Y164.002 E9.37816
G1 X24.739 Y163.46 E9.39846
G1 X24.842 Y162.928 E9.41874
G1 X25.022 Y162.417 E9.43901
G1 X25.275 Y161.938 E9.45928
G1 X25.713 Y161.37 E9.48612
G1 X25.998 Y161.069 E9.50163
G1 X131.396 Y55.672 E15.0789
G0 F7200 X131.71 Y55.995
G1 F1800 X132.191 Y55.527 E15.10401
G1 X132.582 Y55.202 E15.12304
G1 X133.018 Y54.943 E15.14201
G1 X133.49 Y54.756 E15.16101
G1 X133.985 Y54.645 E15.17999
G1 X134.492 Y54.613 E15.199
G1 X134.997 Y54.661 E15.21798
G1 X135.488 Y54.788 E15.23696
G1 X135.954 Y54.99 E15.25596
G1 X136.382 Y55.263 E15.27496
G1 X136.653 Y55.492 E15.28823
G1 X136.949 Y55.774 E15.30353
G1 X164.554 Y83.379 E16.76429
G1 X165.022 Y83.86 E16.7894
G1 X165.347 Y84.251 E16.80843
G1 X165.606 Y84.687 E16.8274
G1 X165.793 Y85.159 E16.8464
G1 X165.904 Y85.654 E16.86538
G1 X165.936 Y86.161 E16.88439
G1 X165.888 Y86.666 E16.90337
G1 X165.761 Y87.157 E16.92235
G1 X165.559 Y87.623 E16.94135
G1 X165.286 Y88.051 E16.96035
G1 X165.059 Y88.32 E16.97352
G1 X164.781 Y88.612 E16.9886
G1 X59.387 Y194.006 E22.56569
G1 X58.896 Y194.48 E22.59123
G1 X58.504 Y194.803 E22.61023
G1 X58.067 Y195.06 E22.6292
G1 X57.594 Y195.246 E22.64822
G1 X57.098 Y195.355 E22.66722
G1 X56.592 Y195.384 E22.68618
G1 X56.087 Y195.334 E22.70517
G1 X55.596 Y195.206 E22.72416
G1 X55.131 Y195.002 E22.74316
G1 X54.704 Y194.727 E22.76216
G1 X54.436 Y194.5 E22.77531
G1 X54.202 Y194.278 E22.78737
G1 X26.536 Y166.613 E24.25134
G1 X26.07 Y166.131 E24.27642
G1 X25.747 Y165.739 E24.29543
G1 X25.49 Y165.302 E24.3144
G1 X25.304 Y164.829 E24.33342
G1 X25.195 Y164.334 E24.35238
G1 X25.165 Y163.827 E24.37139
G1 X25.214 Y163.322 E24.39037
G1 X25.342 Y162.831 E24.40936
G1 X25.546 Y162.366 E24.42836
G1 X25.82 Y161.939 E24.44734
G1 X26.041 Y161.679 E24.46011
G1 X26.317 Y161.388 E24.47512
G1 X131.71 Y55.995 E30.05215
G1 F300 E29.55215
G1 F600 Z0.48
;MESH:test-v1-label-panel.stl
G0 F7200 X28.661 Y163.891 Z0.48
;TYPE:SKIN
G1 F600 Z0.2
G1 F120 E30.05215
G1 F1800 X56.658 Y191.888 E31.53365
G1 X162.437 Y86.109 E37.13111
G1 X134.44 Y58.112 E38.61262
G1 X28.661 Y163.891 E44.21008
G1 F300 E43.71008
G1 F600 Z0.48
G0 F7200 X56.973 Y191.253 Z0.48
G1 F600 Z0.2
G1 F120 E44.21008
G1 F1800 X29.294 Y163.574 E45.67476
G0 F7200 X29.612 Y163.256
G1 F1800 X57.291 Y190.935 E47.13943
G0 F7200 X57.61 Y190.616
G1 F1800 X29.931 Y162.937 E48.60411
G0 F7200 X30.249 Y162.619
G1 F1800 X57.928 Y190.298 E50.06879
G0 F7200 X58.246 Y189.98
G1 F1800 X30.567 Y162.301 E51.53346
G0 F7200 X30.885 Y161.983
G1 F1800 X58.564 Y189.662 E52.99814
G0 F7200 X58.882 Y189.344
G1 F1800 X31.203 Y161.665 E54.46282
G0 F7200 X31.522 Y161.346
G1 F1800 X59.201 Y189.025 E55.9275
G0 F7200 X59.519 Y188.707
G1 F1800 X31.84 Y161.028 E57.39217
G0 F7200 X32.158 Y160.71
G1 F1800 X59.837 Y188.389 E58.85685
G0 F7200 X60.155 Y188.071
G1 F1800 X32.476 Y160.392 E60.32153
G0 F7200 X32.794 Y160.074
G1 F1800 X60.473 Y187.753 E61.7862
G0 F7200 X60.792 Y187.434
G1 F1800 X33.113 Y159.755 E63.25088
G0 F7200 X33.431 Y159.437
G1 F1800 X61.11 Y187.116 E64.71556
G0 F7200 X61.428 Y186.798
G1 F1800 X33.749 Y159.119 E66.18024
G0 F7200 X34.067 Y158.801
G1 F1800 X61.746 Y186.48 E67.64491
G0 F7200 X62.064 Y186.162
G1 F1800 X34.385 Y158.483 E69.10959
G0 F7200 X34.704 Y158.164
G1 F1800 X62.383 Y185.843 E70.57427
G0 F7200 X62.701 Y185.525
G1 F1800 X35.022 Y157.846 E72.03895
G0 F7200 X35.34 Y157.528
G1 F1800 X63.019 Y185.207 E73.50362
G0 F7200 X63.337 Y184.889
G1 F1800 X35.658 Y157.21 E74.9683
G0 F7200 X35.976 Y156.892
G1 F1800 X63.655 Y184.571 E76.43298
G0 F7200 X63.974 Y184.252
G1 F1800 X36.295 Y156.573 E77.89765
G0 F7200 X36.613 Y156.255
G1 F1800 X64.292 Y183.934 E79.36233
G0 F7200 X64.61 Y183.616
G1 F1800 X36.931 Y155.937 E80.82701
G0 F7200 X37.249 Y155.619
G1 F1800 X64.928 Y183.298 E82.29169
G0 F7200 X65.246 Y182.98
G1 F1800 X37.567 Y155.301 E83.75636
G0 F7200 X37.886 Y154.982
G1 F1800 X65.565 Y182.661 E85.22104
G0 F7200 X65.883 Y182.343
G1 F1800 X38.204 Y154.664 E86.68572
G0 F7200 X38.522 Y154.346
G1 F1800 X66.201 Y182.025 E88.15039
G0 F7200 X66.519 Y181.707
G1 F1800 X38.84 Y154.028 E89.61507
G0 F7200 X39.158 Y153.71
G1 F1800 X66.837 Y181.389 E91.07975
G0 F7200 X67.156 Y181.07
G1 F1800 X39.477 Y153.391 E92.54443
G0 F7200 X39.795 Y153.073
G1 F1800 X67.474 Y180.752 E94.0091
G0 F7200 X67.792 Y180.434
G1 F1800 X40.113 Y152.755 E95.47378
G0 F7200 X40.431 Y152.437
G1 F1800 X68.11 Y180.116 E96.93846
G0 F7200 X68.428 Y179.798
G1 F1800 X40.749 Y152.119 E98.40314
G0 F7200 X41.068 Y151.8
G1 F1800 X68.747 Y179.479 E99.86781
G0 F7200 X69.065 Y179.161
G1 F1800 X41.386 Y151.482 E101.33249
G0 F7200 X41.704 Y151.164
G1 F1800 X69.383 Y178.843 E102.79717
G0 F7200 X69.701 Y178.525
G1 F1800 X42.022 Y150.846 E104.26184
G0 F7200 X42.34 Y150.528
G1 F1800 X70.019 Y178.207 E105.72652
G0 F7200 X70.338 Y177.888
G1 F1800 X42.659 Y150.209 E107.1912
G0 F7200 X42.977 Y149.891
G1 F1800 X70.656 Y177.57 E108.65588
G0 F7200 X70.974 Y177.252
G1 F1800 X43.295 Y149.573 E110.12055
G0 F7200 X43.613 Y149.255
G1 F1800 X71.292 Y176.934 E111.58523
G0 F7200 X71.61 Y176.616
G1 F1800 X43.931 Y148.937 E113.04991
G0 F7200 X44.25 Y148.618
G1 F1800 X71.929 Y176.297 E114.51458
G0 F7200 X72.247 Y175.979
G1 F1800 X44.568 Y148.3 E115.97926
G0 F7200 X44.886 Y147.982
G1 F1800 X72.565 Y175.661 E117.44394
G0 F7200 X72.883 Y175.343
G1 F1800 X45.204 Y147.664 E118.90862
G0 F7200 X45.522 Y147.346
G1 F1800 X73.201 Y175.025 E120.37329
G0 F7200 X73.52 Y174.706
G1 F1800 X45.841 Y147.028 E121.83794
G0 F7200 X46.159 Y146.709
G1 F1800 X73.838 Y174.388 E123.30262
G0 F7200 X74.156 Y174.07
G1 F1800 X46.477 Y146.391 E124.7673
G0 F7200 X46.795 Y146.073
G1 F1800 X74.474 Y173.752 E126.23198
G0 F7200 X74.792 Y173.434
G1 F1800 X47.113 Y145.755 E127.69665
G0 F7200 X47.432 Y145.437
G1 F1800 X75.111 Y173.116 E129.16133
G0 F7200 X75.429 Y172.797
G1 F1800 X47.75 Y145.118 E130.62601
G0 F7200 X48.068 Y144.8
G1 F1800 X75.747 Y172.479 E132.09068
G0 F7200 X76.065 Y172.161
G1 F1800 X48.386 Y144.482 E133.55536
G0 F7200 X48.704 Y144.164
G1 F1800 X76.383 Y171.843 E135.02004
G0 F7200 X76.701 Y171.525
G1 F1800 X49.023 Y143.846 E136.48469
G0 F7200 X49.341 Y143.527
G1 F1800 X77.02 Y171.206 E137.94937
G0 F7200 X77.338 Y170.888
G1 F1800 X49.659 Y143.209 E139.41404
G0 F7200 X49.977 Y142.891
G1 F1800 X77.656 Y170.57 E140.87872
G0 F7200 X77.974 Y170.252
G1 F1800 X50.295 Y142.573 E142.3434
G0 F7200 X50.613 Y142.255
G1 F1800 X78.292 Y169.934 E143.80808
G0 F7200 X78.611 Y169.615
G1 F1800 X50.932 Y141.936 E145.27275
G0 F7200 X51.25 Y141.618
G1 F1800 X78.929 Y169.297 E146.73743
G0 F7200 X79.247 Y168.979
G1 F1800 X51.568 Y141.3 E148.20211
G0 F7200 X51.886 Y140.982
G1 F1800 X79.565 Y168.661 E149.66678
G0 F7200 X79.883 Y168.343
G1 F1800 X52.204 Y140.664 E151.13146
G0 F7200 X52.523 Y140.345
G1 F1800 X80.202 Y168.024 E152.59614
G0 F7200 X80.52 Y167.706
G1 F1800 X52.841 Y140.027 E154.06082
G0 F7200 X53.159 Y139.709
G1 F1800 X80.838 Y167.388 E155.52549
G0 F7200 X81.156 Y167.07
G1 F1800 X53.477 Y139.391 E156.99017
G0 F7200 X53.795 Y139.073
G1 F1800 X81.474 Y166.752 E158.45485
G0 F7200 X81.793 Y166.433
G1 F1800 X54.114 Y138.754 E159.91953
G0 F7200 X54.432 Y138.436
G1 F1800 X82.111 Y166.115 E161.3842
G0 F7200 X82.429 Y165.797
G1 F1800 X54.75 Y138.118 E162.84888
G0 F7200 X55.068 Y137.8
G1 F1800 X82.747 Y165.479 E164.31356
G0 F7200 X83.065 Y165.161
G1 F1800 X55.386 Y137.482 E165.77823
G0 F7200 X55.705 Y137.163
G1 F1800 X83.384 Y164.842 E167.24291
G0 F7200 X83.702 Y164.524
G1 F1800 X56.023 Y136.845 E168.70759
G0 F7200 X56.341 Y136.527
G1 F1800 X84.02 Y164.206 E170.17227
G0 F7200 X84.338 Y163.888
G1 F1800 X56.659 Y136.209 E171.63694
G0 F7200 X56.977 Y135.891
G1 F1800 X84.656 Y163.57 E173.10162
G0 F7200 X84.975 Y163.251
G1 F1800 X57.296 Y135.572 E174.5663
G0 F7200 X57.614 Y135.254
G1 F1800 X85.293 Y162.933 E176.03097
G0 F7200 X85.611 Y162.615
G1 F1800 X57.932 Y134.936 E177.49565
G0 F7200 X58.25 Y134.618
G1 F1800 X85.929 Y162.297 E178.96033
G0 F7200 X86.247 Y161.979
G1 F1800 X58.568 Y134.3 E180.42501
G0 F7200 X58.887 Y133.981
G1 F1800 X86.566 Y161.66 E181.88968
G0 F7200 X86.884 Y161.342
G1 F1800 X59.205 Y133.663 E183.35436
G0 F7200 X59.523 Y133.345
G1 F1800 X87.202 Y161.024 E184.81904
G0 F7200 X87.52 Y160.706
G1 F1800 X59.841 Y133.027 E186.28371
G0 F7200 X60.159 Y132.709
G1 F1800 X87.838 Y160.388 E187.74839
G0 F7200 X88.157 Y160.069
G1 F1800 X60.478 Y132.39 E189.21307
G0 F7200 X60.796 Y132.072
G1 F1800 X88.475 Y159.751 E190.67775
G0 F7200 X88.793 Y159.433
G1 F1800 X61.114 Y131.754 E192.14242
G0 F7200 X61.432 Y131.436
G1 F1800 X89.111 Y159.115 E193.6071
G0 F7200 X89.429 Y158.797
G1 F1800 X61.75 Y131.118 E195.07178
G0 F7200 X62.069 Y130.799
G1 F1800 X89.748 Y158.478 E196.53646
G0 F7200 X90.066 Y158.16
G1 F1800 X62.387 Y130.481 E198.00113
G0 F7200 X62.705 Y130.163
G1 F1800 X90.384 Y157.842 E199.46581
G0 F7200 X90.702 Y157.524
G1 F1800 X63.023 Y129.845 E200.93049
G0 F7200 X63.341 Y129.527
G1 F1800 X91.02 Y157.206 E202.39516
G0 F7200 X91.339 Y156.887
G1 F1800 X63.66 Y129.208 E203.85984
G0 F7200 X63.978 Y128.89
G1 F1800 X91.657 Y156.569 E205.32452
G0 F7200 X91.975 Y156.251
G1 F1800 X64.296 Y128.572 E206.7892
G0 F7200 X64.614 Y128.254
G1 F1800 X92.293 Y155.933 E208.25387
G0 F7200 X92.611 Y155.615
G1 F1800 X64.932 Y127.936 E209.71855
G0 F7200 X65.251 Y127.617
G1 F1800 X92.93 Y155.296 E211.18323
G0 F7200 X93.248 Y154.978
G1 F1800 X65.569 Y127.299 E212.6479
G0 F7200 X65.887 Y126.981
G1 F1800 X93.566 Y154.66 E214.11258
G0 F7200 X93.884 Y154.342
G1 F1800 X66.205 Y126.663 E215.57726
G0 F7200 X66.523 Y126.345
G1 F1800 X94.202 Y154.024 E217.04194
G0 F7200 X94.521 Y153.705
G1 F1800 X66.842 Y126.026 E218.50661
G0 F7200 X67.16 Y125.708
G1 F1800 X94.839 Y153.387 E219.97129
G0 F7200 X95.157 Y153.069
G1 F1800 X67.478 Y125.39 E221.43597
G0 F7200 X67.796 Y125.072
G1 F1800 X95.475 Y152.751 E222.90065
G0 F7200 X95.793 Y152.433
G1 F1800 X68.114 Y124.754 E224.36532
G0 F7200 X68.433 Y124.435
G1 F1800 X96.112 Y152.114 E225.83
G0 F7200 X96.43 Y151.796
G1 F1800 X68.751 Y124.117 E227.29468
G0 F7200 X69.069 Y123.799
G1 F1800 X96.748 Y151.478 E228.75935
G0 F7200 X97.066 Y151.16
G1 F1800 X69.387 Y123.481 E230.22403
G0 F7200 X69.705 Y123.163
G1 F1800 X97.384 Y150.842 E231.68871
G0 F7200 X97.703 Y150.523
G1 F1800 X70.024 Y122.844 E233.15339
G0 F7200 X70.342 Y122.526
G1 F1800 X98.021 Y150.205 E234.61806
G0 F7200 X98.339 Y149.887
G1 F1800 X70.66 Y122.208 E236.08274
G0 F7200 X70.978 Y121.89
G1 F1800 X98.657 Y149.569 E237.54742
G0 F7200 X98.975 Y149.251
G1 F1800 X71.296 Y121.572 E239.01209
G0 F7200 X71.615 Y121.253
G1 F1800 X99.294 Y148.932 E240.47677
G0 F7200 X99.612 Y148.614
G1 F1800 X71.933 Y120.935 E241.94145
G0 F7200 X72.251 Y120.617
G1 F1800 X99.93 Y148.296 E243.40613
G0 F7200 X100.248 Y147.978
G1 F1800 X72.569 Y120.299 E244.8708
G0 F7200 X72.887 Y119.981
G1 F1800 X100.566 Y147.66 E246.33548
G0 F7200 X100.885 Y147.341
G1 F1800 X73.206 Y119.662 E247.80016
G0 F7200 X73.524 Y119.344
G1 F1800 X101.203 Y147.023 E249.26483
G0 F7200 X101.521 Y146.705
G1 F1800 X73.842 Y119.026 E250.72951
G0 F7200 X74.16 Y118.708
G1 F1800 X101.839 Y146.387 E252.19419
G0 F7200 X102.157 Y146.069
G1 F1800 X74.478 Y118.39 E253.65887
G0 F7200 X74.797 Y118.071
G1 F1800 X102.476 Y145.75 E255.12354
G0 F7200 X102.794 Y145.432
G1 F1800 X75.115 Y117.753 E256.58822
G0 F7200 X75.433 Y117.435
G1 F1800 X103.112 Y145.114 E258.0529
G0 F7200 X103.43 Y144.796
G1 F1800 X75.751 Y117.117 E259.51758
G0 F7200 X76.069 Y116.799
G1 F1800 X103.748 Y144.478 E260.98225
G0 F7200 X104.067 Y144.159
G1 F1800 X76.388 Y116.48 E262.44693
G0 F7200 X76.706 Y116.162
G1 F1800 X104.385 Y143.841 E263.91161
G0 F7200 X104.703 Y143.523
G1 F1800 X77.024 Y115.844 E265.37628
G0 F7200 X77.342 Y115.526
G1 F1800 X105.021 Y143.205 E266.84096
G0 F7200 X105.339 Y142.887
G1 F1800 X77.66 Y115.208 E268.30564
G0 F7200 X77.979 Y114.89
G1 F1800 X105.658 Y142.568 E269.77029
G0 F7200 X105.976 Y142.25
G1 F1800 X78.297 Y114.571 E271.23497
G0 F7200 X78.615 Y114.253
G1 F1800 X106.294 Y141.932 E272.69964
G0 F7200 X106.612 Y141.614
G1 F1800 X78.933 Y113.935 E274.16432
G0 F7200 X79.251 Y113.617
G1 F1800 X106.93 Y141.296 E275.629
G0 F7200 X107.249 Y140.978
G1 F1800 X79.57 Y113.299 E277.09368
G0 F7200 X79.888 Y112.98
G1 F1800 X107.567 Y140.659 E278.55835
G0 F7200 X107.885 Y140.341
G1 F1800 X80.206 Y112.662 E280.02303
G0 F7200 X80.524 Y112.344
G1 F1800 X108.203 Y140.023 E281.48771
G0 F7200 X108.521 Y139.705
G1 F1800 X80.842 Y112.026 E282.95238
G0 F7200 X81.161 Y111.708
G1 F1800 X108.839 Y139.387 E284.41703
G0 F7200 X109.158 Y139.068
G1 F1800 X81.479 Y111.389 E285.88171
G0 F7200 X81.797 Y111.071
G1 F1800 X109.476 Y138.75 E287.34639
G0 F7200 X109.794 Y138.432
G1 F1800 X82.115 Y110.753 E288.81107
G0 F7200 X82.433 Y110.435
G1 F1800 X110.112 Y138.114 E290.27574
G0 F7200 X110.43 Y137.796
G1 F1800 X82.751 Y110.117 E291.74042
G0 F7200 X83.07 Y109.798
G1 F1800 X110.749 Y137.477 E293.2051
G0 F7200 X111.067 Y137.159
G1 F1800 X83.388 Y109.48 E294.66978
G0 F7200 X83.706 Y109.162
G1 F1800 X111.385 Y136.841 E296.13445
G0 F7200 X111.703 Y136.523
G1 F1800 X84.024 Y108.844 E297.59913
G0 F7200 X84.342 Y108.526
G1 F1800 X112.021 Y136.205 E299.06381
G0 F7200 X112.34 Y135.886
G1 F1800 X84.661 Y108.207 E300.52848
G0 F7200 X84.979 Y107.889
G1 F1800 X112.658 Y135.568 E301.99316
G0 F7200 X112.976 Y135.25
G1 F1800 X85.297 Y107.571 E303.45784
G0 F7200 X85.615 Y107.253
G1 F1800 X113.294 Y134.932 E304.92252
G0 F7200 X113.612 Y134.614
G1 F1800 X85.933 Y106.935 E306.38719
G0 F7200 X86.252 Y106.616
G1 F1800 X113.931 Y134.295 E307.85187
G0 F7200 X114.249 Y133.977
G1 F1800 X86.57 Y106.298 E309.31655
G0 F7200 X86.888 Y105.98
G1 F1800 X114.567 Y133.659 E310.78122
G0 F7200 X114.885 Y133.341
G1 F1800 X87.206 Y105.662 E312.2459
G0 F7200 X87.524 Y105.344
G1 F1800 X115.203 Y133.023 E313.71058
G0 F7200 X115.522 Y132.704
G1 F1800 X87.843 Y105.025 E315.17526
G0 F7200 X88.161 Y104.707
G1 F1800 X115.84 Y132.386 E316.63993
G0 F7200 X116.158 Y132.068
G1 F1800 X88.479 Y104.389 E318.10461
G0 F7200 X88.797 Y104.071
G1 F1800 X116.476 Y131.75 E319.56929
G0 F7200 X116.794 Y131.432
G1 F1800 X89.115 Y103.753 E321.03397
G0 F7200 X89.434 Y103.434
G1 F1800 X117.113 Y131.113 E322.49864
G0 F7200 X117.431 Y130.795
G1 F1800 X89.752 Y103.116 E323.96332
G0 F7200 X90.07 Y102.798
G1 F1800 X117.749 Y130.477 E325.428
G0 F7200 X118.067 Y130.159
G1 F1800 X90.388 Y102.48 E326.89267
G0 F7200 X90.706 Y102.162
G1 F1800 X118.385 Y129.841 E328.35735
G0 F7200 X118.704 Y129.522
