;FLAVOR:Marlin
;TIME:298
;Filament used: 0.139565m
;Layer height: 0.3
;MINX:113.144
;MINY:114.12
;MINZ:0.2
;MAXX:136.868
;MAXY:135.88
;MAXZ:10.38
;TARGET_MACHINE.NAME:VORON2 250
;Generated with Cura_SteamEngine 5.6.0
M140 S60
M105
M190 S60
M104 S215
M105
M109 S215
M82 ;absolute extrusion mode
START_PRINT
G92 E0
G92 E0
G1 F300 E-0.5
;LAYER_COUNT:34
;LAYER:0
M107
M204 S1800
G1 F600 Z0.48
G0 F3600 X115.348 Y116.452 Z0.48
;TYPE:SKIRT
G1 F600 Z0.2
G1 F120 E0
G1 F1800 X114.228 Y117.907 E0.0687
G1 X113.504 Y119.464 E0.13295
G1 X113.144 Y121.123 E0.19647
G1 X113.186 Y128.177 E0.46042
G1 X113.359 Y129.575 E0.51313
G1 X114.116 Y131.455 E0.58897
G1 X115.355 Y133.194 E0.66886
G1 X116.804 Y134.45 E0.74061
G1 X118.717 Y135.43 E0.82104
G1 X120.582 Y135.88 E0.89283
G1 X124.1 Y135.88 E1.02446
G1 X126.356 Y135.225 E1.11236
G1 X128.438 Y133.877 E1.20517
G1 X129.564 Y132.977 E1.2591
G1 X129.68 Y132.856 E1.26538
G1 X130.567 Y132.58 E1.30014
G1 X133.501 Y130.903 E1.42659
G1 X134.455 Y129.971 E1.47649
G1 X135.712 Y128.451 E1.55029
G1 X136.571 Y126.5 E1.63006
G1 X136.778 Y125.164 E1.68064
G1 X136.868 Y121.134 E1.83148
G1 X136.474 Y119.396 E1.89816
G1 X135.69 Y117.8 E1.96469
G1 X134.532 Y116.334 E2.0346
G1 X133.069 Y115.202 E2.10381
G1 X131.508 Y114.476 E2.16823
G1 X129.87 Y114.12 E2.23095
G1 X120.122 Y114.12 E2.5957
G1 X118.406 Y114.519 E2.66162
G1 X116.817 Y115.295 E2.72779
G1 X115.348 Y116.452 E2.79775
G0 F3600 X115.67 Y116.771
G1 F1800 X114.615 Y118.142 E2.86248
G1 X113.934 Y119.607 E2.92293
G1 X113.594 Y121.172 E2.98286
G1 X113.633 Y128.122 E3.24292
G1 X113.799 Y129.464 E3.29351
G1 X114.513 Y131.238 E3.36507
G1 X115.688 Y132.887 E3.44083
G1 X117.057 Y134.074 E3.50863
G1 X118.877 Y135.006 E3.58514
G1 X120.634 Y135.43 E3.65277
G1 X124.036 Y135.43 E3.78006
G1 X126.167 Y134.811 E3.8631
G1 X128.157 Y133.525 E3.95175
G1 X129.283 Y132.625 E4.00569
G1 X129.431 Y132.462 E4.01393
G1 X130.387 Y132.164 E4.0514
G1 X133.229 Y130.54 E4.17387
G1 X134.141 Y129.649 E4.22158
G1 X135.325 Y128.214 E4.29119
G1 X136.135 Y126.374 E4.36642
G1 X136.333 Y125.095 E4.41484
G1 X136.417 Y121.179 E4.56141
G1 X136.047 Y119.547 E4.62402
G1 X135.307 Y118.041 E4.68681
G1 X134.213 Y116.656 E4.75285
G1 X132.834 Y115.589 E4.81809
G1 X131.364 Y114.905 E4.87876
G1 X129.821 Y114.57 E4.93784
G1 X120.172 Y114.57 E5.29888
G1 X118.558 Y114.945 E5.36088
G1 X117.058 Y115.678 E5.42335
G1 X115.67 Y116.771 E5.48945
G0 F3600 X115.992 Y117.09
G1 F1800 X115.002 Y118.377 E5.55021
G1 X114.363 Y119.751 E5.60691
G1 X114.044 Y121.22 E5.66316
G1 X114.08 Y128.067 E5.91936
G1 X114.239 Y129.353 E5.96785
G1 X114.91 Y131.021 E6.03512
G1 X116.021 Y132.58 E6.10675
G1 X117.313 Y133.7 E6.17073
G1 X119.034 Y134.582 E6.24309
G1 X120.685 Y134.98 E6.30664
G1 X123.973 Y134.98 E6.42967
G1 X125.978 Y134.398 E6.50778
G1 X127.913 Y133.147 E6.594
G1 X129.002 Y132.274 E6.64623
G1 X129.168 Y132.072 E6.65601
G1 X130.207 Y131.748 E6.69673
G1 X132.957 Y130.177 E6.81524
G1 X133.827 Y129.327 E6.86075
G1 X134.938 Y127.977 E6.92617
G1 X135.699 Y126.248 E6.99685
G1 X135.888 Y125.026 E7.04312
G1 X135.966 Y121.225 E7.18538
G1 X135.62 Y119.699 E7.24392
G1 X134.923 Y118.281 E7.30305
G1 X133.894 Y116.978 E7.36517
G1 X132.599 Y115.976 E7.42644
G1 X131.221 Y115.335 E7.48331
G1 X129.771 Y115.02 E7.53883
G1 X120.222 Y115.02 E7.89613
G1 X118.708 Y115.372 E7.95429
G1 X117.301 Y116.059 E8.01288
G1 X115.992 Y117.09 E8.07522
G0 F3600 X116.316 Y117.407
G1 F1800 X115.389 Y118.612 E8.13211
G1 X114.792 Y119.895 E8.18506
G1 X114.494 Y121.268 E8.23763
G1 X114.527 Y128.012 E8.48998
G1 X114.679 Y129.243 E8.53639
G1 X115.307 Y130.804 E8.59935
G1 X116.354 Y132.273 E8.66685
G1 X117.569 Y133.326 E8.72701
G1 X119.191 Y134.157 E8.7952
G1 X120.737 Y134.53 E8.85471
G1 X123.909 Y134.53 E8.9734
G1 X125.789 Y133.984 E9.04665
G1 X127.669 Y132.769 E9.13041
G1 X128.72 Y131.923 E9.18089
G1 X128.892 Y131.688 E9.19179
G1 X130.023 Y131.334 E9.23613
G1 X132.685 Y129.814 E9.35083
G1 X133.513 Y129.005 E9.39414
G1 X134.551 Y127.74 E9.45537
G1 X135.264 Y126.119 E9.52164
G1 X135.438 Y125.017 E9.56338
G1 X135.515 Y121.271 E9.70358
G1 X135.192 Y119.849 E9.75814
G1 X134.54 Y118.522 E9.81346
G1 X133.575 Y117.3 E9.87173
G1 X132.364 Y116.363 E9.92902
G1 X131.078 Y115.765 E9.98209
G1 X129.721 Y115.47 E10.03405
G1 X120.272 Y115.47 E10.38761
G1 X118.858 Y115.799 E10.44193
G1 X117.541 Y116.442 E10.49677
G1 X116.316 Y117.407 E10.55512
G0 F3600 X116.64 Y117.724
G1 F1800 X115.776 Y118.847 E10.60814
G1 X115.221 Y120.039 E10.65733
G1 X114.944 Y121.316 E10.70623
G1 X114.974 Y127.957 E10.95472
G1 X115.119 Y129.133 E10.99906
G1 X115.704 Y130.587 E11.0577
G1 X116.687 Y131.966 E11.12107
G1 X117.822 Y132.95 E11.17728
G1 X119.351 Y133.733 E11.24155
G1 X120.789 Y134.08 E11.2969
G1 X123.845 Y134.08 E11.41125
G1 X125.6 Y133.57 E11.47964
G1 X127.425 Y132.391 E11.56093
G1 X128.39 Y131.61 E11.60739
G1 X128.615 Y131.304 E11.6216
G1 X129.839 Y130.921 E11.66959
G1 X132.413 Y129.451 E11.7805
G1 X133.165 Y128.719 E11.81977
G1 X134.165 Y127.501 E11.87873
G1 X134.828 Y125.993 E11.94037
G1 X134.993 Y124.947 E11.98
G1 X135.064 Y121.318 E12.11581
G1 X134.765 Y120.001 E12.16634
G1 X134.156 Y118.762 E12.218
G1 X133.256 Y117.622 E12.27235
G1 X132.129 Y116.75 E12.32567
G1 X130.934 Y116.194 E12.37498
G1 X129.672 Y115.92 E12.42331
G1 X120.322 Y115.92 E12.77316
G1 X119.008 Y116.226 E12.82364
G1 X117.781 Y116.825 E12.87473
G1 X116.64 Y117.724 E12.92909
G0 F3600 X116.965 Y118.041
G1 F1800 X118.022 Y117.208 E12.97944
G1 X119.16 Y116.652 E13.02683
G1 X120.372 Y116.37 E13.0734
G1 X129.622 Y116.37 E13.41951
G1 X130.791 Y116.624 E13.46427
G1 X131.894 Y117.137 E13.50979
G1 X132.937 Y117.944 E13.55913
G1 X133.772 Y119.002 E13.60956
G1 X134.338 Y120.153 E13.65756
G1 X134.613 Y121.365 E13.70406
G1 X134.548 Y124.877 E13.83549
G1 X134.392 Y125.867 E13.87299
G1 X133.778 Y127.264 E13.93009
G1 X132.851 Y128.397 E13.98487
G1 X132.141 Y129.088 E14.02194
G1 X129.659 Y130.505 E14.12888
G1 X128.542 Y130.861 E14.17275
G1 X128.364 Y130.887 E14.17948
G1 X128.062 Y131.296 E14.1985
G1 X127.181 Y132.013 E14.241
G1 X125.411 Y133.157 E14.31986
G1 X123.782 Y133.63 E14.38333
G1 X120.841 Y133.63 E14.49338
G1 X119.511 Y133.309 E14.54457
G1 X118.075 Y132.574 E14.60493
G1 X117.02 Y131.659 E14.65719
G1 X116.101 Y130.37 E14.71642
G1 X115.559 Y129.023 E14.77075
G1 X115.421 Y127.902 E14.81301
G1 X115.394 Y121.365 E15.05761
G1 X115.651 Y120.182 E15.10291
G1 X116.162 Y119.084 E15.14823
G1 X116.965 Y118.041 E15.19748
G0 F3600 X117.287 Y118.36
G1 F1800 X118.264 Y117.59 E15.24403
G1 X119.311 Y117.079 E15.28762
G1 X120.422 Y116.82 E15.33031
G1 X129.572 Y116.82 E15.67268
G1 X130.648 Y117.054 E15.71388
G1 X131.659 Y117.524 E15.7556
G1 X132.618 Y118.266 E15.80097
G1 X133.389 Y119.243 E15.84754
G1 X133.91 Y120.303 E15.89173
G1 X134.162 Y121.412 E15.93429
G1 X134.103 Y124.807 E16.06134
G1 X133.956 Y125.741 E16.09672
G1 X133.391 Y127.027 E16.14927
G1 X132.537 Y128.074 E16.19983
G1 X131.867 Y128.726 E16.23481
G1 X129.478 Y130.09 E16.33775
G1 X128.405 Y130.432 E16.37989
G1 X128.125 Y130.453 E16.39039
G1 X127.734 Y130.983 E16.41504
G1 X126.937 Y131.635 E16.45357
G1 X125.222 Y132.743 E16.52996
G1 X123.718 Y133.18 E16.58857
G1 X120.892 Y133.18 E16.69431
G1 X119.672 Y132.886 E16.74127
G1 X118.328 Y132.198 E16.79776
G1 X117.353 Y131.352 E16.84606
G1 X116.498 Y130.153 E16.90116
G1 X115.999 Y128.913 E16.95118
G1 X115.868 Y127.847 E16.99137
G1 X115.844 Y121.413 E17.23211
G1 X116.08 Y120.326 E17.27373
G1 X116.549 Y119.318 E17.31533
G1 X117.287 Y118.36 E17.36058
G0 F3600 X117.612 Y118.677
G1 F1800 X118.505 Y117.973 E17.40313
G1 X119.463 Y117.505 E17.44303
G1 X120.473 Y117.27 E17.48183
G1 X129.523 Y117.27 E17.82046
G1 X130.504 Y117.483 E17.85802
G1 X131.424 Y117.911 E17.89599
G1 X132.299 Y118.588 E17.93738
G1 X133.006 Y119.484 E17.98009
G1 X133.482 Y120.453 E18.02048
G1 X133.711 Y121.459 E18.05909
G1 X133.658 Y124.737 E18.18176
G1 X133.52 Y125.615 E18.21502
G1 X133.004 Y126.79 E18.26304
G1 X132.223 Y127.751 E18.30937
G1 X131.593 Y128.364 E18.34226
G1 X129.297 Y129.675 E18.44119
G1 X128.318 Y129.987 E18.47964
G1 X127.886 Y130.02 E18.49585
G1 X127.405 Y130.671 E18.52614
G1 X126.693 Y131.257 E18.56064
G1 X125.033 Y132.33 E18.6346
G1 X123.655 Y132.73 E18.68829
G1 X120.947 Y132.73 E18.78962
G1 X119.829 Y132.461 E18.83264
G1 X118.581 Y131.822 E18.88511
G1 X117.686 Y131.045 E18.92945
G1 X116.895 Y129.936 E18.98042
G1 X116.439 Y128.803 E19.02612
G1 X116.315 Y127.792 E19.06424
G1 X116.294 Y121.461 E19.30113
G1 X116.509 Y120.47 E19.33907
G1 X116.935 Y119.556 E19.3768
G1 X117.612 Y118.677 E19.41832
G0 F3600 X117.934 Y118.996
G1 F1800 X118.747 Y118.355 E19.45706
G1 X119.614 Y117.932 E19.49315
G1 X120.523 Y117.72 E19.52808
G1 X129.473 Y117.72 E19.86297
G1 X130.361 Y117.913 E19.89697
G1 X131.189 Y118.298 E19.93114
G1 X131.98 Y118.91 E19.96856
G1 X132.623 Y119.725 E20.0074
G1 X133.054 Y120.603 E20.044
G1 X133.26 Y121.507 E20.07869
G1 X133.213 Y124.667 E20.19695
G1 X133.084 Y125.489 E20.22808
G1 X132.617 Y126.553 E20.27156
G1 X131.909 Y127.428 E20.31367
G1 X131.319 Y128.002 E20.34447
G1 X129.116 Y129.26 E20.4394
G1 X128.231 Y129.542 E20.47415
G1 X127.647 Y129.587 E20.49607
G1 X127.078 Y130.357 E20.53189
G1 X126.407 Y130.909 E20.56441
G1 X124.844 Y131.916 E20.63398
G1 X123.591 Y132.28 E20.6828
G1 X121.002 Y132.28 E20.77967
G1 X119.986 Y132.036 E20.81877
G1 X118.834 Y131.446 E20.8672
G1 X118.019 Y130.738 E20.9076
G1 X117.294 Y129.722 E20.9543
G1 X116.879 Y128.689 E20.99595
G1 X116.762 Y127.737 E21.03184
G1 X116.744 Y121.509 E21.26488
G1 X116.938 Y120.614 E21.29915
G1 X117.322 Y119.79 E21.33316
G1 X117.934 Y118.996 E21.37067
G0 F3600 X118.256 Y119.315
G1 F1800 X118.989 Y118.737 E21.4056
G1 X119.764 Y118.359 E21.43787
G1 X120.574 Y118.17 E21.46899
G1 X129.423 Y118.17 E21.8001
G1 X130.218 Y118.343 E21.83054
G1 X130.954 Y118.685 E21.86091
G1 X131.661 Y119.232 E21.89436
G1 X132.24 Y119.966 E21.92934
G1 X132.626 Y120.753 E21.96214
G1 X132.809 Y121.555 E21.99292
G1 X132.768 Y124.597 E22.10675
G1 X132.648 Y125.363 E22.13576
G1 X132.23 Y126.316 E22.1747
G1 X131.595 Y127.105 E22.2126
G1 X131.045 Y127.64 E22.24131
G1 X128.935 Y128.845 E22.33223
G1 X128.144 Y129.097 E22.36329
G1 X127.408 Y129.154 E22.39091
G1 X126.751 Y130.043 E22.43227
G1 X126.121 Y130.561 E22.46279
G1 X124.654 Y131.503 E22.52803
G1 X123.528 Y131.83 E22.5719
G1 X121.057 Y131.83 E22.66436
G1 X120.143 Y131.611 E22.69953
G1 X119.087 Y131.07 E22.74392
G1 X118.353 Y130.432 E22.78031
G1 X117.694 Y129.508 E22.82278
G1 X117.319 Y128.575 E22.8604
G1 X117.209 Y127.682 E22.89407
G1 X117.194 Y121.558 E23.12322
G1 X117.368 Y120.757 E23.15389
G1 X117.709 Y120.024 E23.18414
G1 X118.256 Y119.315 E23.21764
G0 F3600 X118.578 Y119.634
G1 F1800 X119.231 Y119.119 E23.24876
G1 X119.914 Y118.786 E23.27719
G1 X120.625 Y118.62 E23.30451
G1 X129.374 Y118.62 E23.63188
G1 X130.074 Y118.772 E23.65868
G1 X130.719 Y119.072 E23.6853
G1 X131.342 Y119.554 E23.71477
G1 X131.857 Y120.207 E23.74589
G1 X132.198 Y120.903 E23.77489
G1 X132.358 Y121.604 E23.8018
G1 X132.323 Y124.527 E23.91118
G1 X132.212 Y125.237 E23.93806
G1 X131.842 Y126.08 E23.97251
G1 X131.244 Y126.823 E24.0082
G1 X130.773 Y127.277 E24.03268
G1 X128.754 Y128.43 E24.11968
G1 X128.058 Y128.652 E24.14701
G1 X127.37 Y128.708 E24.17284
G1 X127.089 Y128.667 E24.18346
G1 X126.949 Y129.017 E24.19757
G1 X126.421 Y129.731 E24.2308
G1 X125.878 Y130.182 E24.25721
G1 X124.464 Y131.09 E24.32009
G1 X123.465 Y131.38 E24.35901
G1 X121.112 Y131.38 E24.44705
G1 X120.297 Y131.185 E24.47841
G1 X119.343 Y130.696 E24.51852
G1 X118.687 Y130.126 E24.55104
G1 X118.094 Y129.294 E24.58927
G1 X117.759 Y128.461 E24.62287
G1 X117.656 Y127.627 E24.65431
G1 X117.644 Y121.606 E24.8796
G1 X117.797 Y120.901 E24.90659
G1 X118.096 Y120.258 E24.93313
G1 X118.578 Y119.634 E24.96263
G0 F3600 X118.899 Y119.954
G1 F1800 X119.473 Y119.502 E24.98997
G1 X120.066 Y119.212 E25.01467
G1 X120.676 Y119.07 E25.0381
G1 X129.324 Y119.07 E25.36169
G1 X129.931 Y119.202 E25.38493
G1 X130.484 Y119.459 E25.40775
G1 X131.022 Y119.875 E25.4332
G1 X131.474 Y120.449 E25.46054
G1 X131.77 Y121.053 E25.4857
G1 X131.907 Y121.653 E25.50873
G1 X131.878 Y124.458 E25.61369
G1 X131.776 Y125.111 E25.63842
G1 X131.453 Y125.846 E25.66847
G1 X130.931 Y126.499 E25.69975
G1 X130.5 Y126.915 E25.72216
G1 X128.573 Y128.015 E25.80518
G1 X127.971 Y128.207 E25.82883
G1 X127.381 Y128.255 E25.85098
G1 X126.802 Y128.17 E25.87287
G1 X126.553 Y128.795 E25.89805
G1 X126.09 Y129.421 E25.92718
G1 X125.635 Y129.803 E25.94941
G1 X124.274 Y130.677 E26.00993
G1 X123.402 Y130.93 E26.04391
G1 X121.167 Y130.93 E26.12754
G1 X120.454 Y130.759 E26.15497
G1 X119.596 Y130.32 E26.19103
G1 X119.023 Y129.822 E26.21944
G1 X118.49 Y129.073 E26.25384
G1 X118.199 Y128.351 E26.28296
G1 X118.103 Y127.572 E26.31233
G1 X118.094 Y121.654 E26.53377
G1 X118.226 Y121.045 E26.55709
G1 X118.483 Y120.492 E26.57991
G1 X118.899 Y119.954 E26.60535
G0 F3600 X119.223 Y120.272
G1 F1800 X119.714 Y119.885 E26.62874
G1 X120.219 Y119.638 E26.64978
G1 X120.726 Y119.52 E26.66926
G1 X129.275 Y119.52 E26.98914
G1 X129.787 Y119.631 E27.00874
G1 X130.247 Y119.845 E27.02773
G1 X130.704 Y120.199 E27.04936
G1 X131.091 Y120.69 E27.07275
G1 X131.342 Y121.203 E27.09412
G1 X131.456 Y121.702 E27.11327
G1 X131.433 Y124.389 E27.21382
G1 X131.34 Y124.985 E27.23639
G1 X131.065 Y125.611 E27.26197
G1 X130.619 Y126.175 E27.28888
G1 X130.229 Y126.551 E27.30915
G1 X128.392 Y127.6 E27.3883
G1 X127.884 Y127.762 E27.40825
G1 X127.392 Y127.802 E27.42672
G1 X126.804 Y127.716 E27.44896
G1 X126.445 Y127.574 E27.4634
G1 X126.431 Y127.738 E27.46956
G1 X126.333 Y128.132 E27.48475
G1 X126.156 Y128.575 E27.5026
G1 X125.762 Y129.109 E27.52744
G1 X125.392 Y129.424 E27.54562
G1 X124.085 Y130.263 E27.60373
G1 X123.338 Y130.48 E27.63284
G1 X121.222 Y130.48 E27.71201
G1 X120.607 Y130.333 E27.73567
G1 X119.852 Y129.946 E27.76742
G1 X119.359 Y129.518 E27.79185
G1 X118.886 Y128.853 E27.82238
G1 X118.639 Y128.24 E27.84711
G1 X118.55 Y127.517 E27.87437
G1 X118.544 Y121.702 E28.09195
G1 X118.655 Y121.189 E28.11159
G1 X118.869 Y120.729 E28.13058
G1 X119.223 Y120.272 E28.15221
G0 F3600 X119.547 Y120.59
G1 F1800 X119.955 Y120.268 E28.17165
G1 X120.372 Y120.064 E28.18902
G1 X120.776 Y119.97 E28.20454
G1 X129.226 Y119.97 E28.52072
G1 X129.643 Y120.06 E28.53669
G1 X130.009 Y120.231 E28.5518
G1 X130.386 Y120.523 E28.56965
G1 X130.708 Y120.931 E28.58909
G1 X130.914 Y121.352 E28.60663
G1 X131.006 Y121.753 E28.62203
G1 X130.988 Y124.32 E28.71808
G1 X130.904 Y124.859 E28.73849
G1 X130.677 Y125.376 E28.75962
G1 X130.306 Y125.851 E28.78217
G1 X129.956 Y126.189 E28.80038
G1 X128.211 Y127.185 E28.87556
G1 X127.797 Y127.317 E28.89182
G1 X127.403 Y127.349 E28.90661
G1 X126.921 Y127.279 E28.92483
G1 X126.475 Y127.102 E28.94279
G1 X126.091 Y126.846 E28.96005
G1 X125.887 Y126.629 E28.9712
G1 X126.003 Y127.141 E28.99084
G1 X125.994 Y127.629 E29.00911
G1 X125.896 Y128.023 E29.0243
G1 X125.76 Y128.354 E29.03769
G1 X125.432 Y128.799 E29.05837
G1 X125.149 Y129.045 E29.0724
G1 X123.895 Y129.85 E29.12816
G1 X123.275 Y130.03 E29.15232
G1 X121.276 Y130.03 E29.22712
G1 X120.765 Y129.908 E29.24677
G1 X120.105 Y129.57 E29.27452
G1 X119.695 Y129.214 E29.29484
G1 X119.284 Y128.636 E29.32137
G1 X119.079 Y128.126 E29.34194
G1 X118.997 Y127.462 E29.36698
G1 X118.994 Y121.75 E29.5807
G1 X119.084 Y121.333 E29.59667
G1 X119.255 Y120.967 E29.61178
G1 X119.547 Y120.59 E29.62963
G0 F3600 X119.869 Y120.909
G1 F1800 X120.196 Y120.651 E29.64521
G1 X120.525 Y120.49 E29.65892
G1 X120.826 Y120.42 E29.67048
G1 X129.177 Y120.42 E29.98295
G1 X129.501 Y120.49 E29.99536
G1 X129.772 Y120.617 E30.00656
G1 X130.067 Y120.845 E30.02051
G1 X130.325 Y121.172 E30.03609
G1 X130.486 Y121.501 E30.0498
G1 X130.556 Y121.805 E30.06147
G1 X130.543 Y124.251 E30.153
G1 X130.468 Y124.733 E30.17125
G1 X130.288 Y125.143 E30.188
G1 X129.994 Y125.527 E30.2061
G1 X129.685 Y125.825 E30.22216
G1 X128.03 Y126.77 E30.29347
G1 X127.71 Y126.872 E30.30604
G1 X127.413 Y126.896 E30.31719
G1 X127.039 Y126.842 E30.33133
G1 X126.687 Y126.702 E30.3455
G1 X126.383 Y126.5 E30.35916
G1 X126.171 Y126.273 E30.37078
G1 X126.023 Y126.015 E30.38191
