;FLAVOR:Marlin
;TIME:3841
;Filament used: 9.52295m
;Layer height: 0.32
;MINX:15.301
;MINY:80.4
;MINZ:0.28
;MAXX:234.699
;MAXY:169.599
;MAXZ:24.88
;TARGET_MACHINE.NAME:VORON2 250
;Generated with Cura_SteamEngine 5.6.0
M140 S60
M105
M190 S60
M104 S215
M105
M109 S215
M82 ;absolute extrusion mode
START_PRINT
G92 E0
G92 E0
G1 F300 E-0.5
;LAYER_COUNT:77
;LAYER:0
M107
M204 S2000
G1 F600 Z0.56
G0 F3600 X24.065 Y81.409 Z0.56
;TYPE:SKIRT
G1 F600 Z0.28
G1 F120 E0
G1 F1800 X26.73 Y80.614 E0.19425
G1 X28.881 Y80.419 E0.3451
G1 X220.599 Y80.4 E13.73589
G1 X223.275 Y80.615 E13.9234
G1 X226.049 Y81.458 E14.12591
G1 X228.519 Y82.788 E14.32185
G1 X230.648 Y84.557 E14.51518
G1 X232.374 Y86.684 E14.70651
G1 X233.69 Y89.166 E14.90272
G1 X234.483 Y91.827 E15.09666
G1 X234.699 Y94.47 E15.28188
G1 X234.66 Y156.334 E19.60285
G1 X234.455 Y158.293 E19.74043
G1 X233.634 Y160.959 E19.93527
G1 X232.305 Y163.429 E20.13118
G1 X230.539 Y165.554 E20.32417
G1 X228.41 Y167.277 E20.51546
G1 X225.944 Y168.588 E20.71053
G1 X223.266 Y169.386 E20.90571
G1 X220.628 Y169.599 E21.09056
G1 X28.566 Y169.56 E34.50538
G1 X26.607 Y169.355 E34.64296
G1 X23.924 Y168.527 E34.83908
G1 X21.482 Y167.212 E35.0328
G1 X19.36 Y165.447 E35.22558
G1 X17.594 Y163.279 E35.42089
G1 X16.316 Y160.86 E35.61198
G1 X15.516 Y158.181 E35.80726
G1 X15.301 Y155.53 E35.99303
G1 X15.34 Y93.666 E40.314
G1 X15.545 Y91.706 E40.45165
G1 X16.371 Y89.028 E40.64739
G1 X17.69 Y86.578 E40.84174
G1 X19.454 Y84.455 E41.03453
G1 X21.586 Y82.725 E41.2263
G1 X24.065 Y81.409 E41.42233
G0 F3600 X24.292 Y81.968
G1 F1800 X26.843 Y81.207 E41.60827
G1 X28.935 Y81.017 E41.75499
G1 X220.599 Y81 E55.14201
G1 X223.163 Y81.208 E55.32168
G1 X225.819 Y82.015 E55.51557
G1 X228.183 Y83.288 E55.7031
G1 X230.217 Y84.978 E55.88781
G1 X231.872 Y87.017 E56.07123
G1 X233.132 Y89.394 E56.25914
G1 X233.89 Y91.938 E56.44455
G1 X234.099 Y94.47 E56.622
G1 X234.063 Y156.272 E60.93864
G1 X233.864 Y158.175 E61.07229
G1 X233.078 Y160.727 E61.2588
G1 X231.807 Y163.089 E61.44614
G1 X230.113 Y165.128 E61.6313
G1 X228.082 Y166.772 E61.8138
G1 X225.713 Y168.031 E62.00118
G1 X223.156 Y168.793 E62.18754
G1 X220.628 Y168.999 E62.3647
G1 X28.628 Y168.963 E75.77519
G1 X26.725 Y168.764 E75.90883
G1 X24.158 Y167.972 E76.09646
G1 X21.819 Y166.712 E76.28203
G1 X19.788 Y165.023 E76.46653
G1 X18.098 Y162.948 E76.65345
G1 X16.874 Y160.631 E76.83648
G1 X16.109 Y158.069 E77.02323
G1 X15.901 Y155.53 E77.20116
G1 X15.937 Y93.728 E81.5178
G1 X16.136 Y91.824 E81.65152
G1 X16.927 Y89.26 E81.83893
G1 X18.19 Y86.914 E82.02503
G1 X19.875 Y84.886 E82.20919
G1 X21.919 Y83.227 E82.39306
G1 X24.292 Y81.968 E82.58069
G0 F3600 X24.519 Y82.527
G1 F1800 X26.956 Y81.8 E82.75832
G1 X28.989 Y81.615 E82.9009
G1 X220.599 Y81.6 E96.28415
G1 X223.051 Y81.801 E96.45599
G1 X225.589 Y82.572 E96.64125
G1 X227.847 Y83.788 E96.82038
G1 X229.786 Y85.399 E96.99646
G1 X231.37 Y87.35 E97.17199
G1 X232.574 Y89.622 E97.35158
G1 X233.297 Y92.049 E97.52846
G1 X233.499 Y94.47 E97.69815
G1 X233.466 Y156.21 E102.01046
G1 X233.273 Y158.057 E102.14017
G1 X232.522 Y160.495 E102.31835
G1 X231.309 Y162.749 E102.49713
G1 X229.689 Y164.699 E102.6742
G1 X227.749 Y166.27 E102.84856
G1 X225.484 Y167.473 E103.02769
G1 X223.045 Y168.2 E103.20545
G1 X220.628 Y168.399 E103.37484
G1 X28.69 Y168.366 E116.781
G1 X26.843 Y168.173 E116.91071
G1 X24.39 Y167.416 E117.09001
G1 X22.158 Y166.214 E117.26708
G1 X20.216 Y164.599 E117.4435
G1 X18.602 Y162.617 E117.62203
G1 X17.432 Y160.402 E117.79699
G1 X16.702 Y157.957 E117.97521
G1 X16.501 Y155.53 E118.14531
G1 X16.534 Y93.79 E122.45762
G1 X16.727 Y91.942 E122.5874
G1 X17.483 Y89.492 E122.76649
G1 X18.688 Y87.253 E122.94408
G1 X20.299 Y85.315 E123.1201
G1 X22.252 Y83.729 E123.29583
G1 X24.519 Y82.527 E123.47505
G0 F3600 X24.747 Y83.085
G1 F1800 X27.067 Y82.393 E123.64415
G1 X29.043 Y82.213 E123.78274
G1 X220.599 Y82.2 E137.16221
G1 X222.939 Y82.394 E137.32621
G1 X225.359 Y83.129 E137.50286
G1 X227.508 Y84.286 E137.67334
G1 X229.357 Y85.823 E137.84127
G1 X230.868 Y87.683 E138.00865
G1 X232.016 Y89.85 E138.17994
G1 X232.704 Y92.16 E138.34829
G1 X232.899 Y94.47 E138.51021
G1 X232.869 Y156.148 E142.81819
G1 X232.682 Y157.939 E142.94396
G1 X231.966 Y160.263 E143.11381
G1 X230.811 Y162.409 E143.28403
G1 X229.265 Y164.27 E143.45302
G1 X227.416 Y165.768 E143.61923
G1 X225.255 Y166.915 E143.79011
G1 X222.934 Y167.607 E143.95928
G1 X220.628 Y167.799 E144.1209
G1 X28.752 Y167.769 E157.52272
G1 X26.961 Y167.582 E157.6485
G1 X24.622 Y166.86 E157.81948
G1 X22.497 Y165.716 E157.98804
G1 X20.644 Y164.175 E158.15637
G1 X19.106 Y162.286 E158.32651
G1 X17.99 Y160.173 E158.49342
G1 X17.295 Y157.845 E158.66311
G1 X17.101 Y155.53 E158.82537
G1 X17.131 Y93.852 E163.13335
G1 X17.318 Y92.06 E163.2592
G1 X18.039 Y89.724 E163.42995
G1 X19.186 Y87.593 E163.59899
G1 X20.723 Y85.743 E163.76698
G1 X22.585 Y84.231 E163.93451
G1 X24.747 Y83.085 E164.10542
G0 F3600 X24.975 Y83.643
G1 F1800 X27.178 Y82.986 E164.26599
G1 X29.097 Y82.811 E164.40058
G1 X220.599 Y82.8 E177.77628
G1 X222.827 Y82.987 E177.93245
G1 X225.129 Y83.686 E178.10048
G1 X227.168 Y84.784 E178.26224
G1 X228.929 Y86.247 E178.42214
G1 X230.366 Y88.016 E178.58133
G1 X231.458 Y90.078 E178.7443
G1 X232.111 Y92.271 E178.90412
G1 X232.299 Y94.47 E179.05828
G1 X232.272 Y156.086 E183.36192
G1 X232.091 Y157.821 E183.48377
G1 X231.41 Y160.031 E183.64529
G1 X230.313 Y162.069 E183.80695
G1 X228.841 Y163.841 E183.96785
G1 X227.083 Y165.266 E184.12591
G1 X225.026 Y166.357 E184.28854
G1 X222.823 Y167.014 E184.44911
G1 X220.628 Y167.199 E184.60297
G1 X28.814 Y167.172 E198.00046
G1 X27.079 Y166.991 E198.1223
G1 X24.856 Y166.305 E198.2848
G1 X22.834 Y165.216 E198.4452
G1 X21.072 Y163.751 E198.60526
G1 X19.61 Y161.955 E198.76701
G1 X18.548 Y159.944 E198.92585
G1 X17.888 Y157.733 E199.08702
G1 X17.701 Y155.53 E199.24144
G1 X17.728 Y93.914 E203.54509
G1 X17.909 Y92.178 E203.667
G1 X18.595 Y89.956 E203.82943
G1 X19.684 Y87.932 E203.98996
G1 X21.147 Y86.172 E204.14981
G1 X22.918 Y84.733 E204.3092
G1 X24.975 Y83.643 E204.4718
G0 F3600 X25.203 Y84.201
G1 F1800 X27.289 Y83.579 E204.62383
G1 X29.152 Y83.409 E204.7545
G1 X220.599 Y83.4 E218.12636
G1 X222.715 Y83.58 E218.27469
G1 X224.899 Y84.243 E218.43411
G1 X226.829 Y85.282 E218.5872
G1 X228.5 Y86.671 E218.73897
G1 X229.864 Y88.349 E218.89001
G1 X230.9 Y90.306 E219.04467
G1 X231.518 Y92.382 E219.19596
G1 X231.699 Y94.47 E219.34235
G1 X231.675 Y156.024 E223.64167
G1 X231.5 Y157.703 E223.75957
G1 X230.854 Y159.799 E223.91277
G1 X229.815 Y161.729 E224.06586
G1 X228.417 Y163.412 E224.21868
G1 X226.75 Y164.764 E224.36859
G1 X224.798 Y165.799 E224.52291
G1 X222.712 Y166.421 E224.67495
G1 X220.628 Y166.599 E224.82104
G1 X28.876 Y166.575 E238.21421
G1 X27.197 Y166.4 E238.33211
G1 X25.088 Y165.749 E238.48628
G1 X23.173 Y164.718 E238.63819
G1 X21.5 Y163.327 E238.79015
G1 X20.114 Y161.624 E238.94352
G1 X19.106 Y159.715 E239.0943
G1 X18.481 Y157.621 E239.24693
G1 X18.301 Y155.53 E239.39352
G1 X18.325 Y93.976 E243.69284
G1 X18.5 Y92.296 E243.81082
G1 X19.151 Y90.188 E243.96491
G1 X20.182 Y88.272 E244.11688
G1 X21.571 Y86.6 E244.26871
G1 X23.251 Y85.235 E244.4199
G1 X25.203 Y84.201 E244.57419
G0 F3600 X25.431 Y84.759
G1 F1800 X27.4 Y84.172 E244.71769
G1 X29.207 Y84.007 E244.84443
G1 X220.599 Y84 E258.21245
G1 X222.603 Y84.173 E258.35294
G1 X224.669 Y84.8 E258.50375
G1 X226.489 Y85.78 E258.64812
G1 X228.072 Y87.095 E258.79186
G1 X229.362 Y88.682 E258.93471
G1 X230.342 Y90.534 E259.08106
G1 X230.925 Y92.492 E259.22375
G1 X231.099 Y94.47 E259.36244
G1 X231.078 Y155.962 E263.65743
G1 X230.909 Y157.585 E263.7714
G1 X230.298 Y159.567 E263.91627
G1 X229.317 Y161.389 E264.0608
G1 X227.993 Y162.983 E264.20553
G1 X226.417 Y164.262 E264.3473
G1 X224.571 Y165.24 E264.49321
G1 X222.6 Y165.828 E264.63687
G1 X220.628 Y165.999 E264.77513
G1 X28.938 Y165.978 E278.16396
G1 X27.315 Y165.809 E278.27793
G1 X25.322 Y165.194 E278.42362
G1 X23.51 Y164.218 E278.56737
G1 X21.928 Y162.903 E278.71105
G1 X20.618 Y161.293 E278.85603
G1 X19.664 Y159.486 E278.99875
G1 X19.074 Y157.509 E279.14285
G1 X18.901 Y155.53 E279.28161
G1 X18.922 Y94.038 E283.5766
G1 X19.091 Y92.414 E283.69064
G1 X19.706 Y90.422 E283.83625
G1 X20.682 Y88.61 E283.98001
G1 X21.995 Y87.028 E284.1236
G1 X23.584 Y85.737 E284.2666
G1 X25.431 Y84.759 E284.41258
G0 F3600 X25.659 Y85.317
G1 F1800 X27.511 Y84.765 E284.54755
G1 X29.262 Y84.605 E284.67037
G1 X220.599 Y84.6 E298.03454
G1 X222.491 Y84.766 E298.1672
G1 X224.436 Y85.356 E298.30916
G1 X226.151 Y86.28 E298.44523
G1 X227.644 Y87.519 E298.58074
G1 X228.86 Y89.015 E298.7154
G1 X229.784 Y90.762 E298.85343
G1 X230.332 Y92.603 E298.9876
G1 X230.499 Y94.47 E299.11852
G1 X230.481 Y155.9 E303.40918
G1 X230.318 Y157.467 E303.51922
G1 X229.742 Y159.335 E303.65575
G1 X228.819 Y161.05 E303.79179
G1 X227.569 Y162.554 E303.92838
G1 X226.084 Y163.76 E304.062
G1 X224.343 Y164.682 E304.1996
G1 X222.489 Y165.235 E304.33473
G1 X220.628 Y165.399 E304.46522
G1 X29 Y165.381 E317.84972
G1 X27.433 Y165.218 E317.95976
G1 X25.554 Y164.638 E318.09711
G1 X23.849 Y163.72 E318.23237
G1 X22.356 Y162.479 E318.36797
G1 X21.122 Y160.962 E318.50455
G1 X20.222 Y159.257 E318.63921
G1 X19.667 Y157.397 E318.77479
G1 X19.501 Y155.53 E318.90571
G1 X19.519 Y94.1 E323.19636
G1 X19.682 Y92.532 E323.30647
G1 X20.262 Y90.654 E323.44376
G1 X21.18 Y88.949 E323.57901
G1 X22.419 Y87.456 E323.71452
G1 X23.917 Y86.239 E323.84933
G1 X25.659 Y85.317 E323.98699
G0 F3600 X25.887 Y85.875
G1 F1800 X27.622 Y85.358 E324.11344
G1 X29.317 Y85.203 E324.23232
G1 X220.599 Y85.2 E337.59266
G1 X222.379 Y85.359 E337.71748
G1 X224.203 Y85.912 E337.85061
G1 X225.813 Y86.78 E337.97836
G1 X227.216 Y87.943 E338.10565
G1 X228.359 Y89.35 E338.23226
G1 X229.225 Y90.988 E338.36167
G1 X229.739 Y92.714 E338.48746
G1 X229.899 Y94.47 E338.61062
G1 X229.884 Y155.838 E342.89695
G1 X229.727 Y157.349 E343.00305
G1 X229.186 Y159.103 E343.13126
G1 X228.319 Y160.714 E343.25904
G1 X227.148 Y162.123 E343.387
G1 X225.751 Y163.258 E343.51272
G1 X224.115 Y164.124 E343.64202
G1 X222.378 Y164.642 E343.76862
G1 X220.628 Y164.799 E343.89134
G1 X29.062 Y164.784 E357.27151
G1 X27.551 Y164.627 E357.37762
G1 X25.788 Y164.083 E357.50649
G1 X24.187 Y163.22 E357.63352
G1 X22.784 Y162.055 E357.7609
G1 X21.626 Y160.63 E357.88915
G1 X20.78 Y159.028 E358.01568
G1 X20.26 Y157.285 E358.14273
G1 X20.101 Y155.53 E358.26581
G1 X20.116 Y94.162 E362.55214
G1 X20.273 Y92.65 E362.65831
G1 X20.817 Y90.888 E362.78711
G1 X21.68 Y89.287 E362.91415
G1 X22.843 Y87.884 E363.04143
G1 X24.25 Y86.741 E363.16805
G1 X25.887 Y85.875 E363.2974
G0 F3600 X26.113 Y86.434
G1 F1800 X27.733 Y85.951 E363.41547
G1 X29.372 Y85.801 E363.53043
G1 X220.599 Y85.8 E376.88693
G1 X222.267 Y85.952 E377.00391
G1 X223.97 Y86.468 E377.1282
G1 X225.475 Y87.28 E377.24764
G1 X226.788 Y88.368 E377.36675
G1 X227.858 Y89.685 E377.48527
G1 X228.666 Y91.214 E377.60606
G1 X229.148 Y92.83 E377.72384
G1 X229.299 Y94.47 E377.83887
G1 X229.287 Y155.776 E382.12087
G1 X229.136 Y157.231 E382.22304
G1 X228.63 Y158.871 E382.34292
G1 X227.819 Y160.378 E382.46245
G1 X226.727 Y161.692 E382.58178
G1 X225.418 Y162.756 E382.69961
G1 X223.887 Y163.566 E382.82059
G1 X222.267 Y164.049 E382.93866
G1 X220.628 Y164.199 E383.05362
G1 X29.124 Y164.187 E396.42946
G1 X27.669 Y164.036 E396.53163
G1 X26.022 Y163.528 E396.65201
G1 X24.525 Y162.72 E396.77083
G1 X23.212 Y161.631 E396.88998
G1 X22.13 Y160.299 E397.00984
G1 X21.338 Y158.799 E397.12832
G1 X20.851 Y157.168 E397.24721
G1 X20.701 Y155.53 E397.36209
G1 X20.713 Y94.224 E401.64409
G1 X20.864 Y92.768 E401.74633
G1 X21.372 Y91.122 E401.86665
G1 X22.18 Y89.625 E401.98547
G1 X23.268 Y88.312 E402.10457
G1 X24.585 Y87.242 E402.22309
G1 X26.113 Y86.434 E402.34382
G0 F3600 X26.339 Y86.993
G1 F1800 X27.848 Y86.543 E402.4538
G1 X29.372 Y86.401 E402.56071
G1 X220.599 Y86.4 E415.91721
G1 X222.15 Y86.543 E416.026
G1 X223.737 Y87.024 E416.14182
G1 X225.137 Y87.78 E416.25295
G1 X226.36 Y88.793 E416.36387
G1 X227.357 Y90.02 E416.4743
G1 X228.107 Y91.439 E416.5864
G1 X228.557 Y92.947 E416.69632
G1 X228.699 Y94.47 E416.80316
G1 X228.69 Y155.714 E421.08082
G1 X228.545 Y157.113 E421.17906
G1 X228.074 Y158.639 E421.29061
G1 X227.321 Y160.038 E421.40158
G1 X226.305 Y161.261 E421.51263
G1 X225.08 Y162.257 E421.62291
G1 X223.661 Y163.007 E421.73501
G1 X222.152 Y163.457 E421.845
G1 X220.628 Y163.599 E421.9519
G1 X29.186 Y163.59 E435.32341
G1 X27.787 Y163.445 E435.42165
G1 X26.257 Y162.973 E435.53349
G1 X24.863 Y162.22 E435.64415
G1 X23.64 Y161.207 E435.75507
G1 X22.634 Y159.968 E435.86654
G1 X21.896 Y158.57 E435.97696
G1 X21.442 Y157.051 E436.08769
G1 X21.301 Y155.53 E436.19438
G1 X21.31 Y94.286 E440.47205
G1 X21.455 Y92.886 E440.57036
G1 X21.927 Y91.357 E440.68213
G1 X22.68 Y89.963 E440.79279
G1 X23.693 Y88.74 E440.90371
G1 X24.92 Y87.743 E441.01413
G1 X26.339 Y86.993 E441.12624
G0 F3600 X26.564 Y87.552
G1 F1800 X27.965 Y87.134 E441.22836
G1 X29.372 Y87.001 E441.32707
G1 X220.599 Y87 E454.68356
G1 X222.033 Y87.134 E454.78416
G1 X223.504 Y87.58 E454.89152
G1 X224.799 Y88.28 E454.99434
G1 X225.932 Y89.218 E455.09708
G1 X226.856 Y90.355 E455.19941
G1 X227.548 Y91.664 E455.30283
G1 X227.966 Y93.064 E455.40488
G1 X228.099 Y94.47 E455.50352
G1 X228.093 Y155.652 E459.77686
G1 X227.954 Y156.995 E459.87116
G1 X227.519 Y158.405 E459.97422
G1 X226.821 Y159.7 E460.07698
G1 X225.881 Y160.833 E460.1798
G1 X224.745 Y161.756 E460.28204
G1 X223.436 Y162.448 E460.38546
G1 X222.035 Y162.866 E460.48757
G1 X220.628 Y162.999 E460.58628
G1 X29.248 Y162.993 E473.95347
G1 X27.905 Y162.854 E474.04777
G1 X26.492 Y162.418 E474.15105
G1 X25.201 Y161.72 E474.25356
G1 X24.068 Y160.782 E474.3563
G1 X23.138 Y159.637 E474.45933
G1 X22.453 Y158.34 E474.56178
G1 X22.034 Y156.935 E474.66418
G1 X21.901 Y155.53 E474.76276
G1 X21.907 Y94.348 E479.03609
G1 X22.046 Y93.004 E479.13047
G1 X22.482 Y91.592 E479.23368
G1 X23.18 Y90.301 E479.33619
G1 X24.118 Y89.168 E479.43893
G1 X25.255 Y88.244 E479.54126
G1 X26.564 Y87.552 E479.64468
G0 F3600 X27.018 Y88.669
G1 F1800 X28.199 Y88.316 E479.73077
G1 X29.372 Y88.201 E479.81309
G1 X220.599 Y88.2 E493.16959
G1 X221.801 Y88.316 E493.25393
G1 X223.036 Y88.691 E493.34408
G1 X224.125 Y89.28 E493.43056
G1 X225.074 Y90.066 E493.51663
G1 X225.853 Y91.024 E493.60287
G1 X226.431 Y92.118 E493.68929
G1 X226.784 Y93.298 E493.77532
G1 X226.899 Y94.47 E493.85757
G1 X226.899 Y155.528 E498.12224
G1 X226.772 Y156.759 E498.20868
G1 X226.409 Y157.936 E498.29471
G1 X225.821 Y159.024 E498.38109
G1 X225.034 Y159.974 E498.46726
G1 X224.076 Y160.753 E498.5535
G1 X222.982 Y161.331 E498.63992
G1 X221.801 Y161.684 E498.72602
G1 X220.628 Y161.799 E498.80834
G1 X29.372 Y161.799 E512.16686
G1 X28.141 Y161.672 E512.2533
G1 X26.964 Y161.309 E512.33933
G1 X25.875 Y160.72 E512.4258
G1 X24.924 Y159.932 E512.51206
G1 X24.146 Y158.975 E512.59821
G1 X23.569 Y157.882 E512.68454
G1 X23.216 Y156.701 E512.77063
G1 X23.101 Y155.53 E512.85281
G1 X23.101 Y94.472 E517.11749
G1 X23.228 Y93.24 E517.20399
G1 X23.591 Y92.064 E517.28996
G1 X24.18 Y90.975 E517.37643
G1 X24.966 Y90.026 E517.4625
G1 X25.924 Y89.247 E517.54874
G1 X27.018 Y88.669 E517.63516
G0 F3600 X26.789 Y88.111
G1 F1800 X28.082 Y87.725 E517.72941
G1 X29.372 Y87.601 E517.81993
G1 X220.599 Y87.6 E531.17643
G1 X221.917 Y87.725 E531.2689
G1 X223.269 Y88.135 E531.36758
G1 X224.463 Y88.781 E531.4624
G1 X225.504 Y89.643 E531.5568
G1 X226.355 Y90.69 E531.65104
G1 X226.989 Y91.889 E531.74577
G1 X227.375 Y93.181 E531.83995
G1 X227.499 Y94.47 E531.9304
G1 X227.496 Y155.59 E536.1994
G1 X227.363 Y156.877 E536.28977
G1 X226.964 Y158.171 E536.38435
G1 X226.321 Y159.362 E536.47889
G1 X225.457 Y160.405 E536.57349
G1 X224.41 Y161.255 E536.66768
G1 X223.211 Y161.889 E536.76242
G1 X221.918 Y162.275 E536.85667
G1 X220.628 Y162.399 E536.94718
G1 X29.31 Y162.396 E550.31003
G1 X28.023 Y162.263 E550.4004
G1 X26.729 Y161.864 E550.49498
G1 X25.537 Y161.219 E550.58965
G1 X24.496 Y160.357 E550.68405
G1 X23.642 Y159.306 E550.77864
G1 X23.011 Y158.111 E550.87303
G1 X22.625 Y156.818 E550.96728
G1 X22.501 Y155.53 E551.05765
G1 X22.504 Y94.41 E555.32666
