;FLAVOR:Marlin
;TIME:262
;Filament used: 0.135279m
;Layer height: 0.3
;MINX:113.308
;MINY:114.204
;MINZ:0.2
;MAXX:136.692
;MAXY:135.796
;MAXZ:10.38
;TARGET_MACHINE.NAME:VORON2 250
;Generated with Cura_SteamEngine 5.6.0
M140 S60
M105
M190 S60
M104 S215
M105
M109 S215
M82 ;absolute extrusion mode
START_PRINT
G92 E0
G92 E0
G1 F300 E-0.5
;LAYER_COUNT:34
;LAYER:0
M107
M204 S1800
G1 F600 Z0.48
G0 F3600 X115.522 Y116.528 Z0.48
;TYPE:SKIRT
G1 F600 Z0.2
G1 F120 E0
G1 F1800 X116.977 Y115.381 E0.06933
G1 X118.572 Y114.602 E0.13574
G1 X120.286 Y114.204 E0.20158
G1 X129.706 Y114.204 E0.55406
G1 X131.344 Y114.56 E0.61678
G1 X132.905 Y115.286 E0.6812
G1 X134.368 Y116.418 E0.75041
G1 X135.515 Y117.873 E0.81974
G1 X136.294 Y119.468 E0.88616
G1 X136.692 Y121.182 E0.952
G1 X136.692 Y125.553 E1.11555
G1 X135.769 Y128.268 E1.22285
G1 X134.585 Y129.761 E1.29415
G1 X133.396 Y130.97 E1.3576
G1 X130.424 Y132.679 E1.48588
G1 X129.133 Y133.099 E1.53667
G1 X128.855 Y133.46 E1.55372
G1 X127.38 Y134.627 E1.6241
G1 X125.819 Y135.39 E1.68911
G1 X124.076 Y135.796 E1.75608
G1 X120.433 Y135.796 E1.89239
G1 X118.157 Y135.038 E1.98215
G1 X116.528 Y134.022 E2.05399
G1 X115.037 Y132.506 E2.13355
G1 X114.011 Y130.836 E2.20689
G1 X113.308 Y128.629 E2.29356
G1 X113.308 Y121.19 E2.57191
G1 X113.664 Y119.552 E2.63463
G1 X114.39 Y117.991 E2.69905
G1 X115.522 Y116.528 E2.76826
G0 F3600 X115.844 Y116.847
G1 F1800 X117.219 Y115.763 E2.83378
G1 X118.722 Y115.029 E2.89636
G1 X120.336 Y114.654 E2.95836
G1 X129.657 Y114.654 E3.30713
G1 X131.2 Y114.989 E3.36621
G1 X132.67 Y115.673 E3.42688
G1 X134.049 Y116.74 E3.49212
G1 X135.133 Y118.115 E3.55764
G1 X135.867 Y119.618 E3.62022
G1 X136.242 Y121.232 E3.68222
G1 X136.242 Y125.479 E3.84114
G1 X135.368 Y128.05 E3.94275
G1 X134.264 Y129.445 E4.00931
G1 X133.116 Y130.612 E4.07056
G1 X130.241 Y132.265 E4.19465
G1 X128.861 Y132.714 E4.24895
G1 X128.532 Y133.142 E4.26915
G1 X127.139 Y134.244 E4.33561
G1 X125.666 Y134.964 E4.39696
G1 X124.026 Y135.346 E4.45997
G1 X120.506 Y135.346 E4.59168
G1 X118.35 Y134.628 E4.67671
G1 X116.813 Y133.669 E4.7445
G1 X115.392 Y132.225 E4.8203
G1 X114.424 Y130.649 E4.88951
G1 X113.758 Y128.558 E4.97162
G1 X113.758 Y121.239 E5.24548
G1 X114.093 Y119.696 E5.30456
G1 X114.777 Y118.226 E5.36523
G1 X115.844 Y116.847 E5.43047
G0 F3600 X116.166 Y117.166
G1 F1800 X117.461 Y116.145 E5.49217
G1 X118.872 Y115.456 E5.55093
G1 X120.386 Y115.104 E5.60909
G1 X129.607 Y115.104 E5.95412
G1 X131.057 Y115.419 E6.00964
G1 X132.435 Y116.06 E6.06651
G1 X133.73 Y117.062 E6.12777
G1 X134.751 Y118.357 E6.18948
G1 X135.44 Y119.768 E6.24823
G1 X135.792 Y121.282 E6.30639
G1 X135.792 Y125.405 E6.46067
G1 X134.967 Y127.832 E6.55658
G1 X133.943 Y129.13 E6.61844
G1 X132.839 Y130.253 E6.67737
G1 X130.058 Y131.851 E6.79738
G1 X128.589 Y132.329 E6.85519
G1 X128.209 Y132.824 E6.87854
G1 X126.898 Y133.861 E6.94108
G1 X125.513 Y134.538 E6.99877
G1 X123.976 Y134.896 E7.05782
G1 X120.579 Y134.896 E7.18492
G1 X118.543 Y134.218 E7.26522
G1 X117.095 Y133.315 E7.32907
G1 X115.749 Y131.946 E7.40091
G1 X114.837 Y130.462 E7.46608
G1 X114.208 Y128.487 E7.54364
G1 X114.208 Y121.289 E7.81297
G1 X114.523 Y119.839 E7.86849
G1 X115.164 Y118.461 E7.92536
G1 X116.166 Y117.166 E7.98663
G0 F3600 X116.488 Y117.485
G1 F1800 X115.551 Y118.696 E8.04392
G1 X114.953 Y119.982 E8.09699
G1 X114.658 Y121.339 E8.14895
G1 X114.658 Y128.416 E8.41376
G1 X115.25 Y130.275 E8.48676
G1 X116.106 Y131.668 E8.54793
G1 X117.377 Y132.961 E8.61578
G1 X118.736 Y133.808 E8.67569
G1 X120.652 Y134.446 E8.75126
G1 X123.926 Y134.446 E8.87376
G1 X125.36 Y134.112 E8.92885
G1 X126.657 Y133.478 E8.98287
G1 X127.886 Y132.506 E9.0415
G1 X128.356 Y131.893 E9.07041
G1 X128.567 Y131.863 E9.07838
G1 X129.875 Y131.437 E9.12985
G1 X132.559 Y129.895 E9.24568
G1 X133.622 Y128.814 E9.30241
G1 X134.566 Y127.614 E9.35954
G1 X135.342 Y125.331 E9.44976
G1 X135.342 Y121.332 E9.59939
G1 X135.013 Y119.918 E9.65371
G1 X134.369 Y118.599 E9.70864
G1 X133.411 Y117.384 E9.76653
G1 X132.2 Y116.447 E9.82382
G1 X130.914 Y115.849 E9.87689
G1 X129.557 Y115.554 E9.92885
G1 X120.436 Y115.554 E10.27014
G1 X119.022 Y115.883 E10.32446
G1 X117.703 Y116.527 E10.37938
G1 X116.488 Y117.485 E10.43728
G0 F3600 X116.81 Y117.804
G1 F1800 X115.938 Y118.931 E10.4906
G1 X115.382 Y120.126 E10.53991
G1 X115.108 Y121.388 E10.58824
G1 X115.108 Y128.345 E10.84855
G1 X115.663 Y130.088 E10.917
G1 X116.463 Y131.39 E10.97417
G1 X117.659 Y132.607 E11.03802
G1 X118.929 Y133.398 E11.094
G1 X120.725 Y133.996 E11.16483
G1 X123.876 Y133.996 E11.28274
G1 X125.207 Y133.686 E11.33387
G1 X126.416 Y133.095 E11.38423
G1 X127.565 Y132.187 E11.43902
G1 X128.121 Y131.46 E11.47327
G1 X128.428 Y131.435 E11.48479
G1 X129.692 Y131.023 E11.53454
G1 X132.282 Y129.536 E11.64629
G1 X133.268 Y128.536 E11.69884
G1 X134.165 Y127.396 E11.75311
G1 X134.892 Y125.257 E11.83765
G1 X134.892 Y121.382 E11.98264
G1 X134.586 Y120.068 E12.03312
G1 X133.987 Y118.841 E12.08421
G1 X133.092 Y117.706 E12.1383
G1 X131.965 Y116.834 E12.19162
G1 X130.77 Y116.278 E12.24093
G1 X129.508 Y116.004 E12.28925
G1 X120.486 Y116.004 E12.62684
G1 X119.172 Y116.31 E12.67732
G1 X117.945 Y116.909 E12.72841
G1 X116.81 Y117.804 E12.78249
G0 F3600 X117.132 Y118.123
G1 F1800 X116.325 Y119.166 E12.83184
G1 X115.812 Y120.269 E12.87735
G1 X115.558 Y121.438 E12.92212
G1 X115.558 Y128.275 E13.17794
G1 X116.075 Y129.9 E13.24175
G1 X116.818 Y131.109 E13.29485
G1 X117.944 Y132.254 E13.35493
G1 X119.122 Y132.988 E13.40687
G1 X120.798 Y133.546 E13.47296
G1 X123.826 Y133.546 E13.58627
G1 X125.054 Y133.26 E13.63344
G1 X126.175 Y132.712 E13.68013
G1 X127.241 Y131.87 E13.73096
G1 X127.885 Y131.027 E13.77066
G1 X128.34 Y130.99 E13.78774
G1 X129.509 Y130.609 E13.83374
G1 X132.003 Y129.178 E13.94133
G1 X132.947 Y128.22 E13.99166
G1 X133.764 Y127.178 E14.0412
G1 X134.442 Y125.183 E14.12004
G1 X134.442 Y121.432 E14.2604
G1 X134.16 Y120.22 E14.30696
G1 X133.604 Y119.082 E14.35435
G1 X132.773 Y118.028 E14.40457
G1 X131.73 Y117.221 E14.45392
G1 X130.627 Y116.708 E14.49943
G1 X129.458 Y116.454 E14.5442
G1 X120.536 Y116.454 E14.87804
G1 X119.324 Y116.736 E14.9246
G1 X118.186 Y117.292 E14.97199
G1 X117.132 Y118.123 E15.02221
G0 F3600 X117.454 Y118.442
G1 F1800 X116.712 Y119.401 E15.06758
G1 X116.242 Y120.412 E15.1093
G1 X116.008 Y121.488 E15.1505
G1 X116.008 Y128.204 E15.4018
G1 X116.489 Y129.715 E15.46113
G1 X117.173 Y130.829 E15.51005
G1 X118.226 Y131.9 E15.56625
G1 X119.315 Y132.578 E15.61424
G1 X120.871 Y133.096 E15.67561
G1 X123.776 Y133.096 E15.78431
G1 X124.901 Y132.834 E15.82753
G1 X125.934 Y132.329 E15.87055
G1 X126.917 Y131.553 E15.91741
G1 X127.649 Y130.594 E15.96256
G1 X128.253 Y130.545 E15.98523
G1 X129.327 Y130.195 E16.0275
G1 X131.724 Y128.82 E16.1309
G1 X132.626 Y127.904 E16.179
G1 X133.363 Y126.96 E16.22381
G1 X133.992 Y125.109 E16.29696
G1 X133.992 Y121.482 E16.43267
G1 X133.733 Y120.371 E16.47536
G1 X133.222 Y119.324 E16.51895
G1 X132.454 Y118.35 E16.56536
G1 X131.495 Y117.608 E16.61073
G1 X130.484 Y117.138 E16.65245
G1 X129.408 Y116.904 E16.69365
G1 X120.586 Y116.904 E17.02375
G1 X119.475 Y117.163 E17.06644
G1 X118.428 Y117.674 E17.11003
G1 X117.454 Y118.442 E17.15644
G0 F3600 X117.776 Y118.761
G1 F1800 X118.669 Y118.057 E17.19899
G1 X119.627 Y117.589 E17.23889
G1 X120.637 Y117.354 E17.27769
G1 X129.359 Y117.354 E17.60404
G1 X130.34 Y117.567 E17.64161
G1 X131.26 Y117.995 E17.67957
G1 X132.135 Y118.672 E17.72097
G1 X132.839 Y119.565 E17.76352
G1 X133.307 Y120.523 E17.80341
G1 X133.542 Y121.533 E17.84221
G1 X133.542 Y125.035 E17.97325
G1 X132.962 Y126.742 E18.04071
G1 X132.271 Y127.627 E18.08272
G1 X131.447 Y128.461 E18.12659
G1 X129.145 Y129.781 E18.22588
G1 X128.166 Y130.1 E18.26441
G1 X127.358 Y130.166 E18.29474
G1 X127.268 Y130.36 E18.30275
G1 X126.594 Y131.235 E18.34407
G1 X125.693 Y131.946 E18.38702
G1 X124.748 Y132.408 E18.42638
G1 X123.726 Y132.646 E18.46564
G1 X120.944 Y132.646 E18.56974
G1 X119.508 Y132.168 E18.62637
G1 X118.511 Y131.547 E18.67032
G1 X117.529 Y130.549 E18.72271
G1 X116.901 Y129.526 E18.76762
G1 X116.458 Y128.134 E18.82228
G1 X116.458 Y121.537 E19.06913
G1 X116.671 Y120.556 E19.10669
G1 X117.099 Y119.636 E19.14466
G1 X117.776 Y118.761 E19.18605
G0 F3600 X118.098 Y119.08
G1 F1800 X118.911 Y118.439 E19.22479
G1 X119.778 Y118.016 E19.26089
G1 X120.687 Y117.804 E19.29581
G1 X129.309 Y117.804 E19.61843
G1 X130.197 Y117.997 E19.65243
G1 X131.025 Y118.382 E19.6866
G1 X131.816 Y118.994 E19.72402
G1 X132.457 Y119.807 E19.76276
G1 X132.88 Y120.674 E19.79885
G1 X133.092 Y121.583 E19.83378
G1 X133.092 Y124.961 E19.96018
G1 X132.561 Y126.524 E20.02194
G1 X131.916 Y127.35 E20.06116
G1 X131.17 Y128.101 E20.10077
G1 X128.963 Y129.367 E20.19597
G1 X128.079 Y129.655 E20.23076
G1 X127.061 Y129.738 E20.26897
G1 X126.882 Y130.122 E20.28483
G1 X126.269 Y130.918 E20.32242
G1 X125.452 Y131.563 E20.36137
G1 X124.595 Y131.982 E20.39706
G1 X123.676 Y132.196 E20.43237
G1 X121.017 Y132.196 E20.53186
G1 X119.701 Y131.758 E20.58376
G1 X118.796 Y131.194 E20.62366
G1 X117.885 Y130.269 E20.67224
G1 X117.313 Y129.337 E20.71316
G1 X116.908 Y128.064 E20.76314
G1 X116.908 Y121.587 E21.0055
G1 X117.101 Y120.699 E21.0395
G1 X117.486 Y119.871 E21.07367
G1 X118.098 Y119.08 E21.11109
G0 F3600 X118.42 Y119.399
G1 F1800 X117.873 Y120.106 E21.14454
G1 X117.531 Y120.842 E21.1749
G1 X117.358 Y121.637 E21.20535
G1 X117.358 Y127.993 E21.44317
G1 X117.727 Y129.152 E21.48869
G1 X118.239 Y129.986 E21.5253
G1 X119.081 Y130.841 E21.5702
G1 X119.894 Y131.348 E21.60606
G1 X121.09 Y131.746 E21.65322
G1 X123.626 Y131.746 E21.74811
G1 X124.442 Y131.556 E21.77946
G1 X125.211 Y131.18 E21.81149
G1 X125.944 Y130.601 E21.84644
G1 X126.496 Y129.884 E21.8803
G1 X126.807 Y129.218 E21.9078
G1 X127.195 Y129.275 E21.92248
G1 X127.992 Y129.21 E21.9524
G1 X128.781 Y128.953 E21.98345
G1 X130.894 Y127.741 E22.07459
G1 X131.561 Y127.073 E22.10992
G1 X132.16 Y126.306 E22.14633
G1 X132.642 Y124.887 E22.2024
G1 X132.642 Y121.634 E22.32412
G1 X132.453 Y120.824 E22.35525
G1 X132.075 Y120.049 E22.38751
G1 X131.497 Y119.316 E22.42244
G1 X130.79 Y118.769 E22.45589
G1 X130.054 Y118.427 E22.48625
G1 X129.259 Y118.254 E22.5167
G1 X120.738 Y118.254 E22.83553
G1 X119.928 Y118.443 E22.86666
G1 X119.153 Y118.821 E22.89892
G1 X118.42 Y119.399 E22.93385
G0 F3600 X118.742 Y119.718
G1 F1800 X119.395 Y119.203 E22.96497
G1 X120.078 Y118.87 E22.9934
G1 X120.789 Y118.704 E23.02072
G1 X129.21 Y118.704 E23.33581
G1 X129.91 Y118.856 E23.36261
G1 X130.555 Y119.156 E23.38923
G1 X131.178 Y119.638 E23.41871
G1 X131.693 Y120.291 E23.44982
G1 X132.026 Y120.974 E23.47826
G1 X132.192 Y121.685 E23.50557
G1 X132.192 Y124.813 E23.62262
G1 X131.759 Y126.088 E23.673
G1 X131.206 Y126.796 E23.70662
G1 X130.618 Y127.381 E23.73765
G1 X128.599 Y128.539 E23.82474
G1 X127.905 Y128.765 E23.85205
G1 X127.206 Y128.822 E23.87829
G1 X126.47 Y128.714 E23.90613
G1 X126.405 Y129.015 E23.91765
G1 X126.109 Y129.649 E23.94383
G1 X125.621 Y130.283 E23.97377
G1 X124.97 Y130.797 E24.0048
G1 X124.289 Y131.13 E24.03317
G1 X123.576 Y131.296 E24.06056
G1 X121.163 Y131.296 E24.15085
G1 X120.087 Y130.938 E24.19328
G1 X119.366 Y130.488 E24.22508
G1 X118.593 Y129.703 E24.26631
G1 X118.141 Y128.967 E24.29862
G1 X117.808 Y127.922 E24.33966
G1 X117.808 Y121.686 E24.573
G1 X117.96 Y120.986 E24.5998
G1 X118.26 Y120.341 E24.62642
G1 X118.742 Y119.718 E24.65589
G0 F3600 X119.063 Y120.038
G1 F1800 X119.637 Y119.586 E24.68323
G1 X120.23 Y119.296 E24.70793
G1 X120.84 Y119.154 E24.73136
G1 X129.16 Y119.154 E25.04268
G1 X129.767 Y119.286 E25.06592
G1 X130.32 Y119.543 E25.08874
G1 X130.858 Y119.959 E25.11419
G1 X131.31 Y120.533 E25.14152
G1 X131.6 Y121.126 E25.16622
G1 X131.742 Y121.736 E25.18966
G1 X131.742 Y124.739 E25.30202
G1 X131.358 Y125.87 E25.34672
G1 X130.851 Y126.519 E25.37753
G1 X130.343 Y127.02 E25.40423
G1 X128.417 Y128.125 E25.48731
G1 X127.818 Y128.32 E25.51088
G1 X127.217 Y128.369 E25.53345
G1 X126.533 Y128.269 E25.55931
G1 X126.108 Y128.1 E25.57643
G1 X126.098 Y128.307 E25.58418
G1 X125.975 Y128.872 E25.60582
G1 X125.722 Y129.415 E25.62823
G1 X125.299 Y129.964 E25.65417
G1 X124.729 Y130.414 E25.68134
G1 X124.136 Y130.704 E25.70604
G1 X123.526 Y130.846 E25.72947
G1 X121.236 Y130.846 E25.81516
G1 X120.28 Y130.528 E25.85286
G1 X119.648 Y130.134 E25.88073
G1 X118.95 Y129.424 E25.91798
G1 X118.554 Y128.78 E25.94627
G1 X118.258 Y127.851 E25.98275
G1 X118.258 Y121.736 E26.21156
G1 X118.39 Y121.129 E26.2348
G1 X118.647 Y120.576 E26.25762
G1 X119.063 Y120.038 E26.28307
G0 F3600 X119.387 Y120.356
G1 F1800 X119.033 Y120.813 E26.3047
G1 X118.819 Y121.273 E26.32368
G1 X118.708 Y121.785 E26.34328
G1 X118.708 Y127.78 E26.5676
G1 X118.967 Y128.593 E26.59953
G1 X119.307 Y129.146 E26.62382
G1 X119.93 Y129.78 E26.65708
G1 X120.473 Y130.118 E26.68101
G1 X121.309 Y130.396 E26.71398
G1 X123.476 Y130.396 E26.79506
G1 X123.983 Y130.278 E26.81454
G1 X124.488 Y130.031 E26.83557
G1 X124.977 Y129.645 E26.85888
G1 X125.335 Y129.181 E26.88081
G1 X125.546 Y128.728 E26.89951
G1 X125.658 Y128.212 E26.91927
G1 X125.656 Y127.326 E26.95242
G1 X126.062 Y127.599 E26.97073
G1 X126.649 Y127.831 E26.99435
G1 X127.228 Y127.916 E27.01624
G1 X127.73 Y127.875 E27.03509
G1 X128.236 Y127.71 E27.055
G1 X130.069 Y126.659 E27.13406
G1 X130.496 Y126.242 E27.1564
G1 X130.957 Y125.652 E27.18441
G1 X131.292 Y124.665 E27.22341
G1 X131.292 Y121.786 E27.33114
G1 X131.174 Y121.279 E27.35062
G1 X130.927 Y120.774 E27.37165
G1 X130.54 Y120.283 E27.39504
G1 X130.083 Y119.929 E27.41667
G1 X129.623 Y119.715 E27.43566
G1 X129.111 Y119.604 E27.45526
G1 X120.89 Y119.604 E27.76287
G1 X120.383 Y119.722 E27.78235
G1 X119.878 Y119.969 E27.80338
G1 X119.387 Y120.356 E27.82678
G0 F3600 X119.711 Y120.674
G1 F1800 X120.119 Y120.352 E27.84622
G1 X120.536 Y120.148 E27.8636
G1 X120.94 Y120.054 E27.87912
G1 X129.062 Y120.054 E28.18302
G1 X129.479 Y120.144 E28.19898
G1 X129.845 Y120.315 E28.2141
G1 X130.222 Y120.607 E28.23194
G1 X130.544 Y121.015 E28.25139
G1 X130.748 Y121.432 E28.26876
G1 X130.842 Y121.836 E28.28428
G1 X130.842 Y124.591 E28.38737
G1 X130.556 Y125.434 E28.42068
G1 X130.141 Y125.965 E28.44589
G1 X129.796 Y126.297 E28.46381
G1 X128.054 Y127.296 E28.53895
G1 X127.643 Y127.43 E28.55512
G1 X127.239 Y127.463 E28.57029
G1 X126.766 Y127.394 E28.58818
G1 X126.273 Y127.199 E28.60801
G1 X125.921 Y126.964 E28.62385
G1 X125.654 Y126.689 E28.63819
G1 X125.426 Y126.323 E28.65433
G1 X125.277 Y125.908 E28.67083
G1 X125.211 Y125.877 E28.67355
G1 X125.148 Y125.956 E28.67734
G1 X125.204 Y126.394 E28.69386
G1 X125.208 Y128.164 E28.76009
G1 X125.117 Y128.584 E28.77617
G1 X124.948 Y128.947 E28.79115
G1 X124.655 Y129.326 E28.80907
G1 X124.247 Y129.648 E28.82852
G1 X123.83 Y129.852 E28.84589
G1 X123.426 Y129.946 E28.86141
G1 X121.382 Y129.946 E28.9379
G1 X120.666 Y129.708 E28.96613
G1 X120.215 Y129.427 E28.98601
G1 X119.662 Y128.865 E29.01551
G1 X119.38 Y128.406 E29.03567
G1 X119.158 Y127.709 E29.06304
G1 X119.158 Y121.834 E29.28287
G1 X119.248 Y121.417 E29.29883
G1 X119.419 Y121.051 E29.31395
G1 X119.711 Y120.674 E29.33179
G0 F3600 X120.033 Y120.993
G1 F1800 X120.36 Y120.735 E29.34738
G1 X120.689 Y120.574 E29.36108
G1 X120.99 Y120.504 E29.37264
G1 X129.013 Y120.504 E29.67285
G1 X129.337 Y120.574 E29.68525
G1 X129.608 Y120.701 E29.69645
G1 X129.903 Y120.929 E29.7104
G1 X130.161 Y121.256 E29.72598
G1 X130.322 Y121.585 E29.73969
G1 X130.392 Y121.886 E29.75125
G1 X130.392 Y124.517 E29.8497
G1 X130.154 Y125.217 E29.87736
G1 X129.829 Y125.641 E29.89735
G1 X129.524 Y125.935 E29.9132
G1 X127.872 Y126.882 E29.98445
G1 X127.556 Y126.985 E29.99689
G1 X127.249 Y127.01 E30.00842
G1 X126.883 Y126.957 E30.02225
G1 X126.484 Y126.799 E30.03831
G1 X126.21 Y126.616 E30.05064
G1 X126.011 Y126.411 E30.06133
G1 X125.833 Y126.126 E30.0739
G1 X125.654 Y125.624 E30.09385
G1 X125.436 Y125.468 E30.10388
G1 X125.165 Y125.405 E30.11429
G1 X124.896 Y125.524 E30.12529
G1 X124.787 Y125.645 E30.13139
G1 X124.685 Y125.899 E30.14163
G1 X124.754 Y126.395 E30.16037
G1 X124.758 Y128.116 E30.22476
G1 X124.688 Y128.44 E30.23716
G1 X124.561 Y128.712 E30.2484
G1 X124.333 Y129.007 E30.26235
G1 X124.006 Y129.265 E30.27793
