;FLAVOR:Marlin
;TIME:294
;Filament used: 0.138061m
;Layer height: 0.3
;MINX:113.202
;MINY:114.156
;MINZ:0.2
;MAXX:136.81
;MAXY:135.844
;MAXZ:10.38
;TARGET_MACHINE.NAME:VORON2 250
;Generated with Cura_SteamEngine 5.6.0
M140 S60
M105
M190 S60
M104 S215
M105
M109 S215
M82 ;absolute extrusion mode
START_PRINT
G92 E0
G92 E0
G1 F300 E-0.5
;LAYER_COUNT:34
;LAYER:0
M107
M204 S1800
G1 F600 Z0.48
G0 F3600 X115.416 Y116.48 Z0.48
;TYPE:SKIRT
G1 F600 Z0.2
G1 F120 E0
G1 F1800 X116.871 Y115.333 E0.06933
G1 X118.466 Y114.554 E0.13574
G1 X120.18 Y114.156 E0.20158
G1 X129.812 Y114.156 E0.56199
G1 X131.45 Y114.512 E0.62471
G1 X133.011 Y115.238 E0.68913
G1 X134.474 Y116.37 E0.75834
G1 X135.632 Y117.836 E0.82825
G1 X136.416 Y119.432 E0.89478
G1 X136.81 Y121.17 E0.96146
G1 X136.72 Y125.199 E1.11226
G1 X136.513 Y126.535 E1.16284
G1 X135.654 Y128.486 E1.24261
G1 X134.397 Y130.006 E1.31641
G1 X133.443 Y130.938 E1.36632
G1 X130.509 Y132.613 E1.49273
G1 X129.601 Y132.902 E1.52838
G1 X129.041 Y133.504 E1.55915
G1 X126.419 Y135.187 E1.67573
G1 X124.156 Y135.844 E1.7639
G1 X120.327 Y135.844 E1.90717
G1 X118.073 Y135.095 E1.99605
G1 X116.417 Y134.067 E2.06898
G1 X114.888 Y132.506 E2.15074
G1 X113.924 Y130.919 E2.22022
G1 X113.202 Y128.668 E2.30867
G1 X113.202 Y121.142 E2.59028
G1 X113.558 Y119.504 E2.653
G1 X114.284 Y117.943 E2.71742
G1 X115.416 Y116.48 E2.78663
G0 F3600 X115.738 Y116.799
G1 F1800 X117.113 Y115.715 E2.85215
G1 X118.616 Y114.981 E2.91473
G1 X120.23 Y114.606 E2.97673
G1 X129.763 Y114.606 E3.33344
G1 X131.306 Y114.941 E3.39252
G1 X132.776 Y115.625 E3.45318
G1 X134.155 Y116.692 E3.51843
G1 X135.249 Y118.077 E3.58447
G1 X135.989 Y119.583 E3.64725
G1 X136.359 Y121.215 E3.70987
G1 X136.275 Y125.13 E3.85639
G1 X136.077 Y126.409 E3.90482
G1 X135.267 Y128.249 E3.98004
G1 X134.083 Y129.684 E4.04965
G1 X133.171 Y130.575 E4.09736
G1 X130.328 Y132.198 E4.21985
G1 X129.352 Y132.509 E4.25818
G1 X128.751 Y133.155 E4.2912
G1 X126.23 Y134.773 E4.40328
G1 X124.092 Y135.394 E4.48659
G1 X120.4 Y135.394 E4.62474
G1 X118.263 Y134.684 E4.709
G1 X116.703 Y133.716 E4.77769
G1 X115.246 Y132.228 E4.85562
G1 X114.334 Y130.726 E4.92137
G1 X113.652 Y128.6 E5.00491
G1 X113.652 Y121.191 E5.28214
G1 X113.987 Y119.648 E5.34122
G1 X114.671 Y118.178 E5.40188
G1 X115.738 Y116.799 E5.46712
G0 F3600 X116.06 Y117.118
G1 F1800 X117.355 Y116.097 E5.52883
G1 X118.766 Y115.408 E5.58758
G1 X120.28 Y115.056 E5.64575
G1 X129.713 Y115.056 E5.99871
G1 X131.163 Y115.371 E6.05423
G1 X132.541 Y116.012 E6.11109
G1 X133.836 Y117.014 E6.17236
G1 X134.865 Y118.317 E6.23449
G1 X135.562 Y119.735 E6.29361
G1 X135.908 Y121.261 E6.35216
G1 X135.83 Y125.061 E6.49437
G1 X135.641 Y126.283 E6.54064
G1 X134.88 Y128.012 E6.61133
G1 X133.769 Y129.362 E6.67675
G1 X132.899 Y130.212 E6.72226
G1 X130.146 Y131.784 E6.84088
G1 X129.103 Y132.116 E6.88183
G1 X128.461 Y132.806 E6.9171
G1 X126.04 Y134.36 E7.02474
G1 X124.029 Y134.944 E7.1031
G1 X120.473 Y134.944 E7.23616
G1 X118.453 Y134.273 E7.3158
G1 X116.987 Y133.363 E7.38036
G1 X115.606 Y131.953 E7.45421
G1 X114.744 Y130.533 E7.51637
G1 X114.102 Y128.532 E7.595
G1 X114.102 Y121.241 E7.86781
G1 X114.417 Y119.791 E7.92334
G1 X115.058 Y118.413 E7.9802
G1 X116.06 Y117.118 E8.04147
G0 F3600 X116.382 Y117.437
G1 F1800 X117.597 Y116.479 E8.09936
G1 X118.916 Y115.835 E8.15429
G1 X120.33 Y115.506 E8.20861
G1 X129.663 Y115.506 E8.55783
G1 X131.02 Y115.801 E8.60979
G1 X132.306 Y116.399 E8.66286
G1 X133.517 Y117.336 E8.72015
G1 X134.482 Y118.558 E8.77841
G1 X135.134 Y119.885 E8.83373
G1 X135.457 Y121.307 E8.8883
G1 X135.38 Y125.052 E9.02846
G1 X135.206 Y126.154 E9.0702
G1 X134.493 Y127.775 E9.13646
G1 X133.455 Y129.04 E9.19769
G1 X132.627 Y129.849 E9.24101
G1 X129.965 Y131.369 E9.35571
G1 X128.855 Y131.723 E9.3993
G1 X128.171 Y132.457 E9.43684
G1 X125.85 Y133.947 E9.54004
G1 X123.966 Y134.494 E9.61345
G1 X120.546 Y134.494 E9.74142
G1 X118.643 Y133.862 E9.81645
G1 X117.271 Y133.01 E9.87688
G1 X115.966 Y131.678 E9.94665
G1 X115.155 Y130.342 E10.00513
G1 X114.552 Y128.463 E10.07897
G1 X114.552 Y121.291 E10.34733
G1 X114.847 Y119.934 E10.39929
G1 X115.445 Y118.648 E10.45236
G1 X116.382 Y117.437 E10.50965
G0 F3600 X116.704 Y117.756
G1 F1800 X117.839 Y116.861 E10.56374
G1 X119.066 Y116.262 E10.61483
G1 X120.38 Y115.956 E10.66531
G1 X129.614 Y115.956 E11.01083
G1 X130.876 Y116.23 E11.05915
G1 X132.071 Y116.786 E11.10846
G1 X133.198 Y117.658 E11.16178
G1 X134.098 Y118.798 E11.21613
G1 X134.707 Y120.037 E11.26779
G1 X135.006 Y121.354 E11.31832
G1 X134.935 Y124.982 E11.4541
G1 X134.77 Y126.028 E11.49372
G1 X134.107 Y127.536 E11.55536
G1 X133.107 Y128.754 E11.61433
G1 X132.355 Y129.486 E11.65359
G1 X129.784 Y130.954 E11.76437
G1 X128.607 Y131.329 E11.81059
G1 X127.881 Y132.108 E11.85044
G1 X125.66 Y133.534 E11.9492
G1 X123.903 Y134.044 E12.01765
G1 X120.619 Y134.044 E12.14053
G1 X118.833 Y133.451 E12.21095
G1 X117.557 Y132.659 E12.26714
G1 X116.324 Y131.4 E12.33308
G1 X115.567 Y130.153 E12.38767
G1 X115.002 Y128.391 E12.4569
G1 X115.002 Y121.34 E12.72073
G1 X115.276 Y120.078 E12.76905
G1 X115.832 Y118.883 E12.81837
G1 X116.704 Y117.756 E12.87169
G0 F3600 X117.026 Y118.075
G1 F1800 X118.08 Y117.244 E12.92191
G1 X119.218 Y116.688 E12.9693
G1 X120.43 Y116.406 E13.01587
G1 X129.564 Y116.406 E13.35764
G1 X130.733 Y116.66 E13.4024
G1 X131.836 Y117.173 E13.44792
G1 X132.879 Y117.98 E13.49726
G1 X133.714 Y119.038 E13.54769
G1 X134.28 Y120.189 E13.59569
G1 X134.555 Y121.401 E13.64219
G1 X134.49 Y124.912 E13.77359
G1 X134.334 Y125.902 E13.81109
G1 X133.72 Y127.299 E13.86818
G1 X132.793 Y128.432 E13.92296
G1 X132.083 Y129.123 E13.96003
G1 X129.603 Y130.539 E14.06689
G1 X128.359 Y130.936 E14.11575
G1 X127.591 Y131.759 E14.15787
G1 X125.471 Y133.12 E14.25213
G1 X123.839 Y133.594 E14.31572
G1 X120.692 Y133.594 E14.43348
G1 X119.023 Y133.04 E14.49928
G1 X117.841 Y132.306 E14.55134
G1 X116.682 Y131.123 E14.61331
G1 X115.978 Y129.963 E14.66408
G1 X115.452 Y128.323 E14.72852
G1 X115.452 Y121.39 E14.98794
G1 X115.706 Y120.221 E15.0327
G1 X116.219 Y119.118 E15.07822
G1 X117.026 Y118.075 E15.12756
G0 F3600 X117.348 Y118.394
G1 F1800 X118.322 Y117.626 E15.17398
G1 X119.369 Y117.115 E15.21757
G1 X120.48 Y116.856 E15.26025
G1 X129.514 Y116.856 E15.59829
G1 X130.59 Y117.09 E15.63949
G1 X131.601 Y117.56 E15.68121
G1 X132.56 Y118.302 E15.72658
G1 X133.331 Y119.279 E15.77314
G1 X133.852 Y120.339 E15.81734
G1 X134.104 Y121.448 E15.85989
G1 X134.045 Y124.842 E15.98691
G1 X133.898 Y125.776 E16.02229
G1 X133.333 Y127.062 E16.07484
G1 X132.479 Y128.109 E16.1254
G1 X131.809 Y128.761 E16.16038
G1 X129.422 Y130.124 E16.26323
G1 X128.351 Y130.466 E16.3053
G1 X128.119 Y130.485 E16.31401
G1 X127.927 Y130.739 E16.32592
G1 X127.301 Y131.41 E16.36026
G1 X125.281 Y132.707 E16.45008
G1 X123.776 Y133.144 E16.50872
G1 X120.765 Y133.144 E16.62139
G1 X119.213 Y132.629 E16.68257
G1 X118.127 Y131.955 E16.7304
G1 X117.039 Y130.844 E16.78858
G1 X116.389 Y129.773 E16.83546
G1 X115.902 Y128.255 E16.89511
G1 X115.902 Y121.44 E17.15011
G1 X116.136 Y120.364 E17.19132
G1 X116.606 Y119.353 E17.23303
G1 X117.348 Y118.394 E17.2784
G0 F3600 X117.67 Y118.713
G1 F1800 X118.563 Y118.009 E17.32095
G1 X119.521 Y117.541 E17.36085
G1 X120.531 Y117.306 E17.39965
G1 X129.465 Y117.306 E17.73394
G1 X130.446 Y117.519 E17.7715
G1 X131.366 Y117.947 E17.80947
G1 X132.241 Y118.624 E17.85086
G1 X132.948 Y119.52 E17.89357
G1 X133.424 Y120.489 E17.93397
G1 X133.653 Y121.495 E17.97257
G1 X133.6 Y124.772 E18.0952
G1 X133.462 Y125.65 E18.12846
G1 X132.946 Y126.825 E18.17648
G1 X132.165 Y127.786 E18.22282
G1 X131.535 Y128.399 E18.25571
G1 X129.241 Y129.709 E18.35455
G1 X128.263 Y130.021 E18.39296
G1 X127.879 Y130.052 E18.40738
G1 X127.598 Y130.432 E18.42506
G1 X127.011 Y131.061 E18.45725
G1 X125.091 Y132.294 E18.54264
G1 X123.713 Y132.694 E18.59632
G1 X120.838 Y132.694 E18.7039
G1 X119.403 Y132.218 E18.76047
G1 X118.411 Y131.602 E18.80416
G1 X117.399 Y130.569 E18.85827
G1 X116.801 Y129.584 E18.90139
G1 X116.352 Y128.183 E18.95644
G1 X116.352 Y121.489 E19.20691
G1 X116.565 Y120.508 E19.24448
G1 X116.993 Y119.588 E19.28244
G1 X117.67 Y118.713 E19.32384
G0 F3600 X117.992 Y119.032
G1 F1800 X118.805 Y118.391 E19.36258
G1 X119.672 Y117.968 E19.39867
G1 X120.581 Y117.756 E19.4336
G1 X129.415 Y117.756 E19.76415
G1 X130.303 Y117.949 E19.79815
G1 X131.131 Y118.334 E19.83232
G1 X131.922 Y118.946 E19.86974
G1 X132.565 Y119.761 E19.90858
G1 X132.996 Y120.639 E19.94518
G1 X133.202 Y121.543 E19.97987
G1 X133.155 Y124.702 E20.09809
G1 X133.026 Y125.524 E20.12922
G1 X132.559 Y126.588 E20.1727
G1 X131.851 Y127.463 E20.21482
G1 X131.261 Y128.037 E20.24562
G1 X129.06 Y129.294 E20.34046
G1 X128.176 Y129.576 E20.37518
G1 X127.639 Y129.619 E20.39533
G1 X127.236 Y130.164 E20.4207
G1 X126.721 Y130.712 E20.44883
G1 X124.902 Y131.88 E20.52972
G1 X123.649 Y132.244 E20.57854
G1 X120.911 Y132.244 E20.68099
G1 X119.593 Y131.807 E20.73295
G1 X118.697 Y131.251 E20.77241
G1 X117.757 Y130.291 E20.82268
G1 X117.213 Y129.395 E20.8619
G1 X116.802 Y128.112 E20.91231
G1 X116.802 Y121.539 E21.15826
G1 X116.995 Y120.651 E21.19226
G1 X117.38 Y119.823 E21.22643
G1 X117.992 Y119.032 E21.26385
G0 F3600 X118.314 Y119.351
G1 F1800 X119.047 Y118.773 E21.29878
G1 X119.822 Y118.395 E21.33104
G1 X120.632 Y118.206 E21.36216
G1 X129.365 Y118.206 E21.68893
G1 X130.16 Y118.379 E21.71938
G1 X130.896 Y118.721 E21.74974
G1 X131.603 Y119.268 E21.78319
G1 X132.182 Y120.002 E21.81817
G1 X132.568 Y120.789 E21.85097
G1 X132.751 Y121.591 E21.88175
G1 X132.71 Y124.632 E21.99555
G1 X132.59 Y125.398 E22.02456
G1 X132.172 Y126.351 E22.0635
G1 X131.537 Y127.14 E22.10139
G1 X130.987 Y127.675 E22.1301
G1 X128.879 Y128.879 E22.22094
G1 X128.089 Y129.131 E22.25197
G1 X127.399 Y129.186 E22.27787
G1 X126.874 Y129.896 E22.31091
G1 X126.432 Y130.363 E22.33497
G1 X124.712 Y131.467 E22.41144
G1 X123.586 Y131.794 E22.45532
G1 X120.984 Y131.794 E22.55268
G1 X119.783 Y131.396 E22.60002
G1 X118.983 Y130.9 E22.63524
G1 X118.115 Y130.013 E22.68168
G1 X117.625 Y129.206 E22.717
G1 X117.252 Y128.041 E22.76277
G1 X117.252 Y121.589 E23.00419
G1 X117.425 Y120.794 E23.03464
G1 X117.767 Y120.058 E23.065
G1 X118.314 Y119.351 E23.09845
G0 F3600 X118.636 Y119.67
G1 F1800 X119.289 Y119.155 E23.12957
G1 X119.972 Y118.822 E23.158
G1 X120.683 Y118.656 E23.18532
G1 X129.316 Y118.656 E23.50835
G1 X130.016 Y118.808 E23.53515
G1 X130.661 Y119.108 E23.56177
G1 X131.284 Y119.59 E23.59124
G1 X131.799 Y120.243 E23.62236
G1 X132.14 Y120.939 E23.65136
G1 X132.3 Y121.64 E23.67826
G1 X132.265 Y124.562 E23.78761
G1 X132.154 Y125.272 E23.81449
G1 X131.784 Y126.115 E23.84894
G1 X131.186 Y126.858 E23.88463
G1 X130.715 Y127.312 E23.90911
G1 X128.698 Y128.464 E23.99602
G1 X128.002 Y128.686 E24.02336
G1 X127.361 Y128.738 E24.04742
G1 X127.109 Y128.712 E24.0569
G1 X126.991 Y128.981 E24.06789
G1 X126.547 Y129.587 E24.096
G1 X126.144 Y130.013 E24.11794
G1 X124.522 Y131.054 E24.19006
G1 X123.523 Y131.344 E24.22898
G1 X121.057 Y131.344 E24.32125
G1 X119.977 Y130.986 E24.36383
G1 X119.267 Y130.546 E24.39508
G1 X118.473 Y129.735 E24.43755
G1 X118.037 Y129.017 E24.46898
G1 X117.702 Y127.97 E24.51011
G1 X117.702 Y121.638 E24.74704
G1 X117.854 Y120.938 E24.77384
G1 X118.154 Y120.293 E24.80046
G1 X118.636 Y119.67 E24.82994
G0 F3600 X118.957 Y119.99
G1 F1800 X119.531 Y119.538 E24.85727
G1 X120.124 Y119.248 E24.88197
G1 X120.734 Y119.106 E24.90541
G1 X129.266 Y119.106 E25.22466
G1 X129.873 Y119.238 E25.2479
G1 X130.426 Y119.495 E25.27072
G1 X130.964 Y119.911 E25.29616
G1 X131.416 Y120.485 E25.3235
G1 X131.712 Y121.089 E25.34867
G1 X131.849 Y121.689 E25.3717
G1 X131.82 Y124.493 E25.47662
G1 X131.718 Y125.146 E25.50135
G1 X131.395 Y125.881 E25.53139
G1 X130.873 Y126.534 E25.56267
G1 X130.442 Y126.95 E25.58509
G1 X128.517 Y128.049 E25.66803
G1 X127.915 Y128.241 E25.69167
G1 X127.325 Y128.289 E25.71382
G1 X126.835 Y128.217 E25.73235
G1 X126.598 Y128.756 E25.75438
G1 X126.22 Y129.278 E25.7785
G1 X125.856 Y129.663 E25.79832
G1 X124.332 Y130.641 E25.86608
G1 X123.46 Y130.894 E25.90005
G1 X121.13 Y130.894 E25.98724
G1 X120.171 Y130.576 E26.02504
G1 X119.548 Y130.19 E26.05247
G1 X118.831 Y129.458 E26.09081
G1 X118.45 Y128.83 E26.11829
G1 X118.152 Y127.899 E26.15487
G1 X118.152 Y121.688 E26.38727
G1 X118.284 Y121.081 E26.41051
G1 X118.541 Y120.528 E26.43333
G1 X118.957 Y119.99 E26.45878
G0 F3600 X119.281 Y120.308
G1 F1800 X119.772 Y119.921 E26.48217
G1 X120.277 Y119.674 E26.5032
G1 X120.784 Y119.556 E26.52268
G1 X129.217 Y119.556 E26.83822
G1 X129.729 Y119.667 E26.85783
G1 X130.189 Y119.881 E26.87681
G1 X130.646 Y120.235 E26.89844
G1 X131.033 Y120.726 E26.92183
G1 X131.284 Y121.239 E26.9432
G1 X131.398 Y121.738 E26.96236
G1 X131.375 Y124.424 E27.06286
G1 X131.282 Y125.02 E27.08543
G1 X131.007 Y125.646 E27.11102
G1 X130.561 Y126.21 E27.13792
G1 X130.171 Y126.586 E27.15819
G1 X128.336 Y127.634 E27.23726
G1 X127.828 Y127.796 E27.25721
G1 X127.336 Y127.836 E27.27568
G1 X126.748 Y127.75 E27.29792
G1 X126.487 Y127.647 E27.30842
G1 X126.386 Y128.121 E27.32655
G1 X126.206 Y128.531 E27.34331
G1 X125.893 Y128.969 E27.36345
G1 X125.568 Y129.313 E27.38116
G1 X124.143 Y130.227 E27.4445
G1 X123.396 Y130.444 E27.47361
G1 X121.203 Y130.444 E27.55567
G1 X120.365 Y130.166 E27.5887
G1 X119.829 Y129.834 E27.6123
G1 X119.191 Y129.183 E27.6464
G1 X118.862 Y128.641 E27.67013
G1 X118.602 Y127.828 E27.70206
G1 X118.602 Y121.737 E27.92998
G1 X118.713 Y121.225 E27.94958
G1 X118.927 Y120.765 E27.96856
G1 X119.281 Y120.308 E27.99019
G0 F3600 X119.605 Y120.626
G1 F1800 X120.013 Y120.304 E28.00964
G1 X120.43 Y120.1 E28.02701
G1 X120.834 Y120.006 E28.04253
G1 X129.168 Y120.006 E28.35437
G1 X129.585 Y120.096 E28.37033
G1 X129.951 Y120.267 E28.38545
G1 X130.328 Y120.559 E28.40329
G1 X130.65 Y120.967 E28.42274
G1 X130.856 Y121.388 E28.44028
G1 X130.948 Y121.789 E28.45567
G1 X130.93 Y124.355 E28.55169
G1 X130.846 Y124.894 E28.5721
G1 X130.619 Y125.411 E28.59323
G1 X130.248 Y125.886 E28.61578
G1 X129.898 Y126.224 E28.63398
G1 X128.155 Y127.219 E28.70908
G1 X127.741 Y127.351 E28.72534
G1 X127.347 Y127.383 E28.74013
G1 X126.865 Y127.313 E28.75836
G1 X126.357 Y127.111 E28.77881
G1 X125.993 Y126.866 E28.79523
G1 X126.044 Y127.079 E28.80343
G1 X126.044 Y127.576 E28.82202
G1 X125.955 Y127.984 E28.83765
G1 X125.813 Y128.307 E28.85085
G1 X125.527 Y128.707 E28.86925
G1 X125.28 Y128.963 E28.88256
G1 X123.953 Y129.814 E28.94155
G1 X123.333 Y129.994 E28.9657
G1 X121.276 Y129.994 E29.04267
G1 X120.559 Y129.756 E29.07094
G1 X120.11 Y129.478 E29.0907
G1 X119.551 Y128.908 E29.12057
G1 X119.274 Y128.452 E29.14054
G1 X119.052 Y127.757 E29.16784
G1 X119.052 Y121.786 E29.39126
G1 X119.142 Y121.369 E29.40722
G1 X119.313 Y121.003 E29.42233
G1 X119.605 Y120.626 E29.44018
G0 F3600 X119.927 Y120.945
G1 F1800 X120.254 Y120.687 E29.45576
G1 X120.583 Y120.526 E29.46947
G1 X120.884 Y120.456 E29.48103
G1 X129.119 Y120.456 E29.78917
G1 X129.443 Y120.526 E29.80157
G1 X129.714 Y120.653 E29.81277
G1 X130.009 Y120.881 E29.82672
G1 X130.267 Y121.208 E29.8423
G1 X130.428 Y121.537 E29.85601
G1 X130.498 Y121.841 E29.86768
G1 X130.485 Y124.286 E29.95917
G1 X130.41 Y124.768 E29.97742
G1 X130.23 Y125.178 E29.99418
G1 X129.936 Y125.562 E30.01227
G1 X129.627 Y125.86 E30.02833
G1 X127.974 Y126.804 E30.09956
G1 X127.654 Y126.906 E30.11213
G1 X127.357 Y126.93 E30.12328
G1 X126.983 Y126.876 E30.13742
G1 X126.571 Y126.712 E30.15401
G1 X126.291 Y126.524 E30.16663
G1 X126.067 Y126.275 E30.17916
G1 X125.862 Y125.885 E30.19565
G1 X125.746 Y125.315 E30.21741
G1 X125.526 Y125.071 E30.22971
G1 X125.314 Y125.006 E30.238
G1 X125.087 Y125.015 E30.2465
G1 X124.911 Y125.089 E30.25365
G1 X124.729 Y125.281 E30.26355
G1 X124.662 Y125.461 E30.27073
G1 X124.663 Y125.723 E30.28054
G1 X124.782 Y125.945 E30.28996
G1 X125.161 Y126.248 E30.30812
G1 X125.374 Y126.507 E30.32066
G1 X125.51 Y126.781 E30.33211
G1 X125.594 Y127.133 E30.34565
G1 X125.594 Y127.526 E30.36036
G1 X125.524 Y127.846 E30.37261
G1 X125.419 Y128.085 E30.38238
G1 X125.204 Y128.394 E30.39647
G1 X124.994 Y128.611 E30.40777
G1 X123.763 Y129.401 E30.4625
G1 X123.27 Y129.544 E30.4817
G1 X121.349 Y129.544 E30.55358
