;FLAVOR:Marlin
;TIME:856
;Filament used: 1.71716m
;Layer height: 0.32
;MINX:112.127
;MINY:80.4
;MINZ:0.28
;MAXX:138.243
;MAXY:169.6
;MAXZ:13.68
;TARGET_MACHINE.NAME:VORON2 250
;Generated with Cura_SteamEngine 5.6.0
M140 S60
M105
M190 S60
M104 S215
M105
M109 S215
M82 ;absolute extrusion mode
START_PRINT
G92 E0
G92 E0
G1 F300 E-0.5
;LAYER_COUNT:42
;LAYER:0
M107
M204 S2000
G1 F600 Z0.56
G0 F3600 X114.514 Y83.414 Z0.56
;TYPE:SKIRT
G1 F600 Z0.28
G1 F120 E0
G1 F1800 X115.72 Y82.208 E0.11913
G1 X116.944 Y81.36 E0.22313
G1 X118.386 Y80.741 E0.33274
G1 X119.985 Y80.4 E0.44693
G1 X129.723 Y80.4 E1.1271
G1 X131.224 Y80.676 E1.23369
G1 X132.518 Y81.183 E1.33076
G1 X133.928 Y82.035 E1.44583
G1 X134.948 Y83.087 E1.54818
G1 X135.119 Y83.297 E1.56709
G1 X135.657 Y83.869 E1.62194
G1 X136.182 Y84.517 E1.68019
G1 X136.954 Y85.588 E1.7724
G1 X137.473 Y86.734 E1.86027
G1 X138.138 Y88.705 E2.00556
G1 X138.243 Y90.237 E2.11282
G1 X138.182 Y93.617 E2.34894
G1 X138.016 Y94.836 E2.43487
G1 X137.285 Y96.783 E2.58013
G1 X137.289 Y153.298 E6.52749
G1 X137.426 Y153.535 E6.54661
G1 X138.078 Y155.418 E6.68579
G1 X138.241 Y157.261 E6.81502
G1 X138.216 Y160.164 E7.01779
G1 X138.06 Y161.62 E7.12007
G1 X137.389 Y163.444 E7.25582
G1 X136.964 Y164.285 E7.32163
G1 X136.271 Y165.36 E7.41097
G1 X135.802 Y165.96 E7.46416
G1 X135.1 Y166.72 E7.53642
G1 X134.926 Y166.928 E7.55536
G1 X134.309 Y167.594 E7.61877
G1 X133.152 Y168.448 E7.71922
G1 X131.663 Y169.172 E7.83486
G1 X130.418 Y169.449 E7.92394
G1 X129.004 Y169.597 E8.02325
G1 X120.063 Y169.6 E8.64774
G1 X118.6 Y169.326 E8.7517
G1 X117.154 Y168.747 E8.8605
G1 X115.788 Y167.858 E8.97433
G1 X114.586 Y166.669 E9.09242
G1 X113.728 Y165.434 E9.19746
G1 X113.12 Y164.026 E9.30458
G1 X113.02 Y163.568 E9.33732
G1 X112.607 Y162.468 E9.41939
G1 X112.223 Y161.05 E9.522
G1 X112.127 Y159.121 E9.6569
G1 X112.226 Y156.388 E9.84791
G1 X112.384 Y155.22 E9.93024
G1 X113.008 Y153.482 E10.05922
G1 X113.117 Y153.277 E10.07543
G1 X113.123 Y96.708 E14.02657
G1 X112.974 Y96.453 E14.0472
G1 X112.344 Y94.618 E14.18271
G1 X112.169 Y92.78 E14.31167
G1 X112.158 Y91.502 E14.40093
G1 X112.13 Y90.486 E14.47192
G1 X112.179 Y89.246 E14.5586
G1 X112.621 Y87.321 E14.69655
G1 X112.986 Y86.526 E14.75765
G1 X113.047 Y86.201 E14.78075
G1 X113.623 Y84.78 E14.88785
G1 X114.514 Y83.414 E15.00176
G0 F3600 X114.985 Y83.791
G1 F1800 X116.104 Y82.672 E15.11229
G1 X117.237 Y81.887 E15.20856
G1 X118.567 Y81.316 E15.30966
G1 X120.049 Y81 E15.4155
G1 X129.669 Y81 E16.08742
G1 X131.056 Y81.255 E16.18592
G1 X132.252 Y81.724 E16.27565
G1 X133.553 Y82.51 E16.38182
G1 X134.483 Y83.466 E16.47497
G1 X134.668 Y83.693 E16.49543
G1 X135.191 Y84.247 E16.54864
G1 X135.695 Y84.868 E16.6045
G1 X136.431 Y85.889 E16.69241
G1 X136.926 Y86.982 E16.77622
G1 X137.544 Y88.823 E16.91186
G1 X137.644 Y90.278 E17.01372
G1 X137.587 Y93.536 E17.24132
G1 X137.43 Y94.689 E17.32259
G1 X136.773 Y96.439 E17.45315
G1 X136.685 Y96.606 E17.46634
G1 X136.689 Y153.459 E21.43731
G1 X136.879 Y153.788 E21.46385
G1 X137.486 Y155.543 E21.59355
G1 X137.643 Y157.314 E21.71773
G1 X137.616 Y160.158 E21.91638
G1 X137.472 Y161.483 E22.00948
G1 X136.853 Y163.173 E22.13519
G1 X136.428 Y164.014 E22.201
G1 X135.798 Y164.99 E22.28214
G1 X135.329 Y165.59 E22.33533
G1 X134.639 Y166.336 E22.40631
G1 X134.486 Y166.52 E22.42302
G1 X133.907 Y167.145 E22.48253
G1 X132.843 Y167.93 E22.57488
G1 X131.462 Y168.602 E22.68215
G1 X130.288 Y168.863 E22.76615
G1 X128.943 Y169 E22.86058
G1 X120.121 Y169 E23.47677
G1 X118.767 Y168.746 E23.57299
G1 X117.432 Y168.212 E23.67342
G1 X116.168 Y167.39 E23.77873
G1 X115.046 Y166.28 E23.88897
G1 X114.256 Y165.142 E23.98573
G1 X113.693 Y163.839 E24.08487
G1 X113.597 Y163.398 E24.11639
G1 X113.186 Y162.311 E24.19756
G1 X112.819 Y160.955 E24.29568
G1 X112.727 Y159.142 E24.42247
G1 X112.821 Y156.469 E24.60929
G1 X112.971 Y155.363 E24.68725
G1 X113.573 Y153.685 E24.81176
G1 X113.717 Y153.441 E24.83155
G1 X113.723 Y96.547 E28.80539
G1 X113.524 Y96.206 E28.83296
G1 X112.934 Y94.487 E28.9599
G1 X112.769 Y92.775 E29.08003
G1 X112.758 Y91.497 E29.1693
G1 X112.73 Y90.51 E29.23827
G1 X112.777 Y89.324 E29.32117
G1 X113.192 Y87.515 E29.4508
G1 X113.563 Y86.708 E29.51284
G1 X113.626 Y86.369 E29.53692
G1 X114.156 Y85.062 E29.63543
G1 X114.985 Y83.791 E29.74142
G0 F3600 X115.453 Y84.171
G1 F1800 X116.488 Y83.136 E29.84366
G1 X117.53 Y82.414 E29.9322
G1 X118.748 Y81.891 E30.02479
G1 X120.113 Y81.6 E30.12227
G1 X129.615 Y81.6 E30.78595
G1 X130.888 Y81.834 E30.87635
G1 X131.988 Y82.265 E30.95887
G1 X133.175 Y82.983 E31.05576
G1 X134.053 Y83.885 E31.14368
G1 X134.218 Y84.09 E31.16206
G1 X134.755 Y84.659 E31.21671
G1 X135.208 Y85.219 E31.26702
G1 X135.908 Y86.19 E31.35063
G1 X136.379 Y87.23 E31.43037
G1 X136.95 Y88.939 E31.55622
G1 X137.045 Y90.319 E31.65284
G1 X136.992 Y93.455 E31.87191
G1 X136.844 Y94.542 E31.94853
G1 X136.211 Y96.228 E32.07432
G1 X136.085 Y96.446 E32.09191
G1 X136.089 Y153.621 E36.08537
G1 X136.331 Y154.04 E36.11916
G1 X136.894 Y155.668 E36.23948
G1 X137.045 Y157.367 E36.35862
G1 X137.019 Y160.093 E36.54903
G1 X136.883 Y161.347 E36.63713
G1 X136.317 Y162.902 E36.75271
G1 X135.892 Y163.743 E36.81853
G1 X135.325 Y164.62 E36.89147
G1 X134.856 Y165.22 E36.94466
G1 X134.194 Y165.933 E37.01262
G1 X134.046 Y166.112 E37.02884
G1 X133.505 Y166.696 E37.08444
G1 X132.532 Y167.414 E37.1689
G1 X131.263 Y168.031 E37.26746
G1 X130.158 Y168.277 E37.34653
G1 X128.943 Y168.4 E37.43182
G1 X120.179 Y168.4 E38.04396
G1 X118.933 Y168.166 E38.13251
G1 X117.709 Y167.677 E38.22457
G1 X116.545 Y166.92 E38.32155
G1 X115.509 Y165.894 E38.42339
G1 X114.784 Y164.85 E38.51217
G1 X114.267 Y163.653 E38.60324
G1 X114.17 Y163.211 E38.63485
G1 X114.115 Y163.086 E38.64439
G1 X113.765 Y162.154 E38.71392
G1 X113.415 Y160.86 E38.80755
G1 X113.327 Y159.162 E38.92631
G1 X113.416 Y156.549 E39.10892
G1 X113.557 Y155.506 E39.18244
G1 X114.119 Y153.941 E39.29858
G1 X114.317 Y153.606 E39.32576
G1 X114.323 Y96.386 E43.32236
G1 X114.074 Y95.959 E43.35689
G1 X113.524 Y94.356 E43.47526
G1 X113.369 Y92.77 E43.58656
G1 X113.358 Y91.492 E43.67583
G1 X113.33 Y90.534 E43.74277
G1 X113.375 Y89.402 E43.8219
G1 X113.764 Y87.707 E43.94337
G1 X114.14 Y86.888 E44.00631
G1 X114.206 Y86.536 E44.03133
G1 X114.69 Y85.34 E44.12144
G1 X115.453 Y84.171 E44.21895
G0 F3600 X115.921 Y84.551
G1 F1800 X116.872 Y83.6 E44.31288
G1 X117.823 Y82.941 E44.3937
G1 X118.929 Y82.466 E44.47777
G1 X120.177 Y82.2 E44.5669
G1 X129.561 Y82.2 E45.22233
G1 X130.72 Y82.413 E45.30464
G1 X131.724 Y82.806 E45.37995
G1 X132.8 Y83.457 E45.46779
G1 X133.585 Y84.261 E45.54627
G1 X133.761 Y84.48 E45.5659
G1 X134.319 Y85.071 E45.62267
G1 X134.721 Y85.57 E45.66742
G1 X135.385 Y86.491 E45.74673
G1 X135.832 Y87.478 E45.8224
G1 X136.356 Y89.053 E45.93834
G1 X136.446 Y90.36 E46.02985
G1 X136.397 Y93.374 E46.24039
G1 X136.258 Y94.395 E46.31236
G1 X135.649 Y96.017 E46.43337
G1 X135.485 Y96.266 E46.4542
G1 X135.489 Y153.781 E50.47141
G1 X135.782 Y154.288 E50.51231
G1 X136.302 Y155.793 E50.62353
G1 X136.447 Y157.42 E50.73762
G1 X136.422 Y160.029 E50.91985
G1 X136.294 Y161.213 E51.00303
G1 X135.78 Y162.633 E51.10851
G1 X135.387 Y163.418 E51.16983
G1 X134.852 Y164.25 E51.23892
G1 X134.383 Y164.85 E51.29211
G1 X133.749 Y165.531 E51.3571
G1 X133.606 Y165.704 E51.37277
G1 X133.103 Y166.247 E51.42447
G1 X132.223 Y166.896 E51.50085
G1 X131.062 Y167.461 E51.59103
G1 X130.028 Y167.691 E51.66502
G1 X128.943 Y167.8 E51.74118
G1 X120.237 Y167.8 E52.34926
G1 X119.098 Y167.586 E52.43021
G1 X117.988 Y167.143 E52.51369
G1 X116.922 Y166.45 E52.60249
G1 X115.974 Y165.51 E52.69574
G1 X115.31 Y164.555 E52.77698
G1 X114.84 Y163.466 E52.85982
G1 X114.742 Y163.017 E52.89192
G1 X114.677 Y162.875 E52.90283
G1 X114.327 Y161.943 E52.97237
G1 X114.011 Y160.766 E53.05749
G1 X113.927 Y159.182 E53.16828
G1 X114.011 Y156.63 E53.34662
G1 X114.144 Y155.649 E53.41577
G1 X114.665 Y154.197 E53.52352
G1 X114.917 Y153.77 E53.55815
G1 X114.923 Y96.223 E57.57759
G1 X114.621 Y95.706 E57.61941
G1 X114.114 Y94.229 E57.72848
G1 X113.969 Y92.765 E57.83124
G1 X113.958 Y91.487 E57.92051
G1 X113.93 Y90.558 E57.98542
G1 X113.973 Y89.48 E58.06078
G1 X114.336 Y87.899 E58.17408
G1 X114.717 Y87.069 E58.23787
G1 X114.785 Y86.704 E58.2638
G1 X115.224 Y85.618 E58.34561
G1 X115.921 Y84.551 E58.43463
G0 F3600 X116.389 Y84.931
G1 F1800 X117.256 Y84.064 E58.52027
G1 X118.116 Y83.468 E58.59336
G1 X119.11 Y83.041 E58.66892
G1 X120.241 Y82.8 E58.74969
G1 X129.507 Y82.8 E59.39688
G1 X130.552 Y82.992 E59.47109
G1 X131.458 Y83.347 E59.53906
G1 X132.426 Y83.932 E59.61806
G1 X133.117 Y84.637 E59.68701
G1 X133.304 Y84.87 E59.70788
G1 X133.852 Y85.448 E59.76351
G1 X134.234 Y85.921 E59.80597
G1 X134.862 Y86.792 E59.88097
G1 X135.285 Y87.726 E59.95259
G1 X135.762 Y89.169 E60.05874
G1 X135.847 Y90.401 E60.145
G1 X135.802 Y93.293 E60.34702
G1 X135.672 Y94.248 E60.41433
G1 X135.109 Y95.747 E60.52617
G1 X134.885 Y96.088 E60.55467
G1 X134.889 Y153.941 E64.59549
G1 X135.233 Y154.536 E64.64349
G1 X135.71 Y155.918 E64.74561
G1 X135.849 Y157.473 E64.85465
G1 X135.822 Y160.023 E65.03277
G1 X135.706 Y161.074 E65.10662
G1 X135.243 Y162.364 E65.20235
G1 X134.85 Y163.149 E65.26367
G1 X134.379 Y163.88 E65.32441
G1 X133.91 Y164.48 E65.3776
G1 X133.295 Y165.138 E65.44051
G1 X133.143 Y165.322 E65.45718
G1 X132.701 Y165.798 E65.50255
G1 X131.91 Y166.381 E65.57118
G1 X130.865 Y166.89 E65.65237
G1 X129.898 Y167.105 E65.72156
G1 X128.943 Y167.2 E65.78859
G1 X120.295 Y167.2 E66.39262
G1 X119.262 Y167.006 E66.46603
G1 X118.267 Y166.609 E66.54086
G1 X117.302 Y165.982 E66.62124
G1 X116.434 Y165.121 E66.70663
G1 X115.838 Y164.263 E66.7796
G1 X115.413 Y163.28 E66.8544
G1 X115.313 Y162.821 E66.88721
G1 X115.239 Y162.664 E66.89934
G1 X114.889 Y161.732 E66.96887
G1 X114.607 Y160.67 E67.04562
G1 X114.527 Y159.206 E67.14803
G1 X114.557 Y158.451 E67.2008
G1 X114.606 Y156.711 E67.32238
G1 X114.731 Y155.79 E67.3873
G1 X115.21 Y154.454 E67.48643
G1 X115.517 Y153.934 E67.52861
G1 X115.523 Y96.062 E71.57075
G1 X115.171 Y95.459 E71.61952
G1 X114.704 Y94.098 E71.72002
G1 X114.569 Y92.76 E71.81395
G1 X114.558 Y91.482 E71.90322
G1 X114.53 Y90.582 E71.96611
G1 X114.571 Y89.558 E72.03769
G1 X114.908 Y88.091 E72.14282
G1 X115.294 Y87.25 E72.20746
G1 X115.365 Y86.87 E72.23446
G1 X115.757 Y85.898 E72.30766
G1 X116.389 Y84.931 E72.38835
G0 F3600 X116.857 Y85.311
G1 F1800 X117.64 Y84.528 E72.46569
G1 X118.409 Y83.995 E72.53104
G1 X119.291 Y83.616 E72.59809
G1 X120.305 Y83.4 E72.67051
G1 X129.453 Y83.4 E73.30946
G1 X130.384 Y83.571 E73.37558
G1 X131.194 Y83.888 E73.43633
G1 X132.052 Y84.407 E73.50637
G1 X132.65 Y85.013 E73.56583
G1 X132.86 Y85.274 E73.58923
G1 X133.416 Y85.861 E73.6457
G1 X133.747 Y86.272 E73.68256
G1 X134.339 Y87.093 E73.75326
G1 X134.738 Y87.974 E73.82081
G1 X135.168 Y89.284 E73.91711
G1 X135.248 Y90.442 E73.99819
G1 X135.207 Y93.212 E74.19168
G1 X135.086 Y94.101 E74.25435
G1 X134.57 Y95.475 E74.35686
G1 X134.285 Y95.908 E74.39307
G1 X134.289 Y154.102 E78.4577
G1 X134.685 Y154.788 E78.51303
G1 X135.118 Y156.042 E78.60569
G1 X135.251 Y157.527 E78.70983
G1 X135.222 Y160.016 E78.88369
G1 X135.118 Y160.938 E78.94849
G1 X134.706 Y162.095 E79.03428
G1 X134.313 Y162.88 E79.09559
G1 X133.906 Y163.51 E79.14798
G1 X133.437 Y164.11 E79.20117
G1 X132.841 Y164.745 E79.262
G1 X132.68 Y164.94 E79.27966
G1 X132.3 Y165.348 E79.3186
G1 X131.597 Y165.866 E79.3796
G1 X130.668 Y166.319 E79.45179
G1 X129.768 Y166.519 E79.51618
G1 X128.943 Y166.6 E79.57408
G1 X120.353 Y166.6 E80.17406
G1 X119.426 Y166.426 E80.23994
G1 X118.546 Y166.075 E80.30611
G1 X117.682 Y165.514 E80.37807
G1 X116.897 Y164.734 E80.45536
G1 X116.364 Y163.968 E80.52054
G1 X115.987 Y163.094 E80.58702
G1 X115.884 Y162.625 E80.62056
G1 X115.8 Y162.451 E80.63406
G1 X115.469 Y161.578 E80.69927
G1 X115.203 Y160.575 E80.77175
G1 X115.127 Y159.23 E80.86584
G1 X115.157 Y158.475 E80.91861
G1 X115.201 Y156.791 E81.03627
G1 X115.317 Y155.933 E81.09675
G1 X115.756 Y154.71 E81.18751
G1 X116.117 Y154.099 E81.23708
G1 X116.123 Y95.901 E85.30199
G1 X115.721 Y95.212 E85.35771
G1 X115.294 Y93.967 E85.44964
G1 X115.169 Y92.755 E85.53474
G1 X115.158 Y91.477 E85.62401
G1 X115.13 Y90.606 E85.68487
G1 X115.169 Y89.636 E85.75268
G1 X115.479 Y88.285 E85.84949
G1 X115.871 Y87.432 E85.91506
G1 X115.944 Y87.04 E85.94291
G1 X116.293 Y86.174 E86.00813
G1 X116.857 Y85.311 E86.08014
G0 F3600 X117.325 Y85.691
G1 F1800 X118.024 Y84.992 E86.14918
G1 X118.702 Y84.522 E86.2068
G1 X119.472 Y84.191 E86.26534
G1 X120.369 Y84 E86.3294
G1 X129.398 Y84 E86.96004
G1 X130.219 Y84.151 E87.01835
G1 X130.928 Y84.428 E87.07151
G1 X131.676 Y84.881 E87.13259
G1 X132.223 Y85.435 E87.18697
G1 X132.404 Y85.664 E87.20736
G1 X132.949 Y86.238 E87.26264
G1 X133.26 Y86.623 E87.29721
G1 X133.816 Y87.394 E87.3636
G1 X134.191 Y88.222 E87.42709
G1 X134.574 Y89.397 E87.51341
G1 X134.649 Y90.483 E87.58945
G1 X134.612 Y93.131 E87.77442
G1 X134.5 Y93.954 E87.83243
G1 X134.031 Y95.203 E87.92562
G1 X133.685 Y95.729 E87.96959
G1 X133.689 Y154.262 E92.0579
G1 X134.137 Y155.037 E92.12043
G1 X134.527 Y156.169 E92.20405
G1 X134.651 Y157.52 E92.29881
G1 X134.622 Y160.009 E92.47267
G1 X134.53 Y160.802 E92.52843
G1 X134.169 Y161.826 E92.60427
G1 X133.776 Y162.611 E92.66559
G1 X133.433 Y163.14 E92.70962
G1 X132.964 Y163.74 E92.76281
G1 X132.394 Y164.345 E92.82087
G1 X132.241 Y164.531 E92.83769
G1 X131.899 Y164.898 E92.87273
G1 X131.284 Y165.352 E92.92612
G1 X130.471 Y165.748 E92.98929
G1 X129.638 Y165.933 E93.04889
G1 X128.943 Y166 E93.09765
G1 X120.41 Y166 E93.69365
G1 X119.593 Y165.847 E93.75171
G1 X118.82 Y165.538 E93.80985
G1 X118.061 Y165.046 E93.87303
G1 X117.362 Y164.351 E93.94188
G1 X116.889 Y163.671 E93.99973
G1 X116.561 Y162.91 E94.05761
G1 X116.454 Y162.425 E94.0923
G1 X116.36 Y162.236 E94.10705
G1 X116.049 Y161.424 E94.16778
G1 X115.799 Y160.48 E94.23599
G1 X115.727 Y159.254 E94.32177
G1 X115.757 Y158.499 E94.37454
G1 X115.796 Y156.872 E94.48822
G1 X115.904 Y156.076 E94.54432
G1 X116.302 Y154.966 E94.62669
G1 X116.717 Y154.263 E94.6837
G1 X116.723 Y95.74 E98.77132
G1 X116.271 Y94.965 E98.83398
G1 X115.884 Y93.836 E98.91734
G1 X115.769 Y92.75 E98.99362
G1 X115.758 Y91.457 E99.08394
G1 X115.73 Y90.63 E99.14173
G1 X115.767 Y89.714 E99.20576
G1 X116.05 Y88.479 E99.29426
G1 X116.447 Y87.615 E99.36067
G1 X116.523 Y87.207 E99.38966
G1 X116.828 Y86.452 E99.44653
G1 X117.325 Y85.691 E99.51002
G0 F3600 X117.793 Y86.071
G1 F1800 X118.408 Y85.456 E99.57077
G1 X118.995 Y85.049 E99.62066
G1 X119.653 Y84.766 E99.67069
G1 X120.433 Y84.6 E99.72639
G1 X129.343 Y84.6 E100.34872
G1 X130.054 Y84.731 E100.39921
G1 X130.662 Y84.968 E100.44479
G1 X131.3 Y85.355 E100.49691
G1 X131.796 Y85.857 E100.5462
G1 X131.947 Y86.054 E100.56354
G1 X132.483 Y86.616 E100.61778
G1 X132.773 Y86.974 E100.64996
G1 X133.293 Y87.695 E100.71205
G1 X133.644 Y88.47 E100.77148
G1 X133.98 Y89.51 E100.84781
G1 X134.05 Y90.524 E100.91881
G1 X134.017 Y93.05 E101.09525
G1 X133.914 Y93.807 E101.14861
G1 X133.492 Y94.931 E101.23247
G1 X133.085 Y95.55 E101.28422
G1 X133.089 Y154.423 E105.39628
G1 X133.589 Y155.289 E105.46612
G1 X133.937 Y156.297 E105.5406
G1 X134.051 Y157.514 E105.62598
G1 X134.026 Y159.94 E105.79543
G1 X133.942 Y160.665 E105.84641
G1 X133.632 Y161.557 E105.91237
G1 X133.239 Y162.342 E105.97369
G1 X132.931 Y162.811 E106.01288
G1 X132.527 Y163.329 E106.05876
G1 X131.943 Y163.949 E106.11825
G1 X131.802 Y164.122 E106.13384
G1 X131.5 Y164.446 E106.16478
G1 X130.968 Y164.839 E106.21097
G1 X130.274 Y165.177 E106.26489
G1 X129.508 Y165.347 E106.31969
G1 X128.943 Y165.4 E106.35933
G1 X120.468 Y165.4 E106.95128
G1 X119.759 Y165.267 E107.00166
G1 X119.098 Y165.003 E107.05138
G1 X118.437 Y164.575 E107.10638
G1 X117.825 Y163.966 E107.16668
G1 X117.417 Y163.379 E107.21661
G1 X117.134 Y162.724 E107.26645
G1 X117.023 Y162.221 E107.30243
G1 X116.919 Y162.019 E107.3183
G1 X116.629 Y161.271 E107.37433
G1 X116.395 Y160.386 E107.43827
G1 X116.327 Y159.278 E107.5158
G1 X116.357 Y158.523 E107.56858
G1 X116.391 Y156.952 E107.67833
G1 X116.49 Y156.219 E107.73
G1 X116.848 Y155.222 E107.80399
G1 X117.317 Y154.427 E107.86846
G1 X117.323 Y95.579 E111.97877
