;FLAVOR:Marlin
;TIME:402
;Filament used: 0.217199m
;Layer height: 0.3
;MINX:112.919
;MINY:112.125
;MINZ:0.2
;MAXX:136.631
;MAXY:137.875
;MAXZ:10.1
;TARGET_MACHINE.NAME:VORON2 250
;Generated with Cura_SteamEngine 5.6.0
M140 S60
M105
M190 S60
M104 S215
M105
M109 S215
M82 ;absolute extrusion mode
START_PRINT
G92 E0
G92 E0
G1 F300 E-0.5
;LAYER_COUNT:34
;LAYER:0
M107
M204 S1800
G1 F600 Z0.48
G0 F3600 X115.133 Y114.449 Z0.48
;TYPE:SKIRT
G1 F600 Z0.2
G1 F120 E0
G1 F1800 X116.588 Y113.302 E0.06933
G1 X118.183 Y112.523 E0.13574
G1 X119.897 Y112.125 E0.20158
G1 X129.645 Y112.125 E0.56633
G1 X131.283 Y112.481 E0.62905
G1 X132.844 Y113.207 E0.69347
G1 X134.307 Y114.339 E0.76268
G1 X135.454 Y115.794 E0.83201
G1 X136.233 Y117.389 E0.89843
G1 X136.631 Y119.103 E0.96427
G1 X136.631 Y130.889 E1.40527
G1 X136.275 Y132.527 E1.46799
G1 X135.549 Y134.088 E1.53241
G1 X134.417 Y135.551 E1.60163
G1 X132.962 Y136.698 E1.67095
G1 X131.367 Y137.477 E1.73737
G1 X129.653 Y137.875 E1.80321
G1 X119.905 Y137.875 E2.16796
G1 X118.267 Y137.519 E2.23068
G1 X116.706 Y136.793 E2.2951
G1 X115.243 Y135.661 E2.36431
G1 X114.096 Y134.206 E2.43364
G1 X113.317 Y132.611 E2.50006
G1 X112.919 Y130.897 E2.5659
G1 X112.919 Y119.111 E3.0069
G1 X113.275 Y117.473 E3.06962
G1 X114.001 Y115.912 E3.13404
G1 X115.133 Y114.449 E3.20325
G0 F3600 X115.455 Y114.768
G1 F1800 X116.83 Y113.684 E3.26877
G1 X118.333 Y112.95 E3.33136
G1 X119.947 Y112.575 E3.39336
G1 X129.596 Y112.575 E3.7544
G1 X131.139 Y112.91 E3.81348
G1 X132.609 Y113.594 E3.87415
G1 X133.988 Y114.661 E3.93939
G1 X135.072 Y116.036 E4.0049
G1 X135.806 Y117.539 E4.06749
G1 X136.181 Y119.153 E4.12949
G1 X136.181 Y130.84 E4.56679
G1 X135.846 Y132.383 E4.62587
G1 X135.162 Y133.853 E4.68654
G1 X134.095 Y135.232 E4.75178
G1 X132.72 Y136.316 E4.81729
G1 X131.217 Y137.05 E4.87988
G1 X129.603 Y137.425 E4.94188
G1 X119.954 Y137.425 E5.30292
G1 X118.411 Y137.09 E5.362
G1 X116.941 Y136.406 E5.42267
G1 X115.562 Y135.339 E5.48791
G1 X114.478 Y133.964 E5.55343
G1 X113.744 Y132.461 E5.61601
G1 X113.369 Y130.847 E5.67802
G1 X113.369 Y119.16 E6.11532
G1 X113.704 Y117.617 E6.1744
G1 X114.388 Y116.147 E6.23506
G1 X115.455 Y114.768 E6.3003
G0 F3600 X115.777 Y115.087
G1 F1800 X117.072 Y114.066 E6.36201
G1 X118.483 Y113.377 E6.42076
G1 X119.997 Y113.025 E6.47892
G1 X129.546 Y113.025 E6.83623
G1 X130.996 Y113.34 E6.89175
G1 X132.374 Y113.981 E6.94861
G1 X133.669 Y114.983 E7.00988
G1 X134.69 Y116.278 E7.07159
G1 X135.379 Y117.689 E7.13034
G1 X135.731 Y119.203 E7.1885
G1 X135.731 Y130.79 E7.62206
G1 X135.416 Y132.24 E7.67758
G1 X134.775 Y133.618 E7.73445
G1 X133.773 Y134.913 E7.79572
G1 X132.478 Y135.934 E7.85742
G1 X131.067 Y136.623 E7.91617
G1 X129.553 Y136.975 E7.97434
G1 X120.004 Y136.975 E8.33164
G1 X118.554 Y136.66 E8.38716
G1 X117.176 Y136.019 E8.44402
G1 X115.881 Y135.017 E8.50529
G1 X114.86 Y133.722 E8.567
G1 X114.171 Y132.311 E8.62575
G1 X113.819 Y130.797 E8.68391
G1 X113.819 Y119.21 E9.11747
G1 X114.134 Y117.76 E9.17299
G1 X114.775 Y116.382 E9.22986
G1 X115.777 Y115.087 E9.29113
G0 F3600 X116.099 Y115.406
G1 F1800 X117.314 Y114.448 E9.34902
G1 X118.633 Y113.804 E9.40394
G1 X120.047 Y113.475 E9.45826
G1 X129.496 Y113.475 E9.81182
G1 X130.853 Y113.77 E9.86379
G1 X132.139 Y114.368 E9.91685
G1 X133.35 Y115.305 E9.97415
G1 X134.308 Y116.52 E10.03204
G1 X134.952 Y117.839 E10.08696
G1 X135.281 Y119.253 E10.14128
G1 X135.281 Y130.74 E10.5711
G1 X134.986 Y132.097 E10.62306
G1 X134.388 Y133.383 E10.67613
G1 X133.451 Y134.594 E10.73342
G1 X132.236 Y135.552 E10.79132
G1 X130.917 Y136.196 E10.84624
G1 X129.503 Y136.525 E10.90056
G1 X120.054 Y136.525 E11.25412
G1 X118.697 Y136.23 E11.30608
G1 X117.411 Y135.632 E11.35915
G1 X116.2 Y134.695 E11.41644
G1 X115.242 Y133.48 E11.47434
G1 X114.598 Y132.161 E11.52926
G1 X114.269 Y130.747 E11.58358
G1 X114.269 Y119.26 E12.0134
G1 X114.564 Y117.903 E12.06536
G1 X115.162 Y116.617 E12.11843
G1 X116.099 Y115.406 E12.17572
G0 F3600 X116.421 Y115.725
G1 F1800 X117.556 Y114.83 E12.2298
G1 X118.783 Y114.231 E12.28089
G1 X120.097 Y113.925 E12.33138
G1 X129.447 Y113.925 E12.68123
G1 X130.709 Y114.199 E12.72955
G1 X131.904 Y114.755 E12.77887
G1 X133.031 Y115.627 E12.83219
G1 X133.926 Y116.762 E12.88627
G1 X134.525 Y117.989 E12.93736
G1 X134.831 Y119.303 E12.98785
G1 X134.831 Y130.691 E13.41396
G1 X134.557 Y131.953 E13.46228
G1 X134.001 Y133.148 E13.5116
G1 X133.129 Y134.275 E13.56492
G1 X131.994 Y135.17 E13.619
G1 X130.767 Y135.769 E13.67009
G1 X129.453 Y136.075 E13.72057
G1 X120.103 Y136.075 E14.07043
G1 X118.841 Y135.801 E14.11875
G1 X117.646 Y135.245 E14.16807
G1 X116.519 Y134.373 E14.22138
G1 X115.624 Y133.238 E14.27547
G1 X115.025 Y132.011 E14.32656
G1 X114.719 Y130.697 E14.37704
G1 X114.719 Y119.309 E14.80315
G1 X114.993 Y118.047 E14.85147
G1 X115.549 Y116.852 E14.90079
G1 X116.421 Y115.725 E14.95411
G0 F3600 X116.743 Y116.044
G1 F1800 X117.797 Y115.213 E15.00433
G1 X118.935 Y114.657 E15.05172
G1 X120.147 Y114.375 E15.09829
G1 X129.397 Y114.375 E15.4444
G1 X130.566 Y114.629 E15.48916
G1 X131.669 Y115.142 E15.53468
G1 X132.712 Y115.949 E15.58402
G1 X133.543 Y117.003 E15.63424
G1 X134.099 Y118.141 E15.68164
G1 X134.381 Y119.353 E15.7282
G1 X134.381 Y130.641 E16.15057
G1 X134.127 Y131.81 E16.19533
G1 X133.614 Y132.913 E16.24085
G1 X132.807 Y133.956 E16.29019
G1 X131.753 Y134.787 E16.34041
G1 X130.615 Y135.343 E16.3878
G1 X129.403 Y135.625 E16.43437
G1 X120.153 Y135.625 E16.78048
G1 X118.984 Y135.371 E16.82524
G1 X117.881 Y134.858 E16.87076
G1 X116.838 Y134.051 E16.9201
G1 X116.007 Y132.997 E16.97032
G1 X115.451 Y131.859 E17.01772
G1 X115.169 Y130.647 E17.06428
G1 X115.169 Y119.359 E17.48665
G1 X115.423 Y118.19 E17.53141
G1 X115.936 Y117.087 E17.57693
G1 X116.743 Y116.044 E17.62627
G0 F3600 X117.065 Y116.363
G1 F1800 X118.039 Y115.595 E17.67268
G1 X119.086 Y115.084 E17.71628
G1 X120.197 Y114.825 E17.75896
G1 X129.347 Y114.825 E18.10133
G1 X130.423 Y115.059 E18.14254
G1 X131.434 Y115.529 E18.18425
G1 X132.393 Y116.271 E18.22962
G1 X133.161 Y117.245 E18.27603
G1 X133.672 Y118.292 E18.31963
G1 X133.931 Y119.403 E18.36231
G1 X133.931 Y130.591 E18.78094
G1 X133.697 Y131.667 E18.82214
G1 X133.227 Y132.678 E18.86386
G1 X132.485 Y133.637 E18.90923
G1 X131.511 Y134.405 E18.95564
G1 X130.464 Y134.916 E18.99924
G1 X129.353 Y135.175 E19.04192
G1 X120.203 Y135.175 E19.38429
G1 X119.127 Y134.941 E19.4255
G1 X118.116 Y134.471 E19.46721
G1 X117.157 Y133.729 E19.51258
G1 X116.389 Y132.755 E19.559
G1 X115.878 Y131.708 E19.60259
G1 X115.619 Y130.597 E19.64527
G1 X115.619 Y119.409 E20.0639
G1 X115.853 Y118.333 E20.10511
G1 X116.323 Y117.322 E20.14682
G1 X117.065 Y116.363 E20.19219
G0 F3600 X117.387 Y116.682
G1 F1800 X118.28 Y115.978 E20.23474
G1 X119.238 Y115.51 E20.27464
G1 X120.248 Y115.275 E20.31344
G1 X129.298 Y115.275 E20.65207
G1 X130.279 Y115.488 E20.68963
G1 X131.199 Y115.916 E20.7276
G1 X132.074 Y116.593 E20.76899
G1 X132.778 Y117.486 E20.81154
G1 X133.246 Y118.444 E20.85144
G1 X133.481 Y119.454 E20.89024
G1 X133.481 Y130.542 E21.30513
G1 X133.268 Y131.523 E21.34269
G1 X132.84 Y132.443 E21.38065
G1 X132.163 Y133.318 E21.42205
G1 X131.27 Y134.022 E21.4646
G1 X130.312 Y134.49 E21.50449
G1 X129.302 Y134.725 E21.5433
G1 X120.252 Y134.725 E21.88192
G1 X119.271 Y134.512 E21.91949
G1 X118.351 Y134.084 E21.95745
G1 X117.476 Y133.407 E21.99885
G1 X116.772 Y132.514 E22.0414
G1 X116.304 Y131.556 E22.08129
G1 X116.069 Y130.546 E22.12009
G1 X116.069 Y119.458 E22.53498
G1 X116.282 Y118.477 E22.57254
G1 X116.71 Y117.557 E22.61051
G1 X117.387 Y116.682 E22.65191
G0 F3600 X117.709 Y117.001
G1 F1800 X118.522 Y116.36 E22.69065
G1 X119.389 Y115.937 E22.72674
G1 X120.298 Y115.725 E22.76167
G1 X129.248 Y115.725 E23.09656
G1 X130.136 Y115.918 E23.13056
G1 X130.964 Y116.303 E23.16472
G1 X131.755 Y116.915 E23.20215
G1 X132.396 Y117.728 E23.24089
G1 X132.819 Y118.595 E23.27698
G1 X133.031 Y119.504 E23.31191
G1 X133.031 Y130.492 E23.72305
G1 X132.838 Y131.38 E23.75705
G1 X132.453 Y132.208 E23.79122
G1 X131.841 Y132.999 E23.82864
G1 X131.028 Y133.64 E23.86738
G1 X130.161 Y134.063 E23.90348
G1 X129.252 Y134.275 E23.9384
G1 X120.302 Y134.275 E24.27329
G1 X119.414 Y134.082 E24.30729
G1 X118.586 Y133.697 E24.34146
G1 X117.795 Y133.085 E24.37888
G1 X117.154 Y132.272 E24.41762
G1 X116.731 Y131.405 E24.45372
G1 X116.519 Y130.496 E24.48864
G1 X116.519 Y119.508 E24.89979
G1 X116.712 Y118.62 E24.93379
G1 X117.097 Y117.792 E24.96796
G1 X117.709 Y117.001 E25.00538
G0 F3600 X118.031 Y117.32
G1 F1800 X118.764 Y116.742 E25.04031
G1 X119.539 Y116.364 E25.07257
G1 X120.349 Y116.175 E25.1037
G1 X129.198 Y116.175 E25.4348
G1 X129.993 Y116.348 E25.46525
G1 X130.729 Y116.69 E25.49562
G1 X131.436 Y117.237 E25.52906
G1 X132.014 Y117.97 E25.56399
G1 X132.392 Y118.745 E25.59626
G1 X132.581 Y119.555 E25.62738
G1 X132.581 Y130.442 E26.03474
G1 X132.408 Y131.237 E26.06519
G1 X132.066 Y131.973 E26.09555
G1 X131.519 Y132.68 E26.129
G1 X130.786 Y133.258 E26.16393
G1 X130.011 Y133.636 E26.19619
G1 X129.201 Y133.825 E26.22732
G1 X120.352 Y133.825 E26.55843
G1 X119.557 Y133.652 E26.58887
G1 X118.821 Y133.31 E26.61924
G1 X118.114 Y132.763 E26.65268
G1 X117.536 Y132.03 E26.68761
G1 X117.158 Y131.255 E26.71988
G1 X116.969 Y130.445 E26.751
G1 X116.969 Y119.558 E27.15836
G1 X117.142 Y118.763 E27.18881
G1 X117.484 Y118.027 E27.21918
G1 X118.031 Y117.32 E27.25262
G0 F3600 X118.353 Y117.639
G1 F1800 X119.006 Y117.124 E27.28374
G1 X119.689 Y116.791 E27.31217
G1 X120.4 Y116.625 E27.33949
G1 X129.149 Y116.625 E27.66686
G1 X129.849 Y116.777 E27.69366
G1 X130.494 Y117.077 E27.72028
G1 X131.117 Y117.559 E27.74975
G1 X131.632 Y118.212 E27.78087
G1 X131.965 Y118.895 E27.8093
G1 X132.131 Y119.606 E27.83662
G1 X132.131 Y130.393 E28.24025
G1 X131.979 Y131.093 E28.26705
G1 X131.679 Y131.738 E28.29367
G1 X131.197 Y132.361 E28.32314
G1 X130.544 Y132.876 E28.35426
G1 X129.861 Y133.209 E28.38269
G1 X129.15 Y133.375 E28.41001
G1 X120.401 Y133.375 E28.73738
G1 X119.701 Y133.223 E28.76418
G1 X119.056 Y132.923 E28.7908
G1 X118.433 Y132.441 E28.82027
G1 X117.918 Y131.788 E28.85139
G1 X117.585 Y131.105 E28.87982
G1 X117.419 Y130.394 E28.90714
G1 X117.419 Y119.607 E29.31076
G1 X117.571 Y118.907 E29.33757
G1 X117.871 Y118.262 E29.36418
G1 X118.353 Y117.639 E29.39366
G0 F3600 X118.674 Y117.959
G1 F1800 X119.248 Y117.507 E29.421
G1 X119.841 Y117.217 E29.44569
G1 X120.451 Y117.075 E29.46913
G1 X129.099 Y117.075 E29.79272
G1 X129.706 Y117.207 E29.81596
G1 X130.259 Y117.464 E29.83878
G1 X130.797 Y117.88 E29.86423
G1 X131.249 Y118.454 E29.89156
G1 X131.539 Y119.047 E29.91626
G1 X131.681 Y119.657 E29.9397
G1 X131.681 Y130.343 E30.33954
G1 X131.549 Y130.95 E30.36279
G1 X131.292 Y131.503 E30.3856
G1 X130.876 Y132.041 E30.41105
G1 X130.302 Y132.493 E30.43839
G1 X129.709 Y132.783 E30.46309
G1 X129.099 Y132.925 E30.48652
G1 X120.451 Y132.925 E30.81011
G1 X119.844 Y132.793 E30.83335
G1 X119.291 Y132.536 E30.85617
G1 X118.753 Y132.12 E30.88162
G1 X118.301 Y131.546 E30.90896
G1 X118.011 Y130.953 E30.93366
G1 X117.869 Y130.343 E30.95709
G1 X117.869 Y119.657 E31.35694
G1 X118.001 Y119.05 E31.38018
G1 X118.258 Y118.497 E31.403
G1 X118.674 Y117.959 E31.42844
G0 F3600 X118.998 Y118.277
G1 F1800 X119.489 Y117.89 E31.45184
G1 X119.994 Y117.643 E31.47287
G1 X120.501 Y117.525 E31.49235
G1 X129.05 Y117.525 E31.81223
G1 X129.562 Y117.636 E31.83183
G1 X130.022 Y117.85 E31.85082
G1 X130.479 Y118.204 E31.87245
G1 X130.866 Y118.695 E31.89584
G1 X131.113 Y119.2 E31.91688
G1 X131.231 Y119.707 E31.93635
G1 X131.231 Y130.294 E32.33249
G1 X131.12 Y130.806 E32.3521
G1 X130.906 Y131.266 E32.37108
G1 X130.552 Y131.723 E32.39271
G1 X130.061 Y132.11 E32.4161
G1 X129.556 Y132.357 E32.43714
G1 X129.049 Y132.475 E32.45662
G1 X120.5 Y132.475 E32.7765
G1 X119.988 Y132.364 E32.7961
G1 X119.528 Y132.15 E32.81509
G1 X119.071 Y131.796 E32.83672
G1 X118.684 Y131.305 E32.86011
G1 X118.437 Y130.8 E32.88114
G1 X118.319 Y130.293 E32.90062
G1 X118.319 Y119.706 E33.29676
G1 X118.43 Y119.194 E33.31637
G1 X118.644 Y118.734 E33.33535
G1 X118.998 Y118.277 E33.35698
G0 F3600 X119.322 Y118.595
G1 F1800 X119.73 Y118.273 E33.37643
G1 X120.147 Y118.069 E33.3938
G1 X120.551 Y117.975 E33.40932
G1 X129.001 Y117.975 E33.7255
G1 X129.418 Y118.065 E33.74146
G1 X129.784 Y118.236 E33.75658
G1 X130.161 Y118.528 E33.77442
G1 X130.483 Y118.936 E33.79387
G1 X130.687 Y119.353 E33.81124
G1 X130.781 Y119.757 E33.82676
G1 X130.781 Y130.245 E34.21919
G1 X130.691 Y130.662 E34.23516
G1 X130.52 Y131.028 E34.25027
G1 X130.228 Y131.405 E34.26811
G1 X129.82 Y131.727 E34.28756
G1 X129.403 Y131.931 E34.30493
G1 X128.999 Y132.025 E34.32045
G1 X120.549 Y132.025 E34.63663
G1 X120.132 Y131.935 E34.6526
G1 X119.766 Y131.764 E34.66771
G1 X119.389 Y131.472 E34.68555
G1 X119.067 Y131.064 E34.705
G1 X118.863 Y130.647 E34.72237
G1 X118.769 Y130.243 E34.73789
G1 X118.769 Y119.755 E35.13033
G1 X118.859 Y119.338 E35.14629
G1 X119.03 Y118.972 E35.16141
G1 X119.322 Y118.595 E35.17925
G0 F3600 X119.644 Y118.914
G1 F1800 X119.416 Y119.209 E35.1932
G1 X119.289 Y119.48 E35.2044
G1 X119.219 Y119.804 E35.2168
G1 X119.219 Y130.193 E35.60553
G1 X119.289 Y130.494 E35.6171
G1 X119.45 Y130.823 E35.6308
G1 X119.708 Y131.15 E35.64639
G1 X120.003 Y131.378 E35.66034
G1 X120.274 Y131.505 E35.67154
G1 X120.598 Y131.575 E35.68394
G1 X128.949 Y131.575 E35.99642
G1 X129.25 Y131.505 E36.00798
G1 X129.579 Y131.344 E36.02168
G1 X129.906 Y131.086 E36.03727
G1 X130.134 Y130.791 E36.05122
G1 X130.261 Y130.52 E36.06242
G1 X130.331 Y130.196 E36.07482
G1 X130.331 Y119.807 E36.46355
G1 X130.261 Y119.506 E36.47512
G1 X130.1 Y119.177 E36.48882
G1 X129.842 Y118.85 E36.50441
G1 X129.547 Y118.622 E36.51836
G1 X129.276 Y118.495 E36.52956
G1 X128.952 Y118.425 E36.54196
G1 X120.601 Y118.425 E36.85443
G1 X120.3 Y118.495 E36.866
G1 X119.971 Y118.656 E36.8797
G1 X119.644 Y118.914 E36.89529
G0 F3600 X119.966 Y119.233
G1 F1800 X120.212 Y119.039 E36.90701
G1 X120.453 Y118.921 E36.91705
G1 X120.651 Y118.875 E36.92466
G1 X128.902 Y118.875 E37.23339
G1 X129.132 Y118.925 E37.2422
G1 X129.312 Y119.009 E37.24963
G1 X129.523 Y119.172 E37.25961
G1 X129.717 Y119.418 E37.27133
G1 X129.835 Y119.659 E37.28137
G1 X129.881 Y119.857 E37.28898
G1 X129.881 Y130.146 E37.67397
G1 X129.831 Y130.376 E37.68277
G1 X129.747 Y130.556 E37.69021
G1 X129.584 Y130.767 E37.70018
G1 X129.338 Y130.961 E37.71191
G1 X129.097 Y131.079 E37.72195
G1 X128.899 Y131.125 E37.72955
G1 X120.648 Y131.125 E38.03829
G1 X120.418 Y131.075 E38.04709
G1 X120.238 Y130.991 E38.05452
G1 X120.027 Y130.828 E38.0645
G1 X119.833 Y130.582 E38.07622
G1 X119.715 Y130.341 E38.08626
G1 X119.669 Y130.143 E38.09387
G1 X119.669 Y119.854 E38.47886
G1 X119.719 Y119.624 E38.48767
G1 X119.803 Y119.444 E38.4951
G1 X119.966 Y119.233 E38.50508
G0 F3600 X120.569 Y119.904
G1 F1800 X120.732 Y119.775 E38.51285
G1 X128.852 Y119.775 E38.81669
G1 X128.981 Y119.938 E38.82446
G1 X128.981 Y130.096 E39.20455
G1 X128.818 Y130.225 E39.21233
G1 X120.698 Y130.225 E39.51616
G1 X120.569 Y130.062 E39.52394
G1 X120.569 Y119.904 E39.90403
G0 F3600 X120.29 Y119.551
G1 F1800 X120.453 Y119.422 E39.91181
G1 X120.651 Y119.325 E39.92006
G1 X128.852 Y119.325 E40.22692
G1 X129.036 Y119.365 E40.23396
G1 X129.205 Y119.496 E40.24197
G1 X129.334 Y119.659 E40.24974
G1 X129.431 Y119.857 E40.25799
G1 X129.431 Y130.096 E40.64111
G1 X129.391 Y130.28 E40.64816
G1 X129.26 Y130.449 E40.65616
G1 X129.097 Y130.578 E40.66394
G1 X128.899 Y130.675 E40.67219
G1 X120.698 Y130.675 E40.97905
G1 X120.514 Y130.635 E40.98609
G1 X120.345 Y130.504 E40.9941
G1 X120.216 Y130.341 E41.00187
G1 X120.119 Y130.143 E41.01012
G1 X120.119 Y119.904 E41.39324
G1 X120.159 Y119.72 E41.40029
G1 X120.29 Y119.551 E41.40829
G1 F300 E40.90829
G1 F600 Z0.48
;MESH:test-ptfe-fit-v6.stl
G0 F3600 X128.156 Y129.4 Z0.48
;TYPE:WALL-INNER
G1 F600 Z0.2
G1 F120 E41.40829
G1 F1800 X128.156 Y120.6 E41.70098
G1 X121.394 Y120.6 E41.92588
G1 X121.394 Y129.4 E42.21857
G1 X128.156 Y129.4 E42.44348
G0 F3600 X128.556 Y129.8
;TYPE:WALL-OUTER
G1 F1800 X128.556 Y120.2 E42.76278
G1 X120.994 Y120.2 E43.01429
G1 X120.994 Y129.8 E43.33359
G1 X128.556 Y129.8 E43.5851
G0 F3600 X128.556 Y129.6
