;FLAVOR:Marlin
;TIME:393
;Filament used: 0.213562m
;Layer height: 0.3
;MINX:112.919
;MINY:114.682
;MINZ:0.2
;MAXX:136.631
;MAXY:137.874
;MAXZ:10.38
;TARGET_MACHINE.NAME:VORON2 250
;Generated with Cura_SteamEngine 5.6.0
M140 S60
M105
M190 S60
M104 S215
M105
M109 S215
M82 ;absolute extrusion mode
START_PRINT
G92 E0
G92 E0
G1 F300 E-0.5
;LAYER_COUNT:34
;LAYER:0
M107
M204 S1800
G1 F600 Z0.48
G0 F3600 X115.08 Y117.398 Z0.48
;TYPE:SKIRT
G1 F600 Z0.2
G1 F120 E0
G1 F1800 X113.865 Y119.108 E0.07849
G1 X112.919 Y121.676 E0.18089
G1 X112.919 Y130.896 E0.52588
G1 X113.317 Y132.61 E0.59172
G1 X114.096 Y134.205 E0.65814
G1 X115.243 Y135.66 E0.72747
G1 X116.706 Y136.792 E0.79668
G1 X118.267 Y137.518 E0.8611
G1 X119.905 Y137.874 E0.92382
G1 X129.653 Y137.874 E1.28857
G1 X131.367 Y137.476 E1.35441
G1 X132.962 Y136.697 E1.42083
G1 X134.417 Y135.55 E1.49015
G1 X135.549 Y134.087 E1.55937
G1 X136.275 Y132.526 E1.62378
G1 X136.631 Y130.888 E1.68651
G1 X136.631 Y125.445 E1.89017
G1 X136.165 Y123.543 E1.96344
G1 X135.062 Y121.427 E2.05273
G1 X133.45 Y119.76 E2.1395
G1 X131.051 Y118.39 E2.24287
G1 X129.362 Y117.638 E2.31205
G1 X128.725 Y117.001 E2.34576
G1 X126.137 Y115.339 E2.46084
G1 X123.874 Y114.682 E2.54901
G1 X119.955 Y114.682 E2.69565
G1 X117.121 Y115.703 E2.80837
G1 X115.08 Y117.398 E2.90764
G0 F3600 X115.413 Y117.706
G1 F1800 X117.349 Y116.098 E3.00181
G1 X120.032 Y115.132 E3.10851
G1 X123.81 Y115.132 E3.24987
G1 X125.948 Y115.753 E3.33318
G1 X128.443 Y117.355 E3.44412
G1 X129.145 Y118.057 E3.48127
G1 X129.296 Y118.101 E3.48715
G1 X130.828 Y118.781 E3.54987
G1 X133.172 Y120.12 E3.65088
G1 X134.693 Y121.692 E3.73273
G1 X135.741 Y123.703 E3.81758
G1 X136.181 Y125.499 E3.88677
G1 X136.181 Y130.839 E4.08658
G1 X135.846 Y132.382 E4.14566
G1 X135.162 Y133.852 E4.20633
G1 X134.095 Y135.231 E4.27157
G1 X132.72 Y136.315 E4.33708
G1 X131.217 Y137.049 E4.39967
G1 X129.603 Y137.424 E4.46167
G1 X119.954 Y137.424 E4.82271
G1 X118.411 Y137.089 E4.88179
G1 X116.941 Y136.405 E4.94246
G1 X115.562 Y135.338 E5.0077
G1 X114.478 Y133.963 E5.07322
G1 X113.744 Y132.46 E5.1358
G1 X113.369 Y130.846 E5.1978
G1 X113.369 Y121.756 E5.53793
G1 X114.266 Y119.321 E5.63503
G1 X115.413 Y117.706 E5.70915
G0 F3600 X115.748 Y118.012
G1 F1800 X117.576 Y116.494 E5.79806
G1 X120.109 Y115.582 E5.89879
G1 X123.747 Y115.582 E6.03492
G1 X125.758 Y116.166 E6.11327
G1 X128.161 Y117.709 E6.22013
G1 X128.915 Y118.463 E6.26003
G1 X129.114 Y118.513 E6.2677
G1 X130.605 Y119.172 E6.3287
G1 X132.892 Y120.478 E6.42724
G1 X134.325 Y121.96 E6.50438
G1 X135.317 Y123.863 E6.58468
G1 X135.731 Y125.553 E6.64979
G1 X135.731 Y130.789 E6.8457
G1 X135.416 Y132.239 E6.90123
G1 X134.775 Y133.617 E6.95809
G1 X133.773 Y134.912 E7.01936
G1 X132.478 Y135.933 E7.08106
G1 X131.067 Y136.622 E7.13982
G1 X129.553 Y136.974 E7.19798
G1 X120.004 Y136.974 E7.55528
G1 X118.554 Y136.659 E7.6108
G1 X117.176 Y136.018 E7.66767
G1 X115.881 Y135.016 E7.72894
G1 X114.86 Y133.721 E7.79064
G1 X114.171 Y132.31 E7.8494
G1 X113.819 Y130.796 E7.90756
G1 X113.819 Y121.836 E8.24282
G1 X114.667 Y119.534 E8.33461
G1 X115.748 Y118.012 E8.40447
G0 F3600 X116.083 Y118.318
G1 F1800 X117.803 Y116.89 E8.48811
G1 X120.186 Y116.032 E8.58288
G1 X123.684 Y116.032 E8.71377
G1 X125.568 Y116.579 E8.78718
G1 X127.879 Y118.063 E8.88994
G1 X128.695 Y118.879 E8.93312
G1 X128.933 Y118.925 E8.94219
G1 X130.382 Y119.563 E9.00143
G1 X132.614 Y120.838 E9.09761
G1 X133.956 Y122.225 E9.16983
G1 X134.893 Y124.023 E9.24569
G1 X135.281 Y125.607 E9.30672
G1 X135.281 Y130.739 E9.49874
G1 X134.986 Y132.096 E9.5507
G1 X134.388 Y133.382 E9.60377
G1 X133.451 Y134.593 E9.66106
G1 X132.236 Y135.551 E9.71896
G1 X130.917 Y136.195 E9.77388
G1 X129.503 Y136.524 E9.8282
G1 X120.054 Y136.524 E10.18176
G1 X118.697 Y136.229 E10.23372
G1 X117.411 Y135.631 E10.28679
G1 X116.2 Y134.694 E10.34408
G1 X115.242 Y133.479 E10.40198
G1 X114.598 Y132.16 E10.4569
G1 X114.269 Y130.746 E10.51122
G1 X114.269 Y121.916 E10.84162
G1 X115.068 Y119.747 E10.92811
G1 X116.083 Y118.318 E10.9937
G0 F3600 X116.418 Y118.624
G1 F1800 X118.03 Y117.286 E11.07208
G1 X120.263 Y116.482 E11.16089
G1 X123.621 Y116.482 E11.28654
G1 X125.378 Y116.992 E11.35499
G1 X127.597 Y118.417 E11.45367
G1 X128.489 Y119.309 E11.50087
G1 X128.752 Y119.337 E11.51077
G1 X130.159 Y119.954 E11.56825
G1 X132.334 Y121.196 E11.66197
G1 X133.588 Y122.493 E11.72948
G1 X134.469 Y124.183 E11.80079
G1 X134.831 Y125.661 E11.85773
G1 X134.831 Y130.69 E12.0459
G1 X134.557 Y131.952 E12.09422
G1 X134.001 Y133.147 E12.14354
G1 X133.129 Y134.274 E12.19686
G1 X131.994 Y135.169 E12.25094
G1 X130.767 Y135.768 E12.30203
G1 X129.453 Y136.074 E12.35251
G1 X120.103 Y136.074 E12.70237
G1 X118.841 Y135.8 E12.75069
G1 X117.646 Y135.244 E12.80001
G1 X116.519 Y134.372 E12.85333
G1 X115.624 Y133.237 E12.90741
G1 X115.025 Y132.01 E12.9585
G1 X114.719 Y130.696 E13.00898
G1 X114.719 Y121.996 E13.33452
G1 X115.469 Y119.96 E13.4157
G1 X116.418 Y118.624 E13.47702
G0 F3600 X116.753 Y118.93
G1 F1800 X115.87 Y120.173 E13.53407
G1 X115.169 Y122.076 E13.60996
G1 X115.169 Y130.646 E13.93063
G1 X115.451 Y131.858 E13.97719
G1 X116.007 Y132.996 E14.02458
G1 X116.838 Y134.05 E14.0748
G1 X117.881 Y134.857 E14.12414
G1 X118.984 Y135.37 E14.16966
G1 X120.153 Y135.624 E14.21442
G1 X129.403 Y135.624 E14.56054
G1 X130.615 Y135.342 E14.6071
G1 X131.753 Y134.786 E14.65449
G1 X132.807 Y133.955 E14.70471
G1 X133.614 Y132.912 E14.75406
G1 X134.127 Y131.809 E14.79957
G1 X134.381 Y130.64 E14.84434
G1 X134.381 Y125.715 E15.02862
G1 X134.045 Y124.343 E15.08147
G1 X133.219 Y122.758 E15.14835
G1 X132.056 Y121.556 E15.21093
G1 X129.936 Y120.345 E15.30229
G1 X128.635 Y119.777 E15.3554
G1 X128.243 Y119.734 E15.37016
G1 X128.138 Y119.588 E15.37689
G1 X127.312 Y118.769 E15.42041
G1 X125.189 Y117.406 E15.51481
G1 X123.557 Y116.932 E15.5784
G1 X120.34 Y116.932 E15.69877
G1 X118.257 Y117.682 E15.78161
G1 X116.753 Y118.93 E15.85474
G0 F3600 X117.088 Y119.236
G1 F1800 X116.271 Y120.386 E15.90752
G1 X115.619 Y122.156 E15.9781
G1 X115.619 Y130.596 E16.29391
G1 X115.878 Y131.707 E16.3366
G1 X116.389 Y132.754 E16.38019
G1 X117.157 Y133.728 E16.4266
G1 X118.116 Y134.47 E16.47197
G1 X119.127 Y134.94 E16.51369
G1 X120.203 Y135.174 E16.55489
G1 X129.353 Y135.174 E16.89726
G1 X130.464 Y134.915 E16.93995
G1 X131.511 Y134.404 E16.98354
G1 X132.485 Y133.636 E17.02995
G1 X133.227 Y132.677 E17.07532
G1 X133.697 Y131.666 E17.11704
G1 X133.931 Y130.59 E17.15824
G1 X133.931 Y125.769 E17.33863
G1 X133.621 Y124.503 E17.3874
G1 X132.851 Y123.026 E17.44973
G1 X131.776 Y121.914 E17.5076
G1 X129.713 Y120.736 E17.59649
G1 X128.516 Y120.216 E17.64532
G1 X127.979 Y120.158 E17.66553
G1 X127.821 Y119.908 E17.6766
G1 X127.028 Y119.122 E17.71838
G1 X124.999 Y117.819 E17.80861
G1 X123.494 Y117.382 E17.86724
G1 X120.417 Y117.382 E17.98238
G1 X118.484 Y118.078 E18.05925
G1 X117.088 Y119.236 E18.12712
G0 F3600 X117.423 Y119.542
G1 F1800 X116.672 Y120.599 E18.17564
G1 X116.069 Y122.236 E18.24091
G1 X116.069 Y130.545 E18.55182
G1 X116.304 Y131.555 E18.59062
G1 X116.772 Y132.513 E18.63051
G1 X117.476 Y133.406 E18.67306
G1 X118.351 Y134.083 E18.71446
G1 X119.271 Y134.511 E18.75242
G1 X120.252 Y134.724 E18.78999
G1 X129.302 Y134.724 E19.12862
G1 X130.312 Y134.489 E19.16742
G1 X131.27 Y134.021 E19.20731
G1 X132.163 Y133.317 E19.24986
G1 X132.84 Y132.442 E19.29126
G1 X133.268 Y131.522 E19.32922
G1 X133.481 Y130.541 E19.36679
G1 X133.481 Y125.823 E19.54332
G1 X133.197 Y124.663 E19.58801
G1 X132.482 Y123.291 E19.6459
G1 X131.498 Y122.274 E19.69885
G1 X129.49 Y121.127 E19.78538
G1 X128.399 Y120.656 E19.82984
G1 X127.715 Y120.581 E19.85559
G1 X127.471 Y120.195 E19.87268
G1 X126.744 Y119.475 E19.91096
G1 X124.809 Y118.232 E19.99702
G1 X123.431 Y117.832 E20.05071
G1 X120.495 Y117.832 E20.16056
G1 X118.71 Y118.475 E20.23156
G1 X117.423 Y119.542 E20.29411
G0 F3600 X117.754 Y119.852
G1 F1800 X117.074 Y120.81 E20.33807
G1 X116.519 Y122.316 E20.39812
G1 X116.519 Y130.495 E20.70416
G1 X116.731 Y131.404 E20.73909
G1 X117.154 Y132.271 E20.77519
G1 X117.795 Y133.084 E20.81392
G1 X118.586 Y133.696 E20.85135
G1 X119.414 Y134.081 E20.88551
G1 X120.302 Y134.274 E20.91952
G1 X129.252 Y134.274 E21.2544
G1 X130.161 Y134.062 E21.28933
G1 X131.028 Y133.639 E21.32543
G1 X131.841 Y132.998 E21.36416
G1 X132.453 Y132.207 E21.40159
G1 X132.838 Y131.379 E21.43575
G1 X133.031 Y130.491 E21.46976
G1 X133.031 Y125.877 E21.6424
G1 X132.773 Y124.823 E21.683
G1 X132.114 Y123.559 E21.73634
G1 X131.218 Y122.632 E21.78458
G1 X129.267 Y121.518 E21.86865
G1 X128.281 Y121.096 E21.90878
G1 X127.45 Y121.004 E21.94006
G1 X127.119 Y120.481 E21.96322
G1 X126.46 Y119.828 E21.99793
G1 X124.62 Y118.646 E22.07976
G1 X123.367 Y118.282 E22.12859
G1 X120.573 Y118.282 E22.23313
G1 X118.938 Y118.871 E22.29816
G1 X117.754 Y119.852 E22.35569
G0 F3600 X118.087 Y120.161
G1 F1800 X117.475 Y121.023 E22.39525
G1 X116.969 Y122.396 E22.45
G1 X116.969 Y130.444 E22.75114
G1 X117.158 Y131.254 E22.78226
G1 X117.536 Y132.029 E22.81452
G1 X118.114 Y132.762 E22.84945
G1 X118.821 Y133.309 E22.8829
G1 X119.557 Y133.651 E22.91327
G1 X120.352 Y133.824 E22.94371
G1 X129.201 Y133.824 E23.27482
G1 X130.011 Y133.635 E23.30594
G1 X130.786 Y133.257 E23.33821
G1 X131.519 Y132.679 E23.37313
G1 X132.066 Y131.972 E23.40658
G1 X132.408 Y131.236 E23.43695
G1 X132.581 Y130.441 E23.46739
G1 X132.581 Y125.931 E23.63615
G1 X132.349 Y124.983 E23.67266
G1 X131.745 Y123.824 E23.72157
G1 X130.939 Y122.991 E23.76494
G1 X129.09 Y121.932 E23.84467
G1 X128.163 Y121.535 E23.8824
G1 X127.185 Y121.427 E23.91922
G1 X126.767 Y120.766 E23.94848
G1 X126.176 Y120.181 E23.9796
G1 X124.43 Y119.059 E24.05725
G1 X123.304 Y118.732 E24.10113
G1 X120.651 Y118.732 E24.2004
G1 X119.166 Y119.267 E24.25946
G1 X118.087 Y120.161 E24.31189
G0 F3600 X118.42 Y120.47
G1 F1800 X119.394 Y119.663 E24.35922
G1 X120.729 Y119.182 E24.41231
G1 X123.241 Y119.182 E24.50631
G1 X124.24 Y119.472 E24.54523
G1 X125.895 Y120.535 E24.61883
G1 X126.414 Y121.05 E24.64619
G1 X126.799 Y121.654 E24.67299
G1 X126.889 Y121.905 E24.68297
G1 X127.147 Y121.874 E24.69269
G1 X128.047 Y121.975 E24.72658
G1 X128.866 Y122.323 E24.75987
G1 X130.66 Y123.35 E24.83722
G1 X131.377 Y124.092 E24.87583
G1 X131.925 Y125.143 E24.92018
G1 X132.131 Y125.985 E24.95262
G1 X132.131 Y130.392 E25.11751
G1 X131.979 Y131.092 E25.14432
G1 X131.679 Y131.737 E25.17093
G1 X131.197 Y132.36 E25.20041
G1 X130.544 Y132.875 E25.23153
G1 X129.861 Y133.208 E25.25996
G1 X129.15 Y133.374 E25.28728
G1 X120.401 Y133.374 E25.61464
G1 X119.701 Y133.222 E25.64145
G1 X119.056 Y132.922 E25.66806
G1 X118.433 Y132.44 E25.69754
G1 X117.918 Y131.787 E25.72866
G1 X117.585 Y131.104 E25.75709
G1 X117.419 Y130.393 E25.78441
G1 X117.419 Y122.476 E26.08064
G1 X117.876 Y121.236 E26.13009
G1 X118.42 Y120.47 E26.16525
G0 F3600 X118.753 Y120.779
G1 F1800 X118.277 Y121.449 E26.196
G1 X117.869 Y122.556 E26.24014
G1 X117.869 Y130.342 E26.53148
G1 X118.011 Y130.952 E26.55491
G1 X118.301 Y131.545 E26.57961
G1 X118.753 Y132.119 E26.60695
G1 X119.291 Y132.535 E26.6324
G1 X119.844 Y132.792 E26.65521
G1 X120.451 Y132.924 E26.67846
G1 X129.099 Y132.924 E27.00205
G1 X129.709 Y132.782 E27.02548
G1 X130.302 Y132.492 E27.05018
G1 X130.876 Y132.04 E27.07752
G1 X131.292 Y131.502 E27.10296
G1 X131.549 Y130.949 E27.12578
G1 X131.681 Y130.342 E27.14903
G1 X131.681 Y126.039 E27.31003
G1 X131.501 Y125.303 E27.33838
G1 X131.008 Y124.357 E27.3783
G1 X130.383 Y123.711 E27.41193
G1 X128.642 Y122.714 E27.487
G1 X127.931 Y122.415 E27.51586
G1 X127.151 Y122.327 E27.54523
G1 X126.586 Y122.395 E27.56653
G1 X126.391 Y121.85 E27.58819
G1 X126.064 Y121.337 E27.61095
G1 X125.611 Y120.888 E27.63482
G1 X124.05 Y119.885 E27.70424
G1 X123.178 Y119.632 E27.73822
G1 X120.807 Y119.632 E27.82693
G1 X119.622 Y120.059 E27.87406
G1 X118.753 Y120.779 E27.91629
G0 F3600 X119.086 Y121.088
G1 F1800 X119.85 Y120.455 E27.95342
G1 X120.885 Y120.082 E27.99458
G1 X123.114 Y120.082 E28.07798
G1 X123.861 Y120.299 E28.10709
G1 X125.33 Y121.242 E28.17241
G1 X125.712 Y121.621 E28.19254
G1 X125.983 Y122.046 E28.2114
G1 X126.178 Y122.591 E28.23306
G1 X126.221 Y122.999 E28.24841
G1 X126.416 Y122.914 E28.25637
G1 X126.739 Y122.83 E28.26886
G1 X127.154 Y122.78 E28.2845
G1 X127.817 Y122.855 E28.30947
G1 X128.418 Y123.105 E28.33382
G1 X130.104 Y124.07 E28.40651
G1 X130.64 Y124.625 E28.43538
G1 X131.077 Y125.463 E28.47075
G1 X131.231 Y126.093 E28.49501
G1 X131.231 Y130.293 E28.65217
G1 X131.12 Y130.805 E28.67177
G1 X130.906 Y131.265 E28.69075
G1 X130.552 Y131.722 E28.71238
G1 X130.061 Y132.109 E28.73578
G1 X129.556 Y132.356 E28.75681
G1 X129.049 Y132.474 E28.77629
G1 X120.5 Y132.474 E29.09617
G1 X119.988 Y132.363 E29.11578
G1 X119.528 Y132.149 E29.13476
G1 X119.071 Y131.795 E29.15639
G1 X118.684 Y131.304 E29.17978
G1 X118.437 Y130.799 E29.20082
G1 X118.319 Y130.292 E29.22029
G1 X118.319 Y122.636 E29.50676
G1 X118.678 Y121.662 E29.54561
G1 X119.086 Y121.088 E29.57196
G0 F3600 X119.419 Y121.397
G1 F1800 X120.078 Y120.851 E29.60398
G1 X120.963 Y120.532 E29.63918
G1 X123.051 Y120.532 E29.71731
G1 X123.671 Y120.712 E29.74146
G1 X125.046 Y121.595 E29.80261
G1 X125.362 Y121.908 E29.81925
G1 X125.575 Y122.242 E29.83407
G1 X125.736 Y122.692 E29.85196
G1 X125.786 Y123.175 E29.87013
G1 X125.733 Y123.585 E29.88559
G1 X125.633 Y123.937 E29.89929
G1 X125.996 Y123.605 E29.91769
G1 X126.535 Y123.348 E29.94004
G1 X126.793 Y123.277 E29.95005
G1 X127.157 Y123.233 E29.96377
G1 X127.702 Y123.295 E29.98429
G1 X128.195 Y123.496 E30.00421
G1 X129.824 Y124.428 E30.07444
G1 X130.272 Y124.892 E30.09857
G1 X130.653 Y125.623 E30.12942
G1 X130.781 Y126.147 E30.1496
G1 X130.781 Y130.244 E30.3029
G1 X130.691 Y130.661 E30.31886
G1 X130.52 Y131.027 E30.33398
G1 X130.228 Y131.404 E30.35182
G1 X129.82 Y131.726 E30.37127
G1 X129.403 Y131.93 E30.38864
G1 X128.999 Y132.024 E30.40416
G1 X120.549 Y132.024 E30.72034
G1 X120.132 Y131.934 E30.7363
G1 X119.766 Y131.763 E30.75142
G1 X119.389 Y131.471 E30.76926
G1 X119.067 Y131.063 E30.78871
G1 X118.863 Y130.646 E30.80608
G1 X118.769 Y130.242 E30.8216
G1 X118.769 Y122.716 E31.1032
G1 X119.079 Y121.875 E31.13674
G1 X119.419 Y121.397 E31.15869
G0 F3600 X119.75 Y121.707
G1 F1800 X120.306 Y121.247 E31.18569
G1 X121.041 Y120.982 E31.21493
G1 X122.988 Y120.982 E31.28778
G1 X123.481 Y121.125 E31.30699
G1 X124.765 Y121.95 E31.36409
G1 X125.009 Y122.191 E31.37693
G1 X125.168 Y122.441 E31.38801
G1 X125.293 Y122.791 E31.40192
G1 X125.333 Y123.172 E31.41625
G1 X125.3 Y123.462 E31.42717
G1 X125.217 Y123.754 E31.43853
G1 X125.001 Y124.142 E31.45515
G1 X124.71 Y124.43 E31.47047
G1 X124.531 Y124.578 E31.47916
G1 X124.427 Y124.736 E31.48624
G1 X124.375 Y124.912 E31.4931
G1 X124.392 Y125.224 E31.5048
G1 X124.6 Y125.494 E31.51755
G1 X124.815 Y125.608 E31.52665
G1 X125.117 Y125.624 E31.53797
G1 X125.415 Y125.492 E31.55017
G1 X125.597 Y125.229 E31.56213
G1 X125.669 Y124.803 E31.5783
G1 X125.794 Y124.491 E31.59088
G1 X125.968 Y124.24 E31.6023
G1 X126.251 Y123.982 E31.61663
G1 X126.666 Y123.779 E31.63392
G1 X126.847 Y123.724 E31.641
G1 X127.16 Y123.686 E31.6528
G1 X127.59 Y123.735 E31.66899
G1 X127.972 Y123.887 E31.68437
G1 X129.546 Y124.787 E31.75222
G1 X129.903 Y125.157 E31.77145
G1 X130.229 Y125.783 E31.79786
G1 X130.331 Y126.201 E31.81396
G1 X130.331 Y130.195 E31.96341
G1 X130.261 Y130.519 E31.97581
G1 X130.134 Y130.79 E31.98701
G1 X129.906 Y131.085 E32.00096
G1 X129.579 Y131.343 E32.01655
G1 X129.25 Y131.504 E32.03025
G1 X128.949 Y131.574 E32.04182
G1 X120.598 Y131.574 E32.35429
G1 X120.274 Y131.504 E32.36669
G1 X120.003 Y131.377 E32.37789
G1 X119.708 Y131.149 E32.39184
G1 X119.45 Y130.822 E32.40743
G1 X119.289 Y130.493 E32.42113
G1 X119.219 Y130.192 E32.4327
G1 X119.219 Y122.796 E32.70944
G1 X119.481 Y122.086 E32.73775
G1 X119.75 Y121.707 E32.75515
G0 F3600 X120.083 Y122.016
G1 F1800 X120.534 Y121.643 E32.77704
G1 X121.119 Y121.432 E32.80031
G1 X122.924 Y121.432 E32.86785
G1 X123.292 Y121.539 E32.88219
G1 X124.484 Y122.305 E32.93521
G1 X124.654 Y122.473 E32.94415
G1 X124.761 Y122.641 E32.95161
G1 X124.851 Y122.892 E32.96158
G1 X124.88 Y123.172 E32.97212
G1 X124.853 Y123.411 E32.98112
