;FLAVOR:Marlin
;TIME:275
;Filament used: 0.137311m
;Layer height: 0.3
;MINX:113.308
;MINY:114.204
;MINZ:0.2
;MAXX:136.692
;MAXY:135.796
;MAXZ:10.38
;TARGET_MACHINE.NAME:VORON2 250
;Generated with Cura_SteamEngine 5.6.0
M140 S60
M105
M190 S60
M104 S215
M105
M109 S215
M82 ;absolute extrusion mode
START_PRINT
G92 E0
G92 E0
G1 F300 E-0.5
;LAYER_COUNT:34
;LAYER:0
M107
M204 S1800
G1 F600 Z0.48
G0 F3600 X115.522 Y116.528 Z0.48
;TYPE:SKIRT
G1 F600 Z0.2
G1 F120 E0
G1 F1800 X114.39 Y117.991 E0.06922
G1 X113.664 Y119.552 E0.13363
G1 X113.308 Y121.19 E0.19635
G1 X113.308 Y128.629 E0.4747
G1 X114.011 Y130.836 E0.56137
G1 X115.037 Y132.506 E0.63471
G1 X116.528 Y134.022 E0.71427
G1 X118.157 Y135.038 E0.78611
G1 X120.433 Y135.796 E0.87587
G1 X124.261 Y135.796 E1.01911
G1 X126.507 Y135.144 E1.10662
G1 X128.989 Y133.548 E1.21703
G1 X129.503 Y132.97 E1.24597
G1 X130.444 Y132.67 E1.28293
G1 X133.376 Y130.993 E1.40931
G1 X134.552 Y129.796 E1.4721
G1 X135.769 Y128.27 E1.54514
G1 X136.692 Y125.553 E1.65251
G1 X136.692 Y121.182 E1.81606
G1 X136.294 Y119.468 E1.8819
G1 X135.515 Y117.873 E1.94832
G1 X134.368 Y116.418 E2.01764
G1 X132.905 Y115.286 E2.08686
G1 X131.344 Y114.56 E2.15128
G1 X129.706 Y114.204 E2.214
G1 X120.286 Y114.204 E2.56647
G1 X118.572 Y114.602 E2.63231
G1 X116.977 Y115.381 E2.69873
G1 X115.522 Y116.528 E2.76805
G0 F3600 X115.844 Y116.847
G1 F1800 X114.777 Y118.226 E2.8333
G1 X114.093 Y119.696 E2.89396
G1 X113.758 Y121.239 E2.95304
G1 X113.758 Y128.558 E3.2269
G1 X114.424 Y130.649 E3.30902
G1 X115.392 Y132.225 E3.37822
G1 X116.813 Y133.669 E3.45403
G1 X118.35 Y134.628 E3.52181
G1 X120.506 Y135.346 E3.60684
G1 X124.198 Y135.346 E3.74499
G1 X126.32 Y134.73 E3.82767
G1 X128.693 Y133.204 E3.93323
G1 X129.25 Y132.578 E3.96459
G1 X130.263 Y132.255 E4.00437
G1 X133.1 Y130.632 E4.12667
G1 X134.231 Y129.481 E4.18705
G1 X135.368 Y128.051 E4.25541
G1 X136.242 Y125.479 E4.35705
G1 X136.242 Y121.232 E4.51596
G1 X135.867 Y119.618 E4.57796
G1 X135.133 Y118.115 E4.64055
G1 X134.049 Y116.74 E4.70607
G1 X132.67 Y115.673 E4.77131
G1 X131.2 Y114.989 E4.83197
G1 X129.657 Y114.654 E4.89106
G1 X120.336 Y114.654 E5.23983
G1 X118.722 Y115.029 E5.30183
G1 X117.219 Y115.763 E5.36441
G1 X115.844 Y116.847 E5.42993
G0 F3600 X116.166 Y117.166
G1 F1800 X115.164 Y118.461 E5.49119
G1 X114.523 Y119.839 E5.54806
G1 X114.208 Y121.289 E5.60358
G1 X114.208 Y128.487 E5.87291
G1 X114.837 Y130.462 E5.95047
G1 X115.749 Y131.946 E6.01565
G1 X117.095 Y133.315 E6.08748
G1 X118.543 Y134.218 E6.15134
G1 X120.579 Y134.896 E6.23163
G1 X124.135 Y134.896 E6.36469
G1 X126.133 Y134.316 E6.44254
G1 X128.397 Y132.86 E6.54326
G1 X128.997 Y132.186 E6.57702
G1 X130.082 Y131.84 E6.61963
G1 X132.824 Y130.271 E6.73784
G1 X133.91 Y129.166 E6.79581
G1 X134.967 Y127.832 E6.8595
G1 X135.792 Y125.405 E6.95542
G1 X135.792 Y121.282 E7.10969
G1 X135.44 Y119.768 E7.16785
G1 X134.751 Y118.357 E7.2266
G1 X133.73 Y117.062 E7.28831
G1 X132.435 Y116.06 E7.34958
G1 X131.057 Y115.419 E7.40644
G1 X129.607 Y115.104 E7.46196
G1 X120.386 Y115.104 E7.80699
G1 X118.872 Y115.456 E7.86515
G1 X117.461 Y116.145 E7.92391
G1 X116.166 Y117.166 E7.98561
G0 F3600 X116.488 Y117.485
G1 F1800 X115.551 Y118.696 E8.04291
G1 X114.953 Y119.982 E8.09597
G1 X114.658 Y121.339 E8.14793
G1 X114.658 Y128.416 E8.41274
G1 X115.25 Y130.275 E8.48574
G1 X116.106 Y131.668 E8.54692
G1 X117.377 Y132.961 E8.61476
G1 X118.736 Y133.808 E8.67468
G1 X120.652 Y134.446 E8.75024
G1 X124.072 Y134.446 E8.87821
G1 X125.946 Y133.902 E8.95122
G1 X128.101 Y132.516 E9.0471
G1 X128.744 Y131.794 E9.08327
G1 X129.898 Y131.426 E9.12859
G1 X132.549 Y129.909 E9.24288
G1 X133.589 Y128.851 E9.29839
G1 X134.566 Y127.614 E9.35737
G1 X135.342 Y125.331 E9.4476
G1 X135.342 Y121.332 E9.59723
G1 X135.013 Y119.918 E9.65155
G1 X134.369 Y118.599 E9.70648
G1 X133.411 Y117.384 E9.76437
G1 X132.2 Y116.447 E9.82166
G1 X130.914 Y115.849 E9.87473
G1 X129.557 Y115.554 E9.92669
G1 X120.436 Y115.554 E10.26798
G1 X119.022 Y115.883 E10.3223
G1 X117.703 Y116.527 E10.37722
G1 X116.488 Y117.485 E10.43512
G0 F3600 X116.81 Y117.804
G1 F1800 X115.938 Y118.931 E10.48844
G1 X115.382 Y120.126 E10.53775
G1 X115.108 Y121.388 E10.58607
G1 X115.108 Y128.345 E10.84639
G1 X115.663 Y130.088 E10.91483
G1 X116.463 Y131.39 E10.97201
G1 X117.659 Y132.607 E11.03586
G1 X118.929 Y133.398 E11.09184
G1 X120.725 Y133.996 E11.16267
G1 X124.009 Y133.996 E11.28555
G1 X125.759 Y133.488 E11.35374
G1 X127.805 Y132.172 E11.44476
G1 X128.491 Y131.402 E11.48335
G1 X129.714 Y131.012 E11.53138
G1 X132.274 Y129.547 E11.64175
G1 X133.268 Y128.536 E11.6948
G1 X134.165 Y127.396 E11.74908
G1 X134.892 Y125.257 E11.83361
G1 X134.892 Y121.382 E11.9786
G1 X134.586 Y120.068 E12.02908
G1 X133.987 Y118.841 E12.08017
G1 X133.092 Y117.706 E12.13426
G1 X131.965 Y116.834 E12.18758
G1 X130.77 Y116.278 E12.23689
G1 X129.508 Y116.004 E12.28522
G1 X120.486 Y116.004 E12.6228
G1 X119.172 Y116.31 E12.67328
G1 X117.945 Y116.909 E12.72437
G1 X116.81 Y117.804 E12.77845
G0 F3600 X117.132 Y118.123
G1 F1800 X118.186 Y117.292 E12.82868
G1 X119.324 Y116.736 E12.87607
G1 X120.536 Y116.454 E12.92263
G1 X129.458 Y116.454 E13.25647
G1 X130.627 Y116.708 E13.30123
G1 X131.73 Y117.221 E13.34675
G1 X132.773 Y118.028 E13.39609
G1 X133.604 Y119.082 E13.44631
G1 X134.16 Y120.22 E13.49371
G1 X134.442 Y121.432 E13.54027
G1 X134.442 Y125.183 E13.68062
G1 X133.764 Y127.178 E13.75946
G1 X132.947 Y128.22 E13.80901
G1 X131.997 Y129.186 E13.8597
G1 X129.528 Y130.599 E13.96615
G1 X128.418 Y130.958 E14.0098
G1 X128.261 Y130.983 E14.01575
G1 X127.509 Y131.828 E14.05807
G1 X125.572 Y133.074 E14.14425
G1 X123.946 Y133.546 E14.2076
G1 X120.798 Y133.546 E14.32539
G1 X119.122 Y132.988 E14.39149
G1 X117.944 Y132.254 E14.44343
G1 X116.818 Y131.109 E14.50351
G1 X116.075 Y129.9 E14.55661
G1 X115.558 Y128.275 E14.62042
G1 X115.558 Y121.438 E14.87624
G1 X115.812 Y120.269 E14.92101
G1 X116.325 Y119.166 E14.96652
G1 X117.132 Y118.123 E15.01587
G0 F3600 X117.454 Y118.442
G1 F1800 X118.428 Y117.674 E15.06228
G1 X119.475 Y117.163 E15.10587
G1 X120.586 Y116.904 E15.14856
G1 X129.408 Y116.904 E15.47866
G1 X130.484 Y117.138 E15.51986
G1 X131.495 Y117.608 E15.56158
G1 X132.454 Y118.35 E15.60695
G1 X133.222 Y119.324 E15.65336
G1 X133.733 Y120.371 E15.69695
G1 X133.992 Y121.482 E15.73964
G1 X133.992 Y125.109 E15.87535
G1 X133.363 Y126.96 E15.9485
G1 X132.626 Y127.904 E15.99331
G1 X131.72 Y128.825 E16.04165
G1 X129.341 Y130.187 E16.14423
G1 X128.28 Y130.53 E16.18595
G1 X128.044 Y130.551 E16.19481
G1 X127.215 Y131.482 E16.24146
G1 X125.383 Y132.66 E16.32296
G1 X123.882 Y133.096 E16.38144
G1 X120.871 Y133.096 E16.49411
G1 X119.315 Y132.578 E16.55547
G1 X118.226 Y131.9 E16.60347
G1 X117.173 Y130.829 E16.65967
G1 X116.489 Y129.715 E16.70858
G1 X116.008 Y128.204 E16.76792
G1 X116.008 Y121.488 E17.01921
G1 X116.242 Y120.412 E17.06042
G1 X116.712 Y119.401 E17.10213
G1 X117.454 Y118.442 E17.1475
G0 F3600 X117.776 Y118.761
G1 F1800 X117.099 Y119.636 E17.1889
G1 X116.671 Y120.556 E17.22687
G1 X116.458 Y121.537 E17.26443
G1 X116.458 Y128.134 E17.51127
G1 X116.901 Y129.526 E17.56593
G1 X117.529 Y130.549 E17.61085
G1 X118.511 Y131.547 E17.66324
G1 X119.508 Y132.168 E17.70719
G1 X120.944 Y132.646 E17.76382
G1 X123.819 Y132.646 E17.87139
G1 X125.193 Y132.247 E17.92493
G1 X126.921 Y131.136 E18.0018
G1 X127.702 Y130.26 E18.04571
G1 X127.789 Y130.122 E18.05181
G1 X128.189 Y130.087 E18.06684
G1 X129.155 Y129.774 E18.10483
G1 X131.445 Y128.463 E18.20357
G1 X132.271 Y127.627 E18.24754
G1 X132.962 Y126.742 E18.28956
G1 X133.542 Y125.035 E18.35701
G1 X133.542 Y121.533 E18.48805
G1 X133.307 Y120.523 E18.52685
G1 X132.839 Y119.565 E18.56675
G1 X132.135 Y118.672 E18.6093
G1 X131.26 Y117.995 E18.65069
G1 X130.34 Y117.567 E18.68866
G1 X129.359 Y117.354 E18.72622
G1 X120.637 Y117.354 E19.05258
G1 X119.627 Y117.589 E19.09138
G1 X118.669 Y118.057 E19.13127
G1 X117.776 Y118.761 E19.17382
G0 F3600 X118.098 Y119.08
G1 F1800 X117.486 Y119.871 E19.21124
G1 X117.101 Y120.699 E19.24541
G1 X116.908 Y121.587 E19.27941
G1 X116.908 Y128.064 E19.52177
G1 X117.313 Y129.337 E19.57175
G1 X117.885 Y130.269 E19.61267
G1 X118.796 Y131.194 E19.66125
G1 X119.701 Y131.758 E19.70115
G1 X121.017 Y132.196 E19.75305
G1 X123.756 Y132.196 E19.85553
G1 X125.003 Y131.834 E19.90412
G1 X126.627 Y130.79 E19.97636
G1 X127.366 Y129.961 E20.01792
G1 X127.496 Y129.697 E20.02893
G1 X128.099 Y129.643 E20.05158
G1 X128.972 Y129.361 E20.08591
G1 X131.168 Y128.103 E20.1806
G1 X131.916 Y127.35 E20.22032
G1 X132.561 Y126.524 E20.25953
G1 X133.092 Y124.961 E20.3213
G1 X133.092 Y121.583 E20.44769
G1 X132.88 Y120.674 E20.48262
G1 X132.457 Y119.807 E20.51872
G1 X131.816 Y118.994 E20.55746
G1 X131.025 Y118.382 E20.59488
G1 X130.197 Y117.997 E20.62904
G1 X129.309 Y117.804 E20.66305
G1 X120.687 Y117.804 E20.98566
G1 X119.778 Y118.016 E21.02059
G1 X118.911 Y118.439 E21.05668
G1 X118.098 Y119.08 E21.09542
G0 F3600 X118.42 Y119.399
G1 F1800 X117.873 Y120.106 E21.12887
G1 X117.531 Y120.842 E21.15924
G1 X117.358 Y121.637 E21.18968
G1 X117.358 Y127.993 E21.42751
G1 X117.727 Y129.152 E21.47302
G1 X118.239 Y129.986 E21.50964
G1 X119.081 Y130.841 E21.55454
G1 X119.894 Y131.348 E21.59039
G1 X121.09 Y131.746 E21.63755
G1 X123.693 Y131.746 E21.73495
G1 X124.816 Y131.42 E21.77871
G1 X126.329 Y130.447 E21.84601
G1 X126.989 Y129.707 E21.88312
G1 X127.204 Y129.271 E21.90131
G1 X128.008 Y129.2 E21.93151
G1 X128.786 Y128.948 E21.96211
G1 X130.894 Y127.741 E22.053
G1 X131.561 Y127.073 E22.08832
G1 X132.16 Y126.306 E22.12473
G1 X132.642 Y124.887 E22.18081
G1 X132.642 Y121.634 E22.30253
G1 X132.453 Y120.824 E22.33365
G1 X132.075 Y120.049 E22.36592
G1 X131.497 Y119.316 E22.40084
G1 X130.79 Y118.769 E22.43429
G1 X130.054 Y118.427 E22.46466
G1 X129.259 Y118.254 E22.4951
G1 X120.738 Y118.254 E22.81394
G1 X119.928 Y118.443 E22.84506
G1 X119.153 Y118.821 E22.87733
G1 X118.42 Y119.399 E22.91225
G0 F3600 X118.742 Y119.718
G1 F1800 X119.395 Y119.203 E22.94337
G1 X120.078 Y118.87 E22.9718
G1 X120.789 Y118.704 E22.99912
G1 X129.21 Y118.704 E23.31422
G1 X129.91 Y118.856 E23.34102
G1 X130.555 Y119.156 E23.36764
G1 X131.178 Y119.638 E23.39711
G1 X131.693 Y120.291 E23.42823
G1 X132.026 Y120.974 E23.45666
G1 X132.192 Y121.685 E23.48398
G1 X132.192 Y124.813 E23.60102
G1 X131.759 Y126.088 E23.65141
G1 X131.206 Y126.796 E23.68502
G1 X130.618 Y127.381 E23.71606
G1 X128.603 Y128.535 E23.80294
G1 X127.919 Y128.756 E23.82984
G1 X127.214 Y128.824 E23.85634
G1 X126.941 Y128.785 E23.86666
G1 X126.611 Y129.455 E23.89461
G1 X126.035 Y130.101 E23.92699
G1 X124.626 Y131.007 E23.98967
G1 X123.63 Y131.296 E24.02848
G1 X121.163 Y131.296 E24.12078
G1 X120.087 Y130.938 E24.16322
G1 X119.366 Y130.488 E24.19502
G1 X118.593 Y129.703 E24.23624
G1 X118.141 Y128.967 E24.26856
G1 X117.808 Y127.922 E24.3096
G1 X117.808 Y121.686 E24.54293
G1 X117.96 Y120.986 E24.56974
G1 X118.26 Y120.341 E24.59635
G1 X118.742 Y119.718 E24.62583
G0 F3600 X119.063 Y120.038
G1 F1800 X118.647 Y120.576 E24.65127
G1 X118.39 Y121.129 E24.67409
G1 X118.258 Y121.736 E24.69734
G1 X118.258 Y127.851 E24.92614
G1 X118.554 Y128.78 E24.96263
G1 X118.95 Y129.424 E24.99092
G1 X119.648 Y130.134 E25.02817
G1 X120.28 Y130.528 E25.05604
G1 X121.236 Y130.846 E25.09373
G1 X123.567 Y130.846 E25.18096
G1 X124.439 Y130.593 E25.21493
G1 X125.739 Y129.757 E25.27276
G1 X126.233 Y129.203 E25.30054
G1 X126.548 Y128.564 E25.32719
G1 X126.617 Y128.283 E25.33802
G1 X127.223 Y128.371 E25.36093
G1 X127.829 Y128.313 E25.38371
G1 X128.42 Y128.122 E25.40695
G1 X130.343 Y127.02 E25.48988
G1 X130.851 Y126.519 E25.51658
G1 X131.358 Y125.87 E25.5474
G1 X131.742 Y124.739 E25.59209
G1 X131.742 Y121.736 E25.70445
G1 X131.6 Y121.126 E25.72789
G1 X131.31 Y120.533 E25.75259
G1 X130.858 Y119.959 E25.77993
G1 X130.32 Y119.543 E25.80537
G1 X129.767 Y119.286 E25.82819
G1 X129.16 Y119.154 E25.85143
G1 X120.84 Y119.154 E26.16275
G1 X120.23 Y119.296 E26.18618
G1 X119.637 Y119.586 E26.21088
G1 X119.063 Y120.038 E26.23822
G0 F3600 X119.387 Y120.356
G1 F1800 X119.878 Y119.969 E26.26161
G1 X120.383 Y119.722 E26.28265
G1 X120.89 Y119.604 E26.30213
G1 X129.111 Y119.604 E26.60974
G1 X129.623 Y119.715 E26.62934
G1 X130.083 Y119.929 E26.64832
G1 X130.54 Y120.283 E26.66995
G1 X130.927 Y120.774 E26.69335
G1 X131.174 Y121.279 E26.71438
G1 X131.292 Y121.786 E26.73386
G1 X131.292 Y124.665 E26.84158
G1 X130.957 Y125.652 E26.88058
G1 X130.496 Y126.242 E26.9086
G1 X130.069 Y126.659 E26.93093
G1 X128.237 Y127.709 E27.00994
G1 X127.739 Y127.87 E27.02953
G1 X127.233 Y127.918 E27.04854
G1 X126.641 Y127.832 E27.07093
G1 X126.297 Y127.695 E27.08478
G1 X126.124 Y128.406 E27.11216
G1 X125.856 Y128.949 E27.13482
G1 X125.443 Y129.412 E27.15804
G1 X124.25 Y130.179 E27.21111
G1 X123.503 Y130.396 E27.24021
G1 X121.309 Y130.396 E27.32231
G1 X120.473 Y130.118 E27.35527
G1 X119.93 Y129.78 E27.3792
G1 X119.307 Y129.146 E27.41246
G1 X118.967 Y128.593 E27.43675
G1 X118.708 Y127.78 E27.46868
G1 X118.708 Y121.785 E27.693
G1 X118.819 Y121.273 E27.7126
G1 X119.033 Y120.813 E27.73159
G1 X119.387 Y120.356 E27.75322
G0 F3600 X119.711 Y120.674
G1 F1800 X119.419 Y121.051 E27.77106
G1 X119.248 Y121.417 E27.78617
G1 X119.158 Y121.834 E27.80214
G1 X119.158 Y127.709 E28.02197
G1 X119.38 Y128.406 E28.04934
G1 X119.662 Y128.865 E28.06949
G1 X120.215 Y129.427 E28.099
G1 X120.666 Y129.708 E28.11888
G1 X121.382 Y129.946 E28.14711
G1 X123.44 Y129.946 E28.22412
G1 X124.06 Y129.766 E28.24827
G1 X125.149 Y129.066 E28.29671
G1 X125.478 Y128.697 E28.31521
G1 X125.699 Y128.249 E28.3339
G1 X125.825 Y127.733 E28.35378
G1 X125.825 Y127.25 E28.37185
G1 X125.747 Y126.911 E28.38487
G1 X125.647 Y126.68 E28.39429
G1 X125.911 Y126.957 E28.4086
G1 X126.271 Y127.199 E28.42483
G1 X126.76 Y127.395 E28.44455
G1 X127.243 Y127.465 E28.46281
G1 X127.649 Y127.427 E28.47807
G1 X128.054 Y127.296 E28.49399
G1 X129.796 Y126.297 E28.56913
G1 X130.141 Y125.965 E28.58705
G1 X130.556 Y125.434 E28.61227
G1 X130.842 Y124.591 E28.64557
G1 X130.842 Y121.836 E28.74866
G1 X130.748 Y121.432 E28.76418
G1 X130.544 Y121.015 E28.78155
G1 X130.222 Y120.607 E28.801
G1 X129.845 Y120.315 E28.81884
G1 X129.479 Y120.144 E28.83396
G1 X129.062 Y120.054 E28.84992
G1 X120.94 Y120.054 E29.15383
G1 X120.536 Y120.148 E29.16935
G1 X120.119 Y120.352 E29.18672
G1 X119.711 Y120.674 E29.20616
G0 F3600 X120.033 Y120.993
G1 F1800 X120.36 Y120.735 E29.22175
G1 X120.689 Y120.574 E29.23546
G1 X120.99 Y120.504 E29.24702
G1 X129.013 Y120.504 E29.54722
G1 X129.337 Y120.574 E29.55962
G1 X129.608 Y120.701 E29.57082
G1 X129.903 Y120.929 E29.58477
G1 X130.161 Y121.256 E29.60036
G1 X130.322 Y121.585 E29.61406
G1 X130.392 Y121.886 E29.62563
G1 X130.392 Y124.517 E29.72407
G1 X130.154 Y125.217 E29.75174
G1 X129.829 Y125.641 E29.77173
G1 X129.524 Y125.935 E29.78758
G1 X127.872 Y126.882 E29.85883
G1 X127.557 Y126.984 E29.87122
G1 X127.253 Y127.012 E29.88264
G1 X126.88 Y126.958 E29.89674
G1 X126.48 Y126.798 E29.91286
G1 X126.204 Y126.612 E29.92532
G1 X126.007 Y126.405 E29.93601
G1 X125.833 Y126.123 E29.94841
G1 X125.69 Y125.727 E29.96416
G1 X125.535 Y125.509 E29.97417
G1 X125.293 Y125.418 E29.98384
G1 X125.05 Y125.43 E29.99295
G1 X124.874 Y125.549 E30.0009
G1 X124.751 Y125.715 E30.00863
G1 X124.7 Y125.958 E30.01792
G1 X124.75 Y126.179 E30.0264
G1 X125.163 Y126.712 E30.05163
G1 X125.308 Y127.012 E30.06409
G1 X125.375 Y127.303 E30.07527
G1 X125.375 Y127.679 E30.08934
G1 X125.274 Y128.092 E30.10525
G1 X125.1 Y128.445 E30.11997
G1 X124.855 Y128.72 E30.13375
G1 X123.87 Y129.353 E30.17756
G1 X123.377 Y129.496 E30.19677
G1 X121.455 Y129.496 E30.26869
G1 X120.857 Y129.297 E30.29227
G1 X120.501 Y129.076 E30.30795
G1 X120.017 Y128.584 E30.33377
G1 X119.792 Y128.218 E30.34985
G1 X119.608 Y127.639 E30.37258
G1 X119.608 Y121.883 E30.58796
G1 X119.678 Y121.559 E30.60036
G1 X119.805 Y121.288 E30.61156
G1 X120.033 Y120.993 E30.62551
G0 F3600 X120.355 Y121.312
G1 F1800 X120.601 Y121.118 E30.63723
G1 X120.842 Y121 E30.64727
G1 X121.04 Y120.954 E30.65488
G1 X128.963 Y120.954 E30.95134
G1 X129.193 Y121.004 E30.96015
G1 X129.373 Y121.088 E30.96758
G1 X129.584 Y121.251 E30.97755
G1 X129.778 Y121.497 E30.98928
