;FLAVOR:Marlin
;TIME:976
;Filament used: 3.21871m
;Layer height: 0.32
;MINX:98.54
;MINY:99.99
;MINZ:0.24
;MAXX:151.46
;MAXY:150.01
;MAXZ:11.4
;TARGET_MACHINE.NAME:VORON2 250
;Generated with Cura_SteamEngine 5.6.0
M140 S75
M105
M190 S75
M104 S235
M105
M109 S235
M82 ;absolute extrusion mode
START_PRINT
G92 E0
G92 E0
G1 F1800 E-1
;LAYER_COUNT:35
;LAYER:0
M107
M204 S1000
G1 F600 Z0.52
G0 F9000 X99.982 Y109.475 Z0.52
;TYPE:SKIRT
G1 F600 Z0.24
G1 F720 E0
G1 F1800 X100.338 Y109.155 E0.02904
G1 X100.574 Y108.971 E0.04719
G1 X101.072 Y108.643 E0.08337
G1 X101.396 Y108.481 E0.10535
G1 X101.628 Y108.379 E0.12072
G1 X102.242 Y108.168 E0.16011
G1 X102.6 Y108.094 E0.18229
G1 X104.331 Y107.833 E0.28849
G1 X104.467 Y107.805 E0.29691
G1 X105.575 Y107.643 E0.36484
G1 X108.21 Y107.181 E0.52714
G1 X110.902 Y106.63 E0.69384
G1 X113.535 Y106.015 E0.85787
G1 X116.169 Y105.317 E1.02318
G1 X118.744 Y104.558 E1.18605
G1 X121.384 Y103.698 E1.35449
G1 X123.896 Y102.8 E1.51633
G1 X126.449 Y101.807 E1.68251
G1 X129.853 Y100.362 E1.90686
G1 X130.545 Y100.143 E1.95089
G1 X130.832 Y100.081 E1.9687
G1 X131.564 Y100.001 E2.01338
G1 X132.284 Y99.99 E2.05706
G1 X145.85 Y99.99 E2.88006
G1 X146.548 Y100 E2.92241
G1 X146.992 Y100.032 E2.94942
G1 X147.275 Y100.07 E2.96674
G1 X147.858 Y100.195 E3.00291
G1 X148.139 Y100.291 E3.02093
G1 X148.463 Y100.419 E3.04206
G1 X148.927 Y100.642 E3.07329
G1 X149.339 Y100.908 E3.10304
G1 X149.587 Y101.094 E3.12185
G1 X150.034 Y101.491 E3.15812
G1 X150.294 Y101.786 E3.18198
G1 X150.479 Y102.023 E3.20022
G1 X150.807 Y102.521 E3.23639
G1 X150.973 Y102.855 E3.25902
G1 X151.092 Y103.132 E3.27731
G1 X151.284 Y103.7 E3.31368
G1 X151.362 Y104.085 E3.33751
G1 X151.407 Y104.385 E3.35592
G1 X151.45 Y104.865 E3.38515
G1 X151.46 Y105.295 E3.41125
G1 X151.459 Y128.891 E4.84273
G1 X151.438 Y130.378 E4.93295
G1 X151.448 Y133.683 E5.13346
G1 X151.46 Y134.288 E5.17017
G1 X151.46 Y145.363 E5.84205
G1 X151.451 Y146.09 E5.88616
G1 X151.396 Y146.704 E5.92356
G1 X151.248 Y147.3 E5.96081
G1 X151.029 Y147.818 E5.99493
G1 X150.684 Y148.387 E6.0353
G1 X150.285 Y148.85 E6.07238
G1 X149.814 Y149.25 E6.10987
G1 X149.292 Y149.57 E6.14701
G1 X148.719 Y149.808 E6.18465
G1 X148.084 Y149.955 E6.22419
G1 X147.602 Y150 E6.25356
G1 X147.263 Y150.009 E6.27414
G1 X136.179 Y150.01 E6.94656
G1 X135.418 Y149.993 E6.99274
G1 X135.001 Y149.962 E7.01811
G1 X134.387 Y149.869 E7.05578
G1 X133.814 Y149.682 E7.09235
G1 X133.517 Y149.559 E7.11185
G1 X133.185 Y149.4 E7.13418
G1 X132.424 Y148.993 E7.18654
G1 X130.93 Y148.163 E7.29022
G1 X128.509 Y146.863 E7.45693
G1 X126.08 Y145.645 E7.62178
G1 X123.588 Y144.482 E7.78861
G1 X121.138 Y143.423 E7.95054
G1 X118.616 Y142.415 E8.1153
G1 X116.043 Y141.47 E8.28159
G1 X113.441 Y140.598 E8.44808
G1 X110.883 Y139.819 E8.6103
G1 X108.257 Y139.103 E8.77542
G1 X105.57 Y138.45 E8.94318
G1 X103.579 Y138.018 E9.06678
G1 X102.468 Y137.789 E9.13559
G1 X101.82 Y137.596 E9.17661
G1 X101.533 Y137.481 E9.19537
G1 X100.996 Y137.215 E9.23173
G1 X100.663 Y136.994 E9.25597
G1 X100.411 Y136.804 E9.27512
G1 X99.963 Y136.407 E9.31143
G1 X99.728 Y136.141 E9.33297
G1 X99.521 Y135.877 E9.35332
G1 X99.192 Y135.378 E9.38958
G1 X99.024 Y135.039 E9.41253
G1 X98.905 Y134.761 E9.43088
G1 X98.715 Y134.196 E9.46704
G1 X98.643 Y133.848 E9.4886
G1 X98.592 Y133.512 E9.50922
G1 X98.551 Y133.057 E9.53693
G1 X98.541 Y132.692 E9.55908
G1 X98.54 Y113.577 E10.71872
G1 X98.55 Y112.903 E10.75962
G1 X98.58 Y112.476 E10.78558
G1 X98.617 Y112.191 E10.80302
G1 X98.74 Y111.611 E10.83899
G1 X98.84 Y111.314 E10.858
G1 X98.971 Y110.984 E10.87954
G1 X99.236 Y110.447 E10.91587
G1 X99.458 Y110.111 E10.9403
G1 X99.644 Y109.863 E10.95911
G1 X99.71 Y109.788 E10.96517
G0 F1620 X99.982 Y109.475
G0 F9000 X100.465 Y109.895
G1 F1800 X100.735 Y109.657 E10.987
G1 X100.931 Y109.502 E11.00216
G1 X101.358 Y109.215 E11.03337
G1 X101.654 Y109.067 E11.05345
G1 X101.886 Y108.965 E11.06883
G1 X102.372 Y108.795 E11.10006
G1 X102.73 Y108.721 E11.12224
G1 X104.447 Y108.463 E11.22757
G1 X104.56 Y108.438 E11.23459
G1 X105.668 Y108.276 E11.30253
G1 X108.338 Y107.808 E11.46698
G1 X111.037 Y107.256 E11.6341
G1 X113.699 Y106.634 E11.79995
G1 X116.333 Y105.936 E11.96526
G1 X118.942 Y105.167 E12.13027
G1 X121.582 Y104.307 E12.29871
G1 X124.111 Y103.403 E12.46165
G1 X126.699 Y102.396 E12.63012
G1 X130.103 Y100.951 E12.85446
G1 X130.735 Y100.754 E12.89462
G1 X130.96 Y100.708 E12.90856
G1 X131.574 Y100.641 E12.94603
G1 X132.294 Y100.63 E12.98971
G1 X145.841 Y100.63 E13.81156
G1 X146.539 Y100.64 E13.85391
G1 X146.911 Y100.667 E13.87654
G1 X147.146 Y100.697 E13.89091
G1 X147.651 Y100.801 E13.92219
G1 X147.932 Y100.897 E13.9402
G1 X148.186 Y100.996 E13.95674
G1 X148.65 Y101.219 E13.98797
G1 X148.958 Y101.422 E14.01035
G1 X149.167 Y101.577 E14.02614
G1 X149.555 Y101.915 E14.05736
G1 X149.792 Y102.183 E14.07906
G1 X149.948 Y102.38 E14.0943
G1 X150.235 Y102.807 E14.12552
G1 X150.387 Y103.111 E14.14614
G1 X150.488 Y103.342 E14.16143
G1 X150.657 Y103.828 E14.19265
G1 X150.729 Y104.18 E14.21444
G1 X150.774 Y104.48 E14.23285
G1 X150.81 Y104.88 E14.25721
G1 X150.82 Y105.295 E14.2824
G1 X150.819 Y128.882 E15.71334
G1 X150.798 Y130.369 E15.80356
G1 X150.808 Y133.696 E16.00539
G1 X150.82 Y134.301 E16.0421
G1 X150.82 Y145.355 E16.71271
G1 X150.811 Y146.082 E16.75682
G1 X150.764 Y146.595 E16.78807
G1 X150.639 Y147.095 E16.81934
G1 X150.439 Y147.569 E16.85055
G1 X150.167 Y148.006 E16.88178
G1 X149.831 Y148.396 E16.91301
G1 X149.438 Y148.73 E16.9443
G1 X148.999 Y148.999 E16.97553
G1 X148.524 Y149.196 E17.00673
G1 X148.023 Y149.318 E17.03801
G1 X147.584 Y149.36 E17.06476
G1 X147.263 Y149.369 E17.08425
G1 X136.193 Y149.37 E17.75582
G1 X135.432 Y149.353 E17.802
G1 X135.049 Y149.324 E17.8253
G1 X134.54 Y149.245 E17.85655
G1 X134.012 Y149.073 E17.89024
G1 X133.765 Y148.969 E17.9065
G1 X133.487 Y148.836 E17.9252
G1 X132.726 Y148.429 E17.97755
G1 X131.233 Y147.599 E18.08118
G1 X128.812 Y146.299 E18.24789
G1 X126.351 Y145.065 E18.41491
G1 X123.859 Y143.902 E18.58174
G1 X121.376 Y142.829 E18.74584
G1 X118.837 Y141.814 E18.91173
G1 X116.264 Y140.869 E19.07802
G1 X113.644 Y139.991 E19.24565
G1 X111.069 Y139.207 E19.40895
G1 X108.408 Y138.481 E19.57628
G1 X105.721 Y137.828 E19.74403
G1 X103.708 Y137.391 E19.869
G1 X102.597 Y137.162 E19.93782
G1 X102.054 Y137 E19.97219
G1 X101.812 Y136.905 E19.98797
G1 X101.349 Y136.681 E20.01917
G1 X101.045 Y136.48 E20.04128
G1 X100.831 Y136.321 E20.05745
G1 X100.443 Y135.983 E20.08867
G1 X100.208 Y135.717 E20.1102
G1 X100.052 Y135.52 E20.12545
G1 X99.765 Y135.093 E20.15666
G1 X99.611 Y134.784 E20.17761
G1 X99.51 Y134.552 E20.19296
G1 X99.342 Y134.066 E20.22415
G1 X99.27 Y133.718 E20.24571
G1 X99.225 Y133.417 E20.26417
G1 X99.191 Y133.039 E20.2872
G1 X99.181 Y132.692 E20.30826
G1 X99.18 Y113.586 E21.46735
G1 X99.19 Y112.912 E21.50825
G1 X99.215 Y112.554 E21.53002
G1 X99.244 Y112.319 E21.54438
G1 X99.347 Y111.815 E21.57559
G1 X99.447 Y111.518 E21.5946
G1 X99.547 Y111.262 E21.61128
G1 X99.771 Y110.798 E21.64253
G1 X99.972 Y110.492 E21.66474
G1 X100.127 Y110.283 E21.68053
G1 X100.193 Y110.208 E21.68659
G0 F1620 X100.465 Y109.895
G1 F1800 E20.68659
G1 F600 Z0.52
;MESH:3dc-v1e-v4-switch-mount.stl
G0 F9000 X146.777 Y121.699 Z0.52
;TYPE:WALL-OUTER
G1 F600 Z0.24
G1 F720 E21.68659
G1 F1574.3 X146.779 Y122.187 E21.71999
G1 F1800 E20.71999
G1 F600 Z0.52
G0 F9000 X146.775 Y140.699 Z0.52
G1 F600 Z0.24
G1 F720 E21.71999
G1 F1576.6 X146.778 Y141.186 E21.75328
G1 F1800 E20.75328
G1 F600 Z0.52
G0 F9000 X145.538 Y144.088 Z0.52
;TYPE:WALL-INNER
G1 F600 Z0.24
G1 F720 E21.75328
G1 F1457.5 X145.336 Y144.113 E21.76833
G1 F1549.5 X144.71 Y144.135 E21.81189
G1 F1514.7 X144.106 Y144.095 E21.85496
G1 F1800 E20.85496
G1 F600 Z0.52
G0 F9000 X146.22 Y143.072 Z0.52
G1 F600 Z0.24
G1 F720 E21.85496
G1 F1800 X145.833 Y143.277 E21.88118
G1 X145.651 Y143.35 E21.89292
G1 X145.223 Y143.464 E21.91943
G1 X144.654 Y143.501 E21.95357
G1 X144.214 Y143.429 E21.98026
G1 X144.024 Y143.377 E21.99206
G1 X143.691 Y143.244 E22.01352
G1 X143.523 Y143.155 E22.02491
G1 X143.228 Y142.956 E22.04621
G1 X143.078 Y142.828 E22.05802
G1 X142.832 Y142.568 E22.07944
G1 X142.713 Y142.412 E22.09119
G1 X142.531 Y142.108 E22.1124
G1 X142.451 Y141.934 E22.12387
G1 X142.335 Y141.591 E22.14555
G1 X142.292 Y141.396 E22.1575
G1 X142.255 Y141.045 E22.17863
G1 X142.255 Y140.855 E22.19001
G1 X142.307 Y140.391 E22.21796
G1 X142.451 Y139.966 E22.24482
G1 X142.531 Y139.792 E22.25629
G1 X142.713 Y139.488 E22.2775
G1 X142.832 Y139.332 E22.28925
G1 X143.078 Y139.072 E22.31068
G1 X143.229 Y138.944 E22.32253
G1 X143.523 Y138.746 E22.34375
G1 X143.691 Y138.656 E22.35516
G1 X144.025 Y138.523 E22.37668
G1 X144.214 Y138.471 E22.38842
G1 X144.564 Y138.414 E22.40965
G1 X144.76 Y138.404 E22.4214
G1 X145.118 Y138.424 E22.44286
G1 X145.307 Y138.455 E22.45433
G1 X145.651 Y138.55 E22.47569
G1 X145.832 Y138.623 E22.48738
G1 X146.218 Y138.826 E22.51349
G1 X146.217 Y134.233 E22.78846
G1 X131.435 Y134.227 E23.67344
G1 X130.859 Y134.183 E23.70802
G1 X130.206 Y134.03 E23.74817
G1 X129.639 Y133.806 E23.78467
G1 X129.084 Y133.488 E23.82297
G1 X128.59 Y133.092 E23.86087
G1 X128.151 Y132.615 E23.89968
G1 X127.621 Y131.852 E23.9553
G1 X127.401 Y131.628 E23.9741
G1 X127.133 Y131.449 E23.99339
G1 X126.867 Y131.33 E24.01084
G1 X126.59 Y131.257 E24.02799
G1 X126.261 Y131.23 E24.04775
G1 X124.498 Y131.23 E24.1533
G1 X124.084 Y131.188 E24.17821
G1 X123.893 Y131.144 E24.18994
G1 X123.492 Y130.998 E24.21549
G1 X123.2 Y130.82 E24.23597
G1 X123.047 Y130.703 E24.2475
G1 X122.816 Y130.482 E24.26664
G1 X122.684 Y130.322 E24.27906
G1 X122.511 Y130.056 E24.29805
G1 X122.42 Y129.874 E24.31023
G1 X122.279 Y129.468 E24.33596
G1 X122.226 Y129.052 E24.36107
G1 X122.226 Y115.845 E25.15175
G1 X122.262 Y115.534 E25.17049
G1 X122.311 Y115.329 E25.18311
G1 X122.423 Y115.022 E25.20268
G1 X122.501 Y114.861 E25.21339
G1 X122.63 Y114.65 E25.22819
G1 X122.747 Y114.497 E25.23972
G1 X122.968 Y114.266 E25.25886
G1 X123.116 Y114.141 E25.27046
G1 X123.472 Y113.91 E25.29587
G1 X123.878 Y113.76 E25.32178
G1 X124.083 Y113.711 E25.3344
G1 X124.395 Y113.675 E25.3532
G1 X130.605 Y113.676 E25.72498
G1 X130.916 Y113.712 E25.74373
G1 X131.121 Y113.761 E25.75635
G1 X131.428 Y113.873 E25.77591
G1 X131.589 Y113.951 E25.78662
G1 X131.881 Y114.135 E25.80728
G1 X132.184 Y114.418 E25.83211
G1 X132.316 Y114.578 E25.84452
G1 X132.552 Y114.949 E25.87085
G1 X132.726 Y115.435 E25.90175
G1 X132.778 Y115.897 E25.92959
G1 X132.78 Y126.905 E26.58862
G1 X132.809 Y127.237 E26.60857
G1 X132.884 Y127.52 E26.6261
G1 X133.022 Y127.826 E26.64619
G1 X133.183 Y128.054 E26.6629
G1 X133.427 Y128.289 E26.68318
G1 X133.658 Y128.447 E26.69994
G1 X133.928 Y128.567 E26.71763
G1 X134.21 Y128.642 E26.7351
G1 X134.542 Y128.67 E26.75504
G1 X146.221 Y128.666 E27.45425
G1 X146.221 Y124.072 E27.72928
G1 X145.834 Y124.278 E27.75553
G1 X145.651 Y124.35 E27.7673
G1 X145.307 Y124.445 E27.78867
G1 X145.118 Y124.476 E27.80013
G1 X144.76 Y124.496 E27.8216
G1 X144.564 Y124.486 E27.83335
G1 X144.214 Y124.429 E27.85458
G1 X144.025 Y124.377 E27.86631
G1 X143.691 Y124.244 E27.88784
G1 X143.523 Y124.154 E27.89925
G1 X143.229 Y123.956 E27.92047
G1 X143.078 Y123.828 E27.93232
G1 X142.832 Y123.568 E27.95375
G1 X142.713 Y123.412 E27.96549
G1 X142.531 Y123.108 E27.98671
G1 X142.451 Y122.934 E27.99817
G1 X142.3 Y122.481 E28.02676
G1 X142.251 Y121.951 E28.05862
G1 X142.308 Y121.405 E28.09149
G1 X142.451 Y120.966 E28.11913
G1 X142.531 Y120.792 E28.1306
G1 X142.769 Y120.405 E28.1578
G1 X143.151 Y119.996 E28.1913
G1 X143.597 Y119.701 E28.22332
G1 X144.025 Y119.524 E28.25104
G1 X144.214 Y119.471 E28.2628
G1 X144.564 Y119.414 E28.28403
G1 X144.76 Y119.404 E28.29577
G1 X145.118 Y119.424 E28.31724
G1 X145.307 Y119.455 E28.32871
G1 X145.651 Y119.55 E28.35007
G1 X145.834 Y119.622 E28.36185
G1 X146.221 Y119.828 E28.38809
G1 X146.221 Y105.23 E29.26205
G1 X131.787 Y105.23 E30.12619
G1 X114.158 Y113.057 E31.28095
G1 X113.911 Y113.146 E31.29667
G1 X113.562 Y113.21 E31.31791
G1 X113.282 Y113.23 E31.33472
G1 X103.78 Y113.23 E31.90359
G1 X103.78 Y132.67 E33.06743
G1 X113.313 Y132.674 E33.63815
G1 X113.629 Y132.704 E33.65715
G1 X113.998 Y132.797 E33.67993
G1 X114.312 Y132.939 E33.70057
G1 X135.613 Y144.771 E35.15935
G1 X146.22 Y144.77 E35.79437
G1 X146.22 Y143.515 E35.86951
G0 F1620 X146.22 Y143.072
G1 F1800 E34.86951
G1 F600 Z0.52
G0 F9000 X144.106 Y144.095 Z0.52
G1 F600 Z0.24
G1 F720 E35.86951
G1 F1525.4 X143.79 Y143.965 E35.89365
G1 F1706.2 X143.188 Y143.653 E35.93647
G1 F1800 X142.893 Y143.454 E35.95778
G1 X142.642 Y143.241 E35.97748
G1 X142.396 Y142.981 E35.99891
G1 X142.198 Y142.72 E36.01853
G1 X142.016 Y142.416 E36.03974
G1 X141.882 Y142.126 E36.05886
G1 X141.766 Y141.783 E36.08054
G1 X141.695 Y141.459 E36.1004
G1 X141.659 Y141.107 E36.12158
G1 X141.658 Y140.793 E36.14038
G1 X141.711 Y140.331 E36.16822
G1 X141.766 Y140.117 E36.18145
G1 X141.882 Y139.774 E36.20313
G1 X142.016 Y139.484 E36.22225
G1 X142.198 Y139.18 E36.24346
G1 X142.396 Y138.92 E36.26303
G1 X142.642 Y138.659 E36.2845
G1 X142.893 Y138.446 E36.30421
G1 X143.188 Y138.248 E36.32548
G1 X143.469 Y138.099 E36.34452
G1 X143.802 Y137.966 E36.36599
G1 X144.1 Y137.882 E36.38453
G1 X144.467 Y137.822 E36.40679
G1 X144.793 Y137.806 E36.42633
G1 X145.151 Y137.826 E36.4478
G1 X145.618 Y137.901 E36.47611
G1 X145.617 Y134.833 E36.65979
G1 X131.389 Y134.825 E37.51159
G1 X130.883 Y134.786 E37.54198
G1 X130.67 Y134.755 E37.55486
G1 X130.173 Y134.643 E37.58536
G1 X130.009 Y134.597 E37.59556
G1 X129.478 Y134.388 E37.62973
G1 X129.304 Y134.305 E37.64127
G1 X128.847 Y134.043 E37.6728
G1 X128.654 Y133.912 E37.68677
G1 X128.265 Y133.6 E37.71662
G1 X128.104 Y133.45 E37.7298
G1 X127.68 Y132.987 E37.76738
G1 X127.157 Y132.236 E37.82217
G1 X127.016 Y132.093 E37.8342
G1 X126.841 Y131.976 E37.8468
G1 X126.667 Y131.898 E37.85821
G1 X126.49 Y131.851 E37.86918
G1 X126.236 Y131.83 E37.88444
G1 X124.498 Y131.83 E37.98849
G1 X124.326 Y131.82 E37.9988
G1 X124.015 Y131.784 E38.01755
G1 X123.696 Y131.711 E38.03714
G1 X123.366 Y131.591 E38.05816
G1 X123.152 Y131.493 E38.07225
G1 X122.887 Y131.332 E38.09081
G1 X122.632 Y131.137 E38.11003
G1 X122.401 Y130.915 E38.12921
G1 X122.181 Y130.649 E38.14988
G1 X122.008 Y130.384 E38.16883
G1 X121.856 Y130.08 E38.18917
G1 X121.746 Y129.779 E38.20836
G1 X121.694 Y129.604 E38.21929
G1 X121.665 Y129.431 E38.22979
G1 X121.63 Y129.118 E38.24865
G1 X121.621 Y128.951 E38.25866
G1 X121.621 Y115.949 E39.03707
G1 X121.63 Y115.776 E39.04744
G1 X121.666 Y115.465 E39.06618
G1 X121.747 Y115.123 E39.08722
G1 X121.859 Y114.816 E39.10679
G1 X121.989 Y114.548 E39.12462
G1 X122.118 Y114.337 E39.13943
G1 X122.313 Y114.082 E39.15864
G1 X122.535 Y113.851 E39.17782
G1 X122.782 Y113.643 E39.19716
G1 X123.066 Y113.458 E39.21745
G1 X123.275 Y113.345 E39.23167
G1 X123.673 Y113.196 E39.25712
G1 X124.015 Y113.115 E39.27816
G1 X124.327 Y113.079 E39.29696
G1 X124.5 Y113.07 E39.30733
G1 X130.502 Y113.071 E39.66666
G1 X130.674 Y113.08 E39.67697
G1 X130.985 Y113.116 E39.69572
G1 X131.327 Y113.197 E39.71676
G1 X131.634 Y113.309 E39.73632
G1 X131.902 Y113.439 E39.75415
G1 X132.248 Y113.66 E39.77873
G1 X132.599 Y113.985 E39.80737
G1 X132.719 Y114.114 E39.81792
G1 X132.819 Y114.251 E39.82807
G1 X133.097 Y114.693 E39.85933
G1 X133.313 Y115.301 E39.89796
G1 X133.377 Y115.863 E39.93183
G1 X133.38 Y126.88 E40.59139
G1 X133.403 Y127.135 E40.60672
G1 X133.452 Y127.319 E40.61812
G1 X133.545 Y127.527 E40.63176
G1 X133.64 Y127.662 E40.64165
G1 X133.807 Y127.822 E40.65549
G1 X133.952 Y127.921 E40.666
G1 X134.128 Y127.999 E40.67753
G1 X134.312 Y128.048 E40.68893
G1 X134.566 Y128.07 E40.70419
G1 X145.621 Y128.066 E41.36604
G1 X145.621 Y124.999 E41.54965
G1 X145.152 Y125.075 E41.5781
G1 X144.793 Y125.095 E41.59962
G1 X144.467 Y125.078 E41.61917
G1 X144.117 Y125.021 E41.6404
G1 X143.802 Y124.934 E41.65996
G1 X143.469 Y124.801 E41.68143
G1 X143.188 Y124.652 E41.70047
G1 X142.893 Y124.454 E41.72174
G1 X142.642 Y124.241 E41.74145
G1 X142.396 Y123.98 E41.76292
G1 X142.198 Y123.72 E41.78249
G1 X142.016 Y123.416 E41.8037
G1 X141.882 Y123.126 E41.82282
G1 X141.718 Y122.63 E41.8541
