;FLAVOR:Marlin
;TIME:4618
;Filament used: 8.10171m
;Layer height: 0.32
;MINX:59.435
;MINY:58.15
;MINZ:0.24
;MAXX:156.195
;MAXY:171.85
;MAXZ:18.16
;Generated with Cura_SteamEngine 5.4.0
M140 S80
M105
M190 S80
M104 S245
M105
M109 S245
M82 ;absolute extrusion mode
; Ender 3 Max Custom Start G-code
G92 E0 ; Reset Extruder
G28 ; Home all axes
G1 Z2.0 F3000 ; Move Z Axis up little to prevent scratching of Heat Bed
G1 X0.1 Y20 Z0.3 F5000.0 ; Move to start position
G1 X0.1 Y200.0 Z0.24 F1500.0 E15 ; Draw the first line
G1 X0.4 Y200.0 Z0.24 F5000.0 ; Move to side a little
G1 X0.4 Y20 Z0.24 F1500.0 E30 ; Draw the second line
G92 E0 ; Reset Extruder
G1 Z2.0 F3000 ; Move Z Axis up little to prevent scratching of Heat Bed
G1 X5 Y20 Z0.3 F5000.0 ; Move over to prevent blob squish
G92 E0
G92 E0
G1 F2100 E-5
;LAYER_COUNT:56
;LAYER:0
M107
G1 F300 Z0.56
G0 F6000 X81.346 Y62.5 Z0.56
;TYPE:SKIRT
G1 F300 Z0.24
G1 F2100 E0
G1 F1800 X81.905 Y61.783 E0.07903
G1 X82.525 Y61.118 E0.15807
G1 X83.201 Y60.511 E0.23704
G1 X83.928 Y59.965 E0.31608
G1 X84.7 Y59.485 E0.3951
G1 X85.511 Y59.075 E0.4741
G1 X86.355 Y58.738 E0.5531
G1 X87.225 Y58.476 E0.63208
G1 X88.115 Y58.292 E0.71108
G1 X89.448 Y58.165 E0.82749
G1 X90.091 Y58.15 E0.8834
G1 X104.087 Y58.15 E2.10005
G1 X104.938 Y58.161 E2.17403
G1 X105.845 Y58.214 E2.25301
G1 X106.744 Y58.346 E2.332
G1 X107.628 Y58.557 E2.411
G1 X108.49 Y58.845 E2.49001
G1 X109.715 Y59.409 E2.60724
G1 X110.826 Y60.011 E2.71708
G1 X113.158 Y61.232 E2.94591
G1 X115.411 Y62.332 E3.16385
G1 X117.739 Y63.388 E3.38607
G1 X120.074 Y64.368 E3.6062
G1 X122.438 Y65.283 E3.82656
G1 X124.85 Y66.138 E4.04901
G1 X127.239 Y66.91 E4.26726
G1 X129.657 Y67.617 E4.48625
G1 X132.151 Y68.27 E4.71036
G1 X133.644 Y68.625 E4.84376
G1 X134.518 Y68.874 E4.92276
G1 X135.34 Y69.181 E4.99904
G1 X136.265 Y69.613 E5.08778
G1 X137.051 Y70.069 E5.16678
G1 X137.794 Y70.592 E5.24576
G1 X138.489 Y71.178 E5.32479
G1 X139.129 Y71.824 E5.40383
G1 X139.71 Y72.523 E5.48285
G1 X139.978 Y72.893 E5.52256
G1 X140.988 Y74.372 E5.67825
G1 X142.468 Y76.451 E5.90009
G1 X143.993 Y78.47 E6.12004
G1 X145.565 Y80.435 E6.33879
G1 X147.203 Y82.365 E6.55884
G1 X148.916 Y84.273 E6.78173
G1 X150.633 Y86.079 E6.99835
G1 X153.101 Y88.516 E7.29986
G1 X153.719 Y89.182 E7.37884
G1 X154.275 Y89.901 E7.45785
G1 X154.767 Y90.665 E7.53684
G1 X155.19 Y91.47 E7.61589
G1 X155.54 Y92.308 E7.69484
G1 X155.815 Y93.174 E7.77382
G1 X156.013 Y94.061 E7.85283
G1 X156.138 Y95.032 E7.93793
G1 X156.161 Y95.316 E7.9627
G1 X156.195 Y96.224 E8.04169
G1 X156.148 Y97.132 E8.12072
G1 X156.024 Y98.02 E8.19866
G1 X155.898 Y98.704 E8.25912
G1 X155.446 Y101.353 E8.49273
G1 X155.087 Y103.885 E8.71503
G1 X154.806 Y106.368 E8.93225
G1 X154.591 Y108.901 E9.15323
G1 X154.451 Y111.397 E9.37055
G1 X154.338 Y116.611 E9.8239
G1 X154.219 Y118.752 E10.0103
G1 X154.06 Y120.437 E10.15743
G1 X153.885 Y121.815 E10.27818
G1 X153.555 Y123.842 E10.4567
G1 X153.28 Y125.225 E10.57928
G1 X152.811 Y127.202 E10.75591
G1 X152.43 Y128.586 E10.88069
G1 X151.812 Y130.559 E11.06042
G1 X151.235 Y132.176 E11.20966
G1 X150.724 Y133.473 E11.33084
G1 X150.044 Y135.05 E11.48013
G1 X149.321 Y136.58 E11.62724
G1 X148.508 Y138.153 E11.78116
G1 X148.329 Y138.481 E11.81364
G1 X147.483 Y139.956 E11.96145
G1 X146.566 Y141.435 E12.11273
G1 X145.705 Y142.727 E12.24769
G1 X145.158 Y143.506 E12.33044
G1 X144.382 Y144.545 E12.44317
G1 X143.162 Y146.077 E12.61341
G1 X142.33 Y147.054 E12.72496
G1 X140.887 Y148.634 E12.91097
G1 X139.692 Y149.844 E13.0588
G1 X138.424 Y151.04 E13.21033
G1 X137.1 Y152.201 E13.3634
G1 X135.816 Y153.249 E13.50748
G1 X134.386 Y154.335 E13.66357
G1 X133.318 Y155.093 E13.77741
G1 X131.815 Y156.089 E13.93415
G1 X131.499 Y156.289 E13.96666
G1 X130.102 Y157.13 E14.10841
G1 X128.622 Y157.958 E14.25583
G1 X126.149 Y159.275 E14.49939
G1 X123.925 Y160.543 E14.72193
G1 X121.758 Y161.862 E14.94246
G1 X119.666 Y163.216 E15.15908
G1 X117.534 Y164.685 E15.38414
G1 X115.511 Y166.164 E15.60199
G1 X113.536 Y167.696 E15.81927
G1 X111.826 Y169.107 E16.01199
G1 X111.267 Y169.557 E16.07437
G1 X110.534 Y170.095 E16.15341
G1 X109.757 Y170.567 E16.23244
G1 X108.942 Y170.968 E16.3114
G1 X108.095 Y171.297 E16.39038
G1 X107.222 Y171.549 E16.46937
G1 X106.33 Y171.724 E16.54839
G1 X105.096 Y171.835 E16.65609
G1 X104.453 Y171.85 E16.712
G1 X90.313 Y171.849 E17.94118
G1 X89.614 Y171.839 E18.00194
G1 X88.707 Y171.786 E18.08092
G1 X87.808 Y171.653 E18.15992
G1 X86.924 Y171.442 E18.23893
G1 X86.062 Y171.155 E18.3179
G1 X85.228 Y170.792 E18.39697
G1 X84.43 Y170.358 E18.47594
G1 X83.673 Y169.855 E18.55494
G1 X82.963 Y169.287 E18.63398
G1 X82.306 Y168.659 E18.71299
G1 X81.706 Y167.976 E18.79202
G1 X81.169 Y167.243 E18.87101
G1 X80.698 Y166.466 E18.94999
G1 X80.298 Y165.65 E19.02899
G1 X80.077 Y165.103 E19.08027
G1 X79.131 Y162.554 E19.31662
G1 X78.195 Y160.231 E19.53433
G1 X77.16 Y157.86 E19.75922
G1 X76.102 Y155.608 E19.97551
G1 X74.947 Y153.322 E20.19816
G1 X73.747 Y151.104 E20.41737
G1 X72.463 Y148.889 E20.63993
G1 X71.132 Y146.73 E20.86041
G1 X69.771 Y144.654 E21.0762
G1 X68.063 Y142.222 E21.33454
G1 X66.971 Y140.596 E21.5048
G1 X66.089 Y139.174 E21.65026
G1 X65.427 Y138.027 E21.76538
G1 X65.045 Y137.325 E21.83486
G1 X64.615 Y136.424 E21.92164
G1 X63.781 Y134.432 E22.10937
G1 X62.397 Y131.37 E22.40147
G1 X62.082 Y130.591 E22.47451
G1 X61.835 Y129.874 E22.54044
G1 X61.277 Y128.064 E22.70509
G1 X60.938 Y126.82 E22.81717
G1 X60.526 Y125.094 E22.97142
G1 X60.217 Y123.564 E23.10711
G1 X59.929 Y121.809 E23.26171
G1 X59.717 Y120.157 E23.40649
G1 X59.565 Y118.501 E23.55105
G1 X59.469 Y116.79 E23.70002
G1 X59.435 Y115.102 E23.84679
G1 X59.475 Y113.06 E24.02433
G1 X59.547 Y111.746 E24.13872
G1 X59.694 Y110.068 E24.28515
G1 X59.901 Y108.389 E24.43221
G1 X60.238 Y106.33 E24.61358
G1 X60.491 Y105.071 E24.72521
G1 X60.878 Y103.417 E24.87287
G1 X61.326 Y101.768 E25.02141
G1 X61.804 Y100.23 E25.16142
G1 X62.393 Y98.55 E25.31617
G1 X62.985 Y97.036 E25.45748
G1 X63.127 Y96.695 E25.48959
G1 X63.835 Y95.092 E25.64193
G1 X64.531 Y93.658 E25.78049
G1 X65.358 Y92.1 E25.93382
G1 X66.201 Y90.64 E26.08038
G1 X67.066 Y89.255 E26.22232
G1 X67.951 Y87.94 E26.36011
G1 X69.551 Y85.667 E26.60174
G1 X70.949 Y83.555 E26.82191
G1 X72.281 Y81.414 E27.04111
G1 X73.566 Y79.209 E27.26296
G1 X74.781 Y76.985 E27.48326
G1 X75.923 Y74.744 E27.7019
G1 X77.027 Y72.421 E27.92548
G1 X78.035 Y70.132 E28.1429
G1 X79 Y67.762 E28.36534
G1 X79.631 Y66.102 E28.51972
G1 X80.075 Y64.903 E28.63086
G1 X80.427 Y64.066 E28.7098
G1 X80.64 Y63.665 E28.74927
G0 F1620 X80.852 Y63.263
G0 X81.346 Y62.5
G1 F2100 E23.74927
G1 F300 Z0.56
;MESH:lr3-kobalt-tool-mount.3mf
G0 F6000 X91.002 Y83.202 Z0.56
;TYPE:WALL-INNER
G1 F300 Z0.24
G1 F2100 E28.74927
G1 F1800 X91.257 Y83.084 E28.76969
G1 X91.44 Y83.014 E28.78394
G1 X92.162 Y82.697 E28.84127
G1 X93.413 Y82.202 E28.93908
G1 X94.133 Y81.95 E28.99454
G1 X94.161 Y81.901 E28.99865
G1 X94.483 Y81.753 E29.02441
G1 X94.784 Y81.683 E29.04688
G1 X94.958 Y81.671 E29.05956
G1 X95.958 Y81.362 E29.13566
G1 X97.206 Y81.027 E29.2296
G1 X98.587 Y80.713 E29.33257
G1 X99.891 Y80.469 E29.42902
G1 X101.197 Y80.28 E29.52496
G1 X102.56 Y80.13 E29.62465
G1 X103.898 Y80.038 E29.72216
G1 X105.248 Y79.997 E29.82036
G1 X106.584 Y80.006 E29.91749
G1 X107.937 Y80.068 E30.01596
G1 X109.274 Y80.181 E30.11352
G1 X110.608 Y80.346 E30.21124
G1 X111.897 Y80.557 E30.30621
G1 X113.2 Y80.817 E30.40281
G1 X114.503 Y81.131 E30.50025
G1 X115.791 Y81.497 E30.5976
G1 X117.139 Y81.932 E30.70058
G1 X118.32 Y82.367 E30.79209
G1 X119.615 Y82.898 E30.89385
G1 X120.842 Y83.463 E30.99206
G1 X121.99 Y84.043 E31.08557
G1 X123.149 Y84.683 E31.18183
G1 X124.316 Y85.386 E31.28088
G1 X125.481 Y86.156 E31.38241
G1 X126.584 Y86.946 E31.48104
G1 X127.591 Y87.724 E31.57356
G1 X128.655 Y88.618 E31.6746
G1 X129.653 Y89.523 E31.77255
G1 X130.612 Y90.459 E31.86998
G1 X131.562 Y91.467 E31.97068
G1 X132.419 Y92.446 E32.06528
G1 X133.267 Y93.494 E32.16329
G1 X134.045 Y94.529 E32.25743
G1 X134.828 Y95.662 E32.35756
G1 X135.517 Y96.744 E32.45082
G1 X136.2 Y97.915 E32.54938
G1 X136.861 Y99.153 E32.65141
G1 X137.453 Y100.375 E32.75013
G1 X137.988 Y101.601 E32.84739
G1 X138.291 Y102.37 E32.90748
G1 X138.356 Y102.564 E32.92235
G1 X138.48 Y102.854 E32.94529
G1 X138.897 Y104.05 E33.03737
G1 X139.306 Y105.372 E33.13798
G1 X139.65 Y106.67 E33.23561
G1 X139.942 Y107.965 E33.33213
G1 X140.184 Y109.274 E33.42891
G1 X140.377 Y110.604 E33.52662
G1 X140.525 Y111.997 E33.62846
G1 X140.615 Y113.347 E33.72683
G1 X140.654 Y114.678 E33.82364
G1 X140.639 Y116.034 E33.92224
G1 X140.579 Y117.325 E34.0162
G1 X140.463 Y118.665 E34.11398
G1 X140.297 Y120 E34.21179
G1 X140.075 Y121.352 E34.3114
G1 X139.809 Y122.651 E34.40781
G1 X139.503 Y123.905 E34.50165
G1 X139.128 Y125.231 E34.60184
G1 X138.715 Y126.498 E34.69873
G1 X138.218 Y127.832 E34.80222
G1 X137.732 Y129.004 E34.89447
G1 X137.148 Y130.273 E34.99603
G1 X136.55 Y131.454 E35.09228
G1 X135.906 Y132.611 E35.18855
G1 X135.193 Y133.779 E35.28804
G1 X134.456 Y134.892 E35.38509
G1 X133.656 Y135.999 E35.48439
G1 X132.836 Y137.054 E35.58154
G1 X131.968 Y138.082 E35.67935
G1 X131.071 Y139.069 E35.77632
G1 X130.228 Y139.934 E35.86414
G1 X129.17 Y140.926 E35.96958
G1 X128.148 Y141.818 E36.0682
G1 X127.118 Y142.65 E36.16447
G1 X126.035 Y143.457 E36.26266
G1 X124.879 Y144.249 E36.36454
G1 X123.747 Y144.962 E36.46181
G1 X122.584 Y145.635 E36.5595
G1 X121.397 Y146.262 E36.6571
G1 X120.204 Y146.833 E36.75326
G1 X119.356 Y147.207 E36.82064
G1 X118.143 Y147.7 E36.91584
G1 X116.839 Y148.169 E37.01659
G1 X115.548 Y148.577 E37.11502
G1 X114.266 Y148.928 E37.21166
G1 X112.967 Y149.231 E37.30864
G1 X111.641 Y149.489 E37.40685
G1 X110.299 Y149.694 E37.50555
G1 X108.991 Y149.846 E37.60129
G1 X107.647 Y149.948 E37.69928
G1 X106.323 Y149.998 E37.79561
G1 X104.925 Y149.997 E37.89725
G1 X103.651 Y149.947 E37.98995
G1 X102.302 Y149.844 E38.08831
G1 X100.956 Y149.689 E38.18682
G1 X99.579 Y149.475 E38.28813
G1 X98.317 Y149.227 E38.38164
G1 X96.961 Y148.908 E38.48292
G1 X95.609 Y148.535 E38.58489
G1 X94.39 Y148.145 E38.67794
G1 X93.145 Y147.697 E38.77414
G1 X92.069 Y147.261 E38.85854
G1 X91.405 Y148.603 E38.9674
G1 X91.404 Y159.869 E39.78649
G1 X103.144 Y159.87 E40.64003
G1 X103.147 Y157.603 E40.80485
G1 X103.189 Y156.995 E40.84916
G1 X103.264 Y156.505 E40.8852
G1 X103.423 Y155.893 E40.93117
G1 X103.637 Y155.306 E40.9766
G1 X103.937 Y154.708 E41.02524
G1 X104.192 Y154.298 E41.06034
G1 X104.508 Y153.864 E41.09937
G1 X104.955 Y153.371 E41.14776
G1 X105.367 Y152.995 E41.18831
G1 X105.839 Y152.644 E41.23107
G1 X106.324 Y152.348 E41.27238
G1 X106.88 Y152.079 E41.31729
G1 X107.52 Y151.844 E41.36686
G1 X108.216 Y151.676 E41.41891
G1 X108.476 Y151.636 E41.43804
G1 X108.609 Y151.632 E41.44771
G1 X110.068 Y151.476 E41.55439
G1 X111.368 Y151.296 E41.64981
G1 X112.705 Y151.061 E41.74851
G1 X113.923 Y150.798 E41.8391
G1 X114.779 Y150.584 E41.90325
G1 X115.014 Y150.535 E41.9207
G1 X116.497 Y150.109 E42.03288
G1 X117.677 Y149.719 E42.12324
G1 X118.907 Y149.267 E42.21851
G1 X120.131 Y148.771 E42.31453
G1 X121.289 Y148.249 E42.40688
G1 X122.475 Y147.665 E42.50299
G1 X123.616 Y147.051 E42.5972
G1 X124.763 Y146.38 E42.69381
G1 X125.859 Y145.688 E42.78805
G1 X126.935 Y144.95 E42.88291
G1 X127.978 Y144.18 E42.97716
G1 X129.014 Y143.357 E43.07336
G1 X129.988 Y142.528 E43.16635
G1 X130.962 Y141.634 E43.26247
G1 X131.881 Y140.726 E43.3564
G1 X132.792 Y139.763 E43.45278
G1 X133.64 Y138.802 E43.54596
G1 X134.47 Y137.788 E43.64123
G1 X135.274 Y136.735 E43.73755
G1 X135.482 Y136.449 E43.76326
G1 X136.238 Y135.354 E43.86
G1 X136.878 Y134.365 E43.94565
G1 X137.607 Y133.132 E44.04979
G1 X138.341 Y131.785 E44.16132
G1 X138.445 Y131.55 E44.18
G1 X138.802 Y130.843 E44.23758
G1 X139.346 Y129.648 E44.33304
G1 X139.872 Y128.376 E44.43312
G1 X140.307 Y127.205 E44.52394
G1 X140.713 Y125.974 E44.61818
G1 X141.084 Y124.718 E44.7134
G1 X141.41 Y123.441 E44.80922
G1 X141.682 Y122.189 E44.90237
G1 X141.92 Y120.88 E44.9991
G1 X142.123 Y119.48 E45.10195
G1 X142.248 Y118.265 E45.19075
G1 X142.337 Y117.033 E45.28055
G1 X142.387 Y115.689 E45.37833
G1 X142.389 Y114.381 E45.47343
G1 X142.344 Y113.08 E45.56808
G1 X142.247 Y111.682 E45.66996
G1 X142.116 Y110.485 E45.75751
G1 X141.931 Y109.187 E45.85283
G1 X141.704 Y107.911 E45.94706
G1 X141.428 Y106.629 E46.0424
G1 X141.112 Y105.381 E46.136
G1 X140.727 Y104.054 E46.23645
G1 X140.562 Y103.391 E46.28613
G1 X140.474 Y102.853 E46.32576
G1 X140.414 Y102.124 E46.37894
G1 X140.432 Y101.338 E46.4361
G1 X140.512 Y100.655 E46.4861
G1 X140.644 Y100.009 E46.53404
G1 X140.837 Y99.356 E46.58354
G1 X141.116 Y98.678 E46.63685
G1 X141.346 Y98.214 E46.6745
G1 X141.633 Y97.739 E46.71485
G1 X142.125 Y97.063 E46.77563
G1 X142.563 Y96.571 E46.82352
G1 X142.886 Y96.261 E46.85607
G1 X142.356 Y95.973 E46.89993
G1 X141.356 Y95.37 E46.98483
G1 X140.423 Y94.751 E47.06623
G1 X139.453 Y94.043 E47.15354
G1 X138.578 Y93.34 E47.23515
G1 X137.73 Y92.6 E47.31697
G1 X136.861 Y91.77 E47.40434
G1 X136.079 Y90.949 E47.48677
G1 X135.369 Y90.141 E47.56498
G1 X134.637 Y89.232 E47.64983
G1 X133.903 Y88.231 E47.74007
G1 X133.306 Y87.333 E47.81847
G1 X132.673 Y86.287 E47.90736
G1 X132.124 Y85.28 E47.99075
G1 X131.628 Y84.265 E48.07288
G1 X131.185 Y83.249 E48.15347
G1 X130.745 Y82.106 E48.24251
G1 X130.57 Y81.581 E48.28275
G1 X130.274 Y81.803 E48.30965
G1 X129.677 Y82.178 E48.3609
G1 X129.128 Y82.46 E48.40578
G1 X128.447 Y82.733 E48.45912
G1 X127.814 Y82.929 E48.5073
G1 X127.071 Y83.075 E48.56235
G1 X126.536 Y83.137 E48.6015
G1 X125.707 Y83.158 E48.6618
G1 X125.085 Y83.12 E48.7071
G1 X124.317 Y82.988 E48.76376
G1 X123.652 Y82.813 E48.81375
G1 X123.136 Y82.631 E48.85353
G1 X122.511 Y82.351 E48.90332
G1 X121.243 Y81.728 E49.00604
G1 X120.091 Y81.212 E49.09781
G1 X118.86 Y80.712 E49.19441
G1 X117.613 Y80.259 E49.29087
G1 X116.451 Y79.876 E49.37982
G1 X115.164 Y79.509 E49.47712
G1 X113.896 Y79.195 E49.5721
G1 X112.682 Y78.934 E49.66237
G1 X111.333 Y78.698 E49.76194
G1 X110.055 Y78.521 E49.85574
G1 X108.61 Y78.367 E49.9614
G1 X108.464 Y78.362 E49.97202
G1 X108.209 Y78.32 E49.99081
G1 X107.524 Y78.156 E50.04202
G1 X106.943 Y77.948 E50.08688
G1 X106.364 Y77.672 E50.13352
G1 X105.996 Y77.459 E50.16443
G1 X105.58 Y77.169 E50.2013
G1 X105.094 Y76.76 E50.24748
G1 X104.67 Y76.323 E50.29175
G1 X104.251 Y75.794 E50.34081
G1 X103.888 Y75.209 E50.39087
G1 X103.673 Y74.772 E50.42628
G1 X103.445 Y74.179 E50.47247
G1 X103.266 Y73.522 E50.52197
G1 X103.171 Y72.834 E50.57247
G1 X103.147 Y72.391 E50.60472
G1 X103.144 Y70.13 E50.76911
G1 X91.404 Y70.13 E51.62265
G1 X91.4 Y81.934 E52.48085
G0 F1620 X91.4 Y82.228
G0 X91.232 Y82.89
G0 X91.002 Y83.202
G1 F2100 E47.48085
G1 F300 Z0.56
G0 F6000 X73.344 Y126.599 Z0.56
G1 F300 Z0.24
G1 F2100 E52.48085
G1 F1876.8 X73.079 Y125.858 E52.53573
G1 F1882.7 X72.706 Y124.656 E52.62321
G1 F1897.8 X72.348 Y123.324 E52.71832
G1 F1913 X72.054 Y122.039 E52.80849
G1 F1925.4 X71.804 Y120.713 E52.90021
G1 F1934.9 X71.619 Y119.464 E52.98561
G1 F1941.2 X71.475 Y118.176 E53.07298
G1 F1944.4 X71.378 Y116.815 E53.16482
G1 F1950.7 X71.334 Y115.545 E53.25007
G1 X71.34 Y114.194 E53.3407
G1 X71.397 Y112.871 E53.42954
G1 F1944.4 X71.501 Y111.568 E53.51752
G1 F1941.2 X71.654 Y110.273 E53.60543
G1 F1938 X71.866 Y108.94 E53.69657
G1 F1925.4 X72.117 Y107.667 E53.78476
G1 F1910 X72.42 Y106.382 E53.87522
G1 F1897.8 X72.771 Y105.127 E53.96508
G1 F1882.7 X73.173 Y103.86 E54.05748
G1 F1865 X73.606 Y102.661 E54.14693
G1 F1844.7 X74.12 Y101.396 E54.2438
G1 F1824.9 X74.658 Y100.202 E54.33771
G1 F1802.7 X75.228 Y99.052 E54.43089
G1 F1775.8 X75.892 Y97.836 E54.53299
G1 F1749.6 X76.552 Y96.732 E54.6292
G1 F1724.2 X77.245 Y95.659 E54.72615
G1 F1697.1 X78.042 Y94.528 E54.83284
G1 F1668.5 X78.847 Y93.475 E54.9368
G1 F1636.4 X79.728 Y92.411 E55.04727
G1 F1607.6 X80.557 Y91.485 E55.14845
G1 F1581.9 X81.455 Y90.553 E55.25552
G1 F1552.9 X82.403 Y89.64 E55.36643
G1 F1525 X83.392 Y88.758 E55.48015
G1 F1498.1 X84.393 Y87.932 E55.59352
G1 F1470.3 X85.48 Y87.104 E55.71514
G1 F1443.5 X86.543 Y86.356 E55.83298
G1 F1417.7 X87.671 Y85.625 E55.95706
G1 F1389.5 X88.801 Y84.953 E56.08089
