;FLAVOR:Marlin
;TIME:4963
;Filament used: 8.59723m
;Layer height: 0.32
;MINX:39.761
;MINY:67.879
;MINZ:0.24
;MAXX:140.609
;MAXY:185.579
;MAXZ:18.16
;Generated with Cura_SteamEngine 5.4.0
M140 S80
M105
M190 S80
M104 S245
M105
M109 S245
M82 ;absolute extrusion mode
; Ender 3 Max Custom Start G-code
G92 E0 ; Reset Extruder
G28 ; Home all axes
G1 Z2.0 F3000 ; Move Z Axis up little to prevent scratching of Heat Bed
G1 X0.1 Y20 Z0.3 F5000.0 ; Move to start position
G1 X0.1 Y200.0 Z0.24 F1500.0 E15 ; Draw the first line
G1 X0.4 Y200.0 Z0.24 F5000.0 ; Move to side a little
G1 X0.4 Y20 Z0.24 F1500.0 E30 ; Draw the second line
G92 E0 ; Reset Extruder
G1 Z2.0 F3000 ; Move Z Axis up little to prevent scratching of Heat Bed
G1 X5 Y20 Z0.3 F5000.0 ; Move over to prevent blob squish
G92 E0
G92 E0
G1 F2100 E-5
;LAYER_COUNT:56
;LAYER:0
M107
G1 F300 Z0.56
G0 F6000 X62.899 Y71.89 Z0.56
;TYPE:SKIRT
G1 F300 Z0.24
G1 F2100 E0
G1 F1800 X65.069 Y69.974 E0.25164
G1 X67.529 Y68.665 E0.49388
G1 X70.544 Y67.879 E0.76473
G1 X88.286 Y67.879 E2.30702
G1 X90.917 Y68.443 E2.54092
G1 X93.332 Y69.523 E2.77089
G1 X95.093 Y70.727 E2.95633
G1 X96.664 Y72.301 E3.14965
G1 X98.535 Y75.174 E3.44768
G1 X99.08 Y77.24 E3.63342
G1 X99.583 Y77.348 E3.67814
G1 X101.35 Y77.8 E3.83669
G1 X103.06 Y78.294 E3.99142
G1 X104.574 Y78.788 E4.12986
G1 X106.381 Y79.459 E4.29742
G1 X107.062 Y79.739 E4.36143
G1 X107.545 Y79.413 E4.41208
G1 X110.278 Y78.368 E4.66643
G1 X113.152 Y77.981 E4.91852
G1 X116.089 Y78.254 E5.17493
G1 X118.471 Y78.916 E5.38984
G1 X120.875 Y80.224 E5.62775
G1 X122.882 Y82.011 E5.86135
G1 X124.36 Y83.901 E6.06992
G1 X125.447 Y86.176 E6.28909
G1 X125.858 Y87.87 E6.44062
G1 X126.043 Y88.509 E6.49845
G1 X126.266 Y89.182 E6.56008
G1 X126.408 Y89.557 E6.59494
G1 X126.668 Y90.156 E6.6517
G1 X126.903 Y90.638 E6.69832
G1 X127.082 Y90.964 E6.73065
G1 X127.439 Y91.555 E6.79067
G1 X127.761 Y92.039 E6.8412
G1 X127.979 Y92.34 E6.87351
G1 X128.422 Y92.897 E6.93537
G1 X128.707 Y93.22 E6.97282
G1 X129.013 Y93.538 E7.01118
G1 X129.55 Y94.052 E7.0758
G1 X129.864 Y94.327 E7.11209
G1 X130.366 Y94.728 E7.16794
G1 X130.714 Y94.982 E7.20539
G1 X131.193 Y95.3 E7.25537
G1 X131.651 Y95.576 E7.30185
G1 X131.876 Y95.699 E7.32414
G1 X132.849 Y96.172 E7.41819
G1 X134.148 Y96.745 E7.54161
G1 X136.204 Y98.108 E7.75604
G1 X138.091 Y100.109 E7.99513
G1 X139.525 Y102.598 E8.24484
G1 X140.366 Y105.25 E8.48668
G1 X140.609 Y108.051 E8.73109
G1 X140.368 Y110.628 E8.95608
G1 X139.522 Y113.184 E9.19012
G1 X138.144 Y115.43 E9.41918
G1 X137.565 Y116.081 E9.49492
G1 X137.802 Y117.187 E9.59324
G1 X138.116 Y118.971 E9.75071
G1 X138.357 Y120.711 E9.90341
G1 X138.512 Y122.224 E10.03562
G1 X138.656 Y124.379 E10.22337
G1 X138.702 Y126.129 E10.37555
G1 X138.7 Y127.939 E10.53289
G1 X138.648 Y129.326 E10.65354
G1 X138.475 Y131.548 E10.84728
G1 X138.272 Y133.351 E11.005
G1 X138.015 Y135.085 E11.15739
G1 X137.733 Y136.649 E11.29553
G1 X137.306 Y138.563 E11.46601
G1 X136.828 Y140.403 E11.63126
G1 X136.313 Y142.124 E11.78742
G1 X135.792 Y143.671 E11.92932
G1 X135.131 Y145.434 E12.093
G1 X134.454 Y147.064 E12.24643
G1 X133.702 Y148.7 E12.40295
G1 X132.893 Y150.306 E12.55927
G1 X132.582 Y150.883 E12.61625
G1 X131.745 Y152.373 E12.76481
G1 X131.036 Y153.548 E12.8841
G1 X130.116 Y154.972 E13.03148
G1 X129.121 Y156.398 E13.18263
G1 X128.715 Y156.953 E13.2424
G1 X127.623 Y158.377 E13.3984
G1 X126.495 Y159.739 E13.55213
G1 X125.265 Y161.118 E13.71276
G1 X124.018 Y162.427 E13.86992
G1 X122.81 Y163.608 E14.01677
G1 X121.446 Y164.851 E14.17719
G1 X120.067 Y166.016 E14.33412
G1 X118.671 Y167.118 E14.48873
G1 X117.158 Y168.229 E14.6519
G1 X115.885 Y169.096 E14.78579
G1 X114.142 Y170.187 E14.96454
G1 X112.628 Y171.066 E15.11672
G1 X111.074 Y171.893 E15.26975
G1 X109.376 Y172.72 E15.43393
G1 X107.747 Y173.444 E15.58889
G1 X106.123 Y174.1 E15.74114
G1 X104.339 Y174.744 E15.90602
G1 X102.683 Y175.273 E16.05714
G1 X100.952 Y175.768 E16.21365
G1 X99.129 Y176.209 E16.37669
G1 X99.024 Y176.808 E16.42955
G1 X97.976 Y179.275 E16.66255
G1 X96.31 Y181.575 E16.90943
G1 X94.138 Y183.489 E17.16109
G1 X91.678 Y184.795 E17.4032
G1 X88.667 Y185.579 E17.67367
G1 X70.928 Y185.579 E19.2157
G1 X68.287 Y185.013 E19.45049
G1 X65.885 Y183.938 E19.67925
G1 X64.105 Y182.718 E19.86684
G1 X62.53 Y181.125 E20.06157
G1 X60.686 Y178.302 E20.35469
G1 X59.756 Y174.795 E20.67008
G1 X59.755 Y166.34 E21.40506
G1 X59.11 Y165.868 E21.47454
G1 X57.629 Y164.687 E21.6392
G1 X55.954 Y163.24 E21.83162
G1 X54.679 Y162.04 E21.98382
G1 X53.503 Y160.855 E22.12895
G1 X52.295 Y159.556 E22.28315
G1 X51.162 Y158.249 E22.43351
G1 X50.144 Y156.985 E22.57459
G1 X49.056 Y155.528 E22.73267
G1 X48.071 Y154.105 E22.88311
G1 X47.129 Y152.644 E23.03422
G1 X46.262 Y151.185 E23.18175
G1 X45.165 Y149.203 E23.37868
G1 X44.347 Y146.857 E23.59465
G1 X44.297 Y146.381 E23.63626
G1 X42.883 Y144.074 E23.87148
G1 X41.919 Y141.158 E24.13845
G1 X41.437 Y139.469 E24.29114
G1 X41.014 Y137.768 E24.4435
G1 X40.644 Y136.047 E24.59653
G1 X40.343 Y134.341 E24.74712
G1 X40.104 Y132.62 E24.89816
G1 X39.949 Y131.119 E25.02933
G1 X39.806 Y129.018 E25.21239
G1 X39.761 Y127.318 E25.36022
G1 X39.763 Y125.551 E25.51383
G1 X39.813 Y124.209 E25.63056
G1 X39.983 Y122.027 E25.82082
G1 X40.17 Y120.355 E25.96707
G1 X40.446 Y118.542 E26.12649
G1 X40.773 Y116.798 E26.28073
G1 X41.151 Y115.096 E26.43229
G1 X41.592 Y113.396 E26.58496
G1 X42.07 Y111.791 E26.73054
G1 X42.601 Y110.216 E26.87502
G1 X43.286 Y108.423 E27.04187
G1 X43.974 Y106.791 E27.19583
G1 X44.705 Y105.217 E27.34669
G1 X45.489 Y103.671 E27.49738
G1 X46.384 Y102.06 E27.65758
G1 X47.266 Y100.594 E27.8063
G1 X48.231 Y99.098 E27.96106
G1 X49.146 Y97.793 E28.0996
G1 X50.26 Y96.32 E28.26015
G1 X51.308 Y95.032 E28.40449
G1 X52.61 Y93.555 E28.57565
G1 X53.806 Y92.292 E28.72685
G1 X55.044 Y91.063 E28.8785
G1 X56.175 Y90.015 E29.01253
G1 X57.634 Y88.767 E29.17943
G1 X59.102 Y87.599 E29.3425
G1 X59.755 Y87.121 E29.41285
G1 X59.756 Y79.057 E30.11385
G1 X60.185 Y76.649 E30.32647
G1 X61.258 Y74.149 E30.56296
G1 X62.098 Y72.992 E30.68725
G0 F1620 X62.899 Y71.89
G0 F6000 X63.39 Y72.338
G1 F1800 X65.448 Y70.52 E30.92595
G1 X67.771 Y69.284 E31.15469
G1 X70.629 Y68.539 E31.41144
G1 X88.218 Y68.539 E32.94043
G1 X90.71 Y69.073 E33.16197
G1 X93.008 Y70.101 E33.38081
G1 X94.67 Y71.237 E33.55581
G1 X96.148 Y72.718 E33.73769
G1 X97.924 Y75.445 E34.02059
G1 X98.545 Y77.8 E34.2323
G1 X99.419 Y77.987 E34.31
G1 X101.167 Y78.434 E34.46684
G1 X102.855 Y78.921 E34.61956
G1 X104.344 Y79.407 E34.75572
G1 X106.151 Y80.078 E34.92328
G1 X107.139 Y80.484 E35.01613
G1 X107.852 Y80.002 E35.09094
G1 X110.444 Y79.012 E35.33214
G1 X113.166 Y78.645 E35.5709
G1 X115.967 Y78.905 E35.81543
G1 X118.222 Y79.532 E36.01889
G1 X120.492 Y80.767 E36.24354
G1 X122.398 Y82.464 E36.46538
G1 X123.796 Y84.251 E36.66261
G1 X124.823 Y86.401 E36.86973
G1 X125.224 Y88.054 E37.01759
G1 X125.416 Y88.717 E37.07759
G1 X125.639 Y89.39 E37.13923
G1 X125.795 Y89.802 E37.17752
G1 X126.075 Y90.446 E37.23857
G1 X126.324 Y90.956 E37.2879
G1 X126.503 Y91.282 E37.32023
G1 X126.889 Y91.921 E37.38513
G1 X127.211 Y92.405 E37.43566
G1 X127.462 Y92.751 E37.47282
G1 X127.905 Y93.308 E37.53468
G1 X128.225 Y93.671 E37.57675
G1 X128.548 Y94.006 E37.6172
G1 X129.115 Y94.549 E37.68545
G1 X129.437 Y94.831 E37.72266
G1 X129.957 Y95.246 E37.78049
G1 X130.336 Y95.523 E37.8213
G1 X130.832 Y95.853 E37.87308
G1 X131.327 Y96.151 E37.92331
G1 X131.587 Y96.293 E37.94906
G1 X132.56 Y96.766 E38.04311
G1 X133.83 Y97.326 E38.16376
G1 X135.776 Y98.616 E38.36672
G1 X137.558 Y100.506 E38.59253
G1 X138.917 Y102.865 E38.82919
G1 X139.714 Y105.378 E39.05836
G1 X139.946 Y108.052 E39.29168
G1 X139.718 Y110.49 E39.50454
G1 X138.919 Y112.904 E39.72558
G1 X137.611 Y115.036 E39.94301
G1 X136.85 Y115.892 E40.04258
G1 X137.152 Y117.301 E40.16784
G1 X137.462 Y119.062 E40.32328
G1 X137.7 Y120.778 E40.47387
G1 X137.853 Y122.268 E40.60408
G1 X137.996 Y124.397 E40.78957
G1 X138.042 Y126.128 E40.94009
G1 X138.04 Y127.914 E41.09535
G1 X137.988 Y129.301 E41.216
G1 X137.819 Y131.474 E41.40547
G1 X137.619 Y133.254 E41.56118
G1 X137.365 Y134.968 E41.7118
G1 X137.083 Y136.532 E41.84995
G1 X136.667 Y138.397 E42.01606
G1 X136.196 Y140.214 E42.17922
G1 X135.688 Y141.913 E42.33338
G1 X135.174 Y143.439 E42.47335
G1 X134.513 Y145.202 E42.63703
G1 X133.854 Y146.788 E42.78632
G1 X133.102 Y148.424 E42.94284
G1 X132.312 Y149.993 E43.09555
G1 X132.007 Y150.56 E43.15151
G1 X131.18 Y152.032 E43.29829
G1 X130.482 Y153.19 E43.41582
G1 X129.575 Y154.594 E43.56112
G1 X128.589 Y156.008 E43.71097
G1 X128.191 Y156.551 E43.7695
G1 X127.099 Y157.975 E43.92549
G1 X126.002 Y159.3 E44.07502
G1 X124.787 Y160.663 E44.23375
G1 X123.556 Y161.955 E44.38888
G1 X122.365 Y163.12 E44.5337
G1 X121.02 Y164.347 E44.69197
G1 X119.658 Y165.498 E44.84698
G1 X118.28 Y166.586 E44.9996
G1 X116.786 Y167.683 E45.16072
G1 X115.513 Y168.55 E45.29461
G1 X113.81 Y169.616 E45.46926
G1 X112.318 Y170.483 E45.61927
G1 X110.764 Y171.31 E45.77229
G1 X109.108 Y172.117 E45.93243
G1 X107.5 Y172.832 E46.08541
G1 X105.899 Y173.479 E46.23551
G1 X104.138 Y174.115 E46.39827
G1 X102.502 Y174.638 E46.54758
G1 X100.771 Y175.133 E46.70408
G1 X99.002 Y175.562 E46.86232
G1 X98.557 Y175.654 E46.90182
G1 X98.387 Y176.618 E46.98691
G1 X97.396 Y178.952 E47.20733
G1 X95.819 Y181.128 E47.44094
G1 X93.762 Y182.941 E47.6793
G1 X91.436 Y184.176 E47.90823
G1 X88.582 Y184.919 E48.16459
G1 X70.996 Y184.919 E49.69332
G1 X68.494 Y184.383 E49.91575
G1 X66.208 Y183.36 E50.13346
G1 X64.53 Y182.21 E50.31029
G1 X63.048 Y180.711 E50.49353
G1 X61.296 Y178.029 E50.77201
G1 X60.416 Y174.709 E51.07058
G1 X60.415 Y166.004 E51.82729
G1 X59.5 Y165.335 E51.92583
G1 X58.06 Y164.188 E52.08586
G1 X56.406 Y162.759 E52.27587
G1 X55.147 Y161.575 E52.42611
G1 X53.986 Y160.406 E52.56933
G1 X52.794 Y159.124 E52.7215
G1 X51.676 Y157.835 E52.86983
G1 X50.673 Y156.59 E53.0088
G1 X49.599 Y155.152 E53.16482
G1 X48.626 Y153.747 E53.31339
G1 X47.684 Y152.286 E53.4645
G1 X46.839 Y150.865 E53.60822
G1 X45.769 Y148.932 E53.80027
G1 X44.995 Y146.712 E54.00465
G1 X44.937 Y146.162 E54.05272
G1 X43.486 Y143.794 E54.29414
G1 X42.554 Y140.977 E54.55208
G1 X42.072 Y139.288 E54.70476
G1 X41.659 Y137.629 E54.85338
G1 X41.294 Y135.932 E55.00427
G1 X40.997 Y134.25 E55.15274
G1 X40.761 Y132.552 E55.30177
G1 X40.606 Y131.051 E55.43294
G1 X40.466 Y129 E55.61165
G1 X40.421 Y127.319 E55.75783
G1 X40.423 Y125.576 E55.90934
G1 X40.473 Y124.234 E56.02608
G1 X40.639 Y122.1 E56.21215
G1 X40.826 Y120.428 E56.3584
G1 X41.095 Y118.663 E56.5136
G1 X41.417 Y116.941 E56.66589
G1 X41.79 Y115.262 E56.8154
G1 X42.225 Y113.584 E56.96609
G1 X42.703 Y111.979 E57.11166
G1 X43.218 Y110.452 E57.25175
G1 X43.903 Y108.659 E57.4186
G1 X44.572 Y107.069 E57.56855
G1 X45.294 Y105.516 E57.71743
G1 X46.078 Y103.97 E57.86811
G1 X46.95 Y102.4 E58.02423
G1 X47.821 Y100.952 E58.17112
G1 X48.786 Y99.456 E58.32587
G1 X49.673 Y98.191 E58.46018
G1 X50.772 Y96.737 E58.61861
G1 X51.82 Y95.449 E58.76296
G1 X53.089 Y94.009 E58.92981
G1 X54.271 Y92.76 E59.07929
G1 X55.492 Y91.547 E59.2289
G1 X56.604 Y90.517 E59.36067
G1 X58.063 Y89.269 E59.52756
G1 X59.492 Y88.132 E59.68631
G1 X60.415 Y87.457 E59.78571
G1 X60.416 Y79.117 E60.51069
G1 X60.822 Y76.84 E60.71175
G1 X61.836 Y74.476 E60.93536
G1 X62.589 Y73.44 E61.04669
G0 F1620 X63.39 Y72.338
G0 F6000 X63.881 Y72.786
G1 F1800 X65.827 Y71.066 E61.27246
G1 X68.013 Y69.903 E61.48771
G1 X70.714 Y69.199 E61.73035
G1 X88.15 Y69.199 E63.24604
G1 X90.501 Y69.703 E63.45505
G1 X92.684 Y70.679 E63.66292
G1 X94.249 Y71.749 E63.82772
G1 X95.632 Y73.135 E63.99792
G1 X97.313 Y75.716 E64.26567
G1 X98.01 Y78.36 E64.50337
G1 X99.256 Y78.627 E64.61414
G1 X100.984 Y79.068 E64.76917
G1 X102.65 Y79.548 E64.91988
G1 X104.114 Y80.026 E65.05376
G1 X105.9 Y80.689 E65.21936
G1 X107.216 Y81.229 E65.34302
G1 X108.158 Y80.592 E65.44187
G1 X110.611 Y79.655 E65.67013
G1 X113.18 Y79.309 E65.89547
G1 X115.845 Y79.556 E66.12813
G1 X117.973 Y80.148 E66.32013
G1 X120.109 Y81.31 E66.53151
G1 X121.914 Y82.917 E66.74159
G1 X123.233 Y84.603 E66.92768
G1 X124.199 Y86.624 E67.1224
G1 X124.59 Y88.238 E67.26676
G1 X124.789 Y88.925 E67.32893
G1 X125.012 Y89.598 E67.39056
G1 X125.185 Y90.055 E67.43304
G1 X125.476 Y90.723 E67.49638
G1 X125.745 Y91.274 E67.54968
G1 X125.924 Y91.6 E67.58201
G1 X126.339 Y92.287 E67.65178
G1 X126.663 Y92.774 E67.70263
G1 X126.928 Y93.14 E67.74191
G1 X127.41 Y93.745 E67.80915
G1 X127.733 Y94.111 E67.85158
G1 X128.082 Y94.474 E67.89536
G1 X128.68 Y95.046 E67.96729
G1 X129.01 Y95.335 E68.00543
G1 X129.548 Y95.765 E68.0653
G1 X129.958 Y96.064 E68.10941
G1 X130.481 Y96.412 E68.16402
G1 X130.992 Y96.72 E68.21588
G1 X131.298 Y96.887 E68.24618
G1 X132.271 Y97.36 E68.34023
G1 X133.512 Y97.907 E68.45812
G1 X135.348 Y99.124 E68.6496
G1 X137.025 Y100.903 E68.86213
G1 X138.309 Y103.132 E69.08574
G1 X139.062 Y105.506 E69.30224
G1 X139.283 Y108.053 E69.52448
G1 X139.068 Y110.352 E69.7252
G1 X138.316 Y112.624 E69.93324
G1 X137.076 Y114.645 E70.13936
G1 X136.135 Y115.704 E70.26251
G1 X136.502 Y117.416 E70.41471
G1 X136.808 Y119.153 E70.56803
G1 X137.043 Y120.846 E70.71661
G1 X137.194 Y122.312 E70.84472
G1 X137.336 Y124.415 E71.02795
G1 X137.382 Y126.127 E71.17683
G1 X137.38 Y127.889 E71.32999
G1 X137.328 Y129.276 E71.45065
G1 X137.163 Y131.4 E71.63584
G1 X136.966 Y133.157 E71.78953
G1 X136.715 Y134.851 E71.9384
G1 X136.433 Y136.415 E72.07655
G1 X136.028 Y138.232 E72.23837
G1 X135.564 Y140.025 E72.39937
G1 X135.063 Y141.702 E72.55152
G1 X134.556 Y143.207 E72.68957
G1 X133.895 Y144.97 E72.85324
G1 X133.254 Y146.513 E72.99848
G1 X132.513 Y148.127 E73.15287
G1 X131.731 Y149.68 E73.30402
G1 X131.431 Y150.237 E73.35901
G1 X130.615 Y151.691 E73.50395
G1 X129.927 Y152.832 E73.61977
G1 X129.033 Y154.217 E73.76307
G1 X128.057 Y155.618 E73.9115
G1 X127.667 Y156.15 E73.96884
G1 X126.591 Y157.554 E74.12261
G1 X125.509 Y158.861 E74.2701
G1 X124.309 Y160.208 E74.42692
G1 X123.094 Y161.483 E74.58002
G1 X121.903 Y162.648 E74.72485
G1 X120.594 Y163.843 E74.87893
G1 X119.249 Y164.98 E75.03202
G1 X117.889 Y166.054 E75.18267
G1 X116.414 Y167.137 E75.34174
G1 X115.141 Y168.004 E75.47562
G1 X113.478 Y169.045 E75.64617
G1 X112.008 Y169.9 E75.794
G1 X110.454 Y170.727 E75.94703
G1 X108.84 Y171.514 E76.10312
G1 X107.253 Y172.22 E76.25411
G1 X105.675 Y172.858 E76.40207
G1 X103.937 Y173.486 E76.56271
G1 X102.321 Y174.003 E76.7102
G1 X100.59 Y174.498 E76.86671
G1 X98.869 Y174.916 E77.02066
G1 X97.985 Y175.098 E77.09912
G1 X97.751 Y176.427 E77.21643
G1 X96.816 Y178.629 E77.42438
G1 X95.328 Y180.681 E77.64472
G1 X93.386 Y182.393 E77.86977
G1 X91.194 Y183.557 E78.08552
G1 X88.497 Y184.259 E78.32778
G1 X71.064 Y184.259 E79.84321
G1 X68.701 Y183.753 E80.05328
G1 X66.531 Y182.782 E80.25993
G1 X64.955 Y181.702 E80.42602
G1 X63.566 Y180.297 E80.59776
G1 X61.906 Y177.756 E80.8616
G1 X61.076 Y174.623 E81.14335
G1 X61.075 Y165.669 E81.92171
G1 X59.89 Y164.802 E82.04934
G1 X58.491 Y163.688 E82.2048
G1 X56.858 Y162.278 E82.39235
G1 X55.615 Y161.11 E82.54062
G1 X54.469 Y159.957 E82.68194
G1 X53.292 Y158.691 E82.8322
G1 X52.19 Y157.421 E82.97837
G1 X51.202 Y156.195 E83.11524
G1 X50.142 Y154.776 E83.26921
G1 X49.181 Y153.389 E83.41589
G1 X48.251 Y151.948 E83.56498
G1 X47.416 Y150.545 E83.70691
G1 X46.373 Y148.661 E83.8941
G1 X45.643 Y146.566 E84.08696
G1 X45.569 Y145.863 E84.14841
G1 X45.415 Y145.678 E84.16933
G1 X44.089 Y143.514 E84.38995
G1 X43.189 Y140.796 E84.63884
G1 X42.712 Y139.128 E84.78965
G1 X42.304 Y137.49 E84.93639
G1 X41.944 Y135.817 E85.08515
G1 X41.651 Y134.159 E85.23151
G1 X41.418 Y132.484 E85.37852
G1 X41.263 Y130.983 E85.50969
G1 X41.126 Y128.982 E85.68404
G1 X41.081 Y127.32 E85.82857
G1 X41.083 Y125.601 E85.978
G1 X41.133 Y124.259 E86.09474
G1 X41.295 Y122.173 E86.27662
G1 X41.479 Y120.527 E86.4206
G1 X41.744 Y118.784 E86.57385
G1 X42.061 Y117.084 E86.72418
G1 X42.429 Y115.428 E86.87165
G1 X42.858 Y113.772 E87.02035
G1 X43.336 Y112.167 E87.16593
G1 X43.835 Y110.688 E87.30162
G1 X44.52 Y108.895 E87.46847
G1 X45.171 Y107.347 E87.61445
G1 X45.883 Y105.815 E87.7613
G1 X46.667 Y104.269 E87.91199
G1 X47.515 Y102.74 E88.06397
