;FLAVOR:Marlin
;TIME:5501
;Filament used: 12.2889m
;Layer height: 0.3
;MINX:54.722
;MINY:86.033
;MINZ:0.28
;MAXX:187.131
;MAXY:183.231
;MAXZ:23.18
;POSTPROCESSED
;Generated with Cura_SteamEngine 5.4.0
M140 S60
M105
M190 S60
M104 S215
M105
M109 S215
M82 ;absolute extrusion mode
START_PRINT
G92 E0
G92 E0
G1 F300 E-0.5
;LAYER_COUNT:76
;LAYER:0
M107
M204 S1800
G1 F600 Z0.68
;MESH:kobalt-router-mount-vac-top.stl
G0 F4800 X83.445 Y163.571 Z0.68
;TYPE:WALL-INNER
G1 F600 Z0.28
G1 F120 E0
G1 F1800 X81.12 Y163.493 E0.15564
G1 X78.738 Y163.173 E0.31644
G1 X76.528 Y162.659 E0.46825
G1 X74.279 Y161.9 E0.62706
G1 X72.221 Y160.982 E0.77783
G1 X70.258 Y159.869 E0.92881
G1 X68.316 Y158.513 E1.08728
G1 X66.566 Y157.017 E1.24132
G1 X64.963 Y155.354 E1.39585
G1 X63.52 Y153.535 E1.5512
G1 X62.206 Y151.496 E1.7135
G1 X61.153 Y149.439 E1.8681
G1 X60.311 Y147.319 E2.02072
G1 X59.668 Y145.082 E2.17645
G1 X59.245 Y142.807 E2.33127
G1 X59.043 Y140.526 E2.48448
G1 X59.064 Y138.209 E2.63951
G1 X59.307 Y135.919 E2.79358
G1 X59.772 Y133.64 E2.9492
G1 X60.474 Y131.368 E3.1083
G1 X61.39 Y129.2 E3.26577
G1 X62.47 Y127.198 E3.41796
G1 X63.766 Y125.268 E3.5735
G1 X65.241 Y123.475 E3.72884
G1 X66.871 Y121.845 E3.88307
G1 X68.651 Y120.375 E4.03752
G1 X70.563 Y119.084 E4.19188
G1 X72.659 Y117.947 E4.35141
G1 X74.796 Y117.043 E4.50666
G1 X77.011 Y116.349 E4.66196
G1 X79.318 Y115.87 E4.8196
G1 X81.611 Y115.615 E4.97396
G1 X83.996 Y115.587 E5.13354
G1 X86.249 Y115.774 E5.2848
G1 X88.535 Y116.185 E5.4402
G1 X90.783 Y116.82 E5.59649
G1 X92.938 Y117.657 E5.75116
G1 X95.026 Y118.712 E5.90768
G1 X96.978 Y119.948 E6.06226
G1 X98.825 Y121.381 E6.21867
G1 X100.504 Y122.968 E6.37324
G1 X102.078 Y124.788 E6.53423
G1 X103.384 Y126.616 E6.68454
G1 X104.541 Y128.625 E6.83965
G1 X105.502 Y130.741 E6.99514
G1 X106.246 Y132.916 E7.14894
G1 X106.782 Y135.171 E7.30402
G1 X107.102 Y137.537 E7.46376
G1 X107.187 Y139.79 E7.6146
G1 X107.053 Y142.113 E7.77028
G1 X106.693 Y144.41 E7.92584
G1 X106.113 Y146.662 E8.08143
G1 X105.316 Y148.849 E8.23717
G1 X104.353 Y150.866 E8.38671
G1 X103.115 Y152.927 E8.54757
G1 X101.731 Y154.787 E8.70268
G1 X100.17 Y156.509 E8.85819
G1 X98.448 Y158.072 E9.01378
G1 X96.53 Y159.494 E9.17353
G1 X94.587 Y160.67 E9.32548
G1 X92.498 Y161.674 E9.48055
G1 X90.318 Y162.473 E9.63589
G1 X88.036 Y163.064 E9.79361
G1 X85.776 Y163.427 E9.94675
G1 X83.445 Y163.571 E10.10301
G0 F4800 X83.48 Y162.968
G1 F1800 X81.127 Y162.888 E10.26053
G1 X78.873 Y162.588 E10.41266
G1 X76.759 Y162.1 E10.55782
G1 X74.555 Y161.365 E10.71327
G1 X72.451 Y160.425 E10.86745
G1 X70.526 Y159.33 E11.01562
G1 X68.675 Y158.032 E11.16688
G1 X66.966 Y156.569 E11.31739
G1 X65.4 Y154.943 E11.46843
G1 X63.995 Y153.168 E11.61989
G1 X62.734 Y151.212 E11.7756
G1 X61.704 Y149.201 E11.92677
G1 X60.869 Y147.084 E12.07902
G1 X60.252 Y144.945 E12.22797
G1 X59.839 Y142.721 E12.37931
G1 X59.643 Y140.492 E12.52902
G1 X59.664 Y138.228 E12.6805
G1 X59.915 Y135.916 E12.8361
G1 X60.357 Y133.774 E12.98243
G1 X61.054 Y131.536 E13.13926
G1 X61.935 Y129.453 E13.29058
G1 X62.964 Y127.546 E13.43555
G1 X64.275 Y125.594 E13.59288
G1 X65.658 Y123.912 E13.73857
G1 X67.281 Y122.284 E13.89237
G1 X69.022 Y120.847 E14.04341
G1 X70.954 Y119.549 E14.19913
G1 X72.95 Y118.474 E14.35081
G1 X74.959 Y117.625 E14.49674
G1 X77.211 Y116.92 E14.65462
G1 X79.346 Y116.473 E14.80056
G1 X81.644 Y116.215 E14.95527
G1 X83.947 Y116.185 E15.10937
G1 X86.216 Y116.377 E15.26172
G1 X88.36 Y116.763 E15.40748
G1 X90.631 Y117.404 E15.56536
G1 X92.655 Y118.19 E15.71063
G1 X94.687 Y119.212 E15.8628
G1 X96.665 Y120.465 E16.01946
G1 X98.465 Y121.867 E16.17211
G1 X100.041 Y123.356 E16.31718
G1 X101.59 Y125.137 E16.4751
G1 X102.9 Y126.978 E16.62627
G1 X104.025 Y128.941 E16.77765
G1 X104.944 Y130.962 E16.92619
G1 X105.671 Y133.087 E17.07645
G1 X106.193 Y135.286 E17.22767
G1 X106.504 Y137.592 E17.38335
G1 X106.587 Y139.789 E17.53044
G1 X106.456 Y142.055 E17.68231
G1 X106.106 Y144.288 E17.83353
G1 X105.525 Y146.527 E17.98829
G1 X104.778 Y148.577 E18.13427
G1 X103.77 Y150.684 E18.29055
G1 X102.593 Y152.624 E18.44236
G1 X101.294 Y154.37 E18.58796
G1 X99.712 Y156.114 E18.7455
G1 X98.098 Y157.579 E18.89134
G1 X96.219 Y158.98 E19.04815
G1 X94.267 Y160.158 E19.20069
G1 X92.222 Y161.136 E19.35236
G1 X90.097 Y161.911 E19.50369
G1 X87.903 Y162.478 E19.6553
G1 X85.667 Y162.832 E19.80677
G1 X83.48 Y162.968 E19.95337
G1 F300 E19.45337
G1 F600 Z0.68
G0 F4800 X129.247 Y166.821 Z0.68
G1 F600 Z0.28
G1 F120 E19.95337
G1 F1800 X129.065 Y167.34 E19.99017
G1 X139.51 Y173.355 E20.7966
G1 X144.312 Y165.402 E21.41817
G1 X144.485 Y165.218 E21.43507
G1 X144.712 Y165.042 E21.45429
G1 X144.978 Y164.902 E21.4744
G1 X145.228 Y164.838 E21.49166
G1 X145.422 Y164.813 E21.50475
G1 X148.202 Y164.785 E21.69076
G1 X150.856 Y164.564 E21.86894
G1 X153.474 Y164.151 E22.04627
G1 X156.051 Y163.549 E22.22332
G1 X158.591 Y162.755 E22.40137
G1 X161.057 Y161.78 E22.57879
G1 X163.462 Y160.618 E22.7575
G1 X165.69 Y159.331 E22.92965
G1 X167.944 Y157.802 E23.11187
G1 X169.971 Y156.193 E23.28502
G1 X171.982 Y154.344 E23.4678
G1 X173.768 Y152.435 E23.64271
G1 X175.406 Y150.407 E23.81712
G1 X176.884 Y148.285 E23.99014
G1 X178.332 Y145.822 E24.1813
G1 X179.473 Y143.486 E24.35524
G1 X180.455 Y141.045 E24.53127
G1 X181.25 Y138.553 E24.70628
G1 X181.664 Y136.831 E24.82477
G1 X181.545 Y136.702 E24.83652
G1 X181.128 Y136.114 E24.88475
G1 X180.983 Y135.868 E24.90385
G1 X180.646 Y134.964 E24.9684
G1 X180.605 Y134.777 E24.98121
G1 X180.507 Y133.962 E25.03613
G1 X180.509 Y133.706 E25.05326
G1 X180.628 Y132.826 E25.11267
G1 X180.706 Y132.564 E25.13096
G1 X181.041 Y131.738 E25.1906
G1 X181.626 Y130.916 E25.2581
G1 X181.821 Y130.726 E25.27632
G1 X182.394 Y130.248 E25.32624
G1 X182.529 Y130.162 E25.33695
G1 X182.568 Y128.449 E25.45159
G1 X182.44 Y125.863 E25.62482
G1 X182.136 Y123.355 E25.79385
G1 X181.639 Y120.805 E25.96767
G1 X180.966 Y118.326 E26.13953
G1 X180.117 Y115.9 E26.3115
G1 X179.096 Y113.542 E26.48341
G1 X177.858 Y111.162 E26.6629
G1 X177.789 Y110.995 E26.67499
G1 X177.725 Y110.734 E26.69297
G1 X177.709 Y110.473 E26.71047
G1 X177.723 Y110.298 E26.72221
G1 X177.768 Y110.09 E26.73645
G1 X177.872 Y109.817 E26.756
G1 X182.113 Y102.799 E27.30462
G1 X171.893 Y96.433 E28.1102
G1 X171.054 Y97.823 E28.21883
G1 X170.796 Y98.284 E28.25417
G1 X170.521 Y98.865 E28.29718
G1 X170.168 Y99.805 E28.36436
G1 X170.019 Y100.273 E28.39722
G1 X169.929 Y100.493 E28.41312
G1 X169.823 Y100.672 E28.42704
G1 X169.652 Y100.888 E28.44547
G1 X169.357 Y101.107 E28.47005
G1 X169.113 Y101.224 E28.48816
G1 X168.889 Y101.288 E28.50375
G1 X168.612 Y101.326 E28.52245
G1 X168.226 Y101.281 E28.54845
G1 X167.901 Y101.157 E28.57173
G1 X165.72 Y99.723 E28.74636
G1 X163.638 Y98.548 E28.90631
G1 X161.487 Y97.519 E29.06585
G1 X159.262 Y96.636 E29.22601
G1 X156.972 Y95.904 E29.38686
G1 X154.65 Y95.331 E29.54687
G1 X152.298 Y94.92 E29.70662
G1 X149.906 Y94.67 E29.86753
G1 X147.575 Y94.584 E30.02359
G1 X146.974 Y94.647 E30.06402
G1 X146.473 Y94.812 E30.09932
G1 X146.01 Y95.085 E30.13528
G1 X145.612 Y95.455 E30.17163
G1 X145.313 Y95.883 E30.20657
G1 X145.104 Y96.385 E30.24295
G1 X145.011 Y96.904 E30.27822
G1 X145.031 Y97.436 E30.31384
G1 X145.187 Y98.04 E30.35558
G1 X152.541 Y117.533 E31.7495
G1 X153.386 Y117.906 E31.8113
G1 X153.565 Y118.001 E31.82486
G1 X154.878 Y118.809 E31.928
G1 X155.01 Y118.9 E31.93873
G1 X156.321 Y119.979 E32.05233
G1 X157.508 Y121.255 E32.16893
G1 X158.534 Y122.708 E32.28794
G1 X159.342 Y124.271 E32.40566
G1 X159.918 Y125.879 E32.51994
G1 X160.284 Y127.581 E32.63642
G1 X160.416 Y129.287 E32.7509
G1 X160.416 Y129.465 E32.76281
G1 X160.318 Y131.108 E32.87293
G1 X159.983 Y132.802 E32.98846
G1 X159.415 Y134.467 E33.10616
G1 X158.604 Y136.083 E33.22713
G1 X157.605 Y137.536 E33.34511
G1 X156.406 Y138.852 E33.46422
G1 X155.09 Y139.956 E33.57915
G1 X153.64 Y140.872 E33.6939
G1 X152.035 Y141.61 E33.81209
G1 X150.337 Y142.124 E33.93079
G1 X148.588 Y142.402 E34.04927
G1 X146.844 Y142.442 E34.16599
G1 X145.101 Y142.245 E34.28335
G1 X143.397 Y141.821 E34.40083
G1 X141.766 Y141.163 E34.5185
G1 X140.334 Y140.352 E34.62861
G1 X140.162 Y140.238 E34.64241
G1 X138.855 Y139.234 E34.75268
G1 X137.641 Y138.019 E34.8676
G1 X136.547 Y136.585 E34.98827
G1 X135.7 Y135.079 E35.10387
G1 X135.04 Y133.424 E35.22308
G1 X134.618 Y131.718 E35.34067
G1 X134.43 Y129.976 E35.45789
G1 X134.481 Y128.182 E35.57797
G1 X134.748 Y126.555 E35.68828
G1 X134.789 Y126.389 E35.69972
G1 X135.242 Y124.907 E35.8034
G1 X135.314 Y124.717 E35.817
G1 X135.698 Y123.884 E35.87837
G1 X128.334 Y104.364 E37.27421
G1 X128.051 Y103.807 E37.31601
G1 X127.718 Y103.398 E37.3513
G1 X127.292 Y103.058 E37.38777
G1 X126.811 Y102.822 E37.42361
G1 X126.289 Y102.692 E37.45961
G1 X125.754 Y102.676 E37.49542
G1 X125.225 Y102.774 E37.53141
G1 X124.721 Y102.986 E37.56799
G1 X124.247 Y103.319 E37.60675
G1 X122.558 Y104.908 E37.7619
G1 X120.946 Y106.641 E37.92026
G1 X119.458 Y108.476 E38.07832
G1 X118.104 Y110.399 E38.23568
G1 X116.784 Y112.566 E38.40544
G1 X116.61 Y112.774 E38.42358
G1 X116.419 Y112.925 E38.43987
G1 X116.109 Y113.099 E38.46366
G1 X115.769 Y113.177 E38.487
G1 X115.583 Y113.19 E38.49947
G1 X82.817 Y113.573 E40.69186
G1 X80.538 Y113.7 E40.84457
G1 X78.269 Y114.023 E40.99791
G1 X76.079 Y114.535 E41.14839
G1 X73.906 Y115.241 E41.30125
G1 X71.801 Y116.142 E41.45445
G1 X69.782 Y117.218 E41.60752
G1 X67.878 Y118.459 E41.75958
G1 X66.098 Y119.855 E41.91092
G1 X64.447 Y121.398 E42.06212
G1 X62.911 Y123.106 E42.21581
G1 X61.548 Y124.922 E42.36772
G1 X60.366 Y126.819 E42.51726
G1 X59.288 Y128.952 E42.67716
G1 X58.455 Y131.043 E42.82776
G1 X57.815 Y133.167 E42.97617
G1 X57.355 Y135.368 E43.12662
G1 X57.085 Y137.615 E43.27803
G1 X57.011 Y139.885 E43.42999
G1 X57.138 Y142.15 E43.58177
G1 X57.459 Y144.383 E43.73271
G1 X57.981 Y146.602 E43.88522
G1 X58.686 Y148.744 E44.0361
G1 X59.584 Y150.829 E44.18799
G1 X60.658 Y152.83 E44.33993
G1 X61.91 Y154.738 E44.49261
G1 X63.308 Y156.51 E44.64363
G1 X64.866 Y158.164 E44.79565
G1 X66.567 Y159.682 E44.94819
G1 X68.383 Y161.036 E45.09974
G1 X70.322 Y162.235 E45.25227
G1 X72.358 Y163.262 E45.40484
G1 X74.469 Y164.103 E45.55687
G1 X76.64 Y164.758 E45.70859
G1 X78.874 Y165.223 E45.86126
G1 X81.141 Y165.495 E46.01403
G1 X83.465 Y165.568 E46.16959
G1 X127.797 Y165.051 E49.13586
G1 X128.021 Y165.079 E49.15096
G1 X128.294 Y165.158 E49.16998
G1 X128.501 Y165.269 E49.18569
G1 X128.719 Y165.425 E49.20363
G1 X128.943 Y165.668 E49.22574
G1 X129.136 Y166.021 E49.25266
G1 X129.197 Y166.188 E49.26455
G1 X129.25 Y166.436 E49.28152
G1 X129.247 Y166.821 E49.30728
G0 F4800 X128.653 Y166.741
G1 F1800 X128.531 Y167.087 E49.33183
G1 X128.245 Y167.561 E49.36887
G1 X139.72 Y174.168 E50.25478
G1 X144.769 Y165.804 E50.90843
G1 X144.919 Y165.634 E50.9236
G1 X145.074 Y165.525 E50.93628
G1 X145.285 Y165.44 E50.9515
G1 X145.459 Y165.412 E50.96329
G1 X148.23 Y165.385 E51.14869
G1 X150.928 Y165.16 E51.32983
G1 X153.589 Y164.741 E51.51006
G1 X156.209 Y164.129 E51.69007
G1 X158.791 Y163.321 E51.87108
G1 X161.298 Y162.33 E52.05145
G1 X163.743 Y161.149 E52.23311
G1 X166.009 Y159.839 E52.40823
G1 X168.299 Y158.286 E52.59336
G1 X170.361 Y156.65 E52.76947
G1 X172.404 Y154.77 E52.95522
G1 X174.221 Y152.829 E53.13311
G1 X175.886 Y150.768 E53.31038
G1 X177.389 Y148.609 E53.48638
G1 X178.861 Y146.106 E53.68066
G1 X180.022 Y143.73 E53.85759
G1 X181.02 Y141.248 E54.03657
G1 X181.828 Y138.714 E54.21452
G1 X182.327 Y136.639 E54.35731
G1 X182.188 Y136.522 E54.36946
G1 X182.035 Y136.354 E54.38467
G1 X181.561 Y135.685 E54.43952
G1 X181.205 Y134.744 E54.50684
G1 X181.096 Y133.839 E54.56782
G1 X181.223 Y132.885 E54.63221
G1 X181.577 Y132.012 E54.69524
G1 X182.133 Y131.248 E54.75846
G1 X182.779 Y130.709 E54.81475
G1 X182.97 Y130.587 E54.82992
G1 X183.122 Y130.515 E54.84117
G1 X183.169 Y128.441 E54.97997
G1 X183.038 Y125.812 E55.15608
G1 X182.729 Y123.261 E55.328
G1 X182.223 Y120.669 E55.5047
G1 X181.539 Y118.148 E55.67946
G1 X180.677 Y115.681 E55.85431
G1 X179.638 Y113.284 E56.0291
G1 X178.398 Y110.901 E56.20883
G1 X178.315 Y110.678 E56.22475
G1 X178.311 Y110.437 E56.24087
G1 X178.358 Y110.183 E56.25816
G1 X182.933 Y102.602 E56.85057
G1 X171.694 Y95.602 E57.73645
G1 X170.535 Y97.521 E57.88644
G1 X170.262 Y98.009 E57.92385
G1 X169.97 Y98.627 E57.96958
G1 X169.6 Y99.61 E58.03986
G1 X169.419 Y100.179 E58.07981
G1 X169.33 Y100.33 E58.09153
G1 X169.196 Y100.483 E58.10514
G1 X169.05 Y100.591 E58.11729
G1 X168.832 Y100.695 E58.13345
G1 X168.496 Y100.722 E58.156
G1 X168.177 Y100.624 E58.17833
G1 X166.033 Y99.211 E58.35013
G1 X163.916 Y98.015 E58.51281
G1 X161.727 Y96.969 E58.67513
G1 X159.464 Y96.07 E58.83805
G1 X157.135 Y95.326 E59.00163
G1 X154.774 Y94.744 E59.16432
G1 X152.381 Y94.325 E59.32686
G1 X149.948 Y94.071 E59.49053
G1 X147.555 Y93.982 E59.65074
G1 X146.847 Y94.057 E59.69838
G1 X146.224 Y94.262 E59.74226
G1 X145.649 Y94.601 E59.78692
G1 X145.157 Y95.059 E59.83189
G1 X144.784 Y95.592 E59.87542
G1 X144.524 Y96.215 E59.92058
G1 X144.409 Y96.863 E59.96461
G1 X144.434 Y97.523 E60.0088
G1 X144.614 Y98.221 E60.05703
G1 X152.069 Y117.98 E61.46999
G1 X153.195 Y118.478 E61.55236
G1 X154.643 Y119.375 E61.66633
G1 X155.91 Y120.412 E61.77587
G1 X157.043 Y121.631 E61.88721
G1 X158.017 Y123.013 E62.00033
G1 X158.788 Y124.501 E62.11246
G1 X159.343 Y126.051 E62.22261
G1 X159.692 Y127.678 E62.33394
G1 X159.821 Y129.37 E62.44748
G1 X159.716 Y131.067 E62.56123
G1 X159.4 Y132.659 E62.66983
G1 X158.845 Y134.276 E62.78421
G1 X158.087 Y135.778 E62.89677
G1 X157.143 Y137.156 E63.00853
G1 X155.999 Y138.41 E63.12209
G1 X154.761 Y139.449 E63.23023
G1 X153.34 Y140.352 E63.34287
G1 X151.814 Y141.052 E63.4552
G1 X150.2 Y141.539 E63.568
G1 X148.551 Y141.805 E63.67975
G1 X146.87 Y141.843 E63.79225
G1 X145.208 Y141.655 E63.90415
G1 X143.612 Y141.256 E64.01422
G1 X142.063 Y140.636 E64.12585
G1 X140.551 Y139.78 E64.2421
G1 X139.274 Y138.803 E64.34968
G1 X138.058 Y137.585 E64.46483
G1 X137.034 Y136.228 E64.57857
G1 X136.238 Y134.815 E64.68707
G1 X135.609 Y133.235 E64.80085
G1 X135.208 Y131.609 E64.9129
G1 X135.029 Y129.948 E65.02468
G1 X135.077 Y128.25 E65.13833
G1 X135.338 Y126.664 E65.24587
G1 X135.833 Y125.025 E65.36042
G1 X136.348 Y123.908 E65.44271
G1 X128.884 Y104.122 E66.85757
G1 X128.557 Y103.478 E66.90589
G1 X128.143 Y102.969 E66.94979
G1 X127.615 Y102.548 E66.99497
G1 X127.018 Y102.255 E67.03947
G1 X126.371 Y102.094 E67.08407
G1 X125.707 Y102.074 E67.12852
G1 X125.052 Y102.196 E67.1731
G1 X124.429 Y102.458 E67.21832
G1 X123.867 Y102.853 E67.26428
G1 X122.132 Y104.485 E67.42364
G1 X120.493 Y106.247 E67.58465
G1 X118.979 Y108.114 E67.74547
G1 X117.601 Y110.071 E67.90561
G1 X116.297 Y112.216 E68.07356
G1 X116.168 Y112.36 E68.08649
G1 X116.033 Y112.46 E68.09773
G1 X115.736 Y112.588 E68.11937
G1 X82.819 Y112.972 E70.32186
G1 X80.479 Y113.102 E70.47866
G1 X78.159 Y113.432 E70.63544
G1 X75.918 Y113.957 E70.78944
G1 X73.695 Y114.679 E70.94582
G1 X71.541 Y115.6 E71.10255
G1 X69.477 Y116.701 E71.25906
G1 X67.528 Y117.971 E71.41471
G1 X65.707 Y119.399 E71.56953
G1 X64.018 Y120.977 E71.72418
G1 X62.447 Y122.725 E71.88143
G1 X61.053 Y124.582 E72.03678
G1 X59.843 Y126.524 E72.18987
G1 X58.806 Y128.56 E72.34274
G1 X58.736 Y128.717 E72.35424
G1 X57.888 Y130.845 E72.50751
G1 X57.233 Y133.019 E72.65942
G1 X56.762 Y135.271 E72.81335
G1 X56.485 Y137.569 E72.96821
G1 X56.41 Y139.892 E73.12371
G1 X56.541 Y142.209 E73.27898
G1 X56.869 Y144.494 E73.43343
G1 X57.403 Y146.765 E73.58952
G1 X58.124 Y148.957 E73.7439
G1 X59.043 Y151.09 E73.8993
G1 X60.142 Y153.137 E74.05474
G1 X61.423 Y155.089 E74.21095
G1 X62.853 Y156.902 E74.36544
G1 X64.447 Y158.595 E74.52102
G1 X66.187 Y160.147 E74.67702
G1 X68.045 Y161.533 E74.83211
G1 X70.028 Y162.759 E74.98809
G1 X72.111 Y163.809 E75.14416
G1 X74.271 Y164.67 E75.29973
G1 X76.492 Y165.34 E75.45495
G1 X78.777 Y165.816 E75.61111
G1 X81.096 Y166.094 E75.76737
G1 X83.471 Y166.168 E75.92635
G1 X127.737 Y165.65 E78.8882
G1 X127.9 Y165.667 E78.89917
G1 X128.173 Y165.758 E78.91842
G1 X128.419 Y165.969 E78.94011
G1 X128.586 Y166.261 E78.96261
G1 X128.654 Y166.51 E78.97988
G1 X128.653 Y166.741 E78.99534
