;FLAVOR:Marlin
;TIME:1922
;Filament used: 4.2857m
;Layer height: 0.3
;MINX:83.189
;MINY:55.144
;MINZ:0.28
;MAXX:170.503
;MAXY:194.367
;MAXZ:3.38
;Generated with Cura_SteamEngine 5.4.0
M140 S60
M105
M190 S60
M104 S215
M105
M109 S215
M82 ;absolute extrusion mode
START_PRINT
G92 E0
G92 E0
G1 F300 E-0.5
;LAYER_COUNT:10
;LAYER:0
M107
M204 S1800
G1 F600 Z0.68
G0 F4800 X88.265 Y68.027 Z0.68
;TYPE:SKIRT
G1 F600 Z0.28
G1 F120 E0
G1 F1800 X88.737 Y67.434 E0.05612
G1 X97.404 Y56.844 E1.06931
G1 X97.848 Y56.318 E1.12028
G1 X98.21 Y55.951 E1.15845
G1 X98.624 Y55.645 E1.19656
G1 X99.081 Y55.406 E1.23475
G1 X99.569 Y55.241 E1.27289
G1 X100.077 Y55.153 E1.31106
G1 X100.592 Y55.144 E1.3492
G1 X101.192 Y55.236 E1.39414
G1 X103.445 Y55.797 E1.56605
G1 X106.108 Y56.388 E1.76801
G1 X108.779 Y56.901 E1.96939
G1 X111.518 Y57.348 E2.17486
G1 X114.164 Y57.703 E2.37253
G1 X116.933 Y57.995 E2.57868
G1 X119.625 Y58.202 E2.77859
G1 X124.046 Y58.389 E3.10621
G1 X125.853 Y58.531 E3.24041
G1 X126.643 Y58.605 E3.29916
G1 X127.14 Y58.668 E3.33625
G1 X128.771 Y58.917 E3.45841
G1 X129.451 Y59.031 E3.50946
G1 X129.808 Y59.111 E3.53655
G1 X130.284 Y59.246 E3.57318
G1 X134.065 Y60.246 E3.86275
G1 X134.789 Y60.423 E3.91794
G1 X135.139 Y60.53 E3.94503
G1 X135.848 Y60.789 E4.00092
G1 X137.103 Y61.27 E4.10043
G1 X138.217 Y61.728 E4.18961
G1 X139.812 Y62.474 E4.31998
G1 X140.895 Y63.015 E4.40962
G1 X142.432 Y63.876 E4.54006
G1 X143.476 Y64.497 E4.63
G1 X144.986 Y65.497 E4.76409
G1 X145.906 Y66.139 E4.84715
G1 X147.511 Y67.384 E4.99755
G1 X148.127 Y67.878 E5.05601
G1 X148.431 Y68.138 E5.08563
G1 X149.739 Y69.322 E5.21626
G1 X150.339 Y69.881 E5.27697
G1 X150.613 Y70.154 E5.30561
G1 X151.849 Y71.448 E5.4381
G1 X152.389 Y72.031 E5.49694
G1 X152.726 Y72.423 E5.53521
G1 X153.749 Y73.664 E5.65429
G1 X154.276 Y74.325 E5.71688
G1 X154.546 Y74.689 E5.75044
G1 X155.615 Y76.202 E5.8876
G1 X156.24 Y77.137 E5.97087
G1 X157.143 Y78.636 E6.10044
G1 X157.524 Y79.291 E6.15654
G1 X157.769 Y79.74 E6.19441
G1 X158.597 Y81.38 E6.33043
G1 X159.037 Y82.3 E6.40594
G1 X159.755 Y84.013 E6.54346
G1 X160.059 Y84.775 E6.6042
G1 X160.214 Y85.203 E6.63791
G1 X160.779 Y86.897 E6.77012
G1 X161.016 Y87.646 E6.82829
G1 X161.69 Y90.024 E7.01129
G1 X162.49 Y92.607 E7.2115
G1 X163.376 Y95.211 E7.41515
G1 X164.339 Y97.795 E7.61933
G1 X165.351 Y100.297 E7.81916
G1 X166.465 Y102.837 E8.02451
G1 X167.621 Y105.284 E8.22489
G1 X168.859 Y107.724 E8.42747
G1 X169.689 Y109.242 E8.55556
G1 X170.116 Y110.047 E8.62303
G1 X170.322 Y110.52 E8.66123
G1 X170.452 Y111.018 E8.69934
G1 X170.503 Y111.531 E8.73751
G1 X170.475 Y112.046 E8.77569
G1 X170.367 Y112.55 E8.81386
G1 X170.183 Y113.031 E8.85199
G1 X170.059 Y113.266 E8.87166
G1 X168.223 Y116.449 E9.14372
G1 X166.924 Y118.869 E9.34708
G1 X165.7 Y121.314 E9.54953
G1 X164.551 Y123.779 E9.75089
G1 X163.461 Y126.304 E9.95451
G1 X162.436 Y128.876 E10.15951
G1 X161.514 Y131.392 E10.35791
G1 X160.633 Y134.027 E10.56362
G1 X159.848 Y136.611 E10.76357
G1 X159.128 Y139.254 E10.96639
G1 X158.479 Y141.925 E11.16991
G1 X157.909 Y144.611 E11.37321
G1 X157.422 Y147.261 E11.5727
G1 X157.003 Y149.976 E11.7761
G1 X156.726 Y152.124 E11.93645
G1 X155.047 Y166.402 E13.00088
G1 X154.892 Y167.567 E13.08789
G1 X154.675 Y168.908 E13.18847
G1 X154.517 Y169.767 E13.25314
G1 X154.131 Y171.359 E13.37443
G1 X153.873 Y172.309 E13.44731
G1 X153.339 Y173.908 E13.57213
G1 X153.015 Y174.796 E13.64212
G1 X152.353 Y176.327 E13.76562
G1 X151.949 Y177.195 E13.8365
G1 X151.143 Y178.697 E13.96271
G1 X150.68 Y179.505 E14.03166
G1 X149.81 Y180.84 E14.14964
G1 X149.25 Y181.655 E14.22286
G1 X148.783 Y182.264 E14.27968
G1 X147.757 Y183.549 E14.40142
G1 X147.601 Y183.73 E14.41912
G1 X146.459 Y184.965 E14.54366
G1 X145.833 Y185.608 E14.6101
G1 X145.295 Y186.108 E14.66448
G1 X144.03 Y187.232 E14.78977
G1 X143.848 Y187.383 E14.80728
G1 X142.562 Y188.371 E14.92735
G1 X141.783 Y188.936 E14.9986
G1 X141.092 Y189.386 E15.05966
G1 X139.741 Y190.227 E15.17748
G1 X139.534 Y190.345 E15.19513
G1 X137.993 Y191.157 E15.32409
G1 X137.248 Y191.523 E15.38555
G1 X136.49 Y191.85 E15.44667
G1 X135.025 Y192.447 E15.5638
G1 X134.8 Y192.529 E15.58153
G1 X133.153 Y193.066 E15.70979
G1 X132.288 Y193.32 E15.77654
G1 X130.65 Y193.702 E15.90107
G1 X129.719 Y193.892 E15.97142
G1 X128.034 Y194.135 E16.09747
G1 X127.128 Y194.24 E16.165
G1 X125.47 Y194.338 E16.28797
G1 X124.525 Y194.367 E16.35797
G1 X122.917 Y194.325 E16.47707
G1 X121.889 Y194.27 E16.55329
G1 X120.207 Y194.08 E16.67862
G1 X119.305 Y193.953 E16.74606
G1 X117.65 Y193.622 E16.87103
G1 X116.731 Y193.411 E16.94084
G1 X115.046 Y192.919 E17.07081
G1 X114.198 Y192.647 E17.13674
G1 X113.506 Y192.387 E17.19148
G1 X112.073 Y191.816 E17.30569
G1 X111.859 Y191.722 E17.32299
G1 X110.46 Y191.047 E17.438
G1 X109.573 Y190.593 E17.51178
G1 X109.113 Y190.331 E17.55097
G1 X108.35 Y189.87 E17.61698
G1 X106.935 Y188.964 E17.74138
G1 X105.894 Y188.21 E17.83655
G1 X105.152 Y187.646 E17.90555
G1 X103.851 Y186.535 E18.03222
G1 X103.154 Y185.904 E18.10184
G1 X101.972 Y184.706 E18.22644
G1 X101.363 Y184.055 E18.29244
G1 X100.281 Y182.755 E18.41767
G1 X99.699 Y182.016 E18.48732
G1 X98.784 Y180.705 E18.60569
G1 X98.22 Y179.85 E18.68153
G1 X97.389 Y178.414 E18.80437
G1 X96.938 Y177.585 E18.87424
G1 X96.203 Y176.023 E19.00206
G1 X95.835 Y175.179 E19.07023
G1 X95.262 Y173.632 E19.19237
G1 X94.957 Y172.74 E19.26217
G1 X94.5 Y171.09 E19.38893
G1 X94.279 Y170.203 E19.45662
G1 X93.963 Y168.516 E19.58369
G1 X93.821 Y167.63 E19.65013
G1 X93.647 Y165.917 E19.77761
G1 X93.58 Y165.009 E19.84502
G1 X93.55 Y163.324 E19.9698
G1 X93.56 Y162.399 E20.03829
G1 X93.676 Y160.684 E20.16556
G1 X93.809 Y159.169 E20.27816
G1 X94.01 Y156.418 E20.48239
G1 X94.134 Y153.675 E20.68569
G1 X94.18 Y150.927 E20.88918
G1 X94.148 Y148.183 E21.09236
G1 X94.04 Y145.473 E21.29317
G1 X93.855 Y142.766 E21.49406
G1 X93.588 Y140.001 E21.69973
G1 X93.249 Y137.303 E21.90106
G1 X92.833 Y134.599 E22.10362
G1 X92.349 Y131.96 E22.30227
G1 X91.773 Y129.245 E22.50777
G1 X91.131 Y126.599 E22.70936
G1 X90.407 Y123.943 E22.91319
G1 X89.608 Y121.312 E23.11677
G1 X88.723 Y118.604 E23.3277
G1 X88.576 Y118.04 E23.37086
G1 X88.497 Y117.63 E23.40177
G1 X88.189 Y115.264 E23.57843
G1 X87.76 Y112.533 E23.78311
G1 X87.261 Y109.848 E23.98531
G1 X86.688 Y107.198 E24.18605
G1 X86.039 Y104.546 E24.3882
G1 X85.299 Y101.861 E24.59441
G1 X84.512 Y99.29 E24.79349
G1 X83.802 Y97.17 E24.95902
G1 X83.533 Y96.395 E25.01976
G1 X83.432 Y96.041 E25.04702
G1 X83.343 Y95.628 E25.0783
G1 X83.24 Y95.044 E25.1222
G1 X83.189 Y94.478 E25.16428
G1 X83.191 Y94.062 E25.19508
G1 X83.214 Y93.475 E25.23858
G1 X83.249 Y93.105 E25.26609
G1 X83.367 Y92.334 E25.32384
G1 X83.645 Y90.73 E25.44437
G1 X83.94 Y89.372 E25.54726
G1 X84.346 Y87.723 E25.673
G1 X84.774 Y86.163 E25.79277
G1 X85.427 Y83.49 E25.9965
G1 X86.003 Y80.813 E26.19924
G1 X86.499 Y78.144 E26.40024
G1 X86.923 Y75.431 E26.60355
G1 X87.266 Y72.738 E26.80455
G1 X87.464 Y70.667 E26.95858
G1 X87.562 Y69.745 E27.02723
G1 X87.656 Y69.238 E27.06541
G1 X87.827 Y68.752 E27.10356
G1 X88.071 Y68.298 E27.14172
G1 X88.265 Y68.027 E27.16639
G1 F300 E26.66639
G1 F600 Z0.68
;MESH:kobalt-router-mount-vac-top-bot.stl
G0 F4800 X102.38 Y127.716 Z0.68
;TYPE:WALL-INNER
G1 F600 Z0.28
G1 F120 E27.16639
G1 F1800 X98.532 Y160.457 E29.37203
G1 X98.369 Y162.677 E29.52096
G1 X98.395 Y164.877 E29.66817
G1 X98.606 Y167.079 E29.81617
G1 X99.003 Y169.257 E29.96429
G1 X99.582 Y171.392 E30.11229
G1 X100.339 Y173.471 E30.26032
G1 X101.268 Y175.475 E30.40811
G1 X102.364 Y177.395 E30.55602
G1 X103.626 Y179.224 E30.7047
G1 X105.021 Y180.921 E30.85167
G1 X106.564 Y182.5 E30.99939
G1 X108.233 Y183.944 E31.14704
G1 X109.984 Y185.216 E31.29184
G1 X111.831 Y186.335 E31.43633
G1 X113.902 Y187.358 E31.59087
G1 X115.88 Y188.133 E31.73301
G1 X118.014 Y188.768 E31.88197
G1 X120.183 Y189.215 E32.03014
G1 X122.38 Y189.478 E32.17818
G1 X124.578 Y189.552 E32.32533
G1 X126.791 Y189.435 E32.47359
G1 X128.976 Y189.133 E32.62117
G1 X131.123 Y188.646 E32.76847
G1 X133.231 Y187.977 E32.91644
G1 X135.281 Y187.127 E33.06492
G1 X137.244 Y186.11 E33.21283
G1 X139.105 Y184.934 E33.36012
G1 X140.87 Y183.597 E33.50827
G1 X142.52 Y182.111 E33.65683
G1 X144.034 Y180.492 E33.80514
G1 X145.406 Y178.754 E33.95328
G1 X146.626 Y176.904 E34.10155
G1 X147.679 Y174.968 E34.249
G1 X148.575 Y172.929 E34.39801
G1 X149.286 Y170.841 E34.54559
G1 X149.824 Y168.677 E34.69478
G1 X150.197 Y166.364 E34.85153
G1 X155.37 Y122.36 E37.81593
G1 X155.446 Y122.129 E37.8322
G1 X155.534 Y121.944 E37.8459
G1 X155.669 Y121.744 E37.86205
G1 X155.82 Y121.582 E37.87686
G1 X156.002 Y121.437 E37.89243
G1 X156.2 Y121.325 E37.90765
G1 X156.498 Y121.21 E37.92902
G1 X156.671 Y121.171 E37.94089
G1 X156.924 Y121.151 E37.95787
G1 X157.304 Y121.201 E37.98351
G1 X157.799 Y121.449 E38.02055
G1 X165.107 Y111.864 E38.82698
G1 X157.872 Y106.107 E39.44559
G1 X157.711 Y105.926 E39.4618
G1 X157.599 Y105.761 E39.47514
G1 X157.511 Y105.586 E39.48825
G1 X157.451 Y105.415 E39.50037
G1 X157.412 Y105.24 E39.51237
G1 X157.394 Y105.053 E39.52494
G1 X157.397 Y104.893 E39.53564
G1 X157.726 Y102.149 E39.72055
G1 X157.847 Y99.505 E39.89763
G1 X157.776 Y96.867 E40.07419
G1 X157.512 Y94.24 E40.25084
G1 X157.035 Y91.528 E40.43507
G1 X156.384 Y88.971 E40.61161
G1 X155.528 Y86.403 E40.79272
G1 X154.555 Y84.082 E40.9611
G1 X153.334 Y81.661 E41.14251
G1 X151.998 Y79.444 E41.31569
G1 X150.431 Y77.228 E41.49728
G1 X148.762 Y75.202 E41.6729
G1 X146.954 Y73.308 E41.84809
G1 X145.016 Y71.557 E42.02284
G1 X142.82 Y69.849 E42.20897
G1 X140.618 Y68.391 E42.38566
G1 X138.326 Y67.105 E42.5615
G1 X135.954 Y65.996 E42.73669
G1 X134.302 Y65.364 E42.85503
G1 X134.16 Y65.465 E42.86669
G1 X133.52 Y65.804 E42.91515
G1 X133.299 Y65.9 E42.93127
G1 X132.288 Y66.147 E43.0009
G1 X131.344 Y66.142 E43.06406
G1 X131.173 Y66.13 E43.07553
G1 X130.972 Y66.09 E43.08924
G1 X130.164 Y65.872 E43.14523
G1 X129.944 Y65.767 E43.16154
G1 X129.173 Y65.331 E43.2208
G1 X128.427 Y64.638 E43.28893
G1 X128.272 Y64.429 E43.30634
G1 X127.867 Y63.796 E43.35661
G1 X127.797 Y63.65 E43.36745
G1 X126.132 Y63.396 E43.48013
G1 X123.57 Y63.188 E43.65211
G1 X121.023 Y63.166 E43.82253
G1 X118.349 Y63.339 E44.00181
G1 X115.814 Y63.687 E44.173
G1 X113.315 Y64.219 E44.34395
G1 X110.859 Y64.926 E44.51494
G1 X108.276 Y65.871 E44.69896
G1 X107.986 Y65.921 E44.71865
G1 X107.65 Y65.908 E44.74115
G1 X107.386 Y65.834 E44.75949
G1 X107.109 Y65.713 E44.77971
G1 X100.607 Y60.547 E45.33533
G1 X92.983 Y69.863 E46.14074
G1 X94.428 Y71.005 E46.26397
G1 X95.168 Y71.506 E46.32376
G1 X95.555 Y71.722 E46.35341
G1 X96.104 Y72.01 E46.39489
G1 X96.55 Y72.219 E46.42784
G1 X96.756 Y72.337 E46.44372
G1 X96.92 Y72.465 E46.45764
G1 X97.101 Y72.65 E46.47496
G1 X97.225 Y72.847 E46.49053
G1 X97.364 Y73.169 E46.514
G1 X97.41 Y73.469 E46.53431
G1 X97.411 Y73.744 E46.5527
G1 X97.336 Y74.076 E46.57548
G1 X97.221 Y74.314 E46.59316
G1 X97.116 Y74.476 E46.60608
G1 X95.454 Y76.41 E46.77669
G1 X94.019 Y78.324 E46.93674
G1 X92.718 Y80.333 E47.09688
G1 X91.555 Y82.427 E47.25714
G1 X90.54 Y84.595 E47.4173
G1 X89.678 Y86.818 E47.57682
G1 X88.963 Y89.114 E47.73771
G1 X88.408 Y91.444 E47.89796
G1 X88.023 Y93.749 E48.05432
G1 X88.008 Y94.339 E48.0938
G1 X88.11 Y94.872 E48.13011
G1 X88.319 Y95.359 E48.16557
G1 X88.632 Y95.8 E48.20175
G1 X89.026 Y96.157 E48.23732
G1 X89.49 Y96.425 E48.27317
G1 X89.998 Y96.585 E48.30881
G1 X90.535 Y96.635 E48.34489
G1 X91.133 Y96.56 E48.38522
G1 X111.42 Y91.768 E49.77988
G1 X111.889 Y90.996 E49.84032
G1 X112 Y90.837 E49.85329
G1 X113.005 Y89.591 E49.9604
G1 X114.148 Y88.49 E50.06658
G1 X114.301 Y88.361 E50.07997
G1 X115.541 Y87.453 E50.18279
G1 X115.693 Y87.357 E50.19482
G1 X117.089 Y86.593 E50.3013
G1 X118.714 Y85.966 E50.41783
G1 X120.359 Y85.568 E50.53107
G1 X122.025 Y85.388 E50.64318
G1 X123.755 Y85.43 E50.75896
G1 X125.336 Y85.674 E50.86599
G1 X125.528 Y85.717 E50.87915
G1 X127.068 Y86.173 E50.98661
G1 X128.69 Y86.899 E51.10551
G1 X130.088 Y87.756 E51.21522
G1 X131.407 Y88.826 E51.32885
G1 X132.539 Y90.016 E51.43874
G1 X132.661 Y90.164 E51.45157
G1 X133.596 Y91.464 E51.55871
G1 X134.401 Y92.944 E51.67143
G1 X135.004 Y94.527 E51.78477
G1 X135.412 Y96.246 E51.90297
G1 X135.577 Y97.906 E52.01458
G1 X135.53 Y99.602 E52.1281
G1 X135.25 Y101.324 E52.24482
G1 X134.788 Y102.859 E52.35207
G1 X134.718 Y103.045 E52.36537
G1 X134.082 Y104.448 E52.46843
G1 X133.183 Y105.907 E52.58309
G1 X132.098 Y107.237 E52.69793
G1 X130.824 Y108.434 E52.81489
G1 X129.439 Y109.426 E52.92887
G1 X127.876 Y110.256 E53.04727
G1 X126.293 Y110.839 E53.16014
G1 X124.618 Y111.22 E53.27507
G1 X122.93 Y111.377 E53.3885
G1 X121.291 Y111.313 E53.49824
G1 X119.55 Y111.019 E53.61637
G1 X117.925 Y110.515 E53.7302
G1 X116.486 Y109.855 E53.83612
G1 X116.316 Y109.763 E53.84905
G1 X115.559 Y109.287 E53.90888
G1 X95.242 Y114.085 E55.3056
G1 X94.664 Y114.29 E55.34663
G1 X94.207 Y114.572 E55.38256
G1 X93.822 Y114.946 E55.41847
G1 X93.524 Y115.394 E55.45447
G1 X93.329 Y115.893 E55.49031
G1 X93.244 Y116.422 E55.52616
G1 X93.275 Y116.967 E55.56268
G1 X93.415 Y117.476 E55.598
G1 X93.693 Y118.003 E55.63787
G1 X95.042 Y119.873 E55.79214
G1 X96.558 Y121.699 E55.95093
G1 X98.181 Y123.404 E56.10842
G1 X99.923 Y125.003 E56.26662
G1 X101.812 Y126.514 E56.42847
G1 X101.979 Y126.67 E56.44376
G1 X102.11 Y126.834 E56.4578
G1 X102.247 Y127.08 E56.47664
G1 X102.307 Y127.238 E56.48795
G1 X102.354 Y127.438 E56.50169
G1 X102.38 Y127.716 E56.52037
G0 F4800 X101.657 Y127.223
G1 F1800 X101.758 Y127.513 E56.54092
G1 X101.778 Y127.699 E56.55344
G1 X97.936 Y160.378 E58.75491
G1 X97.768 Y162.658 E58.90787
G1 X97.795 Y164.909 E59.05848
G1 X98.011 Y167.162 E59.20991
G1 X98.417 Y169.39 E59.36143
G1 X99.009 Y171.573 E59.51276
G1 X99.784 Y173.7 E59.66422
G1 X100.734 Y175.75 E59.81539
G1 X101.856 Y177.715 E59.96679
G1 X103.146 Y179.585 E60.11878
G1 X104.574 Y181.322 E60.26923
G1 X106.152 Y182.937 E60.4203
G1 X107.859 Y184.414 E60.57132
G1 X109.752 Y185.782 E60.72759
G1 X111.543 Y186.862 E60.86751
G1 X113.659 Y187.908 E61.02544
G1 X115.684 Y188.701 E61.17094
G1 X117.867 Y189.351 E61.32333
G1 X120.086 Y189.808 E61.47491
G1 X122.334 Y190.077 E61.62639
G1 X124.584 Y190.153 E61.77702
G1 X126.848 Y190.033 E61.9287
G1 X129.083 Y189.724 E62.07966
G1 X131.28 Y189.226 E62.23038
G1 X133.437 Y188.541 E62.3818
G1 X135.535 Y187.672 E62.53373
G1 X137.543 Y186.631 E62.68506
G1 X139.447 Y185.428 E62.83574
G1 X141.253 Y184.06 E62.98733
G1 X142.941 Y182.539 E63.13935
G1 X144.489 Y180.884 E63.29097
G1 X145.893 Y179.106 E63.44254
G1 X147.141 Y177.213 E63.59424
G1 X148.219 Y175.233 E63.74508
G1 X149.135 Y173.147 E63.8975
G1 X149.862 Y171.01 E64.04853
G1 X150.413 Y168.798 E64.20105
G1 X150.789 Y166.468 E64.35895
G1 X155.953 Y122.533 E67.31869
G1 X156.03 Y122.27 E67.33703
G1 X156.216 Y122.019 E67.35793
G1 X156.456 Y121.867 E67.37694
G1 X156.665 Y121.786 E67.39193
G1 X156.922 Y121.751 E67.40929
G1 X157.149 Y121.781 E67.42461
G1 X157.477 Y121.945 E67.44914
G1 X157.912 Y122.29 E67.48629
G1 X165.94 Y111.76 E68.3722
G1 X158.262 Y105.644 E69.02896
G1 X158.117 Y105.458 E69.04474
G1 X158.028 Y105.25 E69.05988
G1 X157.997 Y105.085 E69.07111
G1 X158 Y104.894 E69.08389
G1 X158.324 Y102.198 E69.26556
G1 X158.447 Y99.511 E69.44553
G1 X158.375 Y96.829 E69.62503
G1 X158.107 Y94.158 E69.80464
G1 X157.622 Y91.402 E69.99186
G1 X156.96 Y88.802 E70.17137
G1 X156.09 Y86.192 E70.35544
G1 X155.101 Y83.831 E70.5267
G1 X153.859 Y81.371 E70.71108
G1 X152.501 Y79.115 E70.88725
G1 X150.908 Y76.863 E71.07181
G1 X149.211 Y74.803 E71.25038
G1 X147.372 Y72.878 E71.4285
G1 X145.402 Y71.097 E71.60618
G1 X143.17 Y69.361 E71.79537
G1 X140.931 Y67.878 E71.97505
G1 X138.6 Y66.571 E72.15385
G1 X136.189 Y65.443 E72.33194
G1 X134.197 Y64.681 E72.47464
G1 X134.06 Y64.806 E72.48704
G1 X133.878 Y64.935 E72.50197
G1 X133.149 Y65.321 E72.55716
G1 X132.244 Y65.547 E72.61957
G1 X131.288 Y65.542 E72.68353
G1 X131.128 Y65.511 E72.69443
G1 X130.415 Y65.319 E72.74384
G1 X130.259 Y65.255 E72.75512
G1 X129.607 Y64.891 E72.80508
G1 X129.443 Y64.769 E72.81875
G1 X128.824 Y64.179 E72.87597
G1 X128.372 Y63.473 E72.93206
G1 X128.274 Y63.264 E72.9475
