;FLAVOR:Marlin
;TIME:2712
;Filament used: 9.29217m
;Layer height: 0.32
;MINX:46.267
;MINY:56.756
;MINZ:0.28
;MAXX:170.606
;MAXY:173.104
;MAXZ:36.84
;Generated with Cura_SteamEngine 5.4.0
M140 S60
M105
M190 S60
M104 S215
M105
M109 S215
M82 ;absolute extrusion mode
START_PRINT
G92 E0
G92 E0
G1 F300 E-0.5
;LAYER_COUNT:114
;LAYER:0
M107
M204 S1800
G1 F600 Z0.68
G0 F4800 X65.458 Y94.383 Z0.68
;TYPE:SKIRT
G1 F600 Z0.28
G1 F120 E0
G1 F1800 X66.917 Y93.438 E0.1287
G1 X67.885 Y92.864 E0.21203
G1 X68.204 Y92.638 E0.24097
G1 X83.772 Y83.022 E1.59578
G1 X85.225 Y82.544 E1.70904
G1 X86.722 Y82.423 E1.82023
G1 X87.652 Y82.564 E1.88988
G1 X121.84 Y61.452 E4.8649
G1 X123.156 Y60.69 E4.97749
G1 X124.549 Y59.97 E5.09359
G1 X126.038 Y59.295 E5.21464
G1 X127.518 Y58.712 E5.33241
G1 X129.028 Y58.2 E5.45046
G1 X130.513 Y57.779 E5.56475
G1 X132.19 Y57.391 E5.69219
G1 X133.751 Y57.113 E5.80959
G1 X135.047 Y56.944 E5.90635
G1 X136.944 Y56.795 E6.04724
G1 X138.524 Y56.756 E6.16426
G1 X139.829 Y56.782 E6.2609
G1 X141.707 Y56.918 E6.40031
G1 X143.306 Y57.112 E6.51957
G1 X144.865 Y57.382 E6.63672
G1 X146.14 Y57.665 E6.73341
G1 X147.742 Y58.103 E6.85638
G1 X149.376 Y58.642 E6.98377
G1 X151.033 Y59.29 E7.11551
G1 X152.425 Y59.916 E7.22851
G1 X153.843 Y60.638 E7.34633
G1 X154.975 Y61.283 E7.44279
G1 X156.572 Y62.3 E7.58297
G1 X157.713 Y63.112 E7.68666
G1 X159.117 Y64.225 E7.81931
G1 X160.311 Y65.269 E7.93675
G1 X161.251 Y66.173 E8.0333
G1 X162.462 Y67.461 E8.1642
G1 X163.529 Y68.718 E8.28628
G1 X164.551 Y70.064 E8.41141
G1 X165.436 Y71.358 E8.52748
G1 X166.261 Y72.695 E8.6438
G1 X166.955 Y73.947 E8.74979
G1 X167.734 Y75.549 E8.88168
G1 X168.392 Y77.102 E9.00656
G1 X168.889 Y78.454 E9.11321
G1 X169.375 Y80.013 E9.23412
G1 X169.803 Y81.668 E9.36068
G1 X170.088 Y83.045 E9.4648
G1 X170.362 Y84.821 E9.59785
G1 X170.504 Y86.185 E9.69938
G1 X170.599 Y88 E9.83395
G1 X170.606 Y89.305 E9.93057
G1 X170.522 Y91.18 E10.06954
G1 X170.362 Y92.783 E10.18881
G1 X170.129 Y94.358 E10.3067
G1 X169.85 Y95.77 E10.41326
G1 X169.443 Y97.389 E10.53686
G1 X168.931 Y99.062 E10.6664
G1 X168.489 Y100.292 E10.76317
G1 X167.791 Y101.964 E10.89732
G1 X167.188 Y103.235 E11.00148
G1 X166.339 Y104.812 E11.13409
G1 X165.613 Y106.013 E11.23799
G1 X164.663 Y107.421 E11.36375
G1 X163.747 Y108.645 E11.47694
G1 X162.573 Y110.054 E11.61273
G1 X161.667 Y111.037 E11.71171
G1 X160.446 Y112.239 E11.83857
G1 X159.209 Y113.342 E11.96128
G1 X158.146 Y114.201 E12.06247
G1 X156.612 Y115.308 E12.20253
G1 X155.453 Y116.066 E12.30507
G1 X131.432 Y130.906 E14.39561
G1 X131.4 Y132.382 E14.50492
G1 X131.305 Y133.921 E14.61908
G1 X131.091 Y135.947 E14.76992
G1 X130.835 Y137.688 E14.90021
G1 X130.52 Y139.341 E15.0248
G1 X130.074 Y141.22 E15.16779
G1 X129.588 Y142.943 E15.30034
G1 X129.058 Y144.559 E15.42626
G1 X128.404 Y146.311 E15.56472
G1 X127.714 Y147.94 E15.6957
G1 X126.979 Y149.496 E15.82312
G1 X126.111 Y151.156 E15.96181
G1 X125.311 Y152.537 E16.07998
G1 X124.296 Y154.134 E16.22008
G1 X123.274 Y155.599 E16.35233
G1 X122.142 Y157.089 E16.49088
G1 X121.157 Y158.278 E16.6052
G1 X119.787 Y159.79 E16.75627
G1 X118.541 Y161.055 E16.88773
G1 X117.374 Y162.149 E17.00617
G1 X115.866 Y163.444 E17.15334
G1 X114.521 Y164.504 E17.28013
G1 X113.014 Y165.591 E17.4177
G1 X111.546 Y166.563 E17.54806
G1 X110.177 Y167.389 E17.66644
G1 X108.417 Y168.351 E17.81495
G1 X106.958 Y169.071 E17.93541
G1 X105.247 Y169.827 E18.07391
G1 X103.514 Y170.504 E18.21166
G1 X101.822 Y171.09 E18.34424
G1 X100.344 Y171.533 E18.45848
G1 X98.366 Y172.029 E18.60947
G1 X96.613 Y172.393 E18.74203
G1 X94.851 Y172.683 E18.87424
G1 X93.079 Y172.9 E19.00642
G1 X91.292 Y173.044 E19.13916
G1 X89.725 Y173.104 E19.25526
G1 X87.73 Y173.092 E19.40297
G1 X85.97 Y173.016 E19.53341
G1 X84.319 Y172.875 E19.65609
G1 X82.393 Y172.64 E19.79975
G1 X80.638 Y172.361 E19.93132
G1 X78.909 Y172.023 E20.06176
G1 X77.289 Y171.651 E20.18483
G1 X75.496 Y171.165 E20.32237
G1 X73.761 Y170.627 E20.45686
G1 X72.104 Y170.049 E20.5868
G1 X70.467 Y169.412 E20.71685
G1 X68.594 Y168.579 E20.86863
G1 X66.894 Y167.589 E21.01428
G1 X65.491 Y166.683 E21.13794
G1 X64.079 Y165.688 E21.26583
G1 X62.73 Y164.658 E21.3915
G1 X61.529 Y163.668 E21.50674
G1 X60.194 Y162.479 E21.6391
G1 X58.996 Y161.326 E21.76221
G1 X57.84 Y160.117 E21.88605
G1 X56.677 Y158.809 E22.01564
G1 X55.511 Y157.372 E22.15266
G1 X54.965 Y156.542 E22.22622
G1 X54.432 Y155.26 E22.32901
G1 X54.161 Y154.074 E22.41909
G1 X54.094 Y152.765 E22.51613
G1 X54.264 Y151.385 E22.61908
G1 X54.664 Y150.24 E22.70888
G1 X55.073 Y149.33 E22.78275
G1 X55.984 Y148.053 E22.89889
G1 X56.987 Y147.177 E22.99749
G1 X57.776 Y146.616 E23.06917
G1 X58.914 Y146.092 E23.16193
G1 X60.647 Y145.46 E23.29851
G1 X61.7 Y145.18 E23.37918
G1 X63.113 Y145.14 E23.48384
G1 X64.035 Y145.201 E23.55225
G1 X65.477 Y145.582 E23.66268
G1 X66.77 Y146.217 E23.76934
G1 X67.82 Y147.054 E23.86876
G1 X68.338 Y147.561 E23.92242
G1 X69.272 Y148.61 E24.02642
G1 X70.152 Y149.519 E24.12009
G1 X70.961 Y150.287 E24.20268
G1 X71.91 Y151.103 E24.29535
G1 X72.833 Y151.827 E24.3822
G1 X73.805 Y152.525 E24.4708
G1 X74.741 Y153.137 E24.5536
G1 X75.858 Y153.797 E24.64966
G1 X76.817 Y154.306 E24.73005
G1 X77.985 Y154.863 E24.82586
G1 X79.005 Y155.293 E24.90782
G1 X80.169 Y155.728 E24.99982
G1 X81.3 Y156.089 E25.08772
G1 X82.412 Y156.391 E25.17304
G1 X83.482 Y156.631 E25.25423
G1 X84.777 Y156.865 E25.35166
G1 X85.867 Y157.007 E25.43305
G1 X87.245 Y157.128 E25.53547
G1 X88.238 Y157.173 E25.60906
G1 X89.552 Y157.171 E25.70635
G1 X90.65 Y157.123 E25.78773
G1 X91.811 Y157.017 E25.87404
G1 X93.069 Y156.846 E25.96804
G1 X94.083 Y156.66 E26.04437
G1 X95.367 Y156.366 E26.1419
G1 X96.632 Y156.018 E26.23904
G1 X97.555 Y155.719 E26.31088
G1 X98.735 Y155.28 E26.40409
G1 X99.867 Y154.797 E26.49522
G1 X100.897 Y154.3 E26.57989
G1 X101.93 Y153.747 E26.66664
G1 X103.039 Y153.087 E26.7622
G1 X103.933 Y152.5 E26.84138
G1 X104.986 Y151.739 E26.93757
G1 X105.864 Y151.045 E27.02044
G1 X106.744 Y150.28 E27.10677
G1 X107.612 Y149.456 E27.19538
G1 X108.472 Y148.561 E27.28728
G1 X109.283 Y147.642 E27.37803
G1 X109.989 Y146.765 E27.46139
G1 X110.64 Y145.876 E27.54297
G1 X111.418 Y144.709 E27.64682
G1 X111.945 Y143.838 E27.72219
G1 X112.514 Y142.796 E27.81009
G1 X113.091 Y141.616 E27.90735
G1 X113.503 Y140.665 E27.98408
G1 X113.935 Y139.536 E28.07359
G1 X114.35 Y138.293 E28.17061
G1 X114.631 Y137.303 E28.24681
G1 X114.924 Y136.051 E28.34201
G1 X115.161 Y134.807 E28.43577
G1 X115.302 Y133.826 E28.50915
G1 X115.443 Y132.41 E28.61451
G1 X115.493 Y131.397 E28.6896
G1 X115.507 Y130.313 E28.76987
G1 X115.455 Y128.848 E28.87841
G1 X115.391 Y127.995 E28.94174
G1 X115.331 Y127.357 E28.98919
G1 X115.297 Y126.397 E29.06031
G1 X115.402 Y124.976 E29.16581
G1 X115.656 Y123.667 E29.26453
G1 X116.007 Y122.529 E29.35271
G1 X116.219 Y122.005 E29.39456
G1 X127.868 Y97.012 E31.43617
G1 X89.761 Y103.727 E34.30108
G1 X89.231 Y103.803 E34.34072
G1 X88.958 Y103.83 E34.36103
G1 X87.243 Y103.912 E34.48816
G1 X85.959 Y104.023 E34.58358
G1 X84.738 Y104.181 E34.67474
G1 X83.782 Y104.347 E34.74658
G1 X82.729 Y104.575 E34.82635
G1 X81.438 Y104.913 E34.92516
G1 X80.472 Y105.212 E35.00003
G1 X79.425 Y105.587 E35.08237
G1 X78.254 Y106.059 E35.17585
G1 X77.344 Y106.473 E35.24987
G1 X76.273 Y107.015 E35.33874
G1 X75.233 Y107.6 E35.42709
G1 X74.326 Y108.163 E35.50613
G1 X73.458 Y108.754 E35.58388
G1 X72.357 Y109.575 E35.68556
G1 X71.572 Y110.217 E35.76065
G1 X70.779 Y110.924 E35.83931
G1 X69.771 Y111.906 E35.9435
G1 X69.058 Y112.66 E36.02034
G1 X68.298 Y113.543 E36.10659
G1 X67.6 Y114.425 E36.18987
G1 X66.913 Y115.38 E36.27698
G1 X66.252 Y116.383 E36.36591
G1 X65.672 Y117.349 E36.44934
G1 X65.13 Y118.352 E36.53375
G1 X64.616 Y119.409 E36.62077
G1 X64.211 Y120.339 E36.69588
G1 X63.781 Y121.457 E36.78456
G1 X63.396 Y122.612 E36.87471
G1 X63.039 Y123.85 E36.9701
G1 X62.815 Y124.783 E37.04114
G1 X62.597 Y125.891 E37.12475
G1 X62.39 Y127.265 E37.22763
G1 X62.297 Y128.144 E37.29308
G1 X62.209 Y129.532 E37.39605
G1 X62.164 Y131.157 E37.51641
G1 X62.077 Y132.02 E37.58063
G1 X61.712 Y133.259 E37.67627
G1 X61.116 Y134.478 E37.77673
G1 X60.263 Y135.599 E37.88103
G1 X59.491 Y136.294 E37.95793
G1 X58.608 Y136.962 E38.03991
G1 X57.397 Y137.516 E38.13851
G1 X55.979 Y138.034 E38.25029
G1 X54.548 Y138.352 E38.35882
G1 X53.606 Y138.435 E38.42884
G1 X52.448 Y138.336 E38.51489
G1 X51.295 Y137.999 E38.60383
G1 X50.151 Y137.549 E38.69485
G1 X48.884 Y136.678 E38.80868
G1 X47.92 Y135.694 E38.91068
G1 X47.211 Y134.65 E39.00411
G1 X46.662 Y133.46 E39.10115
G1 X46.336 Y132.173 E39.19944
G1 X46.267 Y131.144 E39.2758
G1 X46.283 Y129.144 E39.42389
G1 X46.378 Y127.363 E39.55594
G1 X46.542 Y125.6 E39.68704
G1 X46.78 Y123.824 E39.81971
G1 X47.095 Y122.03 E39.95457
G1 X47.479 Y120.282 E40.08707
G1 X47.933 Y118.547 E40.21986
G1 X48.386 Y117.062 E40.33481
G1 X49.062 Y115.143 E40.48545
G1 X49.707 Y113.524 E40.61448
G1 X50.43 Y111.907 E40.74563
G1 X51.263 Y110.24 E40.88361
G1 X52.104 Y108.711 E41.01281
G1 X53.067 Y107.125 E41.15019
G1 X54.054 Y105.644 E41.28196
G1 X55.109 Y104.185 E41.41527
G1 X56.194 Y102.81 E41.54495
G1 X57.381 Y101.426 E41.67995
G1 X58.456 Y100.267 E41.79699
G1 X59.89 Y98.851 E41.9462
G1 X61.198 Y97.66 E42.07718
G1 X62.573 Y96.509 E42.20994
G1 X64.019 Y95.397 E42.345
G1 X65.458 Y94.383 E42.47534
G0 F4800 X65.811 Y94.929
G1 F1800 X67.27 Y93.984 E42.60404
G1 X68.245 Y93.406 E42.68796
G1 X68.546 Y93.191 E42.71535
G1 X84.051 Y83.614 E44.06468
G1 X85.352 Y83.186 E44.16608
G1 X86.698 Y83.077 E44.26606
G1 X87.79 Y83.243 E44.34784
G1 X122.166 Y62.015 E47.33922
G1 X123.482 Y61.253 E47.45181
G1 X124.818 Y60.562 E47.56318
G1 X126.276 Y59.9 E47.68174
G1 X127.727 Y59.328 E47.79721
G1 X129.237 Y58.816 E47.91527
G1 X130.66 Y58.412 E48.02479
G1 X132.304 Y58.031 E48.14974
G1 X133.835 Y57.758 E48.26488
G1 X135.131 Y57.589 E48.36165
G1 X136.96 Y57.445 E48.49749
G1 X138.511 Y57.406 E48.61236
G1 X139.816 Y57.432 E48.709
G1 X141.629 Y57.563 E48.84358
G1 X143.195 Y57.752 E48.96037
G1 X144.724 Y58.017 E49.07527
G1 X145.999 Y58.3 E49.17197
G1 X147.57 Y58.73 E49.29256
G1 X149.139 Y59.247 E49.41487
G1 X150.767 Y59.883 E49.54428
G1 X152.13 Y60.495 E49.65491
G1 X153.521 Y61.203 E49.77047
G1 X154.653 Y61.848 E49.86693
G1 X156.195 Y62.83 E50.00229
G1 X157.309 Y63.622 E50.10349
G1 X158.689 Y64.715 E50.23383
G1 X159.86 Y65.738 E50.34895
G1 X160.8 Y66.642 E50.44551
G1 X161.966 Y67.882 E50.57154
G1 X163.033 Y69.139 E50.69362
G1 X164.015 Y70.431 E50.81377
G1 X164.883 Y71.699 E50.92754
G1 X165.692 Y73.01 E51.0416
G1 X166.386 Y74.262 E51.14759
G1 X167.136 Y75.803 E51.27448
G1 X167.782 Y77.326 E51.39697
G1 X168.268 Y78.647 E51.50118
G1 X168.754 Y80.206 E51.62209
G1 X169.166 Y81.8 E51.74399
G1 X169.451 Y83.177 E51.8481
G1 X169.715 Y84.888 E51.97628
G1 X169.857 Y86.252 E52.07782
G1 X169.949 Y88.003 E52.20764
G1 X169.956 Y89.308 E52.30427
G1 X169.875 Y91.116 E52.43827
G1 X169.719 Y92.688 E52.55523
G1 X169.491 Y94.232 E52.67079
G1 X169.212 Y95.644 E52.77735
G1 X168.813 Y97.23 E52.89844
G1 X168.319 Y98.842 E53.02327
G1 X167.877 Y100.072 E53.12004
G1 X167.204 Y101.685 E53.24944
G1 X166.601 Y102.956 E53.3536
G1 X165.783 Y104.476 E53.4814
G1 X165.074 Y105.649 E53.58289
G1 X164.124 Y107.057 E53.70864
G1 X163.247 Y108.229 E53.81702
G1 X162.095 Y109.613 E53.95035
G1 X161.189 Y110.596 E54.04933
G1 X160.013 Y111.754 E54.17153
G1 X158.8 Y112.836 E54.29187
G1 X157.737 Y113.695 E54.39306
G1 X156.256 Y114.764 E54.5283
G1 X155.111 Y115.513 E54.6296
G1 X130.789 Y130.539 E56.74634
G1 X130.751 Y132.342 E56.87987
G1 X130.656 Y133.881 E56.99403
G1 X130.448 Y135.852 E57.14077
G1 X130.196 Y137.566 E57.26904
G1 X129.881 Y139.219 E57.39363
G1 X129.448 Y141.044 E57.53251
G1 X128.97 Y142.74 E57.66297
G1 X128.44 Y144.356 E57.78889
G1 X127.805 Y146.058 E57.92339
G1 X127.126 Y147.662 E58.05235
G1 X126.391 Y149.218 E58.17977
G1 X125.549 Y150.83 E58.31442
G1 X124.762 Y152.188 E58.43063
G1 X123.747 Y153.785 E58.57073
G1 X122.741 Y155.227 E58.70091
G1 X121.641 Y156.674 E58.83549
G1 X120.656 Y157.863 E58.94981
G1 X119.324 Y159.334 E59.09674
G1 X118.096 Y160.581 E59.22632
G1 X116.929 Y161.675 E59.34475
G1 X115.464 Y162.933 E59.48772
G1 X114.119 Y163.993 E59.61452
G1 X112.655 Y165.049 E59.74817
G1 X111.21 Y166.006 E59.87649
G1 X109.841 Y166.832 E59.99487
G1 X108.129 Y167.768 E60.13934
G1 X106.695 Y168.476 E60.25775
G1 X104.984 Y169.232 E60.39624
G1 X103.301 Y169.89 E60.53004
G1 X101.635 Y170.467 E60.66058
G1 X100.157 Y170.91 E60.77482
G1 X98.234 Y171.393 E60.92162
G1 X96.507 Y171.752 E61.05222
G1 X94.772 Y172.038 E61.18241
G1 X93.027 Y172.252 E61.31258
G1 X91.267 Y172.394 E61.44331
G1 X89.7 Y172.454 E61.55942
G1 X87.758 Y172.443 E61.70321
G1 X86.025 Y172.368 E61.83164
G1 X84.398 Y172.23 E61.95253
G1 X82.495 Y171.998 E62.09448
G1 X80.763 Y171.723 E62.22432
G1 X79.054 Y171.389 E62.35325
G1 X77.434 Y171.017 E62.47631
G1 X75.688 Y170.544 E62.61025
G1 X73.975 Y170.013 E62.74303
G1 X72.34 Y169.443 E62.87123
G1 X70.703 Y168.806 E63.00129
G1 X68.858 Y167.985 E63.15081
G1 X67.247 Y167.043 E63.28898
G1 X65.844 Y166.137 E63.41263
G1 X64.473 Y165.171 E63.53681
G1 X63.143 Y164.156 E63.66068
G1 X61.942 Y163.166 E63.77592
G1 X60.645 Y162.011 E63.90451
G1 X59.466 Y160.877 E64.02563
G1 X58.326 Y159.685 E64.14775
G1 X57.182 Y158.399 E64.27518
G1 X56.016 Y156.962 E64.4122
G1 X55.541 Y156.235 E64.4765
G1 X55.054 Y155.064 E64.5704
G1 X54.807 Y153.981 E64.65264
G1 X54.746 Y152.789 E64.74101
G1 X54.901 Y151.533 E64.83471
G1 X55.257 Y150.506 E64.91519
G1 X55.64 Y149.653 E64.98442
G1 X56.466 Y148.495 E65.08973
G1 X57.364 Y147.707 E65.17819
G1 X58.105 Y147.18 E65.24552
G1 X59.137 Y146.703 E65.32969
G1 X60.87 Y146.071 E65.46627
G1 X61.791 Y145.828 E65.53679
G1 X63.07 Y145.789 E65.63153
G1 X63.934 Y145.846 E65.69564
G1 X65.247 Y146.193 E65.7962
G1 X66.42 Y146.769 E65.89295
G1 X67.366 Y147.519 E65.98233
G1 X67.852 Y147.993 E66.0326
G1 X68.79 Y149.047 E66.13707
G1 X69.7 Y149.986 E66.23388
G1 X70.531 Y150.775 E66.31872
G1 X71.496 Y151.604 E66.41291
G1 X72.438 Y152.344 E66.50161
G1 X73.441 Y153.064 E66.59302
G1 X74.405 Y153.694 E66.67829
G1 X75.53 Y154.359 E66.77505
G1 X76.532 Y154.891 E66.85904
G1 X77.709 Y155.452 E66.95558
G1 X78.767 Y155.898 E67.04059
G1 X79.95 Y156.34 E67.13409
G1 X81.123 Y156.714 E67.22525
G1 X82.251 Y157.021 E67.3118
G1 X83.366 Y157.271 E67.39641
G1 X84.677 Y157.508 E67.49505
G1 X85.798 Y157.654 E67.57875
G1 X87.188 Y157.776 E67.68206
G1 X88.231 Y157.823 E67.75936
G1 X89.558 Y157.821 E67.85761
G1 X90.695 Y157.771 E67.94188
G1 X91.891 Y157.662 E68.0308
G1 X93.164 Y157.489 E68.12592
G1 X94.228 Y157.294 E68.20601
G1 X95.521 Y156.998 E68.30422
G1 X96.804 Y156.645 E68.40274
G1 X97.777 Y156.33 E68.47846
G1 X98.979 Y155.882 E68.57344
G1 X100.131 Y155.391 E68.66616
G1 X101.196 Y154.877 E68.75371
G1 X102.252 Y154.312 E68.84239
G1 X103.378 Y153.642 E68.9394
G1 X104.31 Y153.03 E69.02195
G1 X105.373 Y152.262 E69.11905
G1 X106.278 Y151.546 E69.20449
G1 X107.183 Y150.759 E69.29329
G1 X108.069 Y149.919 E69.38368
G1 X108.958 Y148.994 E69.47867
G1 X109.771 Y148.072 E69.56968
G1 X110.508 Y147.156 E69.65673
G1 X111.181 Y146.237 E69.74107
G1 X111.959 Y145.07 E69.84491
G1 X112.51 Y144.159 E69.92374
G1 X113.092 Y143.094 E70.0136
G1 X113.675 Y141.901 E70.11191
G1 X114.108 Y140.902 E70.19253
G1 X114.552 Y139.742 E70.28449
G1 X114.967 Y138.499 E70.38152
G1 X115.263 Y137.456 E70.46179
G1 X115.557 Y136.199 E70.55737
G1 X115.802 Y134.914 E70.65423
G1 X115.949 Y133.891 E70.73075
G1 X116.09 Y132.474 E70.83618
G1 X116.143 Y131.41 E70.91506
G1 X116.157 Y130.29 E70.99799
G1 X116.105 Y128.825 E71.10652
G1 X116.039 Y127.946 E71.17179
G1 X115.981 Y127.334 E71.2173
G1 X115.947 Y126.374 E71.28843
G1 X116.04 Y125.098 E71.38315
G1 X116.278 Y123.857 E71.47671
G1 X116.61 Y122.773 E71.56065
G1 X116.822 Y122.249 E71.6025
G1 X128.985 Y96.155 E73.73408
G1 X89.669 Y103.084 E76.68989
G1 X89.167 Y103.156 E76.72744
G1 X88.894 Y103.183 E76.74775
G1 X87.187 Y103.264 E76.87428
G1 X85.891 Y103.376 E76.97059
G1 X84.655 Y103.536 E77.06287
G1 X83.651 Y103.71 E77.13832
G1 X82.567 Y103.945 E77.22044
G1 X81.266 Y104.286 E77.32002
G1 X80.266 Y104.595 E77.39751
