;FLAVOR:Marlin
;TIME:2922
;Filament used: 8.50933m
;Layer height: 0.3
;MINX:83.082
;MINY:54.395
;MINZ:0.28
;MAXX:174.121
;MAXY:191.84
;MAXZ:20.18
;ZOFFSETPROCESSED
;Generated with Cura_SteamEngine 5.4.0
M140 S60
M105
M190 S60
M104 S215
M105
M109 S215
M82 ;absolute extrusion mode
START_PRINT
G92 E0
G92 E0
G1 F300 E-0.5
;LAYER_COUNT:66
;LAYER:0
M107
M204 S1800
G1 F600 Z3.68 ;adjusted by z offset
G92 Z0.68 ;consider this the original z before offset
;MESH:kobalt-router-mount-vac-top-hub.stl
G0 F4800 X123.197 Y111.025 Z0.68
;TYPE:WALL-INNER
G1 F600 Z0.28
G1 F120 E0
G1 F1722.5 X122.698 Y111.042 E0.03491
G1 F1719.7 X122.28 Y111.039 E0.06418
G1 X121.806 Y111.019 E0.0974
G1 F1717 X121.346 Y110.986 E0.12975
G1 F1719.7 X120.841 Y110.923 E0.16539
G1 F1722.5 X120.385 Y110.851 E0.19767
G1 X119.931 Y110.763 E0.23
G1 X119.476 Y110.654 E0.26271
G1 F1728 X119.042 Y110.535 E0.29407
G1 X118.502 Y110.364 E0.33355
G1 F1725.2 X117.71 Y110.057 E0.39284
G1 F1728 X117.227 Y109.84 E0.42975
G1 F1733.5 X116.437 Y109.43 E0.49158
G1 X116.086 Y109.212 E0.52028
G1 X115.758 Y109.745 E0.56376
G1 X115.944 Y109.862 E0.57903
G1 X116.335 Y110.083 E0.61023
G1 X116.969 Y110.407 E0.65969
G1 F1728 X117.472 Y110.636 E0.69821
G1 F1719.7 X117.884 Y110.801 E0.72929
G1 F1722.5 X118.353 Y110.973 E0.76422
G1 F1725.2 X119.046 Y111.188 E0.81486
G1 F1722.5 X119.33 Y111.265 E0.83544
G1 F1719.7 X120.048 Y111.428 E0.887
G1 F1717 X120.568 Y111.519 E0.92402
G1 X121.156 Y111.597 E0.96563
G1 F1714.3 X121.62 Y111.636 E0.99834
G1 F1717 X122.163 Y111.664 E1.03648
G1 F1719.7 X122.706 Y111.67 E1.0745
G1 F1722.5 X123.276 Y111.648 E1.11438
G1 X124.121 Y111.573 E1.1737
G1 X124.869 Y111.458 E1.22661
G1 F1725.2 X125.607 Y111.304 E1.27923
G1 F1728 X126.231 Y111.132 E1.32434
G1 F1730.8 X126.979 Y110.885 E1.37916
G1 F1741.9 X127.916 Y110.501 E1.44917
G1 F1747.6 X128.476 Y110.228 E1.4921
G1 F1753.2 X129.121 Y109.871 E1.54274
G1 F1764.7 X129.795 Y109.444 E1.59719
G1 F1770.5 X130.319 Y109.068 E1.64106
G1 F1779.2 X130.932 Y108.58 E1.69409
G1 F1791 X131.608 Y107.961 E1.75572
G1 F1797 X132.118 Y107.434 E1.80487
G1 F1803 X132.607 Y106.863 E1.85509
G1 F1815.1 X133.147 Y106.144 E1.91475
G1 F1827.4 X133.497 Y105.616 E1.95649
G1 F1833.6 X133.9 Y104.925 E2.00903
G1 F1846.2 X134.263 Y104.21 E2.06134
G1 F1865.3 X134.569 Y103.502 E2.11114
G1 F1875 X134.827 Y102.793 E2.1596
G1 F1881.5 X135.059 Y102.019 E2.21132
G1 F1891.4 X135.236 Y101.268 E2.26044
G1 F1904.8 X135.358 Y100.566 E2.30549
G1 F1914.9 X135.45 Y99.734 E2.35814
G1 F1925.1 X135.487 Y99.065 E2.40005
G1 F1932 X135.494 Y98.746 E2.41994
G1 X135.482 Y98.201 E2.45392
G1 F1945.9 X135.427 Y97.419 E2.50244
G1 F1956.5 X135.32 Y96.598 E2.5534
G1 F1967.2 X135.18 Y95.893 E2.5974
G1 F1981.7 X134.988 Y95.136 E2.64486
G1 F1992.6 X134.796 Y94.526 E2.68352
G1 F1996.3 X134.686 Y94.216 E2.70336
G1 F2003.7 X134.405 Y93.521 E2.74842
G1 F2011.2 X134.093 Y92.851 E2.79267
G1 F2014.9 X133.741 Y92.202 E2.8368
G1 F2022.5 X133.357 Y91.583 E2.88018
G1 F2033.9 X132.938 Y90.989 E2.92322
G1 F2049.3 X132.501 Y90.436 E2.96464
G1 F2065 X131.902 Y89.765 E3.01709
G1 F2076.9 X131.295 Y89.174 E3.06622
G1 F2084.9 X130.894 Y88.821 E3.09708
G1 F2093 X130.185 Y88.263 E3.14899
G1 F2097.1 X129.468 Y87.774 E3.19883
G1 F2105.3 X128.972 Y87.473 E3.23202
G1 X128.269 Y87.096 E3.27765
G1 F2101.2 X127.552 Y86.766 E3.32289
G1 F2097.1 X126.748 Y86.459 E3.37232
G1 F2093 X125.987 Y86.222 E3.41818
G1 F2097.1 X125.226 Y86.038 E3.46314
G1 F2101.2 X124.575 Y85.918 E3.50108
G1 F2105.3 X123.72 Y85.81 E3.55038
G1 X122.913 Y85.765 E3.59661
G1 F2109.4 X122.188 Y85.766 E3.63801
G1 X121.469 Y85.806 E3.67912
G1 F2105.3 X120.65 Y85.9 E3.72628
G1 F2101.2 X119.932 Y86.027 E3.76807
G1 F2097.1 X119.09 Y86.231 E3.81782
G1 F2093 X118.362 Y86.455 E3.86165
G1 F2084.9 X117.739 Y86.686 E3.90003
G1 F2076.9 X116.947 Y87.033 E3.95017
G1 F2072.9 X116.265 Y87.387 E3.99481
G1 F2065 X115.579 Y87.796 E4.04139
G1 F2061.1 X114.931 Y88.236 E4.08715
G1 F2053.2 X114.407 Y88.64 E4.12596
G1 F2045.5 X113.789 Y89.171 E4.17393
G1 F2033.9 X113.423 Y89.521 E4.20392
G1 F2026.3 X112.985 Y89.977 E4.2415
G1 F2014.9 X112.569 Y90.456 E4.27942
G1 X112.152 Y90.993 E4.32006
G1 F2007.4 X111.851 Y91.411 E4.35096
G1 F2000 X111.53 Y91.911 E4.38674
G1 X112.009 Y92.162 E4.4193
G1 X112.299 Y91.709 E4.45169
G1 F2011.2 X112.591 Y91.3 E4.48178
G1 F2018.7 X112.865 Y90.943 E4.50863
G1 F2022.5 X113.167 Y90.578 E4.53684
G1 F2030.1 X113.449 Y90.26 E4.56205
G1 X113.799 Y89.895 E4.59205
G1 F2033.9 X114.148 Y89.56 E4.62069
G1 F2049.3 X114.487 Y89.259 E4.64733
G1 F2061.1 X114.857 Y88.952 E4.67543
G1 X115.236 Y88.663 E4.70328
G1 F2065 X115.597 Y88.409 E4.72902
G1 F2076.9 X116.375 Y87.923 E4.78221
G1 F2084.9 X116.834 Y87.672 E4.81243
G1 F2080.9 X117.225 Y87.476 E4.83774
G1 F2084.9 X117.652 Y87.282 E4.86483
G1 F2093 X118.113 Y87.097 E4.89341
G1 X118.554 Y86.934 E4.92046
G1 F2101.2 X118.996 Y86.795 E4.94702
G1 F2109.4 X119.451 Y86.667 E4.97401
G1 X119.903 Y86.559 E5.00054
G1 F2113.5 X120.357 Y86.469 E5.02691
G1 X120.794 Y86.397 E5.05215
G1 X121.304 Y86.337 E5.08141
G1 F2117.6 X121.751 Y86.297 E5.10693
G1 F2113.5 X122.216 Y86.277 E5.13345
G1 X122.701 Y86.274 E5.16109
G1 F2117.6 X123.17 Y86.289 E5.18778
G1 F2109.4 X123.678 Y86.322 E5.21684
G1 F2105.3 X124.53 Y86.43 E5.26597
G1 X125.045 Y86.524 E5.29591
G1 F2109.4 X125.997 Y86.757 E5.35187
G1 F2113.5 X126.788 Y87.018 E5.39933
G1 F2109.4 X127.247 Y87.195 E5.42742
G1 F2113.5 X127.698 Y87.393 E5.45549
G1 F2109.4 X128.05 Y87.56 E5.47773
G1 F2113.5 X128.516 Y87.803 E5.50768
G1 F2121.8 X128.933 Y88.042 E5.53496
G1 F2113.5 X129.345 Y88.305 E5.56281
G1 F2101.2 X129.883 Y88.68 E5.6004
G1 X130.442 Y89.113 E5.64092
G1 X130.78 Y89.406 E5.66656
G1 F2097.1 X131.169 Y89.767 E5.69704
G1 F2089 X131.505 Y90.102 E5.72439
G1 F2080.9 X131.799 Y90.422 E5.74954
G1 F2069 X132.105 Y90.779 E5.77691
G1 F2057.1 X132.398 Y91.149 E5.80454
G1 X132.682 Y91.534 E5.83255
G1 F2041.6 X132.956 Y91.942 E5.86154
G1 F2030.1 X133.199 Y92.334 E5.8889
G1 X133.435 Y92.75 E5.91727
G1 F2026.3 X133.633 Y93.127 E5.94258
G1 F2018.7 X133.849 Y93.589 E5.97301
G1 X134.038 Y94.032 E6.00174
G1 F2014.9 X134.197 Y94.442 E6.02802
G1 F2003.7 X134.354 Y94.912 E6.05781
G1 F1996.3 X134.487 Y95.355 E6.08571
G1 F1989 X134.697 Y96.243 E6.14096
G1 F1970.8 X134.779 Y96.704 E6.16957
G1 F1967.2 X134.844 Y97.168 E6.19826
G1 X134.895 Y97.656 E6.22829
G1 F1956.5 X134.922 Y98.142 E6.25826
G1 F1942.4 X134.934 Y98.569 E6.28474
G1 F1932 X134.925 Y99.117 E6.3189
G1 F1928.6 X134.906 Y99.466 E6.34073
G1 F1932 X134.861 Y100.001 E6.3742
G1 F1921.7 X134.8 Y100.472 E6.40396
G1 F1911.5 X134.719 Y100.947 E6.43432
G1 X134.629 Y101.387 E6.46261
G1 F1901.4 X134.533 Y101.774 E6.48787
G1 F1894.7 X134.375 Y102.323 E6.52418
G1 F1888.1 X134.232 Y102.758 E6.55338
G1 F1881.5 X134.065 Y103.21 E6.58423
G1 F1878.3 X133.899 Y103.609 E6.61194
G1 F1871.8 X133.691 Y104.063 E6.64407
G1 F1862.1 X133.236 Y104.915 E6.70654
G1 F1846.2 X132.994 Y105.311 E6.73681
G1 F1833.6 X132.748 Y105.682 E6.76605
G1 X132.497 Y106.035 E6.79449
G1 F1824.3 X132.183 Y106.439 E6.82827
G1 F1815.1 X131.888 Y106.792 E6.85879
G1 F1812.1 X131.557 Y107.158 E6.89159
G1 F1800 X131.186 Y107.533 E6.92688
G1 F1791 X130.532 Y108.127 E6.98629
G1 F1788.1 X130.178 Y108.412 E7.0169
G1 F1782.2 X129.806 Y108.694 E7.04844
G1 F1773.4 X129.444 Y108.946 E7.0784
G1 F1770.5 X129.01 Y109.221 E7.11335
G1 F1767.6 X128.608 Y109.459 E7.14517
G1 F1759 X128.167 Y109.693 E7.17936
G1 F1750.4 X127.754 Y109.895 E7.21099
G1 F1756.1 X127.325 Y110.084 E7.24314
G1 X126.886 Y110.259 E7.27555
G1 F1747.6 X126.382 Y110.435 E7.31234
G1 F1741.9 X125.568 Y110.671 E7.37093
G1 F1739.1 X125 Y110.801 E7.41128
G1 F1736.3 X124.179 Y110.934 E7.46896
G1 F1733.5 X123.677 Y110.989 E7.50405
G1 F1728 X123.197 Y111.025 E7.53759
G0 F4800 X123.174 Y110.412
;TYPE:WALL-OUTER
G1 F1800 X122.736 Y110.428 E7.56692
G1 X122.305 Y110.425 E7.59576
G1 X121.852 Y110.407 E7.62609
G1 X121.388 Y110.372 E7.65722
G1 X120.935 Y110.317 E7.68775
G1 X120.504 Y110.25 E7.71693
G1 X120.062 Y110.163 E7.74707
G1 X119.638 Y110.063 E7.77622
G1 X119.193 Y109.941 E7.80709
G1 X118.708 Y109.786 E7.84116
G1 X117.935 Y109.487 E7.89661
G1 X117.499 Y109.291 E7.92859
G1 X117.135 Y109.111 E7.95576
G1 X116.726 Y108.891 E7.98683
G1 X115.891 Y108.365 E8.05286
G1 X114.924 Y109.931 E8.176
G1 X115.158 Y110.091 E8.19497
G1 X115.643 Y110.394 E8.23323
G1 X116.061 Y110.629 E8.26531
G1 X116.714 Y110.964 E8.31441
G1 X117.239 Y111.201 E8.35295
G1 X117.672 Y111.378 E8.38425
G1 X118.147 Y111.551 E8.41807
G1 X118.87 Y111.777 E8.46875
G1 X119.357 Y111.903 E8.50241
G1 X119.921 Y112.029 E8.54108
G1 X120.485 Y112.127 E8.57938
G1 X121.088 Y112.209 E8.62009
G1 X121.59 Y112.251 E8.6538
G1 X122.139 Y112.278 E8.69057
G1 X122.726 Y112.284 E8.72985
G1 X123.252 Y112.266 E8.76506
G1 X124.185 Y112.184 E8.82772
G1 X124.994 Y112.059 E8.88249
G1 X125.741 Y111.902 E8.93356
G1 X126.4 Y111.722 E8.97927
G1 X127.182 Y111.463 E9.03438
G1 X128.157 Y111.061 E9.10494
G1 X128.725 Y110.785 E9.1472
G1 X129.4 Y110.411 E9.19883
G1 X130.127 Y109.951 E9.25639
G1 X130.659 Y109.571 E9.30013
G1 X131.317 Y109.043 E9.35657
G1 X132.022 Y108.398 E9.4205
G1 X132.562 Y107.838 E9.47255
G1 X133.069 Y107.245 E9.52475
G1 X133.631 Y106.495 E9.58746
G1 X134.01 Y105.916 E9.63376
G1 X134.419 Y105.217 E9.68794
G1 X134.805 Y104.444 E9.74575
G1 X135.123 Y103.704 E9.79964
G1 X135.383 Y102.985 E9.85079
G1 X135.624 Y102.178 E9.90714
G1 X135.808 Y101.392 E9.96115
G1 X135.943 Y100.602 E10.01477
G1 X136.031 Y99.789 E10.06948
G1 X136.065 Y99.121 E10.11423
G1 X136.074 Y98.76 E10.13839
G1 X136.06 Y98.16 E10.17855
G1 X136.002 Y97.369 E10.23161
G1 X135.895 Y96.542 E10.2874
G1 X135.736 Y95.751 E10.34139
G1 X135.54 Y94.986 E10.39422
G1 X135.334 Y94.333 E10.44003
G1 X135.214 Y94.003 E10.46353
G1 X134.93 Y93.299 E10.51432
G1 X134.604 Y92.602 E10.5658
G1 X134.235 Y91.923 E10.6175
G1 X133.833 Y91.276 E10.66847
G1 X133.395 Y90.656 E10.71925
G1 X132.937 Y90.078 E10.7686
G1 X132.306 Y89.377 E10.8317
G1 X131.68 Y88.768 E10.89013
G1 X131.256 Y88.396 E10.92787
G1 X130.523 Y87.818 E10.99032
G1 X129.775 Y87.308 E11.0509
G1 X129.254 Y86.992 E11.09166
G1 X128.524 Y86.6 E11.1471
G1 X127.777 Y86.255 E11.20215
G1 X126.94 Y85.933 E11.26215
G1 X126.144 Y85.685 E11.31794
G1 X125.348 Y85.493 E11.37272
G1 X124.66 Y85.367 E11.41952
G1 X123.779 Y85.256 E11.47893
G1 X122.935 Y85.209 E11.53548
G1 X122.158 Y85.21 E11.58747
G1 X121.406 Y85.253 E11.63786
G1 X120.555 Y85.352 E11.69519
G1 X119.802 Y85.485 E11.74635
G1 X118.951 Y85.69 E11.80491
G1 X118.169 Y85.93 E11.85964
G1 X117.536 Y86.164 E11.90479
G1 X116.69 Y86.535 E11.9666
G1 X115.979 Y86.904 E12.02019
G1 X115.284 Y87.317 E12.07428
G1 X114.602 Y87.78 E12.12943
G1 X114.041 Y88.211 E12.17677
G1 X113.399 Y88.762 E12.23337
G1 X113.028 Y89.115 E12.26763
G1 X112.571 Y89.589 E12.31169
G1 X112.124 Y90.103 E12.35726
G1 X111.845 Y90.456 E12.38736
G1 X111.456 Y90.981 E12.43108
G1 X111.121 Y91.486 E12.47163
G1 X110.732 Y92.139 E12.52248
G1 X112.228 Y92.919 E12.63536
G1 X112.525 Y92.411 E12.67473
G1 X112.778 Y92.019 E12.70595
G1 X113.041 Y91.645 E12.73654
G1 X113.304 Y91.303 E12.7654
G1 X113.59 Y90.954 E12.79559
G1 X113.88 Y90.629 E12.82473
G1 X114.194 Y90.301 E12.85511
G1 X114.525 Y89.98 E12.88596
G1 X114.847 Y89.691 E12.91491
G1 X115.198 Y89.399 E12.94546
G1 X115.561 Y89.122 E12.97601
G1 X115.919 Y88.869 E13.00534
G1 X116.302 Y88.622 E13.03583
G1 X116.676 Y88.395 E13.0651
G1 X117.083 Y88.173 E13.09612
G1 X117.483 Y87.974 E13.12601
G1 X117.885 Y87.79 E13.15559
G1 X118.307 Y87.62 E13.18603
G1 X118.725 Y87.466 E13.21583
G1 X119.149 Y87.33 E13.24562
G1 X119.579 Y87.208 E13.27553
G1 X120.014 Y87.104 E13.30545
G1 X120.445 Y87.017 E13.33487
G1 X120.896 Y86.944 E13.36544
G1 X121.343 Y86.89 E13.39556
G1 X121.787 Y86.852 E13.42538
G1 X122.245 Y86.833 E13.45605
G1 X122.684 Y86.829 E13.48542
G1 X123.134 Y86.843 E13.51554
G1 X123.617 Y86.875 E13.54793
G1 X124.464 Y86.983 E13.60506
G1 X124.913 Y87.065 E13.63559
G1 X125.836 Y87.29 E13.69916
G1 X126.63 Y87.552 E13.7551
G1 X127.054 Y87.718 E13.78556
G1 X127.453 Y87.89 E13.81463
G1 X127.864 Y88.09 E13.84521
G1 X128.261 Y88.298 E13.8752
G1 X128.648 Y88.521 E13.90508
G1 X129.032 Y88.765 E13.93552
G1 X129.407 Y89.02 E13.96586
G1 X130.097 Y89.55 E14.02408
G1 X130.769 Y90.154 E14.08453
G1 X131.108 Y90.5 E14.11694
G1 X131.386 Y90.804 E14.1445
G1 X131.664 Y91.128 E14.17306
G1 X131.964 Y91.508 E14.20545
G1 X132.226 Y91.867 E14.23519
G1 X132.475 Y92.24 E14.2652
G1 X132.707 Y92.613 E14.29458
G1 X132.933 Y93.012 E14.32527
G1 X133.136 Y93.402 E14.35468
G1 X133.327 Y93.813 E14.385
G1 X133.507 Y94.233 E14.41558
G1 X133.662 Y94.642 E14.44484
G1 X133.808 Y95.077 E14.47554
G1 X133.933 Y95.493 E14.5046
G1 X134.041 Y95.926 E14.53446
G1 X134.135 Y96.356 E14.56391
G1 X134.214 Y96.812 E14.59487
G1 X134.275 Y97.252 E14.62459
G1 X134.32 Y97.704 E14.65498
G1 X134.345 Y98.157 E14.68534
G1 X134.355 Y98.598 E14.71485
G1 X134.346 Y99.086 E14.74751
G1 X134.328 Y99.416 E14.76962
G1 X134.282 Y99.945 E14.80514
G1 X134.225 Y100.375 E14.83417
G1 X134.149 Y100.827 E14.86483
G1 X134.058 Y101.256 E14.89417
G1 X133.969 Y101.614 E14.91885
G1 X133.82 Y102.139 E14.95537
G1 X133.683 Y102.553 E14.98454
G1 X133.523 Y102.983 E15.01524
G1 X133.354 Y103.383 E15.04429
G1 X133.159 Y103.805 E15.0754
G1 X132.72 Y104.622 E15.13745
G1 X132.499 Y104.982 E15.16571
G1 X132.02 Y105.679 E15.22229
G1 X131.723 Y106.056 E15.25441
G1 X131.426 Y106.411 E15.28537
G1 X131.122 Y106.744 E15.31554
G1 X130.815 Y107.056 E15.34483
G1 X130.479 Y107.372 E15.37569
G1 X130.155 Y107.657 E15.40456
G1 X129.816 Y107.93 E15.43368
G1 X129.454 Y108.202 E15.46397
G1 X129.069 Y108.468 E15.49528
G1 X128.703 Y108.699 E15.52424
G1 X128.307 Y108.932 E15.55498
G1 X127.507 Y109.339 E15.61503
G1 X127.093 Y109.523 E15.64534
G1 X126.687 Y109.683 E15.67454
G1 X126.189 Y109.856 E15.70981
G1 X125.394 Y110.083 E15.76513
G1 X124.874 Y110.203 E15.80083
G1 X124.069 Y110.331 E15.85537
G1 X123.634 Y110.38 E15.88466
G1 X123.174 Y110.412 E15.91551
G0 F4800 X122.974 Y110.419
G1 F300 E15.41551
G1 F600 Z0.68
;MESH:kobalt-router-mount-vac-top-top.stl
G0 F4800 X148.873 Y169.097 Z0.68
;TYPE:WALL-INNER
G1 F600 Z0.28
G1 F120 E15.91551
G1 F1803 X149.029 Y169.614 E15.95158
G1 F1891.4 X148.967 Y170.143 E15.98549
G1 F1960.1 X148.73 Y171.009 E16.04066
G1 F1974.4 X148.523 Y171.701 E16.08471
G1 F1970.8 X148.007 Y173.093 E16.17543
G1 X147.685 Y173.899 E16.22847
G1 F1963.6 X147.108 Y175.104 E16.31041
G1 X146.645 Y176.022 E16.37347
G1 X146.044 Y177.032 E16.44555
G1 X145.415 Y178.039 E16.51836
G1 F1960.1 X144.817 Y178.861 E16.58082
G1 X143.994 Y179.944 E16.66439
G1 X143.431 Y180.587 E16.71691
G1 X142.417 Y181.699 E16.80937
G1 F1963.6 X141.922 Y182.17 E16.85127
G1 F1956.5 X140.681 Y183.301 E16.95463
G1 F1960.1 X140.265 Y183.633 E16.98733
G1 F1956.5 X138.816 Y184.729 E17.09916
G1 F1960.1 X138.504 Y184.935 E17.12213
G1 F1953 X136.818 Y185.983 E17.24455
G1 F1956.5 X136.62 Y186.092 E17.25846
G1 F1953 X134.722 Y187.046 E17.38945
G1 F1956.5 X132.553 Y187.899 E17.53291
G1 F1939 X130.49 Y188.503 E17.66643
G1 F1949.5 X130.118 Y188.597 E17.69013
G1 F1945.9 X128.361 Y188.936 E17.80087
G1 F1949.5 X127.821 Y189.025 E17.83468
G1 F1945.9 X126.145 Y189.194 E17.93893
G1 X125.587 Y189.239 E17.97358
G1 F1942.4 X123.961 Y189.256 E18.07439
G1 F1945.9 X123.129 Y189.244 E18.12589
G1 X121.763 Y189.128 E18.21073
G1 X120.798 Y189.025 E18.27079
G1 F1942.4 X119.601 Y188.815 E18.34614
G1 X118.505 Y188.597 E18.41542
G1 F1953 X117.433 Y188.305 E18.48394
G1 F1918.3 X117.1 Y188.792 E18.52097
G1 X117.348 Y188.873 E18.53735
G1 F1953 X118.381 Y189.125 E18.60292
G1 F1942.4 X119.509 Y189.375 E18.67455
G1 X120.722 Y189.563 E18.75066
G1 F1945.9 X121.709 Y189.693 E18.81227
G1 X123.099 Y189.786 E18.89848
G1 X123.969 Y189.822 E18.95237
G1 X125.506 Y189.788 E19.04752
G1 X126.204 Y189.756 E19.09076
G1 F1942.4 X127.918 Y189.564 E19.19769
G1 F1945.9 X128.469 Y189.489 E19.23211
G1 F1942.4 X130.252 Y189.13 E19.34487
G1 F1949.5 X130.646 Y189.04 E19.36984
G1 F1939 X132.733 Y188.423 E19.50501
G1 F1949.5 X134.88 Y187.581 E19.64748
G1 X136.888 Y186.577 E19.78616
G1 F1939 X138.816 Y185.395 E19.92663
