;FLAVOR:Marlin
;TIME:5496
;Filament used: 12.2942m
;Layer height: 0.3
;MINX:53.845
;MINY:85.521
;MINZ:0.28
;MAXX:186.254
;MAXY:182.72
;MAXZ:23.18
;POSTPROCESSED
;Generated with Cura_SteamEngine 5.4.0
M140 S60
M105
M190 S60
M104 S215
M105
M109 S215
M82 ;absolute extrusion mode
START_PRINT
G92 E0
G92 E0
G1 F300 E-0.5
;LAYER_COUNT:76
;LAYER:0
M107
M204 S1800
G1 F600 Z0.68
;MESH:kobalt-router-mount-vac-top.stl
G0 F4800 X82.568 Y163.059 Z0.68
;TYPE:WALL-INNER
G1 F600 Z0.28
G1 F120 E0
G1 F1800 X80.246 Y162.981 E0.15544
G1 X77.895 Y162.668 E0.31413
G1 X75.651 Y162.146 E0.46827
G1 X73.402 Y161.388 E0.62706
G1 X71.343 Y160.47 E0.77789
G1 X69.335 Y159.33 E0.93238
G1 X67.439 Y158.001 E1.08729
G1 X65.691 Y156.506 E1.24118
G1 X64.086 Y154.842 E1.39586
G1 X62.643 Y153.024 E1.55115
G1 X61.347 Y151.018 E1.71094
G1 X60.275 Y148.925 E1.86827
G1 X59.435 Y146.81 E2.02053
G1 X58.792 Y144.57 E2.17645
G1 X58.369 Y142.296 E2.33121
G1 X58.167 Y140.015 E2.48442
G1 X58.188 Y137.698 E2.63944
G1 X58.43 Y135.407 E2.79358
G1 X58.896 Y133.129 E2.94914
G1 X59.614 Y130.813 E3.11137
G1 X60.513 Y128.689 E3.26569
G1 X61.593 Y126.687 E3.41788
G1 X62.889 Y124.755 E3.57353
G1 X64.361 Y122.97 E3.72833
G1 X65.994 Y121.333 E3.88303
G1 X67.774 Y119.864 E4.03744
G1 X69.686 Y118.573 E4.19179
G1 X71.782 Y117.435 E4.35137
G1 X73.921 Y116.531 E4.50673
G1 X76.175 Y115.829 E4.66468
G1 X78.44 Y115.358 E4.81947
G1 X80.735 Y115.103 E4.97396
G1 X83.12 Y115.075 E5.13354
G1 X85.371 Y115.262 E5.28466
G1 X87.657 Y115.674 E5.44008
G1 X89.906 Y116.309 E5.59643
G1 X92.07 Y117.149 E5.75174
G1 X94.141 Y118.195 E5.90697
G1 X96.1 Y119.436 E6.06213
G1 X97.943 Y120.867 E6.21824
G1 X99.631 Y122.461 E6.37357
G1 X101.202 Y124.277 E6.53423
G1 X102.502 Y126.097 E6.68387
G1 X103.666 Y128.118 E6.83991
G1 X104.625 Y130.23 E6.9951
G1 X105.369 Y132.405 E7.1489
G1 X105.905 Y134.66 E7.30397
G1 X106.226 Y137.015 E7.46299
G1 X106.31 Y139.278 E7.61451
G1 X106.176 Y141.601 E7.77019
G1 X105.816 Y143.899 E7.92581
G1 X105.236 Y146.15 E8.08133
G1 X104.439 Y148.337 E8.23707
G1 X103.476 Y150.355 E8.38667
G1 X102.238 Y152.416 E8.54753
G1 X100.855 Y154.275 E8.70255
G1 X99.294 Y155.998 E8.85811
G1 X97.573 Y157.558 E9.01351
G1 X95.716 Y158.943 E9.16851
G1 X93.711 Y160.158 E9.32536
G1 X91.621 Y161.162 E9.48049
G1 X89.441 Y161.961 E9.63584
G1 X87.159 Y162.552 E9.79355
G1 X84.899 Y162.915 E9.9467
G1 X82.568 Y163.059 E10.10295
G0 F4800 X82.603 Y162.456
G1 F1800 X80.252 Y162.376 E10.26034
G1 X78.017 Y162.081 E10.41117
G1 X75.798 Y161.563 E10.56363
G1 X73.678 Y160.853 E10.71321
G1 X71.614 Y159.934 E10.86437
G1 X69.65 Y158.819 E11.01547
G1 X67.798 Y157.52 E11.16682
G1 X66.09 Y156.058 E11.31725
G1 X64.523 Y154.431 E11.46838
G1 X63.118 Y152.657 E11.61979
G1 X61.894 Y150.76 E11.77083
G1 X60.853 Y148.744 E11.92264
G1 X59.991 Y146.573 E12.07892
G1 X59.376 Y144.433 E12.22789
G1 X58.963 Y142.211 E12.3791
G1 X58.767 Y139.981 E12.52888
G1 X58.788 Y137.717 E12.68036
G1 X59.038 Y135.404 E12.83601
G1 X59.481 Y133.263 E12.98229
G1 X60.177 Y131.023 E13.13923
G1 X61.058 Y128.941 E13.29049
G1 X62.087 Y127.034 E13.43546
G1 X63.399 Y125.081 E13.59288
G1 X64.808 Y123.371 E13.74112
G1 X66.404 Y121.772 E13.89228
G1 X68.145 Y120.336 E14.04327
G1 X70.077 Y119.038 E14.199
G1 X72.073 Y117.962 E14.35071
G1 X74.082 Y117.113 E14.49663
G1 X76.334 Y116.408 E14.65451
G1 X78.468 Y115.961 E14.80039
G1 X80.768 Y115.703 E14.95524
G1 X83.071 Y115.673 E15.10933
G1 X85.338 Y115.865 E15.26155
G1 X87.568 Y116.272 E15.41322
G1 X89.754 Y116.893 E15.56526
G1 X91.779 Y117.679 E15.71059
G1 X93.885 Y118.743 E15.86846
G1 X95.719 Y119.905 E16.01372
G1 X97.522 Y121.3 E16.16624
G1 X99.225 Y122.908 E16.32295
G1 X100.714 Y124.626 E16.47506
G1 X101.975 Y126.391 E16.62019
G1 X103.149 Y128.429 E16.77755
G1 X104.067 Y130.451 E16.92612
G1 X104.793 Y132.576 E17.07636
G1 X105.316 Y134.775 E17.22759
G1 X105.628 Y137.082 E17.38335
G1 X105.71 Y139.277 E17.53031
G1 X105.579 Y141.544 E17.68224
G1 X105.229 Y143.777 E17.83346
G1 X104.648 Y146.015 E17.98816
G1 X103.886 Y148.105 E18.137
G1 X102.893 Y150.173 E18.29048
G1 X101.716 Y152.113 E18.4423
G1 X100.362 Y153.926 E18.5937
G1 X98.899 Y155.541 E18.73949
G1 X97.221 Y157.067 E18.89124
G1 X95.342 Y158.468 E19.04806
G1 X93.391 Y159.646 E19.20054
G1 X91.345 Y160.624 E19.35226
G1 X89.22 Y161.399 E19.5036
G1 X87.026 Y161.966 E19.65521
G1 X84.79 Y162.32 E19.80668
G1 X82.603 Y162.456 E19.95328
G1 F300 E19.45328
G1 F600 Z0.68
G0 F4800 X128.37 Y166.309 Z0.68
G1 F600 Z0.28
G1 F120 E19.95328
G1 F1800 X128.188 Y166.828 E19.99008
G1 X138.633 Y172.844 E20.79654
G1 X143.408 Y164.93 E21.41494
G1 X143.568 Y164.745 E21.43131
G1 X143.717 Y164.613 E21.44463
G1 X143.967 Y164.447 E21.4647
G1 X144.298 Y164.333 E21.48813
G1 X144.544 Y164.301 E21.50472
G1 X147.325 Y164.274 E21.6908
G1 X149.98 Y164.053 E21.86905
G1 X152.596 Y163.639 E22.04625
G1 X155.175 Y163.037 E22.22344
G1 X157.715 Y162.243 E22.40149
G1 X160.179 Y161.268 E22.57878
G1 X162.585 Y160.106 E22.75755
G1 X164.814 Y158.819 E22.92975
G1 X167.068 Y157.289 E23.11202
G1 X169.099 Y155.679 E23.28542
G1 X171.097 Y153.839 E23.46715
G1 X172.892 Y151.923 E23.64281
G1 X174.529 Y149.896 E23.81713
G1 X176.007 Y147.774 E23.99015
G1 X177.455 Y145.311 E24.1813
G1 X178.596 Y142.975 E24.35524
G1 X179.578 Y140.534 E24.53128
G1 X180.373 Y138.042 E24.70629
G1 X180.788 Y136.319 E24.82486
G1 X180.667 Y136.188 E24.8368
G1 X180.252 Y135.601 E24.88489
G1 X180.129 Y135.392 E24.90112
G1 X179.784 Y134.517 E24.96405
G1 X179.733 Y134.285 E24.97994
G1 X179.631 Y133.451 E25.03616
G1 X179.633 Y133.195 E25.05328
G1 X179.752 Y132.315 E25.1127
G1 X179.799 Y132.137 E25.12501
G1 X180.165 Y131.223 E25.19089
G1 X180.747 Y130.409 E25.25784
G1 X180.94 Y130.221 E25.27586
G1 X181.517 Y129.737 E25.32625
G1 X181.653 Y129.65 E25.33705
G1 X181.691 Y127.938 E25.45162
G1 X181.564 Y125.351 E25.62492
G1 X181.259 Y122.843 E25.79395
G1 X180.762 Y120.294 E25.96771
G1 X180.089 Y117.815 E26.13957
G1 X179.24 Y115.388 E26.3116
G1 X178.219 Y113.03 E26.48352
G1 X176.981 Y110.65 E26.66301
G1 X176.912 Y110.483 E26.6751
G1 X176.848 Y110.222 E26.69308
G1 X176.832 Y109.961 E26.71057
G1 X176.846 Y109.786 E26.72232
G1 X176.891 Y109.578 E26.73656
G1 X176.995 Y109.305 E26.7561
G1 X181.236 Y102.287 E27.30472
G1 X171.018 Y95.922 E28.11015
G1 X170.165 Y97.335 E28.22058
G1 X169.92 Y97.773 E28.25416
G1 X169.649 Y98.346 E28.29657
G1 X169.292 Y99.292 E28.36422
G1 X169.143 Y99.76 E28.39708
G1 X169.053 Y99.981 E28.41304
G1 X168.947 Y100.16 E28.42696
G1 X168.834 Y100.303 E28.43916
G1 X168.555 Y100.559 E28.46449
G1 X168.237 Y100.712 E28.4881
G1 X168.013 Y100.776 E28.50369
G1 X167.736 Y100.814 E28.52239
G1 X167.427 Y100.778 E28.54321
G1 X167.18 Y100.708 E28.56038
G1 X167.002 Y100.627 E28.57347
G1 X164.843 Y99.211 E28.74621
G1 X162.761 Y98.036 E28.90616
G1 X160.61 Y97.007 E29.0657
G1 X158.386 Y96.125 E29.22577
G1 X156.096 Y95.392 E29.38664
G1 X153.774 Y94.819 E29.54666
G1 X151.422 Y94.409 E29.70639
G1 X149.03 Y94.158 E29.86731
G1 X146.698 Y94.073 E30.02344
G1 X146.097 Y94.136 E30.06387
G1 X145.595 Y94.302 E30.09924
G1 X145.136 Y94.572 E30.13487
G1 X144.735 Y94.944 E30.17147
G1 X144.436 Y95.371 E30.20635
G1 X144.228 Y95.871 E30.24258
G1 X144.135 Y96.392 E30.27799
G1 X144.155 Y96.924 E30.31361
G1 X144.311 Y97.528 E30.35534
G1 X151.665 Y117.021 E31.74926
G1 X152.509 Y117.395 E31.81103
G1 X152.688 Y117.489 E31.82455
G1 X154.096 Y118.361 E31.93536
G1 X155.446 Y119.468 E32.05217
G1 X156.631 Y120.742 E32.16858
G1 X157.658 Y122.197 E32.28773
G1 X158.465 Y123.759 E32.40536
G1 X159.041 Y125.367 E32.51964
G1 X159.407 Y127.07 E32.63618
G1 X159.542 Y128.866 E32.75668
G1 X159.442 Y130.596 E32.87262
G1 X159.101 Y132.322 E32.99034
G1 X158.538 Y133.957 E33.10603
G1 X157.727 Y135.572 E33.22694
G1 X156.728 Y137.025 E33.34492
G1 X155.53 Y138.34 E33.46393
G1 X154.213 Y139.445 E33.57896
G1 X152.763 Y140.36 E33.69367
G1 X151.131 Y141.108 E33.81378
G1 X149.46 Y141.612 E33.93056
G1 X147.712 Y141.89 E34.04898
G1 X145.967 Y141.93 E34.16576
G1 X144.225 Y141.734 E34.28304
G1 X142.516 Y141.307 E34.4009
G1 X140.889 Y140.651 E34.51827
G1 X139.368 Y139.785 E34.63537
G1 X137.981 Y138.729 E34.75201
G1 X136.761 Y137.504 E34.86768
G1 X135.675 Y136.077 E34.98766
G1 X134.823 Y134.566 E35.10372
G1 X134.164 Y132.914 E35.22271
G1 X133.742 Y131.205 E35.34049
G1 X133.553 Y129.464 E35.45766
G1 X133.605 Y127.671 E35.57767
G1 X133.872 Y126.043 E35.68805
G1 X133.913 Y125.878 E35.69942
G1 X134.365 Y124.396 E35.80309
G1 X134.438 Y124.204 E35.81683
G1 X134.822 Y123.372 E35.87814
G1 X127.456 Y103.852 E37.27403
G1 X127.175 Y103.296 E37.31571
G1 X126.841 Y102.887 E37.35104
G1 X126.414 Y102.545 E37.38764
G1 X125.935 Y102.31 E37.42334
G1 X125.412 Y102.181 E37.45938
G1 X124.876 Y102.164 E37.49526
G1 X124.342 Y102.263 E37.5316
G1 X123.855 Y102.47 E37.567
G1 X123.37 Y102.81 E37.60663
G1 X121.681 Y104.396 E37.76165
G1 X120.07 Y106.129 E37.91995
G1 X118.581 Y107.965 E38.07811
G1 X117.227 Y109.888 E38.23546
G1 X115.879 Y112.102 E38.40889
G1 X115.693 Y112.294 E38.42678
G1 X115.468 Y112.461 E38.44552
G1 X115.227 Y112.588 E38.46375
G1 X114.894 Y112.665 E38.48662
G1 X114.707 Y112.678 E38.49916
G1 X81.94 Y113.061 E40.69161
G1 X79.661 Y113.188 E40.84432
G1 X77.394 Y113.511 E40.99753
G1 X75.18 Y114.03 E41.14968
G1 X73.03 Y114.729 E41.30093
G1 X70.924 Y115.63 E41.45419
G1 X68.907 Y116.706 E41.60714
G1 X67.001 Y117.948 E41.75935
G1 X65.221 Y119.344 E41.9107
G1 X63.57 Y120.886 E42.06185
G1 X62.035 Y122.595 E42.21554
G1 X60.671 Y124.41 E42.36744
G1 X59.489 Y126.307 E42.51698
G1 X58.462 Y128.328 E42.66866
G1 X57.608 Y130.438 E42.82095
G1 X56.939 Y132.656 E42.97595
G1 X56.478 Y134.856 E43.12634
G1 X56.207 Y137.102 E43.2777
G1 X56.134 Y139.374 E43.42979
G1 X56.262 Y141.638 E43.58151
G1 X56.582 Y143.871 E43.73243
G1 X57.104 Y146.091 E43.88502
G1 X57.81 Y148.233 E44.03591
G1 X58.707 Y150.318 E44.18777
G1 X59.782 Y152.319 E44.33975
G1 X61.033 Y154.227 E44.4924
G1 X62.431 Y155.999 E44.64341
G1 X63.989 Y157.652 E44.79538
G1 X65.69 Y159.17 E44.94792
G1 X67.506 Y160.524 E45.09948
G1 X69.446 Y161.723 E45.25206
G1 X71.477 Y162.748 E45.40427
G1 X73.592 Y163.591 E45.5566
G1 X75.763 Y164.246 E45.70832
G1 X77.998 Y164.711 E45.86106
G1 X80.264 Y164.983 E46.01376
G1 X82.588 Y165.056 E46.16932
G1 X126.92 Y164.539 E49.13559
G1 X127.2 Y164.574 E49.15447
G1 X127.481 Y164.679 E49.17454
G1 X127.624 Y164.757 E49.18544
G1 X127.842 Y164.913 E49.20337
G1 X128.069 Y165.159 E49.22577
G1 X128.259 Y165.509 E49.25241
G1 X128.32 Y165.676 E49.26431
G1 X128.373 Y165.924 E49.28128
G1 X128.37 Y166.309 E49.30703
G0 F4800 X127.776 Y166.229
G1 F1800 X127.654 Y166.575 E49.33158
G1 X127.368 Y167.049 E49.36862
G1 X138.843 Y173.657 E50.25456
G1 X143.892 Y165.292 E50.90828
G1 X144.086 Y165.072 E50.9279
G1 X144.358 Y164.936 E50.94825
G1 X144.581 Y164.9 E50.96336
G1 X147.353 Y164.874 E51.14883
G1 X150.052 Y164.649 E51.33004
G1 X152.712 Y164.229 E51.51021
G1 X155.333 Y163.617 E51.69029
G1 X157.915 Y162.809 E51.8713
G1 X160.421 Y161.818 E52.0516
G1 X162.866 Y160.637 E52.23327
G1 X165.133 Y159.327 E52.40844
G1 X167.423 Y157.773 E52.59361
G1 X169.489 Y156.135 E52.77001
G1 X171.519 Y154.266 E52.95462
G1 X173.345 Y152.317 E53.13331
G1 X175.009 Y150.256 E53.31054
G1 X176.512 Y148.098 E53.48649
G1 X177.984 Y145.595 E53.68077
G1 X179.145 Y143.219 E53.8577
G1 X180.143 Y140.737 E54.03668
G1 X180.951 Y138.203 E54.21463
G1 X181.451 Y136.127 E54.3575
G1 X181.312 Y136.01 E54.36965
G1 X181.157 Y135.841 E54.38499
G1 X180.688 Y135.178 E54.43933
G1 X180.336 Y134.279 E54.50392
G1 X180.22 Y133.329 E54.56796
G1 X180.331 Y132.489 E54.62465
G1 X180.369 Y132.326 E54.63584
G1 X180.701 Y131.496 E54.69565
G1 X181.254 Y130.741 E54.75827
G1 X181.903 Y130.197 E54.81493
G1 X182.095 Y130.073 E54.83022
G1 X182.245 Y130.002 E54.84132
G1 X182.292 Y127.93 E54.97999
G1 X182.162 Y125.3 E55.15616
G1 X181.852 Y122.749 E55.3281
G1 X181.346 Y120.158 E55.50472
G1 X180.662 Y117.637 E55.67949
G1 X179.8 Y115.169 E55.8544
G1 X178.761 Y112.772 E56.02919
G1 X177.521 Y110.389 E56.20892
G1 X177.438 Y110.166 E56.22484
G1 X177.434 Y109.925 E56.24096
G1 X177.481 Y109.671 E56.25825
G1 X182.056 Y102.091 E56.85061
G1 X170.818 Y95.09 E57.73646
G1 X169.659 Y97.01 E57.88651
G1 X169.386 Y97.498 E57.92392
G1 X169.096 Y98.111 E57.96929
G1 X168.725 Y99.095 E58.03965
G1 X168.542 Y99.669 E58.07996
G1 X168.453 Y99.818 E58.09157
G1 X168.32 Y99.971 E58.10514
G1 X168.174 Y100.079 E58.11729
G1 X167.956 Y100.183 E58.13345
G1 X167.62 Y100.21 E58.156
G1 X167.301 Y100.112 E58.17833
G1 X165.156 Y98.699 E58.35018
G1 X163.039 Y97.503 E58.51286
G1 X160.85 Y96.457 E58.67518
G1 X158.588 Y95.559 E58.83801
G1 X156.259 Y94.814 E59.00161
G1 X153.897 Y94.232 E59.16437
G1 X151.505 Y93.814 E59.32683
G1 X149.072 Y93.559 E59.4905
G1 X146.677 Y93.471 E59.65085
G1 X145.97 Y93.546 E59.69842
G1 X145.345 Y93.752 E59.74245
G1 X144.775 Y94.088 E59.78672
G1 X144.28 Y94.547 E59.83188
G1 X143.906 Y95.08 E59.87545
G1 X143.648 Y95.702 E59.9205
G1 X143.533 Y96.351 E59.9646
G1 X143.558 Y97.011 E60.00879
G1 X143.738 Y97.71 E60.05708
G1 X151.192 Y117.468 E61.46995
G1 X152.318 Y117.966 E61.55233
G1 X153.744 Y118.846 E61.66444
G1 X155.034 Y119.901 E61.77593
G1 X156.166 Y121.119 E61.88719
G1 X157.141 Y122.502 E62.0004
G1 X157.911 Y123.989 E62.11244
G1 X158.466 Y125.539 E62.22259
G1 X158.815 Y127.167 E62.33398
G1 X158.942 Y128.865 E62.44791
G1 X158.843 Y130.522 E62.55897
G1 X158.522 Y132.151 E62.67005
G1 X157.982 Y133.733 E62.78189
G1 X157.21 Y135.267 E62.89679
G1 X156.261 Y136.648 E63.0089
G1 X155.123 Y137.899 E63.12205
G1 X153.83 Y138.978 E63.23473
G1 X152.463 Y139.84 E63.34285
G1 X150.921 Y140.546 E63.45632
G1 X149.323 Y141.028 E63.56799
G1 X147.675 Y141.294 E63.67968
G1 X145.994 Y141.331 E63.79218
G1 X144.332 Y141.144 E63.90407
G1 X142.736 Y140.744 E64.01416
G1 X141.187 Y140.125 E64.12576
G1 X139.674 Y139.268 E64.2421
G1 X138.397 Y138.291 E64.34968
G1 X137.178 Y137.07 E64.46511
G1 X136.198 Y135.78 E64.5735
G1 X135.362 Y134.302 E64.68711
G1 X134.733 Y132.725 E64.80071
G1 X134.332 Y131.097 E64.91288
G1 X134.152 Y129.436 E65.02467
G1 X134.201 Y127.739 E65.13825
G1 X134.462 Y126.152 E65.24586
G1 X134.958 Y124.508 E65.36075
G1 X135.472 Y123.395 E65.44277
G1 X128.006 Y103.61 E66.85761
G1 X127.681 Y102.967 E66.90582
G1 X127.266 Y102.458 E66.94976
G1 X126.737 Y102.036 E66.99503
G1 X126.142 Y101.743 E67.03941
G1 X125.495 Y101.583 E67.084
G1 X124.83 Y101.562 E67.12851
G1 X124.168 Y101.685 E67.17356
G1 X123.562 Y101.942 E67.2176
G1 X122.991 Y102.343 E67.26429
G1 X121.255 Y103.973 E67.42361
G1 X119.616 Y105.735 E67.58461
G1 X118.102 Y107.603 E67.74549
G1 X116.725 Y109.559 E67.90553
G1 X115.459 Y111.646 E68.06885
G1 X115.292 Y111.848 E68.08638
G1 X115.157 Y111.948 E68.09762
G1 X114.86 Y112.076 E68.11926
G1 X81.942 Y112.46 E70.32182
G1 X79.602 Y112.59 E70.47862
G1 X77.283 Y112.92 E70.63533
G1 X75.018 Y113.451 E70.79098
G1 X72.819 Y114.167 E70.94571
G1 X70.664 Y115.088 E71.10251
G1 X68.601 Y116.189 E71.25896
G1 X66.651 Y117.46 E71.4147
G1 X64.831 Y118.888 E71.56947
G1 X63.141 Y120.465 E71.72412
G1 X61.571 Y122.214 E71.88137
G1 X60.176 Y124.07 E72.03672
G1 X58.965 Y126.011 E72.18978
G1 X57.93 Y128.048 E72.34265
G1 X57.846 Y128.238 E72.35655
G1 X57.199 Y129.842 E72.47227
G1 X57.017 Y130.318 E72.50637
G1 X56.357 Y132.508 E72.6594
G1 X55.885 Y134.759 E72.81328
G1 X55.608 Y137.057 E72.96814
G1 X55.534 Y139.381 E73.12371
G1 X55.664 Y141.697 E73.27891
G1 X55.992 Y143.982 E73.43335
G1 X56.526 Y146.253 E73.58944
G1 X57.248 Y148.445 E73.74385
G1 X58.166 Y150.579 E73.89927
G1 X59.266 Y152.626 E74.05475
G1 X60.546 Y154.578 E74.21093
G1 X61.977 Y156.391 E74.36546
G1 X63.57 Y158.083 E74.52094
G1 X65.31 Y159.635 E74.67694
G1 X67.168 Y161.021 E74.83203
G1 X69.153 Y162.247 E74.98812
G1 X71.23 Y163.296 E75.1438
G1 X73.394 Y164.159 E75.29968
G1 X75.615 Y164.828 E75.45487
G1 X77.901 Y165.304 E75.6111
G1 X80.219 Y165.582 E75.7673
G1 X82.594 Y165.656 E75.92627
G1 X126.86 Y165.138 E78.88813
G1 X127.023 Y165.155 E78.89909
G1 X127.296 Y165.246 E78.91835
G1 X127.542 Y165.457 E78.94003
G1 X127.709 Y165.749 E78.96253
G1 X127.777 Y165.998 E78.9798
G1 X127.776 Y166.229 E78.99526
G0 F4800 X127.186 Y166.188
