;FLAVOR:Marlin
;TIME:2845
;Filament used: 5.13945m
;Layer height: 0.3
;MINX:95.3
;MINY:109.798
;MINZ:0.28
;MAXX:154.707
;MAXY:140.202
;MAXZ:47.98
;Generated with Cura_SteamEngine 5.4.0
M140 S60
M105
M190 S60
M104 S215
M105
M109 S215
M82 ;absolute extrusion mode
START_PRINT
G92 E0
G92 E0
G1 F300 E-0.5
;LAYER_COUNT:160
;LAYER:0
M107
M204 S3500
G1 F600 Z0.88
;MESH:3DBenchy.stl
G0 F12000 X105.034 Y125.309 Z0.88
;TYPE:WALL-INNER
G1 F600 Z0.28
G1 F120 E0
G1 F1345 X105.242 Y125.463 E0.02561
G1 F1340 X105.684 Y125.964 E0.09195
G1 X105.687 Y124.662 E0.22125
G1 X105.393 Y124.602 E0.25105
G1 F1345 X105.179 Y124.527 E0.27348
G1 F1348.3 X105.03 Y124.652 E0.29268
G1 F1609.5 X104.608 Y124.728 E0.32813
G1 F2358.1 X104.008 Y124.792 E0.36218
G1 F2895.4 X103.77 Y124.796 E0.37312
G1 F2748.1 X103.486 Y124.769 E0.38693
G1 F2186.2 X102.961 Y124.684 E0.4193
G1 F1878.3 X102.587 Y124.48 E0.44948
G1 X102.564 Y124.655 E0.46198
G1 X102.55 Y124.95 E0.48291
G1 X102.557 Y125.169 E0.49843
G1 X102.585 Y125.433 E0.51724
G1 X102.788 Y125.29 E0.53483
G1 X102.95 Y125.209 E0.54766
G1 F2065 X103.208 Y125.18 E0.56439
G1 F2559.2 X104.012 Y125.164 E0.6062
G1 F2720.4 X104.244 Y125.179 E0.61757
G1 F2007.4 X104.83 Y125.271 E0.65689
G1 F1483.5 X105.034 Y125.309 E0.67551
G1 F300 E0.17551
G1 F600 Z0.88
G0 F12000 X107.798 Y128.822 Z0.88
G1 F600 Z0.28
G1 F120 E0.67551
G1 F1800 X107.3 Y128.756 E0.71264
G1 X106.989 Y128.653 E0.73686
G1 X106.729 Y128.445 E0.76148
G1 X106.456 Y128.039 E0.79765
G1 F1803 X106.379 Y127.856 E0.8123
G1 X106.347 Y127.698 E0.8242
G1 X106.347 Y127.498 E0.83896
G1 F1800 X106.396 Y126.999 E0.87602
G1 F1803 X106.387 Y126.333 E0.92518
G1 X106.391 Y124.7 E1.0457
G1 F1800 X106.384 Y124.097 E1.09028
G1 X106.397 Y123.89 E1.10561
G1 X105.944 Y123.95 E1.13939
G1 X105.656 Y123.954 E1.16068
G1 X105.271 Y123.816 E1.19092
G1 X105.009 Y123.68 E1.21274
G1 X104.714 Y124.018 E1.24591
G1 X104.48 Y124.171 E1.26657
G1 X104.008 Y124.307 E1.30289
G1 X103.801 Y124.311 E1.31819
G1 X103.62 Y124.28 E1.33177
G1 X103.263 Y124.181 E1.35915
G1 X102.891 Y123.976 E1.39055
G1 X102.514 Y123.74 E1.42343
G1 X102.252 Y123.859 E1.44471
G1 X102.103 Y124.023 E1.46109
G1 X102.007 Y124.378 E1.48827
G1 X101.978 Y124.6 E1.50482
G1 X101.963 Y124.935 E1.52961
G1 X101.969 Y125.197 E1.54899
G1 X101.994 Y125.463 E1.56874
G1 X102.051 Y125.741 E1.58972
G1 X102.16 Y125.979 E1.60907
G1 X102.317 Y126.107 E1.62404
G1 X102.488 Y126.155 E1.63717
G1 X102.726 Y126.144 E1.65479
G1 X102.847 Y125.993 E1.66909
G1 X102.987 Y125.862 E1.68326
G1 X103.18 Y125.749 E1.6998
G1 X103.372 Y125.688 E1.71469
G1 X103.923 Y125.641 E1.75557
G1 X104.118 Y125.674 E1.77019
G1 X104.5 Y125.803 E1.8
G1 X104.646 Y125.892 E1.81264
G1 X104.81 Y126.018 E1.82793
G1 X105.029 Y126.266 E1.85238
G1 X105.126 Y126.428 E1.86634
G1 F1803 X105.196 Y126.574 E1.87829
G1 X105.247 Y126.787 E1.89446
G1 F1800 X105.28 Y127.088 E1.91684
G1 X105.243 Y127.295 E1.93239
G1 F1803 X105.17 Y127.475 E1.94672
G1 X104.981 Y127.82 E1.97575
G1 F1800 X104.832 Y128.027 E1.99461
G1 X104.53 Y128.342 E2.02687
G1 X104.397 Y128.442 E2.03917
G1 X104.036 Y128.655 E2.07016
G1 X103.785 Y128.762 E2.09033
G1 X103.471 Y128.858 E2.1146
G1 X103.075 Y128.928 E2.14433
G1 X102.766 Y128.953 E2.16725
G1 X102.491 Y128.955 E2.18758
G1 X102.165 Y128.934 E2.21173
G1 X101.838 Y128.882 E2.2362
G1 X101.496 Y128.791 E2.26236
G1 X101.211 Y128.685 E2.28484
G1 X100.922 Y128.543 E2.30865
G1 X100.655 Y128.377 E2.33189
G1 X100.314 Y128.101 E2.36432
G1 X100.012 Y127.796 E2.39605
G1 X100.013 Y130.016 E2.56016
G1 X100.074 Y130.26 E2.57876
G1 X100.217 Y130.498 E2.59928
G1 X100.414 Y130.663 E2.61828
G1 X100.676 Y130.755 E2.63881
G1 X100.841 Y130.774 E2.65109
G1 X124.043 Y132.192 E4.3695
G1 X124.644 Y132.222 E4.41399
G1 X125.009 Y132.229 E4.44097
G1 X125.635 Y132.216 E4.48726
G1 X126.395 Y132.163 E4.54358
G1 F1803 X127.363 Y132.035 E4.61564
G1 F1904.8 X127.754 Y131.998 E4.64308
G1 F2097.1 X128.013 Y131.962 E4.65967
G1 F2204.1 X128.531 Y131.851 E4.69165
G1 F2190.7 X129.009 Y131.711 E4.72191
G1 F2057.1 X129.406 Y131.562 E4.74934
G1 F1881.5 X129.798 Y131.399 E4.77936
G1 F1800 X129.987 Y131.333 E4.79416
G1 X130.565 Y131.1 E4.84023
G1 X130.992 Y130.91 E4.87478
G1 X131.511 Y130.654 E4.91756
G1 X132.5 Y130.091 E5.00169
G1 X133.098 Y129.696 E5.05467
G1 X133.655 Y129.287 E5.10576
G1 X134.035 Y128.979 E5.14192
G1 X133.256 Y128.975 E5.19951
G1 X132.801 Y129.001 E5.2332
G1 X132.525 Y128.997 E5.2536
G1 X132.323 Y128.973 E5.26864
G1 X132.054 Y128.859 E5.29024
G1 X131.879 Y128.749 E5.30552
G1 X131.622 Y128.503 E5.33182
G1 X131.526 Y128.365 E5.34425
G1 X131.432 Y128.192 E5.3588
G1 X131.333 Y127.858 E5.38455
G1 F1960.1 X131.35 Y127.606 E5.4017
G1 F2293 X131.384 Y127.414 E5.41301
G1 F2673.3 X131.531 Y126.899 E5.43967
G1 F2895.4 X131.596 Y126.751 E5.4471
G1 F2679.9 X131.814 Y126.351 E5.46972
G1 F2199.6 X132.257 Y125.63 E5.52091
G1 F1945.9 X132.495 Y125.301 E5.54868
G1 X132.124 Y125.206 E5.57487
G1 X131.879 Y125.072 E5.59396
G1 X131.768 Y125.381 E5.61642
G1 F2222.2 X131.409 Y126.228 E5.6715
G1 F2748.1 X131.184 Y126.775 E5.70014
G1 F2849.6 X131.046 Y127.191 E5.72061
G1 F2186.2 X130.93 Y127.843 E5.76091
G1 F1800 X130.802 Y128.2 E5.78895
G1 X130.272 Y129.585 E5.89858
G1 X130.028 Y130.132 E5.94286
G1 X129.824 Y130.488 E5.97319
G1 X129.555 Y130.824 E6.00501
G1 F1881.5 X129.173 Y131.094 E6.03809
G1 F2061.1 X128.822 Y131.247 E6.06281
G1 F2190.7 X128.601 Y131.325 E6.07705
G1 F2222.2 X128.334 Y131.402 E6.09368
G1 X128.071 Y131.454 E6.10974
G1 F2155.7 X127.854 Y131.48 E6.12323
G1 F2041.6 X127.671 Y131.483 E6.13516
G1 F1891.4 X127.415 Y131.457 E6.15326
G1 F1803 X127.226 Y131.388 E6.16811
G1 F1800 X126.893 Y131.171 E6.19749
G1 X126.752 Y131.026 E6.21244
G1 X126.587 Y130.79 E6.23373
G1 X126.477 Y130.562 E6.25245
G1 X126.415 Y130.39 E6.26596
G1 X126.389 Y130.229 E6.27802
G1 X126.398 Y129.882 E6.30368
G1 X126.428 Y129.685 E6.31841
G1 F1833.6 X126.582 Y129.389 E6.34262
G1 F1989 X126.791 Y129.195 E6.3617
G1 F2126 X127.751 Y128.712 E6.42896
G1 F2151.4 X127.933 Y128.27 E6.45853
G1 F2177.4 X128.142 Y127.71 E6.49506
G1 F2236 X127.881 Y126.953 E6.54271
G1 F2268.9 X127.748 Y126.618 E6.56385
G1 F2026.3 X127.315 Y125.596 E6.63674
G1 F1855.7 X127.096 Y125.046 E6.67919
G1 X126.949 Y125.303 E6.70042
G1 X126.7 Y125.695 E6.73372
G1 X126.796 Y125.849 E6.74673
G1 F1939 X127.085 Y126.409 E6.78998
G1 F2105.3 X127.258 Y126.715 E6.8122
G1 F2245.3 X127.441 Y127.116 E6.83832
G1 F2254.7 X127.518 Y127.39 E6.85512
G1 F2057.1 X127.565 Y127.683 E6.87431
G1 F1989 X127.533 Y127.872 E6.88714
G1 F2076.9 X127.447 Y128.171 E6.90707
G1 F2080.9 X127.316 Y128.396 E6.92372
G1 F2240.7 X127.171 Y128.541 E6.9359
G1 F2666.7 X126.963 Y128.693 E6.94875
G1 X126.675 Y128.852 E6.96517
G1 F2121.8 X126.325 Y128.993 E6.98883
G1 F1830.5 X125.996 Y129.004 E7.01276
G1 F1800 X125.764 Y128.935 E7.03065
G1 X125.254 Y128.611 E7.07532
G1 X125.102 Y128.415 E7.09366
G1 X124.847 Y128.691 E7.12144
G1 X124.506 Y128.902 E7.15108
G1 X124.253 Y128.998 E7.17108
G1 X124.027 Y129.005 E7.1878
G1 X123.819 Y128.968 E7.20342
G1 X123.498 Y128.865 E7.22834
G1 X123.336 Y128.794 E7.24141
G1 X123.164 Y128.663 E7.2574
G1 X122.899 Y128.892 E7.28329
G1 X122.596 Y129.08 E7.30965
G1 X122.437 Y129.144 E7.32232
G1 X122.144 Y129.231 E7.34491
G1 X121.742 Y129.277 E7.37483
G1 X121.343 Y129.219 E7.40463
G1 X121.114 Y129.15 E7.42231
G1 X120.872 Y129.041 E7.44193
G1 X120.68 Y128.925 E7.45852
G1 X120.46 Y128.744 E7.47958
G1 X120.239 Y128.495 E7.50419
G1 X120.057 Y128.226 E7.5282
G1 X119.591 Y128.477 E7.56733
G1 X119.35 Y128.572 E7.58648
G1 X118.886 Y128.692 E7.62191
G1 X118.493 Y128.75 E7.65128
G1 X118.089 Y128.778 E7.68121
G1 X117.637 Y128.784 E7.71463
G1 X117.069 Y128.777 E7.75662
G1 X116.646 Y128.819 E7.78805
G1 X116.374 Y128.803 E7.80819
G1 X116.146 Y128.759 E7.82536
G1 X115.943 Y128.663 E7.84196
G1 X115.656 Y128.472 E7.86744
G1 X115.517 Y128.329 E7.88218
G1 X115.401 Y128.133 E7.89902
G1 X115.295 Y127.859 E7.92074
G1 X115.238 Y127.592 E7.94092
G1 X115.068 Y127.858 E7.96426
G1 X114.833 Y128.135 E7.99111
G1 X114.613 Y128.338 E8.01324
G1 X114.389 Y128.502 E8.03376
G1 X114.119 Y128.659 E8.05685
G1 X113.864 Y128.77 E8.07741
G1 X113.598 Y128.859 E8.09815
G1 X113.418 Y128.899 E8.11178
G1 X113.014 Y128.947 E8.14186
G1 X112.528 Y128.954 E8.17779
G1 X112.278 Y128.937 E8.19631
G1 X111.985 Y128.893 E8.21821
G1 X111.714 Y128.827 E8.23883
G1 X111.471 Y128.747 E8.25775
G1 X111.155 Y128.6 E8.28351
G1 X110.948 Y128.461 E8.30194
G1 X110.655 Y128.188 E8.33155
G1 F1803 X110.552 Y128.051 E8.3442
G1 X110.325 Y127.533 E8.38594
G1 X110.29 Y127.337 E8.40063
G1 F1800 X110.3 Y127.098 E8.41831
G1 F1803 X110.36 Y126.777 E8.44242
G1 X110.54 Y126.376 E8.47485
G1 F1800 X110.824 Y126.036 E8.5076
G1 X111.101 Y125.897 E8.53052
G1 X111.295 Y125.848 E8.54531
G1 F1839.9 X111.606 Y125.822 E8.56788
G1 X111.363 Y125.649 E8.58945
G1 F1800 X111.213 Y125.477 E8.60632
G1 X111.038 Y125.213 E8.62974
G1 X110.991 Y124.904 E8.65284
G1 X110.984 Y124.529 E8.68057
G1 X111.024 Y124.342 E8.69471
G1 X111.157 Y124.026 E8.72005
G1 X110.989 Y123.912 E8.73506
G1 X110.583 Y123.547 E8.77542
G1 X110.417 Y123.681 E8.79119
G1 X110.176 Y123.791 E8.81078
G1 X109.897 Y123.867 E8.83215
G1 X109.65 Y123.896 E8.85054
G1 X109.131 Y123.909 E8.88892
G1 F1803 X109.128 Y126.687 E9.09394
G1 X109.144 Y127.338 E9.142
G1 X109.109 Y127.668 E9.16649
G1 X109.002 Y127.993 E9.19174
G1 F1800 X108.87 Y128.219 E9.21109
G1 X108.662 Y128.466 E9.23496
G1 X108.337 Y128.666 E9.26317
G1 X108.062 Y128.761 E9.28468
G1 X107.798 Y128.822 E9.30471
G0 F12000 X106.699 Y129.178
G1 F1800 X106.301 Y128.86 E9.34237
G1 X106.186 Y128.713 E9.35617
G1 F1803 X105.893 Y128.272 E9.39524
G1 F1809 X105.805 Y128.025 E9.41453
G1 F1862.1 X105.769 Y127.761 E9.43357
G1 F1985.3 X105.787 Y127.444 E9.45485
G1 X105.686 Y127.745 E9.47613
G1 F1862.1 X105.568 Y128.002 E9.49634
G1 F1806 X105.474 Y128.163 E9.51008
G1 F1800 X105.291 Y128.414 E9.53304
G1 X104.934 Y128.786 E9.57116
G1 X104.712 Y128.953 E9.59169
G1 X104.459 Y129.109 E9.61367
G1 X104.279 Y129.204 E9.62871
G1 X103.976 Y129.33 E9.65297
G1 F1770.5 X103.585 Y129.458 E9.68389
G1 F1643.8 X103.127 Y129.573 E9.72212
G1 F1578.9 X102.817 Y129.587 E9.74827
G1 F1621.6 X102.402 Y129.582 E9.78232
G1 F1631.4 X101.966 Y129.545 E9.81801
G1 F1590.6 X101.578 Y129.485 E9.85086
G1 F1504.2 X101.185 Y129.395 E9.88653
G1 F1453.6 X100.684 Y129.189 E9.93612
G1 X100.684 Y129.993 E10.00972
G1 F1479.5 X100.756 Y130.088 E10.02044
G1 F1529.7 X101.464 Y130.165 E10.08239
G1 F1595.3 X102.362 Y130.239 E10.15755
G1 X103.134 Y130.266 E10.22198
G1 F1669.2 X103.911 Y130.361 E10.28438
G1 F1800 X124.342 Y131.608 E11.79756
G1 X124.998 Y131.629 E11.84608
G1 X125.62 Y131.616 E11.89207
G1 X126.399 Y131.555 E11.94983
G1 X126.047 Y131.051 E11.99528
G1 X125.936 Y130.823 E12.01403
G1 X125.833 Y130.537 E12.0365
G1 X125.791 Y130.269 E12.05655
G1 X125.798 Y129.858 E12.08694
G1 X125.841 Y129.58 E12.10773
G1 X125.51 Y129.482 E12.13325
G1 X125.108 Y129.234 E12.16817
G1 X124.788 Y129.432 E12.19599
G1 X124.613 Y129.51 E12.21015
G1 X124.447 Y129.563 E12.22304
G1 X124.267 Y129.595 E12.23655
G1 X123.99 Y129.604 E12.25704
G1 X123.644 Y129.542 E12.28302
G1 X123.219 Y129.4 E12.31615
G1 X122.873 Y129.613 E12.34619
G1 X122.609 Y129.719 E12.36722
G1 X122.394 Y129.784 E12.38382
G1 X122.134 Y129.836 E12.40342
G1 X121.913 Y129.861 E12.41986
G1 X121.652 Y129.868 E12.43917
G1 X121.25 Y129.811 E12.46918
G1 X120.868 Y129.698 E12.49863
G1 X120.625 Y129.589 E12.51832
G1 X120.306 Y129.394 E12.54596
G1 X120.056 Y129.188 E12.56991
G1 X119.882 Y129.002 E12.58873
G1 X119.544 Y129.14 E12.61572
G1 X119.131 Y129.253 E12.64738
G1 X118.659 Y129.335 E12.68279
G1 X118.13 Y129.376 E12.72202
G1 X117.629 Y129.384 E12.75906
G1 X117.095 Y129.378 E12.79854
G1 X116.779 Y129.41 E12.82202
G1 X116.539 Y129.414 E12.83976
G1 X116.338 Y129.402 E12.85465
G1 X115.959 Y129.329 E12.88318
G1 X115.62 Y129.169 E12.91089
G1 X115.324 Y128.98 E12.93685
G1 X115.062 Y128.74 E12.96312
G1 X114.83 Y128.927 E12.98515
G1 X114.511 Y129.13 E13.0131
G1 X114.203 Y129.281 E13.03846
G1 X113.789 Y129.428 E13.07093
G1 X113.488 Y129.495 E13.09373
G1 X113.082 Y129.544 E13.12396
G1 X112.488 Y129.553 E13.16788
G1 X112.238 Y129.536 E13.1864
G1 X111.89 Y129.486 E13.21239
G1 X111.45 Y129.374 E13.24596
G1 X111.275 Y129.315 E13.25961
G1 X110.892 Y129.14 E13.29074
G1 X110.548 Y128.908 E13.32141
G1 X110.235 Y128.626 E13.35256
G1 X110.079 Y128.418 E13.37178
G1 X109.966 Y128.209 E13.38934
G1 F1818.2 X109.82 Y127.862 E13.41689
G1 F1868.5 X109.752 Y127.64 E13.43343
G1 F1932 X109.717 Y127.387 E13.45102
G1 X109.7 Y127.644 E13.46876
G1 F1855.7 X109.647 Y127.953 E13.49124
G1 F1806 X109.559 Y128.216 E13.51167
G1 F1800 X109.452 Y128.429 E13.52929
G1 X109.339 Y128.593 E13.54402
G1 X109.108 Y128.881 E13.57131
G1 X108.535 Y129.232 E13.62098
G1 X108.26 Y129.328 E13.64252
G1 X107.933 Y129.402 E13.6673
G1 X107.673 Y129.409 E13.68653
G1 X107.218 Y129.351 E13.72044
G1 X106.699 Y129.178 E13.76088
G1 F300 E13.26088
G1 F600 Z0.88
G0 F12000 X105.787 Y127.444 Z0.88
G1 F600 Z0.28
G1 F120 E13.76088
G1 F2093 X105.821 Y127.195 E13.77686
G1 X105.833 Y126.977 E13.79074
G1 F2007.4 X105.818 Y126.722 E13.80767
G1 F300 E13.30767
G1 F600 Z0.88
G0 F12000 X109.725 Y126.994 Z0.88
G1 F600 Z0.28
G1 F120 E13.80767
G1 F1928.6 X109.717 Y127.387 E13.83479
G0 F12000 X109.759 Y126.668
G1 F1679.6 X110.043 Y125.982 E13.89361
G1 F1616.8 X110.194 Y125.792 E13.91359
G1 X110.329 Y125.644 E13.93007
G1 X110.493 Y125.51 E13.9475
G1 X110.417 Y125.312 E13.96496
G1 F1643.8 X110.39 Y125.146 E13.97857
G1 F1692.8 X110.376 Y124.918 E13.99653
G1 F1714.3 X110.371 Y124.593 E14.02176
G1 F1717 X110.385 Y124.366 E14.03939
G1 X110.061 Y124.464 E14.06562
G1 X109.743 Y124.503 E14.09045
G1 F1695.4 X109.75 Y125.201 E14.14523
G1 F1643.8 X109.763 Y125.405 E14.16178
G1 F1616.8 X109.763 Y125.884 E14.2012
G1 F1744.7 X109.725 Y126.994 E14.28591
G1 F1818.2 X109.759 Y126.668 E14.3099
G1 F300 E13.8099
G1 F600 Z0.88
G0 F12000 X111.996 Y125.899 Z0.88
G1 F600 Z0.28
G1 F120 E14.3099
G1 F2547.2 X112.001 Y125.9 E14.31016
G1 F2378.9 X112.457 Y126.016 E14.33648
G1 F2195.1 X112.677 Y126.148 E14.35203
G0 F12000 X112.001 Y125.9
G1 F2547.2 X111.996 Y125.899 E14.3523
G1 F300 E13.8523
G1 F600 Z0.88
G0 F12000 X115.053 Y124.613 Z0.88
G1 F600 Z0.28
G1 F120 E14.3523
G1 F2950.8 X115.188 Y124.887 E14.36607
G1 X115.345 Y125.355 E14.38833
G1 F2942.8 X115.344 Y124.415 E14.43084
G1 F2471.4 X115.276 Y123.785 E14.46496
G1 F2226.8 X115.216 Y123.966 E14.47635
G1 F2443.4 X115.14 Y124.133 E14.48634
G1 F2748.1 X114.937 Y124.475 E14.5056
G1 F2950.8 X115.053 Y124.613 E14.51373
G0 F12000 X115.276 Y123.785
G1 F2254.7 X115.303 Y123.215 E14.54741
G1 F2342.7 X115.294 Y122.978 E14.56088
G1 F2226.8 X115.245 Y122.581 E14.58478
G1 F300 E14.08478
G1 F600 Z0.88
G0 F12000 X120.666 Y126.589 Z0.88
;TYPE:WALL-OUTER
G1 F600 Z0.28
G1 F120 E14.58478
G1 F1578.9 X120.504 Y126.918 E14.61411
G1 F300 E14.11411
G1 F600 Z0.88
G0 F12000 X115.99 Y127.981 Z0.88
G1 F600 Z0.28
G1 F120 E14.61411
G1 F1800 X115.863 Y127.663 E14.63813
G1 X115.821 Y127.439 E14.65412
G1 F1621.6 X115.761 Y126.718 E14.71046
G1 F1508.4 X115.777 Y126.253 E14.74941
G1 F1512.6 X115.764 Y125.812 E14.78624
G1 F1576.6 X115.807 Y125.387 E14.82046
G1 F1739.1 X115.828 Y124.978 E14.85019
G1 F1800 X115.829 Y122.955 E14.99211
G1 X115.792 Y122.505 E15.02379
G1 X115.844 Y122.148 E15.0491
G1 X115.926 Y122.003 E15.06078
G1 X116.316 Y121.79 E15.09196
G1 X116.671 Y121.735 E15.11716
G1 X117.333 Y121.751 E15.16362
G1 X117.975 Y121.75 E15.20865
G1 X118.5 Y121.785 E15.24557
G1 X118.808 Y121.831 E15.26741
G1 X119.048 Y121.883 E15.28464
G1 X119.309 Y121.965 E15.30383
G1 X119.503 Y122.049 E15.31866
G1 X119.688 Y122.155 E15.33362
G1 X119.885 Y122.295 E15.35058
G1 X120.126 Y122.513 E15.37337
G1 X120.38 Y122.849 E15.40292
G1 X120.524 Y123.091 E15.42268
G1 X120.637 Y123.331 E15.44129
G1 X120.748 Y123.646 E15.46472
G1 F1803 X120.821 Y123.942 E15.48607
G1 X120.871 Y124.219 E15.50578
G1 F1800 X120.902 Y124.474 E15.52381
G1 X120.92 Y124.893 E15.55323
G1 X120.907 Y125.353 E15.58551
G1 X120.869 Y125.684 E15.60888
G1 F1736.3 X120.753 Y126.294 E15.65404
G1 F1621.6 X120.666 Y126.589 E15.67799
