;FLAVOR:Marlin
;TIME:1818
;Filament used: 3.04291m
;Layer height: 0.32
;MINX:103.504
;MINY:129.388
;MINZ:0.24
;MAXX:196.514
;MAXY:170.611
;MAXZ:21.36
;Generated with Cura_SteamEngine 5.0.0
M140 S70
M105
M190 S70
M104 S245
M105
M109 S245
M82 ;absolute extrusion mode
; Ender 3 Max Custom Start G-code
G92 E0 ; Reset Extruder
G28 ; Home all axes
G1 Z2.0 F3000 ; Move Z Axis up little to prevent scratching of Heat Bed
G1 X0.1 Y20 Z0.3 F5000.0 ; Move to start position
G1 X0.1 Y200.0 Z0.3 F1500.0 E15 ; Draw the first line
G1 X0.4 Y200.0 Z0.3 F5000.0 ; Move to side a little
G1 X0.4 Y20 Z0.3 F1500.0 E30 ; Draw the second line
G92 E0 ; Reset Extruder
G1 Z2.0 F3000 ; Move Z Axis up little to prevent scratching of Heat Bed
G1 X5 Y20 Z0.3 F5000.0 ; Move over to prevent blob squish
G92 E0
G92 E0
G1 F2100 E-5
;LAYER_COUNT:67
;LAYER:0
M107
G1 F300 Z0.56
G0 F6000 X108.522 Y134.098 Z0.56
G1 F300 Z0.56
G0 F6000 X103.504 Y145.004
;TYPE:SKIRT
G1 F300 Z0.24
G1 F2100 E0
G1 F1800 X103.531 Y143.987 E0.0737
G1 X103.569 Y143.467 E0.11147
G1 X103.677 Y142.536 E0.17936
G1 X103.893 Y141.505 E0.25567
G1 X104.013 Y141.043 E0.29025
G1 X104.287 Y140.147 E0.35812
G1 X104.683 Y139.175 E0.43415
G1 X104.9 Y138.708 E0.47146
G1 X105.331 Y137.875 E0.5394
G1 X105.897 Y136.989 E0.61556
G1 X106.2 Y136.561 E0.65355
G1 X106.774 Y135.82 E0.72145
G1 X107.495 Y135.045 E0.79813
G1 X107.824 Y134.724 E0.83142
G1 X108.522 Y134.098 E0.89934
G1 X109.324 Y133.499 E0.97186
G1 X109.773 Y133.194 E1.01118
G1 X110.57 Y132.701 E1.07907
G1 X111.595 Y132.194 E1.1619
G1 X112.098 Y131.977 E1.20159
G1 X112.973 Y131.643 E1.26943
G1 X114.124 Y131.327 E1.3559
G1 X114.604 Y131.223 E1.39148
G1 X115.369 Y131.086 E1.44778
G1 X116.053 Y130.988 E1.49783
G1 X118.644 Y130.576 E1.68788
G1 X121.128 Y130.109 E1.87098
G1 X122.003 Y129.918 E1.93586
G1 X123.397 Y129.628 E2.039
G1 X124.322 Y129.477 E2.10689
G1 X125.437 Y129.4 E2.18786
G1 X126.19 Y129.388 E2.24241
G1 X184.976 Y129.391 E6.5009
G1 X185.673 Y129.401 E6.5514
G1 X186.609 Y129.455 E6.61932
G1 X187.537 Y129.588 E6.68723
G1 X188.45 Y129.799 E6.75511
G1 X189.342 Y130.088 E6.82303
G1 X190.206 Y130.451 E6.89092
G1 X191.036 Y130.887 E6.95884
G1 X191.825 Y131.392 E7.0267
G1 X192.569 Y131.963 E7.09464
G1 X193.262 Y132.595 E7.16258
G1 X193.898 Y133.283 E7.23045
G1 X194.473 Y134.023 E7.29834
G1 X194.983 Y134.81 E7.36627
G1 X195.424 Y135.637 E7.43417
G1 X195.793 Y136.499 E7.50209
G1 X196.087 Y137.389 E7.56999
G1 X196.305 Y138.301 E7.63792
G1 X196.443 Y139.228 E7.70581
G1 X196.501 Y140.084 E7.76796
G1 X196.514 Y140.713 E7.81354
G1 X196.513 Y159.021 E9.13978
G1 X196.504 Y159.748 E9.19245
G1 X196.453 Y160.684 E9.26035
G1 X196.321 Y161.612 E9.32825
G1 X196.112 Y162.526 E9.39617
G1 X195.825 Y163.418 E9.46405
G1 X195.463 Y164.283 E9.53198
G1 X195.029 Y165.114 E9.59989
G1 X194.525 Y165.905 E9.66784
G1 X193.956 Y166.65 E9.73575
G1 X193.326 Y167.343 E9.80359
G1 X192.638 Y167.981 E9.87156
G1 X191.899 Y168.558 E9.93948
G1 X191.114 Y169.069 E10.00733
G1 X190.287 Y169.512 E10.07529
G1 X189.426 Y169.882 E10.14318
G1 X188.537 Y170.178 E10.21106
G1 X187.625 Y170.398 E10.27902
G1 X186.698 Y170.538 E10.34693
G1 X185.827 Y170.598 E10.41018
G1 X185.191 Y170.611 E10.45626
G1 X183.469 Y170.609 E10.581
G1 X182.826 Y170.6 E10.62758
G1 X181.89 Y170.547 E10.6955
G1 X181.154 Y170.449 E10.74928
G1 X180.236 Y170.262 E10.81715
G1 X179.336 Y169.997 E10.88511
G1 X178.463 Y169.657 E10.95298
G1 X177.493 Y169.172 E11.03154
G1 X176.781 Y168.771 E11.09074
G1 X174.496 Y167.527 E11.27921
G1 X172.267 Y166.394 E11.46034
G1 X169.948 Y165.295 E11.64624
G1 X167.707 Y164.312 E11.82351
G1 X165.325 Y163.344 E12.00977
G1 X163.003 Y162.477 E12.18932
G1 X160.602 Y161.658 E12.37309
G1 X158.202 Y160.914 E12.55511
G1 X155.781 Y160.237 E12.73721
G1 X153.297 Y159.619 E12.92264
G1 X150.878 Y159.088 E13.10205
G1 X148.393 Y158.617 E13.28527
G1 X145.895 Y158.215 E13.46855
G1 X143.416 Y157.889 E13.64968
G1 X140.925 Y157.632 E13.83108
G1 X138.38 Y157.443 E14.01595
G1 X135.882 Y157.327 E14.1971
G1 X133.363 Y157.283 E14.37961
G1 X130.876 Y157.308 E14.55978
G1 X128.309 Y157.408 E14.74588
G1 X125.832 Y157.574 E14.92571
G1 X123.324 Y157.814 E15.10822
G1 X120.777 Y158.13 E15.29414
G1 X119.064 Y158.384 E15.41959
G1 X118.132 Y158.482 E15.48748
G1 X117.131 Y158.498 E15.56
G1 X116.586 Y158.482 E15.5995
G1 X115.651 Y158.415 E15.6674
G1 X114.525 Y158.225 E15.75013
G1 X114.093 Y158.129 E15.78218
G1 X113.187 Y157.887 E15.85011
G1 X112.351 Y157.587 E15.91446
G1 X111.872 Y157.393 E15.95189
G1 X111.019 Y157.005 E16.01978
G1 X110.124 Y156.496 E16.09436
G1 X109.716 Y156.238 E16.12933
G1 X108.946 Y155.703 E16.19725
G1 X108.16 Y155.047 E16.27142
G1 X107.796 Y154.713 E16.3072
G1 X107.133 Y154.05 E16.37513
G1 X106.463 Y153.248 E16.45083
G1 X106.133 Y152.812 E16.49044
G1 X105.6 Y152.041 E16.55834
G1 X105.061 Y151.084 E16.6379
G1 X104.862 Y150.685 E16.6702
G1 X104.48 Y149.829 E16.73811
G1 X104.159 Y148.899 E16.80938
G1 X104.003 Y148.372 E16.84919
G1 X103.775 Y147.463 E16.91708
G1 X103.612 Y146.405 E16.99462
G1 X103.607 Y146.364 E16.99762
G0 F1620 X103.563 Y145.94
G0 X103.504 Y145.004
G0 F6000 X104.163 Y144.963
G1 F1800 X104.189 Y144.035 E17.06487
G1 X104.227 Y143.515 E17.10264
G1 X104.334 Y142.612 E17.16851
G1 X104.532 Y141.671 E17.23817
G1 X104.652 Y141.209 E17.27275
G1 X104.919 Y140.34 E17.3386
G1 X105.282 Y139.453 E17.40803
G1 X105.499 Y138.986 E17.44533
G1 X105.918 Y138.179 E17.5112
G1 X106.436 Y137.37 E17.58079
G1 X106.739 Y136.942 E17.61878
G1 X107.296 Y136.224 E17.68461
G1 X107.956 Y135.517 E17.75467
G1 X108.285 Y135.196 E17.78797
G1 X108.963 Y134.591 E17.85379
G1 X109.695 Y134.045 E17.91995
G1 X110.144 Y133.74 E17.95927
G1 X110.917 Y133.263 E18.02507
G1 X111.856 Y132.8 E18.10091
G1 X112.359 Y132.583 E18.14059
G1 X113.209 Y132.26 E18.20646
G1 X114.264 Y131.972 E18.28568
G1 X114.744 Y131.868 E18.32126
G1 X115.463 Y131.739 E18.37418
G1 X116.175 Y131.637 E18.42628
G1 X118.767 Y131.225 E18.6164
G1 X121.255 Y130.757 E18.7998
G1 X122.137 Y130.565 E18.86519
G1 X123.531 Y130.275 E18.96833
G1 X124.428 Y130.129 E19.03417
G1 X125.449 Y130.06 E19.1083
G1 X126.19 Y130.048 E19.16198
G1 X184.966 Y130.051 E23.41975
G1 X185.663 Y130.061 E23.47024
G1 X186.57 Y130.114 E23.53606
G1 X187.47 Y130.247 E23.60197
G1 X188.354 Y130.458 E23.6678
G1 X189.216 Y130.746 E23.73364
G1 X190.049 Y131.108 E23.79943
G1 X190.847 Y131.543 E23.86527
G1 X191.604 Y132.046 E23.93111
G1 X192.314 Y132.613 E23.99693
G1 X192.971 Y133.241 E24.06277
G1 X193.571 Y133.924 E24.12863
G1 X194.108 Y134.657 E24.19445
G1 X194.579 Y135.434 E24.26027
G1 X194.979 Y136.25 E24.3261
G1 X195.306 Y137.098 E24.39194
G1 X195.558 Y137.972 E24.45783
G1 X195.732 Y138.864 E24.52367
G1 X195.841 Y140.102 E24.6137
G1 X195.854 Y140.713 E24.65797
G1 X195.853 Y159.013 E25.98363
G1 X195.844 Y159.74 E26.0363
G1 X195.793 Y160.647 E26.10211
G1 X195.662 Y161.547 E26.16799
G1 X195.453 Y162.431 E26.23379
G1 X195.167 Y163.294 E26.29965
G1 X194.806 Y164.128 E26.36548
G1 X194.373 Y164.927 E26.43132
G1 X193.871 Y165.685 E26.49718
G1 X193.305 Y166.396 E26.56301
G1 X192.679 Y167.054 E26.6288
G1 X191.997 Y167.655 E26.69465
G1 X191.265 Y168.194 E26.7605
G1 X190.488 Y168.666 E26.82636
G1 X189.673 Y169.068 E26.89219
G1 X188.826 Y169.397 E26.95801
G1 X187.953 Y169.65 E27.02386
G1 X187.061 Y169.826 E27.08972
G1 X185.808 Y169.938 E27.18085
G1 X185.191 Y169.951 E27.22556
G1 X183.478 Y169.949 E27.34965
G1 X182.835 Y169.94 E27.39623
G1 X181.928 Y169.887 E27.46205
G1 X181.258 Y169.797 E27.51102
G1 X180.368 Y169.614 E27.57684
G1 X179.497 Y169.354 E27.64268
G1 X178.652 Y169.019 E27.70853
G1 X177.817 Y168.597 E27.77631
G1 X177.071 Y168.177 E27.83832
G1 X174.816 Y166.949 E28.02433
G1 X172.539 Y165.792 E28.20935
G1 X170.256 Y164.71 E28.39236
G1 X167.938 Y163.693 E28.57573
G1 X165.584 Y162.737 E28.75978
G1 X163.207 Y161.849 E28.9436
G1 X160.801 Y161.028 E29.12776
G1 X158.389 Y160.28 E29.31069
G1 X155.941 Y159.597 E29.4948
G1 X153.463 Y158.98 E29.67979
G1 X150.999 Y158.439 E29.86253
G1 X148.513 Y157.967 E30.04584
G1 X146.018 Y157.566 E30.2289
G1 X143.497 Y157.234 E30.4131
G1 X140.938 Y156.971 E30.59945
G1 X138.46 Y156.786 E30.77945
G1 X135.889 Y156.667 E30.9659
G1 X133.367 Y156.623 E31.14862
G1 X130.845 Y156.648 E31.33133
G1 X128.31 Y156.747 E31.5151
G1 X125.759 Y156.918 E31.70031
G1 X123.253 Y157.157 E31.88267
G1 X120.723 Y157.472 E32.06736
G1 X118.967 Y157.732 E32.19595
G1 X118.063 Y157.825 E32.26179
G1 X117.151 Y157.839 E32.32786
G1 X116.606 Y157.823 E32.36736
G1 X115.699 Y157.756 E32.43324
G1 X114.668 Y157.581 E32.50899
G1 X114.236 Y157.485 E32.54105
G1 X113.358 Y157.249 E32.60691
G1 X112.599 Y156.976 E32.66534
G1 X112.12 Y156.782 E32.70278
G1 X111.294 Y156.404 E32.76858
G1 X110.477 Y155.938 E32.83672
G1 X110.069 Y155.68 E32.87169
G1 X109.323 Y155.161 E32.93752
G1 X108.606 Y154.56 E33.00529
G1 X108.242 Y154.226 E33.04108
G1 X107.6 Y153.583 E33.1069
G1 X106.989 Y152.849 E33.17608
G1 X106.659 Y152.413 E33.2157
G1 X106.143 Y151.665 E33.28152
G1 X105.652 Y150.789 E33.35427
G1 X105.453 Y150.39 E33.38657
G1 X105.083 Y149.56 E33.4524
G1 X104.792 Y148.712 E33.51734
G1 X104.636 Y148.185 E33.55716
G1 X104.416 Y147.303 E33.62301
G1 X104.268 Y146.336 E33.69387
G1 X104.266 Y146.323 E33.69483
G0 F1620 X104.219 Y145.871
G0 X104.163 Y144.963
G1 F2100 E28.69483
G1 F300 Z0.56
;MESH:mp3dp-pi-case-arm-left.stl
G0 F6000 X116.299 Y144.141 Z0.56
;TYPE:WALL-INNER
G1 F300 Z0.24
G1 F2100 E33.69483
G1 F1800 X116.181 Y144.426 E33.71352
G1 X116.135 Y144.732 E33.73226
G1 X116.177 Y145.03 E33.7505
G1 X116.297 Y145.32 E33.76951
G1 X116.487 Y145.551 E33.78763
G1 X116.73 Y145.734 E33.80606
G1 X116.988 Y145.841 E33.82299
G1 X117.231 Y145.869 E33.83781
G1 X117.537 Y145.843 E33.85641
G1 X117.817 Y145.732 E33.87466
G1 X118.074 Y145.547 E33.89385
G1 X118.256 Y145.309 E33.912
G1 X118.368 Y145.096 E33.92658
G1 X118.558 Y144.764 E33.94975
G1 X118.762 Y144.553 E33.96754
G1 X118.513 Y144.396 E33.98537
G1 X118.312 Y144.197 E34.00251
G1 X118.146 Y144.002 E34.01802
G1 X117.907 Y143.793 E34.03726
G1 X117.64 Y143.657 E34.05541
G1 X117.473 Y143.622 E34.06575
G0 F1620 X117.336 Y143.594
G0 X117.036 Y143.622
G0 X116.744 Y143.723
G0 X116.493 Y143.912
G0 X116.299 Y144.141
G1 F2100 E29.06575
G1 F300 Z0.56
G0 F6000 X119.744 Y144.5 Z0.56
G1 F300 Z0.24
G1 F2100 E34.06575
G1 F1113.4 X119.861 Y144.419 E34.07969
G1 F1200 X119.553 Y144.276 E34.11055
G1 F1563.2 X119.315 Y144.101 E34.13116
G1 F1800 X118.936 Y143.89 E34.15744
G1 X118.718 Y143.655 E34.17686
G1 X118.534 Y143.447 E34.19369
G1 X118.281 Y143.241 E34.21345
G1 X118 Y143.081 E34.23305
G1 X117.703 Y142.981 E34.25203
G1 X117.372 Y142.932 E34.2723
G1 X117.052 Y142.943 E34.2917
G1 X116.731 Y143.013 E34.31161
G1 X116.435 Y143.137 E34.33105
G1 X116.16 Y143.318 E34.351
G1 X115.925 Y143.54 E34.37059
G1 X115.733 Y143.797 E34.39002
G1 X115.589 Y144.092 E34.40991
G1 X115.502 Y144.403 E34.42948
G1 X115.472 Y144.73 E34.44937
G1 X115.5 Y145.053 E34.46901
G1 X115.583 Y145.36 E34.48828
G1 X115.728 Y145.659 E34.50842
G1 X115.913 Y145.916 E34.5276
G1 X116.153 Y146.145 E34.5477
G1 X116.42 Y146.32 E34.56704
G1 X116.796 Y146.476 E34.5917
G1 X117.127 Y146.525 E34.61198
G1 X117.517 Y146.513 E34.63562
G1 X117.837 Y146.44 E34.6555
G1 X118.135 Y146.31 E34.6752
G1 X118.397 Y146.135 E34.69429
G1 X118.64 Y145.902 E34.71469
G1 X118.825 Y145.643 E34.73397
G1 X118.965 Y145.377 E34.75218
G1 X119.089 Y145.156 E34.76754
G1 X119.274 Y144.965 E34.78365
G1 F1741.9 X119.511 Y144.777 E34.80259
G1 F1381.4 X119.744 Y144.5 E34.83116
G1 F2100 E29.83116
G1 F300 Z0.56
G0 F6000 X124.369 Y143.971 Z0.56
G1 F300 Z0.24
G1 F2100 E34.83116
G1 F1800 X168.516 Y143.971 E37.50588
G1 X168.767 Y143.989 E37.52113
G1 X169.021 Y144.028 E37.5367
G1 X169.591 Y144.227 E37.57327
G1 X169.941 Y144.428 E37.59773
G1 X170.289 Y144.694 E37.62427
G1 X183.562 Y157.97 E38.76166
G1 X183.874 Y157.97 E38.78056
G1 X183.874 Y142.03 E39.74631
G1 X126.31 Y142.029 E43.23392
G1 X125.332 Y143.007 E43.31772
G0 F1620 X124.369 Y143.971
G0 F6000 X122.934 Y144.402
G1 F1172.8 X123.21 Y144.508 E43.34521
G1 F1404.3 X123.363 Y144.568 E43.35798
G1 F1573.5 X123.628 Y144.599 E43.37647
G1 F1719.2 X123.893 Y144.631 E43.3934
G1 F1800 X168.516 Y144.631 E46.09696
G1 X168.921 Y144.681 E46.12168
G1 X169.263 Y144.8 E46.14362
G1 X169.613 Y145.001 E46.16808
G1 X169.822 Y145.16 E46.18399
G1 X183.288 Y158.63 E47.33796
G1 X184.534 Y158.63 E47.41345
G1 X184.534 Y141.37 E48.45917
G1 X126.037 Y141.369 E52.00331
G1 X123.566 Y143.841 E52.21508
G1 F1643.2 X123.272 Y144.113 E52.24166
G1 F1246.6 X122.934 Y144.402 E52.28056
G1 F2100 E47.28056
G1 F300 Z0.56
G0 F6000 X185.194 Y140.71 Z0.56
;TYPE:WALL-OUTER
G1 F300 Z0.24
G1 F2100 E52.28056
G1 F1800 X125.763 Y140.709 E55.84215
G1 X123.099 Y143.375 E56.06801
G1 F1802.7 X122.852 Y143.504 E56.08469
G1 X122.724 Y143.53 E56.0925
G1 F1800 X119.725 Y143.53 E56.27223
G1 X119.434 Y143.43 E56.29067
G1 X119.222 Y143.228 E56.30822
G1 X119.002 Y142.972 E56.32844
G1 X118.655 Y142.69 E56.35524
G1 X118.267 Y142.474 E56.38185
G1 X117.857 Y142.336 E56.40778
G1 X117.409 Y142.27 E56.43492
G1 X116.97 Y142.285 E56.46124
G1 X116.531 Y142.381 E56.48817
G1 X116.125 Y142.551 E56.51455
G1 X115.751 Y142.795 E56.54131
G1 X115.429 Y143.099 E56.56785
G1 X115.167 Y143.453 E56.59424
G1 X114.969 Y143.856 E56.62115
G1 X114.85 Y144.283 E56.64771
G1 X114.809 Y144.728 E56.67449
G1 X114.848 Y145.169 E56.70102
G1 X114.962 Y145.592 E56.72728
G1 X115.158 Y145.998 E56.7543
G1 X115.413 Y146.352 E56.78044
G1 X115.741 Y146.664 E56.80757
G1 X116.11 Y146.906 E56.83402
G1 X116.569 Y147.096 E56.86379
G1 X116.948 Y147.179 E56.88704
G1 X117.393 Y147.197 E56.91373
G1 X117.837 Y147.135 E56.94059
G1 X118.256 Y146.996 E56.96705
G1 X118.643 Y146.784 E56.99349
G1 X118.995 Y146.501 E57.02056
G1 X119.283 Y146.167 E57.04699
G1 X119.514 Y145.775 E57.07426
G1 X119.621 Y145.547 E57.08935
G1 X119.888 Y145.345 E57.10941
G1 X120.014 Y145.295 E57.11754
G1 X120.071 Y145.291 E57.12096
G1 X122.934 Y145.291 E57.29254
G1 X168.516 Y145.291 E60.02418
G1 X168.821 Y145.333 E60.04263
G1 X169.285 Y145.574 E60.07396
G1 X169.355 Y145.627 E60.07923
G1 X183.011 Y159.286 E61.23671
G1 X183.023 Y159.29 E61.23747
G1 X185.194 Y159.29 E61.36758
G1 X185.194 Y142.073 E62.39936
G0 F1620 X185.194 Y140.71
G0 F6000 X184.874 Y140.71
G1 F2100 E57.39936
G1 F300 Z0.56
G0 F6000 X122.934 Y144.402 Z0.56
;TYPE:WALL-INNER
G1 F300 Z0.24
G1 F2100 E62.39936
G1 F1070.3 X122.724 Y144.41 E62.42077
G1 F1079 X120.071 Y144.41 E62.68891
G1 F1069.3 X119.861 Y144.419 E62.71035
G1 F2100 E57.71035
G1 F300 Z0.56
G0 F6000 X116.829 Y144.765 Z0.56
;TYPE:SKIN
G1 F300 Z0.24
G1 F2100 E62.71035
G1 F1367.1 X116.918 Y144.989 E62.72937
G1 X117.113 Y145.145 E62.74907
G1 X117.372 Y145.167 E62.76958
G1 X117.623 Y145.01 E62.79294
G1 X117.797 Y144.7 E62.82099
G1 X117.814 Y144.668 E62.82385
G1 X117.624 Y144.445 E62.84697
G1 X117.381 Y144.297 E62.86942
G1 X117.11 Y144.332 E62.89098
G0 F1620 X117.092 Y144.334
G0 X116.891 Y144.501
G0 X116.829 Y144.765
G1 F2100 E57.89098
G1 F300 Z0.56
G0 F6000 X125.842 Y143.36 Z0.56
G1 F300 Z0.24
G1 F2100 E62.89098
G1 F1650 X132.958 Y143.36 E63.35619
G1 X140.074 Y143.36 E63.82141
G1 X147.19 Y143.36 E64.28663
G1 X154.306 Y143.36 E64.75184
G1 X161.422 Y143.36 E65.21706
G1 X168.538 Y143.361 E65.68228
G1 F1631.9 X168.865 Y143.379 E65.70393
G1 F1596.8 X169.108 Y143.407 E65.72045
G1 F1601.1 X169.172 Y143.435 E65.72516
G1 F1666.2 X169.503 Y143.569 E65.74827
G1 F1754.8 X169.835 Y143.704 E65.77031
G1 F1800 X170.223 Y143.92 E65.79692
G1 X170.26 Y143.944 E65.79956
G1 X170.669 Y144.257 E65.83043
G1 X170.702 Y144.286 E65.83306
G1 X183.294 Y156.881 E66.90037
G1 X183.294 Y146.79 E67.50511
G1 X183.294 Y142.61 E67.75561
G1 X170.02 Y142.61 E68.55109
G1 F1754.8 X169.663 Y142.628 E68.57307
G1 F1666.2 X169.306 Y142.646 E68.59621
G1 F1620.7 X168.92 Y142.648 E68.6219
G1 F1631.9 X168.562 Y142.64 E68.64557
G1 F1650 X161.562 Y142.64 E69.1032
G1 X154.562 Y142.64 E69.56083
G1 X147.562 Y142.64 E70.01847
G1 X140.562 Y142.64 E70.4761
G1 X133.562 Y142.64 E70.93373
G1 X126.907 Y142.64 E71.36881
G0 F1620 X126.562 Y142.64
G0 X125.842 Y143.36
G1 F2100 E66.36881
G1 F300 Z0.56
G0 F6000 X170.009 Y142.941 Z0.56
G1 F300 Z0.24
