;FLAVOR:Marlin
;TIME:8042
;Filament used: 15.5744m
;Layer height: 0.32
;MINX:77.922
;MINY:107.578
;MINZ:0.24
;MAXX:231.722
;MAXY:201.363
;MAXZ:37.04
;Generated with Cura_SteamEngine 5.0.0
M140 S70
M105
M190 S70
M104 S245
M105
M109 S245
M82 ;absolute extrusion mode
; Ender 3 Max Custom Start G-code
G92 E0 ; Reset Extruder
G28 ; Home all axes
G1 Z2.0 F3000 ; Move Z Axis up little to prevent scratching of Heat Bed
G1 X0.1 Y20 Z0.3 F5000.0 ; Move to start position
G1 X0.1 Y200.0 Z0.3 F1500.0 E15 ; Draw the first line
G1 X0.4 Y200.0 Z0.3 F5000.0 ; Move to side a little
G1 X0.4 Y20 Z0.3 F1500.0 E30 ; Draw the second line
G92 E0 ; Reset Extruder
G1 Z2.0 F3000 ; Move Z Axis up little to prevent scratching of Heat Bed
G1 X5 Y20 Z0.3 F5000.0 ; Move over to prevent blob squish
G92 E0
G92 E0
G1 F2100 E-5
;LAYER_COUNT:116
;LAYER:0
M107
G1 F300 Z0.56
G0 F6000 X82.289 Y109.504 Z0.56
G1 F300 Z0.56
G0 F6000 X77.925 Y118.385
;TYPE:SKIRT
G1 F300 Z0.24
G1 F2100 E0
G1 F1800 X77.94 Y117.709 E0.04898
G1 X78 Y116.802 E0.11483
G1 X78.139 Y115.904 E0.18066
G1 X78.357 Y115.022 E0.24647
G1 X78.652 Y114.162 E0.31233
G1 X79.021 Y113.331 E0.3782
G1 X79.462 Y112.537 E0.44399
G1 X79.755 Y112.086 E0.48295
G1 X80.3 Y111.359 E0.54877
G1 X80.908 Y110.683 E0.61464
G1 X81.572 Y110.063 E0.68044
G1 X82.289 Y109.504 E0.7463
G1 X83.052 Y109.01 E0.81215
G1 X83.855 Y108.585 E0.87796
G1 X84.692 Y108.232 E0.94377
G1 X85.558 Y107.954 E1.00966
G1 X86.444 Y107.753 E1.07547
G1 X87.345 Y107.631 E1.14133
G1 X88.137 Y107.59 E1.19878
G1 X89.002 Y107.579 E1.26145
G1 X220.661 Y107.578 E10.7989
G1 X221.51 Y107.589 E10.86041
G1 X222.417 Y107.642 E10.92623
G1 X223.317 Y107.774 E10.99212
G1 X224.201 Y107.985 E11.05796
G1 X225.063 Y108.273 E11.12379
G1 X225.896 Y108.636 E11.18962
G1 X226.694 Y109.07 E11.25542
G1 X227.451 Y109.573 E11.32126
G1 X228.161 Y110.14 E11.38708
G1 X228.819 Y110.768 E11.45297
G1 X229.418 Y111.451 E11.51878
G1 X229.956 Y112.184 E11.58465
G1 X230.426 Y112.962 E11.65049
G1 X230.827 Y113.777 E11.71629
G1 X231.154 Y114.625 E11.78213
G1 X231.406 Y115.499 E11.84802
G1 X231.579 Y116.391 E11.91384
G1 X231.661 Y117.106 E11.96598
G1 X231.69 Y117.474 E11.99272
G1 X231.722 Y118.286 E12.05159
G1 X231.722 Y175.106 E16.16766
G1 X231.712 Y175.841 E16.22091
G1 X231.66 Y176.748 E16.28672
G1 X231.528 Y177.647 E16.35254
G1 X231.317 Y178.531 E16.41838
G1 X231.03 Y179.393 E16.48419
G1 X230.668 Y180.227 E16.55005
G1 X230.234 Y181.026 E16.61592
G1 X229.732 Y181.783 E16.68172
G1 X229.165 Y182.493 E16.74754
G1 X228.538 Y183.151 E16.81338
G1 X227.855 Y183.751 E16.87924
G1 X227.122 Y184.289 E16.9451
G1 X226.345 Y184.76 E17.01093
G1 X225.53 Y185.161 E17.07672
G1 X224.682 Y185.489 E17.14259
G1 X223.809 Y185.741 E17.20841
G1 X222.917 Y185.915 E17.27425
G1 X222.083 Y186.006 E17.33502
G1 X221.538 Y186.043 E17.37459
G1 X220.838 Y186.067 E17.42533
G1 X88.836 Y186.067 E26.98763
G1 X88.134 Y186.057 E27.03849
G1 X87.227 Y186.004 E27.1043
G1 X86.327 Y185.872 E27.1702
G1 X85.443 Y185.661 E27.23603
G1 X84.581 Y185.373 E27.30187
G1 X83.748 Y185.01 E27.36769
G1 X82.95 Y184.576 E27.4335
G1 X82.193 Y184.073 E27.49934
G1 X81.483 Y183.506 E27.56516
G1 X80.825 Y182.878 E27.63105
G1 X80.226 Y182.195 E27.69686
G1 X79.688 Y181.462 E27.76273
G1 X79.218 Y180.684 E27.82857
G1 X78.817 Y179.869 E27.89437
G1 X78.49 Y179.021 E27.96021
G1 X78.238 Y178.147 E28.0261
G1 X78.065 Y177.255 E28.09192
G1 X77.982 Y176.524 E28.14521
G1 X77.953 Y176.149 E28.17246
G1 X77.922 Y175.353 E28.23017
G1 X77.925 Y119.748 E32.25823
G0 F1620 X77.925 Y118.385
G1 F2100 E27.25823
G1 F300 Z0.56
;MESH:mp3dp-pi-case-top.stl
G0 F6000 X113.685 Y119.559 Z0.56
;TYPE:WALL-INNER
G1 F300 Z0.24
G1 F2100 E32.25823
G1 F1800 X89.901 Y119.558 E33.69922
G1 X89.902 Y174.088 E37.00301
G1 X113.671 Y174.087 E38.44309
G1 X113.643 Y173.902 E38.45443
G1 X113.642 Y120.918 E41.66455
G0 F1620 X113.642 Y119.742
G0 X113.685 Y119.559
G0 F6000 X114.763 Y118.9
G1 F1800 X101.772 Y118.898 E42.45163
G1 X89.241 Y118.898 E43.21085
G1 X89.242 Y174.748 E46.59461
G1 X114.08 Y174.747 E48.09946
G1 X114.747 Y174.746 E48.13987
G1 X114.388 Y174.324 E48.17344
G1 X114.303 Y173.902 E48.19952
G1 X114.302 Y120.107 E51.45878
G0 F1620 X114.302 Y119.742
G0 X114.409 Y119.292
G0 X114.491 Y119.131
G0 X114.763 Y118.9
G1 F2100 E46.45878
G1 F300 Z0.56
G0 F6000 X195.958 Y174.086 Z0.56
G1 F300 Z0.24
G1 F2100 E51.45878
G1 F1800 X219.743 Y174.087 E52.89984
G1 X219.743 Y119.557 E56.20363
G1 X195.974 Y119.559 E57.64371
G1 X196.002 Y119.743 E57.65499
G1 X196.002 Y172.728 E60.86517
G0 F1620 X196.002 Y173.903
G0 X195.958 Y174.086
G0 F6000 X194.878 Y174.747
G1 F1800 X220.403 Y174.747 E62.41165
G1 X220.403 Y118.897 E65.79541
G1 X194.898 Y118.899 E67.34067
G1 X195.257 Y119.321 E67.37424
G1 X195.342 Y119.743 E67.40032
G1 X195.342 Y173.541 E70.65976
G0 F1620 X195.342 Y173.903
G0 X195.234 Y174.353
G0 X195.152 Y174.513
G0 X194.878 Y174.747
G1 F2100 E65.65976
G1 F300 Z0.56
G0 F6000 X115.492 Y119.135 Z0.56
;TYPE:WALL-OUTER
G1 F300 Z0.24
G1 F2100 E70.65976
G1 F1454.1 X194.153 Y119.135 E76.49513
G1 F1603.2 X194.465 Y119.328 E76.51982
G1 F1794.6 X194.629 Y119.523 E76.53513
G1 F1800 X194.667 Y119.641 E76.54256
G1 X194.682 Y119.743 E76.54874
G1 X194.682 Y173.903 E79.79445
G1 X194.564 Y174.214 E79.81438
G1 F1675.6 X194.386 Y174.425 E79.83215
G1 F1507.6 X194.151 Y174.511 E79.85006
G1 F1452.3 X115.492 Y174.511 E85.69242
G1 F1603.2 X115.18 Y174.317 E85.71714
G1 F1794.6 X115.016 Y174.122 E85.73245
G1 F1800 X114.963 Y173.902 E85.74601
G1 X114.962 Y119.742 E88.99172
G1 X115.079 Y119.431 E89.01163
G1 F1678 X115.257 Y119.221 E89.02933
G1 F1509.5 X115.492 Y119.135 E89.04721
G0 F6000 X115.812 Y119.135
G1 F2100 E84.04721
G1 F300 Z0.56
G0 F6000 X88.581 Y118.238 Z0.56
G1 F300 Z0.24
G1 F2100 E89.04721
G1 F1800 X88.582 Y175.408 E92.4733
G1 X114.08 Y175.407 E94.00135
G1 F1794.6 X114.919 Y175.405 E94.05178
G1 F1689.9 X115.205 Y175.367 E94.0702
G1 F1525 X115.492 Y175.329 E94.09068
G1 F1452.3 X194.151 Y175.329 E99.93304
G1 F1475.8 X194.408 Y175.341 E99.95184
G1 F1532.9 X194.532 Y175.358 E99.96065
G1 F1603.2 X194.786 Y175.374 E99.97777
G1 F1675.6 X195.041 Y175.39 E99.99422
G1 F1757.4 X195.295 Y175.407 E100.00985
G1 F1800 X221.063 Y175.407 E101.55408
G1 X221.063 Y118.237 E104.98017
G1 X195.565 Y118.238 E106.50821
G1 F1794.6 X194.726 Y118.241 E106.55864
G1 F1689.9 X194.44 Y118.279 E106.57706
G1 F1525 X194.153 Y118.317 E106.59754
G1 F1454.1 X115.492 Y118.317 E112.43291
G1 F1477.6 X115.235 Y118.304 E112.45169
G1 F1534.9 X115.111 Y118.287 E112.46049
G1 F1605.4 X114.858 Y118.272 E112.47752
G1 F1678 X114.604 Y118.256 E112.49388
G1 F1757.4 X114.35 Y118.24 E112.5095
G1 F1800 X88.581 Y118.238 E114.05379
G0 F6000 X88.581 Y118.558
G1 F2100 E109.05379
G1 F300 Z0.56
G0 F6000 X90.481 Y120.138 Z0.56
;TYPE:SKIN
G1 F300 Z0.24
G1 F2100 E114.05379
G1 F1800 X90.482 Y173.508 E117.25215
G1 X113.063 Y173.508 E118.60539
G1 X113.063 Y131.429 E121.1271
G1 X113.062 Y120.139 E121.80369
G1 X91.844 Y120.138 E123.07525
G0 F1620 X90.481 Y120.138
G1 F2100 E118.07525
G1 F300 Z0.56
G0 F6000 X112.732 Y121.133 Z0.56
G1 F300 Z0.24
G1 F2100 E123.07525
G1 F1800 X112.067 Y120.468 E123.13161
G0 F6000 X111.134 Y120.468
G1 F1800 X112.732 Y122.066 E123.26704
G0 F6000 X112.732 Y122.999
G1 F1800 X110.201 Y120.468 E123.48154
G0 F6000 X109.267 Y120.468
G1 F1800 X112.732 Y123.933 E123.77521
G0 F6000 X112.732 Y124.866
G1 F1800 X108.334 Y120.468 E124.14794
G0 F6000 X107.401 Y120.468
G1 F1800 X112.732 Y125.799 E124.59975
G0 F6000 X112.732 Y126.733
G1 F1800 X106.467 Y120.468 E125.13072
G0 F6000 X105.534 Y120.468
G1 F1800 X112.732 Y127.666 E125.74075
G0 F6000 X112.732 Y128.6
G1 F1800 X104.6 Y120.468 E126.42995
G0 F6000 X103.667 Y120.468
G1 F1800 X112.732 Y129.533 E127.19822
G0 F6000 X112.732 Y130.466
G1 F1800 X102.734 Y120.468 E128.04556
G0 F6000 X101.8 Y120.468
G1 F1800 X112.732 Y131.4 E128.97206
G0 F6000 X112.732 Y132.333
G1 F1800 X100.866 Y120.467 E129.97772
G0 F6000 X99.933 Y120.467
G1 F1800 X112.732 Y133.267 E131.06249
G0 F6000 X112.732 Y134.2
G1 F1800 X98.999 Y120.467 E132.22638
G0 F6000 X98.066 Y120.467
G1 F1800 X112.732 Y135.133 E133.46934
G0 F6000 X112.732 Y136.067
G1 F1800 X97.133 Y120.467 E134.79141
G0 F6000 X96.199 Y120.467
G1 F1800 X112.732 Y137 E136.1926
G0 F6000 X112.732 Y137.933
G1 F1800 X95.266 Y120.467 E137.67287
G0 F6000 X94.332 Y120.467
G1 F1800 X112.732 Y138.867 E139.23229
G0 F6000 X112.732 Y139.8
G1 F1800 X93.399 Y120.467 E140.87078
G0 F6000 X92.466 Y120.467
G1 F1800 X112.732 Y140.734 E142.58839
G0 F6000 X112.732 Y141.667
G1 F1800 X91.532 Y120.467 E144.38512
G0 F6000 X90.81 Y120.679
G1 F1800 X112.732 Y142.6 E146.24299
G0 F6000 X112.732 Y143.534
G1 F1800 X90.81 Y121.612 E148.1009
G0 F6000 X90.81 Y122.545
G1 F1800 X112.732 Y144.467 E149.95882
G0 F6000 X112.732 Y145.4
G1 F1800 X90.81 Y123.479 E151.81669
G0 F6000 X90.81 Y124.412
G1 F1800 X112.732 Y146.334 E153.67461
G0 F6000 X112.732 Y147.267
G1 F1800 X90.81 Y125.345 E155.53252
G0 F6000 X90.81 Y126.279
G1 F1800 X112.732 Y148.201 E157.39043
G0 F6000 X112.732 Y149.134
G1 F1800 X90.81 Y127.212 E159.24835
G0 F6000 X90.81 Y128.146
G1 F1800 X112.732 Y150.067 E161.10622
G0 F6000 X112.732 Y151.001
G1 F1800 X90.81 Y129.079 E162.96414
G0 F6000 X90.81 Y130.012
G1 F1800 X112.732 Y151.934 E164.82205
G0 F6000 X112.732 Y152.868
G1 F1800 X90.81 Y130.946 E166.67997
G0 F6000 X90.81 Y131.879
G1 F1800 X112.732 Y153.801 E168.53788
G0 F6000 X112.732 Y154.734
G1 F1800 X90.81 Y132.813 E170.39575
G0 F6000 X90.81 Y133.746
G1 F1800 X112.732 Y155.668 E172.25367
G0 F6000 X112.732 Y156.601
G1 F1800 X90.81 Y134.679 E174.11158
G0 F6000 X90.81 Y135.613
G1 F1800 X112.732 Y157.534 E175.96945
G0 F6000 X112.732 Y158.468
G1 F1800 X90.81 Y136.546 E177.82737
G0 F6000 X90.81 Y137.479
G1 F1800 X112.732 Y159.401 E179.68528
G0 F6000 X112.732 Y160.335
G1 F1800 X90.81 Y138.413 E181.5432
G0 F6000 X90.81 Y139.346
G1 F1800 X112.732 Y161.268 E183.40111
G0 F6000 X112.732 Y162.201
G1 F1800 X90.81 Y140.28 E185.25898
G0 F6000 X90.81 Y141.213
G1 F1800 X112.732 Y163.135 E187.1169
G0 F6000 X112.732 Y164.068
G1 F1800 X90.81 Y142.146 E188.97481
G0 F6000 X90.81 Y143.08
G1 F1800 X112.732 Y165.001 E190.83269
G0 F6000 X112.732 Y165.935
G1 F1800 X90.81 Y144.013 E192.6906
G0 F6000 X90.81 Y144.946
G1 F1800 X112.732 Y166.868 E194.54852
G0 F6000 X112.732 Y167.802
G1 F1800 X90.81 Y145.88 E196.40643
G0 F6000 X90.81 Y146.813
G1 F1800 X112.732 Y168.735 E198.26435
G0 F6000 X112.732 Y169.668
G1 F1800 X90.811 Y147.747 E200.12218
G0 F6000 X90.811 Y148.681
G1 F1800 X112.732 Y170.602 E201.98001
G0 F6000 X112.732 Y171.535
G1 F1800 X90.811 Y149.614 E203.83783
G0 F6000 X90.811 Y150.547
G1 F1800 X112.732 Y172.469 E205.69571
G0 F6000 X112.507 Y173.177
G1 F1800 X90.811 Y151.481 E207.53447
G0 F6000 X90.811 Y152.414
G1 F1800 X111.574 Y173.177 E209.29416
G0 F6000 X110.64 Y173.177
G1 F1800 X90.811 Y153.348 E210.97469
G0 F6000 X90.811 Y154.281
G1 F1800 X109.707 Y173.177 E212.57614
G0 F6000 X108.774 Y173.177
G1 F1800 X90.811 Y155.214 E214.09853
G0 F6000 X90.811 Y156.148
G1 F1800 X107.84 Y173.177 E215.54176
G0 F6000 X106.907 Y173.177
G1 F1800 X90.811 Y157.081 E216.90591
G0 F6000 X90.811 Y158.015
G1 F1800 X105.974 Y173.177 E218.19095
G0 F6000 X105.04 Y173.177
G1 F1800 X90.811 Y158.948 E219.39687
G0 F6000 X90.811 Y159.881
G1 F1800 X104.107 Y173.177 E220.52373
G0 F6000 X103.173 Y173.177
G1 F1800 X90.811 Y160.815 E221.57142
G0 F6000 X90.811 Y161.748
G1 F1800 X102.24 Y173.177 E222.54004
G0 F6000 X101.307 Y173.177
G1 F1800 X90.811 Y162.681 E223.42959
G0 F6000 X90.811 Y163.615
G1 F1800 X100.373 Y173.177 E224.23998
G0 F6000 X99.44 Y173.177
G1 F1800 X90.811 Y164.548 E224.9713
G0 F6000 X90.811 Y165.482
G1 F1800 X98.507 Y173.177 E225.6235
G0 F6000 X97.573 Y173.177
G1 F1800 X90.811 Y166.415 E226.19659
G0 F6000 X90.811 Y167.348
G1 F1800 X96.64 Y173.177 E226.6906
G0 F6000 X95.706 Y173.177
G1 F1800 X90.811 Y168.282 E227.10546
G0 F6000 X90.811 Y169.215
G1 F1800 X94.773 Y173.177 E227.44124
G0 F6000 X93.84 Y173.177
G1 F1800 X90.811 Y170.148 E227.69795
G0 F6000 X90.811 Y171.082
G1 F1800 X92.906 Y173.177 E227.87551
G0 F6000 X91.973 Y173.177
G1 F1800 X90.811 Y172.015 E227.97399
G0 F6000 X90.811 Y172.949
G1 F1800 X91.039 Y173.177 E227.99331
G1 F2100 E222.99331
G1 F300 Z0.56
G0 F6000 X196.583 Y120.138 Z0.56
G1 F300 Z0.24
G1 F2100 E227.99331
G1 F1800 X196.583 Y173.506 E231.19155
G1 X219.163 Y173.506 E232.54473
G1 X219.163 Y131.428 E235.06639
G1 X219.163 Y120.138 E235.74297
G1 X197.946 Y120.138 E237.01447
G0 F1620 X196.583 Y120.138
G1 F2100 E232.01447
G1 F300 Z0.56
G0 F6000 X218.473 Y120.468 Z0.56
G1 F300 Z0.24
G1 F2100 E237.01447
G1 F1800 X218.832 Y120.827 E237.04489
G0 F6000 X218.832 Y121.76
G1 F1800 X217.539 Y120.468 E237.15444
G0 F6000 X216.606 Y120.468
G1 F1800 X218.832 Y122.694 E237.34309
G0 F6000 X218.832 Y123.627
G1 F1800 X215.673 Y120.468 E237.61082
G0 F6000 X214.739 Y120.468
G1 F1800 X218.832 Y124.561 E237.95771
G0 F6000 X218.832 Y125.494
G1 F1800 X213.806 Y120.468 E238.38367
G0 F6000 X212.873 Y120.468
G1 F1800 X218.832 Y126.427 E238.8887
G0 F6000 X218.832 Y127.361
G1 F1800 X211.939 Y120.468 E239.47289
G0 F6000 X211.006 Y120.468
G1 F1800 X218.832 Y128.294 E240.13615
G0 F6000 X218.832 Y129.228
G1 F1800 X210.072 Y120.468 E240.87857
G0 F6000 X209.139 Y120.468
G1 F1800 X218.832 Y130.161 E241.70006
G0 F6000 X218.832 Y131.094
G1 F1800 X208.206 Y120.468 E242.60063
G0 F6000 X207.272 Y120.468
G1 F1800 X218.832 Y132.028 E243.58035
G0 F6000 X218.832 Y132.961
G1 F1800 X206.339 Y120.468 E244.63915
G0 F6000 X205.406 Y120.468
G1 F1800 X218.832 Y133.894 E245.77702
G0 F6000 X218.832 Y134.828
G1 F1800 X204.472 Y120.468 E246.99404
G0 F6000 X203.539 Y120.468
G1 F1800 X218.832 Y135.761 E248.29014
G0 F6000 X218.832 Y136.695
G1 F1800 X202.605 Y120.468 E249.6654
G0 F6000 X201.672 Y120.468
G1 F1800 X218.832 Y137.628 E251.11973
G0 F6000 X218.832 Y138.561
G1 F1800 X200.739 Y120.468 E252.65313
G0 F6000 X199.805 Y120.468
G1 F1800 X218.832 Y139.495 E254.26569
G0 F6000 X218.832 Y140.428
G1 F1800 X198.872 Y120.468 E255.95733
G0 F6000 X197.938 Y120.468
G1 F1800 X218.832 Y141.361 E257.72807
G0 F6000 X218.832 Y142.295
G1 F1800 X197.005 Y120.468 E259.57794
G0 F6000 X196.912 Y121.308
G1 F1800 X218.832 Y143.228 E261.43568
G0 F6000 X218.832 Y144.162
G1 F1800 X196.912 Y122.241 E263.29347
G0 F6000 X196.912 Y123.175
G1 F1800 X218.832 Y145.095 E265.15121
G0 F6000 X218.832 Y146.028
G1 F1800 X196.912 Y124.108 E267.00896
G0 F6000 X196.912 Y125.041
G1 F1800 X218.832 Y146.962 E268.86675
G0 F6000 X218.832 Y147.895
G1 F1800 X196.912 Y125.975 E270.72449
G0 F6000 X196.912 Y126.908
G1 F1800 X218.832 Y148.829 E272.58228
G0 F6000 X218.832 Y149.762
G1 F1800 X196.912 Y127.842 E274.44002
G0 F6000 X196.912 Y128.775
G1 F1800 X218.832 Y150.695 E276.29777
G0 F6000 X218.832 Y151.629
G1 F1800 X196.912 Y129.708 E278.15556
G0 F6000 X196.912 Y130.642
G1 F1800 X218.832 Y152.562 E280.0133
G0 F6000 X218.832 Y153.495
G1 F1800 X196.912 Y131.575 E281.87105
G0 F6000 X196.912 Y132.508
G1 F1800 X218.832 Y154.429 E283.72884
G0 F6000 X218.832 Y155.362
G1 F1800 X196.912 Y133.442 E285.58658
G0 F6000 X196.912 Y134.375
G1 F1800 X218.832 Y156.296 E287.44437
G0 F6000 X218.832 Y157.229
G1 F1800 X196.912 Y135.309 E289.30211
G0 F6000 X196.912 Y136.242
G1 F1800 X218.832 Y158.162 E291.15986
G0 F6000 X218.832 Y159.096
G1 F1800 X196.912 Y137.175 E293.01765
G0 F6000 X196.912 Y138.109
G1 F1800 X218.832 Y160.029 E294.87539
G0 F6000 X218.832 Y160.962
G1 F1800 X196.912 Y139.042 E296.73314
G0 F6000 X196.912 Y139.976
G1 F1800 X218.832 Y161.896 E298.59088
G0 F6000 X218.832 Y162.829
G1 F1800 X196.912 Y140.909 E300.44863
G0 F6000 X196.912 Y141.842
G1 F1800 X218.832 Y163.763 E302.30641
G0 F6000 X218.832 Y164.696
G1 F1800 X196.912 Y142.776 E304.16416
G0 F6000 X196.912 Y143.709
G1 F1800 X218.832 Y165.629 E306.0219
G0 F6000 X218.832 Y166.563
G1 F1800 X196.912 Y144.642 E307.87969
G0 F6000 X196.912 Y145.576
G1 F1800 X218.832 Y167.496 E309.73744
G0 F6000 X218.832 Y168.43
G1 F1800 X196.912 Y146.509 E311.59522
G0 F6000 X196.912 Y147.443
G1 F1800 X218.832 Y169.363 E313.45297
G0 F6000 X218.832 Y170.296
G1 F1800 X196.912 Y148.376 E315.31072
G0 F6000 X196.912 Y149.309
G1 F1800 X218.832 Y171.23 E317.1685
