;FLAVOR:Marlin
;TIME:1829
;Filament used: 3.04201m
;Layer height: 0.32
;MINX:110.625
;MINY:102.709
;MINZ:0.24
;MAXX:203.632
;MAXY:143.929
;MAXZ:21.36
;Generated with Cura_SteamEngine 5.0.0
M140 S70
M105
M190 S70
M104 S245
M105
M109 S245
M82 ;absolute extrusion mode
; Ender 3 Max Custom Start G-code
G92 E0 ; Reset Extruder
G28 ; Home all axes
G1 Z2.0 F3000 ; Move Z Axis up little to prevent scratching of Heat Bed
G1 X0.1 Y20 Z0.3 F5000.0 ; Move to start position
G1 X0.1 Y200.0 Z0.3 F1500.0 E15 ; Draw the first line
G1 X0.4 Y200.0 Z0.3 F5000.0 ; Move to side a little
G1 X0.4 Y20 Z0.3 F1500.0 E30 ; Draw the second line
G92 E0 ; Reset Extruder
G1 Z2.0 F3000 ; Move Z Axis up little to prevent scratching of Heat Bed
G1 X5 Y20 Z0.3 F5000.0 ; Move over to prevent blob squish
G92 E0
G92 E0
G1 F2100 E-5
;LAYER_COUNT:67
;LAYER:0
M107
G1 F300 Z0.56
G0 F6000 X114.909 Y118.61 Z0.56
G1 F300 Z0.56
G0 F6000 X110.625 Y128.929
;TYPE:SKIRT
G1 F300 Z0.24
G1 F2100 E0
G1 F1800 X110.649 Y127.899 E0.07463
G1 X110.687 Y127.354 E0.11421
G1 X110.792 Y126.422 E0.18215
G1 X111.008 Y125.376 E0.25952
G1 X111.126 Y124.918 E0.29378
G1 X111.398 Y124.021 E0.36169
G1 X111.794 Y123.044 E0.43805
G1 X112.012 Y122.573 E0.47565
G1 X112.442 Y121.74 E0.54356
G1 X112.99 Y120.876 E0.61767
G1 X113.27 Y120.477 E0.65299
G1 X113.841 Y119.733 E0.72092
G1 X114.549 Y118.965 E0.79659
G1 X114.909 Y118.61 E0.83322
G1 X115.604 Y117.981 E0.90112
G1 X116.439 Y117.352 E0.97685
G1 X116.853 Y117.07 E1.01314
G1 X117.65 Y116.576 E1.08106
G1 X118.605 Y116.098 E1.15843
G1 X119.072 Y115.892 E1.1954
G1 X119.945 Y115.55 E1.26332
G1 X120.964 Y115.255 E1.34017
G1 X121.498 Y115.128 E1.37993
G1 X122.419 Y114.95 E1.44788
G1 X123.645 Y114.837 E1.53707
G1 X124.116 Y114.82 E1.57121
G1 X125.053 Y114.826 E1.63909
G1 X125.865 Y114.897 E1.69814
G1 X126.562 Y114.985 E1.74903
G1 X128.983 Y115.326 E1.92614
G1 X131.476 Y115.607 E2.10788
G1 X134.022 Y115.82 E2.29296
G1 X136.505 Y115.957 E2.4731
G1 X139.029 Y116.025 E2.65601
G1 X141.554 Y116.021 E2.83892
G1 X144.042 Y115.947 E3.01923
G1 X146.61 Y115.798 E3.20557
G1 X149.078 Y115.585 E3.38502
G1 X151.577 Y115.298 E3.56724
G1 X154.081 Y114.938 E3.75049
G1 X156.582 Y114.506 E3.93435
G1 X159.002 Y114.018 E4.11319
G1 X161.458 Y113.448 E4.29583
G1 X163.908 Y112.807 E4.47928
G1 X166.346 Y112.095 E4.66327
G1 X168.732 Y111.324 E4.84491
G1 X171.111 Y110.481 E5.02775
G1 X173.403 Y109.596 E5.20573
G1 X175.76 Y108.606 E5.39092
G1 X178.081 Y107.553 E5.57555
G1 X180.339 Y106.452 E5.75753
G1 X182.558 Y105.291 E5.93895
G1 X184.624 Y104.139 E6.1103
G1 X185.462 Y103.718 E6.17824
G1 X186.332 Y103.369 E6.24615
G1 X187.229 Y103.097 E6.31405
G1 X188.567 Y102.839 E6.41276
G1 X188.838 Y102.804 E6.43255
G1 X190.22 Y102.713 E6.53288
G1 X191.909 Y102.709 E6.65523
G1 X192.79 Y102.72 E6.71906
G1 X193.726 Y102.774 E6.78698
G1 X194.654 Y102.906 E6.85488
G1 X195.568 Y103.118 E6.92285
G1 X196.459 Y103.407 E6.9907
G1 X197.324 Y103.77 E7.05866
G1 X198.153 Y104.206 E7.12651
G1 X198.943 Y104.711 E7.19443
G1 X199.687 Y105.282 E7.26237
G1 X200.38 Y105.914 E7.33031
G1 X201.016 Y106.602 E7.39818
G1 X201.591 Y107.342 E7.46607
G1 X202.101 Y108.129 E7.534
G1 X202.542 Y108.956 E7.6019
G1 X202.911 Y109.818 E7.66982
G1 X203.205 Y110.708 E7.73772
G1 X203.423 Y111.62 E7.80565
G1 X203.561 Y112.547 E7.87354
G1 X203.619 Y113.4 E7.93548
G1 X203.632 Y114.029 E7.98105
G1 X203.631 Y132.339 E9.30744
G1 X203.622 Y133.066 E9.36011
G1 X203.571 Y134.002 E9.42801
G1 X203.439 Y134.93 E9.49591
G1 X203.23 Y135.844 E9.56383
G1 X202.943 Y136.736 E9.63171
G1 X202.581 Y137.601 E9.69964
G1 X202.147 Y138.432 E9.76755
G1 X201.643 Y139.223 E9.8355
G1 X201.074 Y139.968 E9.9034
G1 X200.444 Y140.661 E9.97125
G1 X199.756 Y141.299 E10.03922
G1 X199.017 Y141.876 E10.10714
G1 X198.232 Y142.387 E10.17499
G1 X197.405 Y142.83 E10.24295
G1 X196.544 Y143.2 E10.31084
G1 X195.655 Y143.496 E10.37871
G1 X194.743 Y143.716 E10.44668
G1 X193.816 Y143.856 E10.51459
G1 X192.958 Y143.915 E10.57689
G1 X192.329 Y143.929 E10.62247
G1 X133.284 Y143.929 E14.89972
G1 X132.574 Y143.918 E14.95116
G1 X131.638 Y143.863 E15.01908
G1 X130.435 Y143.674 E15.1073
G1 X129.345 Y143.44 E15.18805
G1 X126.762 Y142.922 E15.37889
G1 X124.267 Y142.494 E15.56227
G1 X122.621 Y142.251 E15.6828
G1 X122.043 Y142.15 E15.72531
G1 X121.402 Y142.02 E15.77269
G1 X120.492 Y141.794 E15.84061
G1 X119.508 Y141.454 E15.91603
G1 X119.05 Y141.271 E15.95176
G1 X118.195 Y140.887 E16.01965
G1 X117.274 Y140.367 E16.09627
G1 X116.853 Y140.102 E16.13231
G1 X116.081 Y139.569 E16.20026
G1 X115.296 Y138.916 E16.27423
G1 X114.927 Y138.579 E16.31043
G1 X114.262 Y137.918 E16.37836
G1 X113.581 Y137.104 E16.45524
G1 X113.283 Y136.711 E16.49097
G1 X112.749 Y135.941 E16.55885
G1 X112.235 Y135.036 E16.63424
G1 X111.996 Y134.564 E16.67257
G1 X111.609 Y133.71 E16.74049
G1 X111.263 Y132.717 E16.81666
G1 X111.126 Y132.254 E16.85164
G1 X110.898 Y131.345 E16.91953
G1 X110.74 Y130.337 E16.99344
G1 X110.734 Y130.288 E16.99701
G0 F1620 X110.688 Y129.864
G0 X110.625 Y128.929
G0 F6000 X111.284 Y128.885
G1 F1800 X111.307 Y127.944 E17.0652
G1 X111.345 Y127.399 E17.10478
G1 X111.448 Y126.497 E17.17054
G1 X111.647 Y125.541 E17.24128
G1 X111.765 Y125.083 E17.27554
G1 X112.03 Y124.213 E17.34142
G1 X112.393 Y123.321 E17.41119
G1 X112.611 Y122.85 E17.44878
G1 X113.029 Y122.043 E17.51462
G1 X113.53 Y121.255 E17.58226
G1 X113.81 Y120.856 E17.61757
G1 X114.365 Y120.136 E17.68343
G1 X115.013 Y119.435 E17.75258
G1 X115.373 Y119.08 E17.78921
G1 X116.047 Y118.471 E17.85501
G1 X116.811 Y117.897 E17.92424
G1 X117.225 Y117.615 E17.96052
G1 X117.997 Y117.137 E18.0263
G1 X118.871 Y116.702 E18.09702
G1 X119.338 Y116.496 E18.134
G1 X120.185 Y116.166 E18.19984
G1 X121.117 Y115.897 E18.27012
G1 X121.651 Y115.77 E18.30988
G1 X122.543 Y115.599 E18.37567
G1 X123.668 Y115.497 E18.4575
G1 X124.139 Y115.48 E18.49164
G1 X125.048 Y115.487 E18.55749
G1 X125.783 Y115.552 E18.61094
G1 X126.47 Y115.638 E18.6611
G1 X128.925 Y115.984 E18.8407
G1 X131.416 Y116.264 E19.02229
G1 X133.965 Y116.478 E19.20759
G1 X136.487 Y116.617 E19.39056
G1 X139.013 Y116.685 E19.57361
G1 X141.574 Y116.681 E19.75913
G1 X144.064 Y116.607 E19.93959
G1 X146.635 Y116.458 E20.12614
G1 X149.173 Y116.239 E20.31068
G1 X151.643 Y115.955 E20.49079
G1 X154.179 Y115.59 E20.67639
G1 X156.715 Y115.152 E20.86282
G1 X159.121 Y114.668 E21.0406
G1 X161.657 Y114.079 E21.2292
G1 X164.083 Y113.444 E21.41086
G1 X166.514 Y112.734 E21.59432
G1 X168.946 Y111.948 E21.77947
G1 X171.318 Y111.108 E21.96176
G1 X173.687 Y110.193 E22.14572
G1 X176.049 Y109.201 E22.33131
G1 X178.334 Y108.165 E22.51305
G1 X180.612 Y107.054 E22.69665
G1 X182.874 Y105.869 E22.88164
G1 X184.945 Y104.715 E23.05338
G1 X185.758 Y104.308 E23.11924
G1 X186.603 Y103.974 E23.18506
G1 X187.474 Y103.715 E23.25089
G1 X188.652 Y103.493 E23.33772
G1 X188.923 Y103.458 E23.35752
G1 X190.222 Y103.373 E23.45182
G1 X191.911 Y103.369 E23.57417
G1 X192.781 Y103.38 E23.6372
G1 X193.688 Y103.433 E23.70302
G1 X194.587 Y103.566 E23.76885
G1 X195.471 Y103.777 E23.83469
G1 X196.333 Y104.065 E23.90052
G1 X197.167 Y104.427 E23.96638
G1 X197.965 Y104.862 E24.03222
G1 X198.722 Y105.364 E24.09802
G1 X199.432 Y105.932 E24.16389
G1 X200.089 Y106.56 E24.22973
G1 X200.689 Y107.243 E24.29558
G1 X201.226 Y107.976 E24.36141
G1 X201.697 Y108.753 E24.42723
G1 X202.097 Y109.569 E24.49306
G1 X202.424 Y110.417 E24.5589
G1 X202.676 Y111.29 E24.62472
G1 X202.85 Y112.182 E24.69056
G1 X202.959 Y113.419 E24.78051
G1 X202.972 Y114.029 E24.82471
G1 X202.971 Y132.331 E26.15052
G1 X202.962 Y133.058 E26.20319
G1 X202.911 Y133.965 E26.26899
G1 X202.78 Y134.865 E26.33488
G1 X202.571 Y135.749 E26.40068
G1 X202.285 Y136.612 E26.46654
G1 X201.924 Y137.446 E26.53237
G1 X201.491 Y138.245 E26.5982
G1 X200.989 Y139.003 E26.66406
G1 X200.423 Y139.714 E26.7299
G1 X199.797 Y140.372 E26.79569
G1 X199.115 Y140.973 E26.86154
G1 X198.383 Y141.512 E26.92739
G1 X197.606 Y141.984 E26.99325
G1 X196.791 Y142.386 E27.05908
G1 X195.944 Y142.715 E27.1249
G1 X195.071 Y142.968 E27.19074
G1 X194.179 Y143.144 E27.25661
G1 X192.939 Y143.255 E27.34679
G1 X192.329 Y143.269 E27.39099
G1 X133.294 Y143.269 E31.66752
G1 X132.584 Y143.258 E31.71896
G1 X131.677 Y143.204 E31.78478
G1 X130.574 Y143.028 E31.86569
G1 X129.471 Y142.791 E31.94742
G1 X126.9 Y142.276 E32.13736
G1 X124.381 Y141.844 E32.32251
G1 X122.718 Y141.598 E32.44428
G1 X122.174 Y141.503 E32.48429
G1 X121.533 Y141.373 E32.53167
G1 X120.651 Y141.153 E32.59752
G1 X119.753 Y140.842 E32.66636
G1 X119.295 Y140.659 E32.70209
G1 X118.467 Y140.285 E32.76791
G1 X117.625 Y139.808 E32.83801
G1 X117.204 Y139.543 E32.87404
G1 X116.457 Y139.026 E32.93985
G1 X115.741 Y138.429 E33.00739
G1 X115.372 Y138.092 E33.04359
G1 X114.728 Y137.45 E33.10946
G1 X114.107 Y136.705 E33.17972
G1 X113.809 Y136.312 E33.21545
G1 X113.292 Y135.565 E33.28126
G1 X112.824 Y134.738 E33.35009
G1 X112.585 Y134.266 E33.38842
G1 X112.211 Y133.437 E33.4543
G1 X111.896 Y132.53 E33.52385
G1 X111.759 Y132.067 E33.55883
G1 X111.539 Y131.185 E33.62468
G1 X111.396 Y130.265 E33.69212
G1 X111.393 Y130.245 E33.69359
G0 F1620 X111.344 Y129.792
G0 X111.284 Y128.885
G1 F2100 E28.69359
G1 F300 Z0.56
;MESH:mp3dp-pi-case-arm-right.stl
G0 F6000 X125.759 Y128.826 Z0.56
;TYPE:WALL-INNER
G1 F300 Z0.24
G1 F2100 E33.69359
G1 F1800 X125.863 Y128.768 E33.7008
G1 X125.663 Y128.506 E33.72077
G1 X125.377 Y128.021 E33.75489
G1 X125.196 Y127.775 E33.77339
G1 X124.94 Y127.589 E33.79256
G1 X124.658 Y127.476 E33.81097
G1 X124.355 Y127.45 E33.82939
G1 X124.05 Y127.5 E33.84812
G1 X123.77 Y127.636 E33.86698
G1 X123.534 Y127.835 E33.88568
G1 X123.374 Y128.083 E33.90356
G1 X123.271 Y128.38 E33.92261
G1 X123.261 Y128.689 E33.94134
G1 X123.326 Y128.988 E33.95988
G1 X123.475 Y129.254 E33.97835
G1 X123.689 Y129.483 E33.99734
G1 X123.945 Y129.628 E34.01517
G1 X124.175 Y129.707 E34.0299
G1 X124.452 Y129.726 E34.04672
G1 X124.712 Y129.673 E34.0628
G0 F1620 X124.753 Y129.665
G0 X125.03 Y129.533
G0 X125.259 Y129.323
G0 X125.438 Y129.113
G0 X125.759 Y128.826
G0 F6000 X126.761 Y128.921
G1 F1062.6 X126.84 Y128.884 E34.07175
G1 F1172.8 X126.6 Y128.654 E34.10266
G1 F1548.9 X126.418 Y128.401 E34.12461
G1 F1800 X126.232 Y128.171 E34.14253
G1 X125.949 Y127.69 E34.17634
G1 X125.76 Y127.42 E34.19631
G1 X125.539 Y127.203 E34.21507
G1 X125.258 Y127.011 E34.23569
G1 X124.972 Y126.886 E34.2546
G1 X124.649 Y126.809 E34.27472
G1 X124.331 Y126.79 E34.29402
G1 X124.007 Y126.833 E34.31383
G1 X123.703 Y126.929 E34.33314
G1 X123.409 Y127.083 E34.35325
G1 X123.164 Y127.276 E34.37214
G1 X122.945 Y127.523 E34.39214
G1 X122.78 Y127.795 E34.41142
G1 X122.663 Y128.105 E34.43149
G1 X122.605 Y128.422 E34.45102
G1 X122.604 Y128.749 E34.47083
G1 X122.661 Y129.062 E34.49011
G1 X122.776 Y129.366 E34.5098
G1 X122.942 Y129.643 E34.52936
G1 X123.154 Y129.885 E34.54886
G1 X123.406 Y130.086 E34.56839
G1 X123.696 Y130.239 E34.58825
G1 X123.92 Y130.33 E34.6029
G1 X124.25 Y130.378 E34.6231
G1 X124.642 Y130.366 E34.64687
G1 X124.962 Y130.291 E34.66678
G1 X125.253 Y130.164 E34.68601
G1 X125.524 Y129.982 E34.70579
G1 X125.762 Y129.75 E34.72593
G1 X125.938 Y129.544 E34.74235
G1 X126.13 Y129.372 E34.75796
G1 F1791.9 X126.429 Y129.217 E34.77846
G1 F1357.7 X126.761 Y128.921 E34.81419
G1 F2100 E29.81419
G1 F300 Z0.56
G0 F6000 X131.487 Y129.347 Z0.56
G1 F300 Z0.24
G1 F2100 E34.81419
G1 F1800 X133.428 Y131.29 E34.98058
G1 X190.992 Y131.289 E38.46819
G1 X190.992 Y115.566 E39.4208
G1 X190.992 Y115.349 E39.43395
G1 X190.686 Y115.349 E39.45249
G1 X177.423 Y128.609 E40.58876
G1 X177.238 Y128.768 E40.60354
G1 X177.034 Y128.919 E40.61892
G1 X176.48 Y129.187 E40.65621
G1 X176.09 Y129.291 E40.68066
G1 X175.661 Y129.347 E40.70687
G1 X132.85 Y129.347 E43.30065
G0 F1620 X131.487 Y129.347
G1 F2100 E38.30065
G1 F300 Z0.56
G0 F6000 X191.652 Y114.689 Z0.56
G1 F300 Z0.24
G1 F2100 E43.30065
G1 F1800 X190.413 Y114.689 E43.37572
G1 X176.957 Y128.142 E44.52853
G1 X176.642 Y128.388 E44.55275
G1 X176.309 Y128.549 E44.57515
G1 X175.918 Y128.654 E44.59968
G1 X175.661 Y128.687 E44.61538
G1 X130.481 Y128.688 E47.35269
G1 F1697.1 X130.328 Y128.728 E47.36285
G1 F1429.6 X130.085 Y128.818 E47.38262
G1 F1175.1 X129.841 Y128.908 E47.40675
G1 F1289.9 X130.24 Y129.168 E47.44702
G1 F1650 X130.462 Y129.322 E47.46488
G1 F1747.1 X130.684 Y129.477 E47.48178
G1 F1800 X133.155 Y131.95 E47.69358
G1 X191.652 Y131.949 E51.23772
G1 X191.652 Y116.052 E52.20087
G0 F1620 X191.652 Y115.566
G0 X191.652 Y114.689
G1 F2100 E47.20087
G1 F300 Z0.56
G0 F6000 X127.189 Y128.027 Z0.56
;TYPE:WALL-OUTER
G1 F300 Z0.24
G1 F2100 E52.20087
G1 F1802.7 X126.94 Y127.965 E52.21622
G1 X126.801 Y127.837 E52.22753
G1 F1800 X126.518 Y127.352 E52.26118
G1 X126.262 Y126.99 E52.28775
G1 X125.957 Y126.692 E52.3133
G1 X125.769 Y126.538 E52.32787
G1 X125.386 Y126.328 E52.35405
G1 X124.963 Y126.186 E52.38078
G1 X124.521 Y126.123 E52.40754
G1 X124.081 Y126.139 E52.43393
G1 X123.646 Y126.237 E52.46065
G1 X123.231 Y126.411 E52.48762
G1 X122.867 Y126.649 E52.51368
G1 X122.54 Y126.959 E52.54068
G1 X122.282 Y127.31 E52.56679
G1 X122.086 Y127.714 E52.5937
G1 X121.967 Y128.142 E52.62032
G1 X121.927 Y128.587 E52.6471
G1 X121.967 Y129.028 E52.67363
G1 X122.085 Y129.453 E52.70007
G1 X122.278 Y129.853 E52.72668
G1 X122.539 Y130.211 E52.75323
G1 X122.865 Y130.522 E52.78023
G1 X123.235 Y130.764 E52.80673
G1 X123.69 Y130.95 E52.83618
G1 X124.073 Y131.032 E52.85966
G1 X124.52 Y131.05 E52.88647
G1 X124.961 Y130.987 E52.91316
G1 X125.38 Y130.847 E52.93964
G1 X125.769 Y130.633 E52.96624
G1 X126.117 Y130.351 E52.99309
G1 X126.437 Y129.976 E53.02263
G1 F1802.7 X126.704 Y129.822 E53.04107
G1 X127.189 Y129.791 E53.07015
G1 F1800 X129.841 Y129.789 E53.22908
G1 X130.111 Y129.873 E53.24603
G1 X130.217 Y129.944 E53.25368
G1 X132.881 Y132.61 E53.47954
G1 X192.312 Y132.609 E57.04112
G1 X192.312 Y115.566 E58.06248
G1 X192.312 Y114.029 E58.15459
G1 X190.139 Y114.029 E58.28481
G1 X176.49 Y127.675 E59.44145
G1 X176.249 Y127.858 E59.45959
G1 X175.747 Y128.016 E59.49113
G1 X175.661 Y128.027 E59.49632
G1 X128.552 Y128.027 E62.31948
G0 F1620 X127.189 Y128.027
G0 F6000 X126.94 Y127.965
G0 X126.893 Y127.922
G0 X126.84 Y128.884
;TYPE:WALL-INNER
G1 F1053.2 X127.189 Y128.909 E62.35571
G1 F1077.1 X129.841 Y128.908 E62.62423
G1 F2100 E57.62423
G1 F300 Z0.56
G0 F6000 X132.959 Y129.958 Z0.56
;TYPE:SKIN
G1 F300 Z0.24
G1 F2100 E62.62423
G1 F1645.4 X133.68 Y130.679 E62.69108
G1 X175.714 Y130.678 E65.44673
G1 F1629.6 X176.059 Y130.671 E65.46957
G1 F1631.9 X176.182 Y130.679 E65.47772
G1 F1685.1 X176.461 Y130.694 E65.49561
G1 F1760 X176.74 Y130.709 E65.51273
G1 F1800 X190.412 Y130.709 E66.33207
G1 X190.412 Y116.443 E67.187
G1 X177.817 Y129.035 E68.25431
G1 X177.58 Y129.238 E68.27302
G1 X177.383 Y129.382 E68.28764
G1 X177.331 Y129.414 E68.2913
G1 X176.681 Y129.728 E68.33456
G1 X176.619 Y129.75 E68.3385
G1 F1757.4 X176.34 Y129.838 E68.35646
G1 F1673.2 X176.06 Y129.926 E68.37538
G1 F1640.9 X175.684 Y129.957 E68.40018
G1 F1645.4 X132.959 Y129.958 E71.20114
G1 F2100 E66.20114
G1 F300 Z0.56
G0 F6000 X176.729 Y130.06 Z0.56
G1 F300 Z0.24
G1 F2100 E71.20114
G1 F1800 X177.048 Y130.379 E71.22817
G0 F6000 X177.366 Y129.763
G1 F1800 X177.981 Y130.379 E71.28034
G0 F6000 X178.914 Y130.379
G1 F1800 X177.917 Y129.381 E71.36487
G0 F6000 X178.394 Y128.925
G1 F1800 X179.848 Y130.379 E71.4881
G0 F6000 X180.781 Y130.379
G1 F1800 X178.861 Y128.458 E71.65087
G0 F6000 X179.327 Y127.991
G1 F1800 X181.715 Y130.379 E71.85325
G0 F6000 X182.648 Y130.379
G1 F1800 X179.794 Y127.525 E72.09513
G0 F6000 X180.261 Y127.058
G1 F1800 X183.581 Y130.379 E72.37655
G0 F6000 X184.515 Y130.379
G1 F1800 X180.728 Y126.591 E72.69754
G0 F6000 X181.194 Y126.125
G1 F1800 X185.448 Y130.379 E73.05808
G0 F6000 X186.382 Y130.379
G1 F1800 X181.661 Y125.658 E73.45819
G0 F6000 X182.128 Y125.191
G1 F1800 X187.315 Y130.379 E73.89783
G0 F6000 X188.248 Y130.379
G1 F1800 X182.594 Y124.725 E74.37701
G0 F6000 X183.061 Y124.258
G1 F1800 X189.182 Y130.379 E74.89578
G0 F6000 X190.081 Y130.345
G1 F1800 X183.528 Y123.791 E75.45119
G0 F6000 X183.994 Y123.325
G1 F1800 X190.081 Y129.411 E75.96703
G0 F6000 X190.081 Y128.478
G1 F1800 X184.461 Y122.858 E76.44333
