;FLAVOR:Marlin
;TIME:3016
;Filament used: 5.52487m
;Layer height: 0.32
;MINX:73.37
;MINY:107.002
;MINZ:0.24
;MAXX:226.63
;MAXY:201.262
;MAXZ:10.48
;Generated with Cura_SteamEngine 5.0.0
M140 S70
M105
M190 S70
M104 S245
M105
M109 S245
M82 ;absolute extrusion mode
; Ender 3 Max Custom Start G-code
G92 E0 ; Reset Extruder
G28 ; Home all axes
G1 Z2.0 F3000 ; Move Z Axis up little to prevent scratching of Heat Bed
G1 X0.1 Y20 Z0.3 F5000.0 ; Move to start position
G1 X0.1 Y200.0 Z0.3 F1500.0 E15 ; Draw the first line
G1 X0.4 Y200.0 Z0.3 F5000.0 ; Move to side a little
G1 X0.4 Y20 Z0.3 F1500.0 E30 ; Draw the second line
G92 E0 ; Reset Extruder
G1 Z2.0 F3000 ; Move Z Axis up little to prevent scratching of Heat Bed
G1 X5 Y20 Z0.3 F5000.0 ; Move over to prevent blob squish
G92 E0
G92 E0
G1 F2100 E-5
;LAYER_COUNT:32
;LAYER:0
M107
G1 F300 Z0.56
G0 F6000 X77.969 Y108.753 Z0.56
G1 F300 Z0.56
G0 F6000 X73.371 Y117.866
;TYPE:SKIRT
G1 F300 Z0.24
G1 F2100 E0
G1 F1800 X73.38 Y117.201 E0.04818
G1 X73.432 Y116.294 E0.11399
G1 X73.564 Y115.395 E0.17981
G1 X73.774 Y114.51 E0.2457
G1 X74.062 Y113.648 E0.31154
G1 X74.424 Y112.815 E0.37733
G1 X74.857 Y112.016 E0.44317
G1 X75.36 Y111.258 E0.50907
G1 X75.927 Y110.548 E0.57489
G1 X76.554 Y109.89 E0.64073
G1 X77.236 Y109.29 E0.70653
G1 X77.969 Y108.753 E0.77235
G1 X78.746 Y108.281 E0.83821
G1 X79.562 Y107.88 E0.90407
G1 X80.409 Y107.552 E0.96987
G1 X81.282 Y107.3 E1.03569
G1 X82.174 Y107.126 E1.10153
G1 X83.419 Y107.015 E1.19208
G1 X84.03 Y107.002 E1.23635
G1 X215.593 Y107.002 E10.76685
G1 X216.439 Y107.013 E10.82814
G1 X217.346 Y107.066 E10.89395
G1 X218.245 Y107.199 E10.95978
G1 X219.129 Y107.41 E11.02562
G1 X219.991 Y107.698 E11.09146
G1 X220.825 Y108.06 E11.15732
G1 X221.623 Y108.495 E11.22316
G1 X222.38 Y108.997 E11.28896
G1 X223.09 Y109.565 E11.35482
G1 X223.747 Y110.193 E11.42066
G1 X224.347 Y110.876 E11.48652
G1 X224.884 Y111.609 E11.55234
G1 X225.355 Y112.386 E11.61816
G1 X225.755 Y113.202 E11.68399
G1 X226.082 Y114.05 E11.74983
G1 X226.334 Y114.923 E11.81566
G1 X226.508 Y115.815 E11.88149
G1 X226.617 Y117.052 E11.97145
G1 X226.63 Y117.662 E12.01564
G1 X226.629 Y190.324 E17.27932
G1 X226.62 Y191.051 E17.33199
G1 X226.569 Y191.958 E17.3978
G1 X226.438 Y192.858 E17.46368
G1 X226.229 Y193.742 E17.52948
G1 X225.943 Y194.605 E17.59534
G1 X225.582 Y195.439 E17.66118
G1 X225.149 Y196.238 E17.72701
G1 X224.647 Y196.996 E17.79287
G1 X224.081 Y197.707 E17.8587
G1 X223.455 Y198.365 E17.92449
G1 X222.773 Y198.966 E17.99034
G1 X222.041 Y199.505 E18.05619
G1 X221.264 Y199.977 E18.12205
G1 X220.449 Y200.379 E18.18788
G1 X219.602 Y200.708 E18.25371
G1 X218.729 Y200.961 E18.31955
G1 X217.837 Y201.137 E18.38541
G1 X216.581 Y201.249 E18.47676
G1 X215.97 Y201.262 E18.52103
G1 X84.274 Y201.261 E28.06116
G1 X83.576 Y201.252 E28.11173
G1 X82.668 Y201.2 E28.17761
G1 X81.769 Y201.069 E28.24343
G1 X80.885 Y200.859 E28.30925
G1 X80.022 Y200.573 E28.37511
G1 X79.188 Y200.211 E28.44097
G1 X78.39 Y199.778 E28.50674
G1 X77.632 Y199.276 E28.5726
G1 X76.921 Y198.71 E28.63843
G1 X76.263 Y198.083 E28.70427
G1 X75.662 Y197.401 E28.77012
G1 X75.124 Y196.668 E28.83599
G1 X74.652 Y195.892 E28.90178
G1 X74.251 Y195.076 E28.96764
G1 X73.922 Y194.229 E29.03347
G1 X73.67 Y193.356 E29.09929
G1 X73.495 Y192.464 E29.16514
G1 X73.383 Y191.202 E29.25692
G1 X73.37 Y190.59 E29.30126
G1 X73.371 Y119.229 E34.47069
G0 F1620 X73.371 Y117.866
G1 F2100 E29.47069
G1 F300 Z0.56
;MESH:spool-cradle-base.stl
G0 F6000 X85.35 Y133.601 Z0.56
;TYPE:WALL-INNER
G1 F300 Z0.24
G1 F2100 E34.47069
G1 F1800 X85.35 Y137.74 E34.72146
G1 X85.765 Y137.033 E34.77113
G1 X86.348 Y136.658 E34.81313
G1 X86.598 Y136.564 E34.82931
G1 X86.846 Y136.497 E34.84488
G1 X87.116 Y136.469 E34.86132
G1 X87.605 Y136.531 E34.89119
G1 X90.889 Y137.465 E35.09804
G1 X91.908 Y137.757 E35.16227
G1 X92.959 Y138.054 E35.22844
G1 F1673.2 X93.257 Y138.087 E35.24798
G1 F1466.7 X93.555 Y138.121 E35.27028
G1 F1305.5 X93.854 Y138.154 E35.29541
G1 X93.64 Y137.976 E35.31866
G1 F1466.7 X93.424 Y137.797 E35.33952
G1 F1673.2 X93.208 Y137.618 E35.3578
G1 F1800 X93.078 Y137.494 E35.36869
G1 X92.682 Y136.904 E35.41174
G1 X92.568 Y136.325 E35.44749
G1 X92.566 Y136.188 E35.45579
G1 X92.69 Y135.541 E35.49571
G1 X93.205 Y134.883 E35.54633
G1 X87.153 Y134.882 E35.913
G1 X86.828 Y134.86 E35.93274
G1 X86.578 Y134.799 E35.94833
G1 X86.349 Y134.703 E35.96337
G1 X86.201 Y134.627 E35.97345
G0 F1620 X86.188 Y134.621
G0 X85.714 Y134.257
G0 X85.367 Y133.657
G0 X85.35 Y133.601
G1 F2100 E30.97345
G1 F300 Z0.56
G0 F6000 X105.331 Y118.982 Z0.56
G1 F300 Z0.24
G1 F2100 E35.97345
G1 F1800 X99.225 Y118.982 E36.3434
G1 X99.358 Y119.09 E36.35378
G1 X99.633 Y119.607 E36.38925
G1 X99.672 Y119.726 E36.39684
G1 X99.75 Y120.232 E36.42786
G1 X99.75 Y126.382 E36.80047
G1 X104.05 Y126.382 E37.06099
G1 X104.05 Y120.731 E37.40337
G1 X104.087 Y120.38 E37.42475
G1 X104.229 Y119.981 E37.45041
G1 X104.305 Y119.833 E37.46049
G0 F1620 X104.311 Y119.82
G0 X104.675 Y119.346
G0 X105.275 Y118.999
G0 X105.331 Y118.982
G1 F2100 E32.46049
G1 F300 Z0.56
G0 F6000 X134.519 Y118.982 Z0.56
G1 F300 Z0.24
G1 F2100 E37.46049
G1 F1800 X134.85 Y119.061 E37.48111
G1 X135.012 Y119.143 E37.49211
G1 X135.557 Y119.591 E37.53485
G1 X135.834 Y120.108 E37.57039
G1 X135.871 Y120.225 E37.57782
G1 X135.95 Y120.732 E37.60891
G1 X135.95 Y126.382 E37.95123
G1 X140.25 Y126.382 E38.21175
G1 X140.25 Y120.231 E38.58442
G1 X140.429 Y119.482 E38.63107
G1 X140.771 Y118.982 E38.66778
G1 X135.882 Y118.982 E38.96398
G0 F1620 X134.519 Y118.982
G1 F2100 E33.96398
G1 F300 Z0.56
G0 F6000 X166.331 Y118.982 Z0.56
G1 F300 Z0.24
G1 F2100 E38.96398
G1 F1800 X160.225 Y118.982 E39.33393
G1 X160.358 Y119.09 E39.34431
G1 X160.633 Y119.607 E39.37979
G1 X160.672 Y119.726 E39.38737
G1 X160.75 Y120.232 E39.41839
G1 X160.75 Y126.382 E39.791
G1 X165.05 Y126.382 E40.05152
G1 X165.05 Y120.731 E40.3939
G1 X165.087 Y120.38 E40.41528
G1 X165.229 Y119.981 E40.44094
G1 X165.305 Y119.833 E40.45102
G0 F1620 X165.311 Y119.82
G0 X165.675 Y119.346
G0 X166.275 Y118.999
G0 X166.331 Y118.982
G1 F2100 E35.45102
G1 F300 Z0.56
G0 F6000 X195.519 Y118.982 Z0.56
G1 F300 Z0.24
G1 F2100 E40.45102
G1 F1800 X195.85 Y119.061 E40.47164
G1 X196.012 Y119.143 E40.48264
G1 X196.557 Y119.591 E40.52538
G1 X196.834 Y120.108 E40.56092
G1 X196.871 Y120.225 E40.56835
G1 X196.95 Y120.732 E40.59944
G1 X196.95 Y126.382 E40.94176
G1 X201.25 Y126.382 E41.20228
G1 X201.25 Y120.231 E41.57495
G1 X201.429 Y119.482 E41.6216
G1 X201.771 Y118.982 E41.65831
G1 X196.882 Y118.982 E41.95451
G0 F1620 X195.519 Y118.982
G1 F2100 E36.95451
G1 F300 Z0.56
G0 F6000 X214.65 Y138.006 Z0.56
G1 F300 Z0.24
G1 F2100 E41.95451
G1 F1800 X214.65 Y134.657 E42.15742
G1 X214.406 Y134.803 E42.17465
G1 X213.9 Y134.882 E42.20567
G1 X206.789 Y134.881 E42.63651
G1 X207.018 Y135.104 E42.65587
G1 X207.152 Y135.299 E42.67021
G1 X207.381 Y135.786 E42.70281
G1 X207.443 Y136.215 E42.72907
G1 X207.374 Y136.713 E42.75953
G1 X207.099 Y137.247 E42.79593
G1 X206.956 Y137.432 E42.81009
G1 F1661.5 X206.785 Y137.64 E42.82777
G1 F1438.3 X206.613 Y137.849 E42.84829
G1 F1269.2 X206.442 Y138.057 E42.87143
G1 X206.735 Y138.03 E42.89671
G1 F1438.3 X207.029 Y138.002 E42.9191
G1 F1661.5 X207.323 Y137.974 E42.93849
G1 F1800 X208.333 Y137.688 E43.00208
G1 X212.393 Y136.531 E43.25786
G1 X212.845 Y136.469 E43.2855
G1 X212.974 Y136.47 E43.29332
G1 X213.502 Y136.561 E43.32578
G1 X213.909 Y136.768 E43.35344
G1 X213.992 Y136.849 E43.36047
G0 F1620 X214.288 Y137.139
G0 X214.429 Y137.331
G0 X214.65 Y138.006
G1 F2100 E38.36047
G1 F300 Z0.56
G0 F6000 X206.145 Y170.109 Z0.56
G1 F300 Z0.24
G1 F2100 E43.36047
G1 F1305.5 X206.36 Y170.288 E43.38384
G1 F1466.7 X206.575 Y170.467 E43.40464
G1 F1673.2 X206.791 Y170.646 E43.42293
G1 F1800 X206.921 Y170.77 E43.43381
G1 X207.318 Y171.36 E43.4769
G1 X207.432 Y171.939 E43.51265
G1 X207.386 Y172.489 E43.54609
G1 X207.185 Y172.964 E43.57734
G1 X206.8 Y173.381 E43.61172
G1 X207.418 Y173.383 E43.64917
G1 X212.165 Y173.381 E43.93677
G1 X213.901 Y173.382 E44.04195
G1 X214.65 Y173.562 E44.08862
G1 X214.65 Y170.523 E44.27274
G1 X214.236 Y171.229 E44.32233
G1 X213.652 Y171.605 E44.36441
G1 X213.132 Y171.77 E44.39746
G1 X212.847 Y171.794 E44.41479
G1 X212.562 Y171.77 E44.43212
G1 X212.395 Y171.732 E44.4425
G1 X208.972 Y170.758 E44.65812
G1 X208.094 Y170.505 E44.71348
G1 X207.042 Y170.208 E44.77971
G1 F1673.2 X206.743 Y170.175 E44.79931
G1 F1466.7 X206.444 Y170.142 E44.82168
G1 F1305.5 X206.145 Y170.109 E44.84681
G1 F2100 E39.84681
G1 F300 Z0.56
G0 F6000 X195.669 Y189.282 Z0.56
G1 F300 Z0.24
G1 F2100 E44.84681
G1 F1800 X201.775 Y189.282 E45.21675
G1 X201.642 Y189.174 E45.22713
G1 X201.367 Y188.657 E45.26261
G1 X201.329 Y188.538 E45.27018
G1 X201.25 Y188.032 E45.30121
G1 X201.25 Y181.882 E45.67381
G1 X196.95 Y181.882 E45.93434
G1 X196.95 Y187.533 E46.27671
G1 X196.913 Y187.884 E46.2981
G1 X196.771 Y188.283 E46.32376
G1 X196.695 Y188.431 E46.33384
G0 F1620 X196.689 Y188.444
G0 X196.325 Y188.918
G0 X195.725 Y189.265
G0 X195.669 Y189.282
G1 F2100 E41.33384
G1 F300 Z0.56
G0 F6000 X166.481 Y189.282 Z0.56
G1 F300 Z0.24
G1 F2100 E46.33384
G1 F1800 X166.15 Y189.203 E46.35445
G1 X165.988 Y189.121 E46.36545
G1 X165.443 Y188.673 E46.4082
G1 X165.166 Y188.156 E46.44373
G1 X165.129 Y188.039 E46.45117
G1 X165.05 Y187.532 E46.48226
G1 X165.05 Y181.882 E46.82457
G1 X160.75 Y181.882 E47.08509
G1 X160.75 Y188.033 E47.45776
G1 X160.571 Y188.782 E47.50442
G1 X160.229 Y189.282 E47.54112
G1 X165.118 Y189.282 E47.83733
G0 F1620 X166.481 Y189.282
G1 F2100 E42.83733
G1 F300 Z0.56
G0 F6000 X134.669 Y189.282 Z0.56
G1 F300 Z0.24
G1 F2100 E47.83733
G1 F1800 X140.775 Y189.282 E48.20727
G1 X140.642 Y189.174 E48.21765
G1 X140.367 Y188.657 E48.25313
G1 X140.329 Y188.538 E48.2607
G1 X140.25 Y188.032 E48.29173
G1 X140.25 Y181.882 E48.66434
G1 X135.95 Y181.882 E48.92486
G1 X135.95 Y187.533 E49.26723
G1 X135.913 Y187.884 E49.28862
G1 X135.771 Y188.283 E49.31428
G1 X135.695 Y188.431 E49.32436
G0 F1620 X135.689 Y188.444
G0 X135.325 Y188.918
G0 X134.725 Y189.265
G0 X134.669 Y189.282
G1 F2100 E44.32436
G1 F300 Z0.56
G0 F6000 X105.481 Y189.282 Z0.56
G1 F300 Z0.24
G1 F2100 E49.32436
G1 F1800 X105.15 Y189.203 E49.34497
G1 X104.988 Y189.121 E49.35597
G1 X104.443 Y188.673 E49.39872
G1 X104.166 Y188.156 E49.43425
G1 X104.129 Y188.039 E49.44169
G1 X104.05 Y187.532 E49.47278
G1 X104.05 Y181.882 E49.81509
G1 X99.75 Y181.882 E50.07561
G1 X99.75 Y188.033 E50.44828
G1 X99.571 Y188.782 E50.49494
G1 X99.229 Y189.282 E50.53164
G1 X104.118 Y189.282 E50.82785
G0 F1620 X105.481 Y189.282
G1 F2100 E45.82785
G1 F300 Z0.56
G0 F6000 X85.35 Y174.813 Z0.56
G1 F300 Z0.24
G1 F2100 E50.82785
G1 F1800 X85.429 Y174.482 E50.84847
G1 X85.511 Y174.32 E50.85947
G1 X85.959 Y173.775 E50.90221
G1 X86.476 Y173.498 E50.93775
G1 X86.812 Y173.406 E50.95886
G1 X87.1 Y173.382 E50.97636
G1 X92.866 Y173.382 E51.32571
G1 X93.211 Y173.383 E51.34661
G1 X92.982 Y173.16 E51.36598
G1 X92.848 Y172.965 E51.38031
G1 X92.619 Y172.478 E51.41292
G1 X92.557 Y172.049 E51.43918
G1 X92.626 Y171.551 E51.46964
G1 X92.901 Y171.017 E51.50603
G1 X93.044 Y170.832 E51.5202
G1 F1661.5 X93.215 Y170.624 E51.53787
G1 F1438.3 X93.387 Y170.415 E51.55839
G1 F1269.2 X93.558 Y170.207 E51.58153
G1 X93.265 Y170.234 E51.60681
G1 F1438.3 X92.971 Y170.261 E51.6292
G1 F1661.5 X92.677 Y170.289 E51.64858
G1 F1800 X87.607 Y171.732 E51.96796
G1 X87.155 Y171.794 E51.9956
G1 X86.792 Y171.775 E52.01762
G1 X86.547 Y171.718 E52.03286
G1 X86.117 Y171.512 E52.06175
G1 X85.713 Y171.124 E52.09569
G1 X85.571 Y170.932 E52.11015
G1 X85.35 Y170.413 E52.14433
G1 X85.35 Y173.45 E52.32833
G0 F1620 X85.35 Y174.813
G1 F2100 E47.32833
G1 F300 Z0.56
G0 F6000 X143.542 Y155.957 Z0.56
G1 F300 Z0.24
G1 F2100 E52.32833
G1 F1269.2 X143.835 Y155.93 E52.35361
G1 F1438.3 X144.129 Y155.902 E52.37601
G1 F1661.5 X144.423 Y155.874 E52.39539
G1 F1800 X146.187 Y155.373 E52.50649
G1 F1805.5 X146.423 Y155.307 E52.5213
G1 F1811 X146.66 Y155.241 E52.53611
G1 F1816.5 X146.897 Y155.175 E52.55088
G1 F1824.9 X147.134 Y155.108 E52.5656
G1 F1830.5 X147.371 Y155.042 E52.58026
G1 F1836.2 X147.608 Y154.976 E52.59487
G1 F1844.7 X147.845 Y154.91 E52.60941
G1 F1850.5 X148.082 Y154.843 E52.62393
G1 F1859.2 X148.319 Y154.777 E52.63836
G1 F1865 X148.556 Y154.711 E52.65274
G1 F1870.9 X148.793 Y154.644 E52.6671
G1 F1879.7 X149.029 Y154.578 E52.68132
G1 F1885.7 X149.266 Y154.512 E52.69555
G1 F1891.7 X149.503 Y154.446 E52.70973
G1 F1976.7 X149.805 Y154.417 E52.72647
G1 F2080.6 X150.055 Y154.416 E52.73957
G1 F2003.4 X150.502 Y154.451 E52.76398
G1 F1916.1 X150.738 Y154.516 E52.77791
G1 F1906.9 X150.974 Y154.582 E52.79192
G1 F1897.8 X151.21 Y154.648 E52.80601
G1 F1888.7 X151.446 Y154.713 E52.82014
G1 F1879.7 X151.682 Y154.779 E52.83436
G1 F1870.9 X151.918 Y154.845 E52.84864
G1 F1862.1 X152.154 Y154.91 E52.86298
G1 F1856.2 X152.39 Y154.976 E52.87738
G1 F1847.6 X152.626 Y155.042 E52.89184
G1 F1839 X152.862 Y155.107 E52.90636
G1 F1830.5 X153.098 Y155.173 E52.92096
G1 F1822.1 X153.335 Y155.239 E52.93568
G1 F1813.7 X153.571 Y155.304 E52.9504
G1 F1805.5 X153.807 Y155.37 E52.9652
G1 F1800 X154.678 Y155.618 E53.02007
G1 X155.344 Y155.81 E53.06207
G1 F1611.9 X155.699 Y155.829 E53.08612
G1 F1330.3 X156.054 Y155.849 E53.11526
G1 F1170.4 X156.193 Y155.841 E53.12824
G1 X156.11 Y155.729 E53.14123
G1 F1330.3 X155.949 Y155.46 E53.16693
G1 F1611.9 X155.788 Y155.19 E53.18819
G1 F1800 X155.561 Y154.722 E53.21971
G1 X155.457 Y154.13 E53.25612
G1 X155.529 Y153.639 E53.28619
G1 X155.801 Y153.117 E53.32185
G1 X155.944 Y152.932 E53.33602
G1 F1661.5 X156.115 Y152.724 E53.35369
G1 F1438.3 X156.287 Y152.515 E53.37422
G1 F1269.2 X156.458 Y152.307 E53.39735
G1 X156.165 Y152.334 E53.42263
G1 F1438.3 X155.871 Y152.361 E53.44502
G1 F1661.5 X155.577 Y152.389 E53.46441
G1 F1800 X153.813 Y152.89 E53.57551
G1 F1805.5 X153.577 Y152.956 E53.59031
G1 F1813.7 X153.34 Y153.022 E53.6051
G1 F1822.1 X153.103 Y153.088 E53.61983
G1 F1830.5 X152.866 Y153.154 E53.63448
G1 F1839 X152.629 Y153.22 E53.64907
G1 F1847.6 X152.392 Y153.286 E53.66359
G1 F1856.2 X152.155 Y153.352 E53.67805
G1 F1862.1 X151.918 Y153.418 E53.69246
G1 F1870.9 X151.681 Y153.484 E53.7068
G1 F1879.7 X151.444 Y153.55 E53.72107
G1 F1888.7 X151.207 Y153.616 E53.73528
G1 F1897.8 X150.97 Y153.682 E53.74941
G1 F1906.9 X150.733 Y153.748 E53.76348
G1 F1916.1 X150.496 Y153.814 E53.77749
G1 F2003.4 X150.055 Y153.848 E53.80156
G1 F2055.4 X149.717 Y153.844 E53.8195
G1 F1953.9 X149.497 Y153.817 E53.83187
G1 F1891.7 X149.261 Y153.751 E53.846
G1 F1885.7 X149.024 Y153.685 E53.86022
G1 F1879.7 X148.787 Y153.619 E53.8745
G1 F1870.9 X148.55 Y153.552 E53.88885
G1 F1865 X148.313 Y153.486 E53.90324
G1 F1859.2 X148.076 Y153.42 E53.91767
G1 F1850.5 X147.839 Y153.354 E53.93217
G1 F1844.7 X147.602 Y153.287 E53.94673
G1 F1836.2 X147.365 Y153.221 E53.96134
G1 F1830.5 X147.128 Y153.155 E53.976
G1 F1824.9 X146.891 Y153.088 E53.99072
G1 F1816.5 X146.655 Y153.022 E54.00543
G1 F1811 X146.418 Y152.956 E54.02024
G1 F1805.5 X146.181 Y152.89 E54.0351
G1 F1800 X145.322 Y152.646 E54.08921
G1 X144.656 Y152.453 E54.13122
G1 F1611.9 X144.302 Y152.434 E54.1552
G1 F1330.3 X143.947 Y152.415 E54.18435
G1 F1169.3 X143.807 Y152.422 E54.19742
G1 X143.891 Y152.535 E54.21055
G1 F1330.3 X144.051 Y152.804 E54.23621
G1 F1611.9 X144.212 Y153.074 E54.25748
G1 F1800 X144.439 Y153.542 E54.28899
G1 X144.543 Y154.134 E54.32541
G1 X144.471 Y154.624 E54.35541
G1 X144.199 Y155.147 E54.39113
G1 X144.056 Y155.332 E54.4053
G1 F1661.5 X143.885 Y155.54 E54.42297
G1 F1438.3 X143.713 Y155.749 E54.44349
G1 F1269.2 X143.542 Y155.957 E54.46663
G0 F6000 X143.883 Y154.135
G1 F1800 X143.84 Y154.429 E54.48463
G1 X143.677 Y154.743 E54.50607
G1 X143.182 Y155.214 E54.54746
G1 X143.022 Y155.275 E54.55784
G1 X93.636 Y169.331 E57.6688
G1 X93.333 Y169.414 E57.68784
G1 X87.427 Y171.097 E58.05991
G1 X87.155 Y171.134 E58.07654
G1 X86.891 Y171.122 E58.09255
G1 X86.487 Y170.964 E58.11883
G1 X86.244 Y170.732 E58.13919
G1 X86.103 Y170.54 E58.15362
G1 F1620.7 X85.942 Y170.344 E58.17069
G1 F1351.5 X85.78 Y170.148 E58.1912
G1 F1255.8 X85.77 Y169.952 E58.20825
G1 F1263.8 X85.77 Y138.309 E60.93872
