;FLAVOR:Marlin
;TIME:3045
;Filament used: 2.73343m
;Layer height: 0.32
;MINX:70.77
;MINY:88.3
;MINZ:0.28
;MAXX:131.789
;MAXY:114.454
;MAXZ:59.24
;POSTPROCESSED
;Generated with Cura_SteamEngine 5.0.0
M140 S60
M105
M190 S60
M104 S215
M105
M109 S215
M82 ;absolute extrusion mode
START_PRINT
G92 E0
G92 E0
G1 F300 E-0.5
;LAYER_COUNT:184
;LAYER:0
M107
G1 F600 Z0.68
G0 F3600 X73.801 Y90.153 Z0.68
G1 F600 Z0.68
G0 F3600 X70.77 Y96.483
;TYPE:SKIRT
G1 F600 Z0.28
G1 F120 E0
G1 F1800 X70.81 Y95.678 E0.05968
G1 X70.93 Y94.881 E0.11935
G1 X71.127 Y94.1 E0.17899
G1 X71.402 Y93.342 E0.23869
G1 X71.75 Y92.615 E0.29836
G1 X72.168 Y91.926 E0.35803
G1 X72.653 Y91.282 E0.41772
G1 X73.199 Y90.689 E0.47741
G1 X73.801 Y90.153 E0.53708
G1 X74.453 Y89.68 E0.59672
G1 X75.149 Y89.273 E0.65642
G1 X75.882 Y88.937 E0.71612
G1 X76.57 Y88.696 E0.7701
G1 X77.348 Y88.486 E0.82976
G1 X78.143 Y88.354 E0.88943
G1 X79.074 Y88.3 E0.95848
G1 X123.554 Y88.3 E4.25177
G1 X124.359 Y88.34 E4.31145
G1 X125.156 Y88.46 E4.37112
G1 X125.937 Y88.657 E4.43076
G1 X126.695 Y88.932 E4.49046
G1 X127.422 Y89.28 E4.55014
G1 X128.111 Y89.698 E4.60981
G1 X128.755 Y90.183 E4.6695
G1 X129.348 Y90.729 E4.72918
G1 X129.884 Y91.331 E4.78886
G1 X130.246 Y91.814 E4.83355
G1 X130.686 Y92.489 E4.89321
G1 X131.056 Y93.205 E4.95288
G1 X131.354 Y93.954 E5.01256
G1 X131.576 Y94.729 E5.07225
G1 X131.72 Y95.522 E5.13192
G1 X131.789 Y96.577 E5.2102
G1 X131.789 Y106.177 E5.92099
G1 X131.749 Y106.982 E5.98066
G1 X131.629 Y107.779 E6.04034
G1 X131.432 Y108.56 E6.09997
G1 X131.157 Y109.318 E6.15968
G1 X130.809 Y110.045 E6.21935
G1 X130.246 Y110.94 E6.29764
G1 X130.136 Y111.092 E6.31153
G1 X129.632 Y111.721 E6.37121
G1 X129.068 Y112.297 E6.43089
G1 X128.449 Y112.814 E6.49061
G1 X127.783 Y113.267 E6.55024
G1 X127.075 Y113.652 E6.60991
G1 X126.332 Y113.964 E6.66958
G1 X125.562 Y114.202 E6.72925
G1 X124.772 Y114.362 E6.78893
G1 X123.97 Y114.443 E6.84861
G1 X123.554 Y114.454 E6.87942
G1 X79.074 Y114.454 E10.17272
G1 X78.269 Y114.414 E10.2324
G1 X77.472 Y114.294 E10.29207
G1 X76.609 Y114.071 E10.35807
G1 X76.43 Y114.014 E10.37198
G1 X75.675 Y113.732 E10.43165
G1 X74.952 Y113.376 E10.49132
G1 X74.267 Y112.95 E10.55104
G1 X73.628 Y112.459 E10.61071
G1 X73.041 Y111.907 E10.67037
G1 X72.512 Y111.299 E10.73004
G1 X72.045 Y110.642 E10.78972
G1 X71.646 Y109.942 E10.84937
G1 X71.318 Y109.205 E10.9091
G1 X71.065 Y108.44 E10.96876
G1 X70.888 Y107.654 E11.02841
G1 X70.791 Y106.854 E11.08808
G1 X70.77 Y106.272 E11.1312
G1 X70.77 Y96.483 E11.85597
G0 F3600 X71.42 Y96.483
G1 F1800 X71.46 Y95.711 E11.91321
G1 X71.579 Y94.947 E11.97046
G1 X71.777 Y94.2 E12.02768
G1 X72.051 Y93.477 E12.08492
G1 X72.398 Y92.786 E12.14217
G1 X72.815 Y92.135 E12.19941
G1 X73.296 Y91.53 E12.25664
G1 X73.838 Y90.979 E12.31386
G1 X74.433 Y90.486 E12.37108
G1 X75.076 Y90.057 E12.42831
G1 X75.761 Y89.697 E12.4856
G1 X76.591 Y89.372 E12.5516
G1 X76.77 Y89.314 E12.56553
G1 X77.517 Y89.114 E12.62279
G1 X78.28 Y88.992 E12.68
G1 X79.074 Y88.95 E12.73887
G1 X123.554 Y88.95 E16.03216
G1 X124.326 Y88.99 E16.0894
G1 X125.09 Y89.109 E16.14665
G1 X125.837 Y89.307 E16.20387
G1 X126.56 Y89.581 E16.26111
G1 X127.251 Y89.928 E16.31836
G1 X127.902 Y90.345 E16.3756
G1 X128.507 Y90.826 E16.43283
G1 X129.058 Y91.368 E16.49005
G1 X129.61 Y92.043 E16.55461
G1 X129.72 Y92.195 E16.56851
G1 X130.14 Y92.843 E16.62568
G1 X130.491 Y93.532 E16.68293
G1 X130.769 Y94.254 E16.74021
G1 X130.971 Y95 E16.79744
G1 X131.095 Y95.763 E16.85467
G1 X131.139 Y96.577 E16.91503
G1 X131.139 Y106.177 E17.62581
G1 X131.099 Y106.949 E17.68305
G1 X130.98 Y107.713 E17.7403
G1 X130.782 Y108.46 E17.79751
G1 X130.508 Y109.183 E17.85476
G1 X130.161 Y109.874 E17.91201
G1 X129.72 Y110.559 E17.97233
G1 X129.61 Y110.711 E17.98622
G1 X129.125 Y111.313 E18.04346
G1 X128.58 Y111.862 E18.10073
G1 X127.982 Y112.352 E18.15798
G1 X127.336 Y112.777 E18.21523
G1 X126.65 Y113.133 E18.27245
G1 X125.931 Y113.416 E18.32966
G1 X125.186 Y113.624 E18.38693
G1 X124.424 Y113.753 E18.44415
G1 X123.554 Y113.804 E18.50868
G1 X79.074 Y113.804 E21.80197
G1 X78.302 Y113.764 E21.85921
G1 X77.538 Y113.645 E21.91646
G1 X76.806 Y113.452 E21.97251
G1 X76.627 Y113.395 E21.98642
G1 X75.903 Y113.122 E22.04371
G1 X75.212 Y112.777 E22.10089
G1 X74.56 Y112.361 E22.15815
G1 X73.954 Y111.881 E22.21539
G1 X73.401 Y111.341 E22.27262
G1 X72.907 Y110.746 E22.32988
G1 X72.477 Y110.104 E22.38709
G1 X72.116 Y109.421 E22.44429
G1 X71.827 Y108.704 E22.50152
G1 X71.613 Y107.961 E22.55877
G1 X71.478 Y107.2 E22.616
G1 X71.42 Y106.272 E22.68484
G1 X71.42 Y96.483 E23.40962
G0 F3600 X72.07 Y96.483
G1 F1800 X72.11 Y95.745 E23.46434
G1 X72.229 Y95.017 E23.51895
G1 X72.427 Y94.305 E23.57367
G1 X72.7 Y93.619 E23.62834
G1 X73.046 Y92.966 E23.68305
G1 X73.46 Y92.354 E23.73776
G1 X73.938 Y91.791 E23.79244
G1 X74.474 Y91.283 E23.84712
G1 X75.062 Y90.836 E23.9018
G1 X75.695 Y90.455 E23.95651
G1 X76.365 Y90.144 E24.0112
G1 X76.97 Y89.932 E24.05866
G1 X77.684 Y89.743 E24.11335
G1 X78.414 Y89.632 E24.16802
G1 X79.074 Y89.6 E24.21694
G1 X123.554 Y89.6 E27.51024
G1 X124.292 Y89.64 E27.56496
G1 X125.02 Y89.759 E27.61958
G1 X125.732 Y89.957 E27.67429
G1 X126.418 Y90.23 E27.72896
G1 X127.071 Y90.576 E27.78368
G1 X127.683 Y90.99 E27.83838
G1 X128.246 Y91.468 E27.89306
G1 X128.754 Y92.004 E27.94774
G1 X129.083 Y92.424 E27.98724
G1 X129.193 Y92.576 E28.00114
G1 X129.593 Y93.197 E28.05583
G1 X129.924 Y93.857 E28.11049
G1 X130.181 Y94.55 E28.16522
G1 X130.362 Y95.266 E28.2199
G1 X130.464 Y95.997 E28.27455
G1 X130.489 Y96.577 E28.31753
G1 X130.489 Y106.177 E29.02831
G1 X130.449 Y106.915 E29.08303
G1 X130.33 Y107.643 E29.13765
G1 X130.132 Y108.355 E29.19237
G1 X129.859 Y109.041 E29.24703
G1 X129.513 Y109.694 E29.30175
G1 X129.193 Y110.178 E29.34471
G1 X129.083 Y110.33 E29.3586
G1 X128.618 Y110.904 E29.4133
G1 X128.094 Y111.425 E29.46801
G1 X127.517 Y111.886 E29.52269
G1 X126.893 Y112.281 E29.57737
G1 X126.23 Y112.607 E29.63207
G1 X125.536 Y112.86 E29.68676
G1 X124.819 Y113.036 E29.74142
G1 X124.087 Y113.133 E29.79609
G1 X123.554 Y113.154 E29.83559
G1 X79.074 Y113.154 E33.12889
G1 X78.336 Y113.114 E33.18361
G1 X77.608 Y112.995 E33.23822
G1 X77.003 Y112.832 E33.28462
G1 X76.824 Y112.775 E33.29852
G1 X76.133 Y112.513 E33.35324
G1 X75.475 Y112.178 E33.40791
G1 X74.857 Y111.774 E33.46258
G1 X74.286 Y111.306 E33.51724
G1 X73.769 Y110.778 E33.57195
G1 X73.312 Y110.198 E33.62662
G1 X72.92 Y109.571 E33.68137
G1 X72.599 Y108.906 E33.73605
G1 X72.351 Y108.211 E33.79068
G1 X72.18 Y107.492 E33.8454
G1 X72.087 Y106.759 E33.90011
G1 X72.07 Y106.272 E33.93619
G1 X72.07 Y96.483 E34.66096
G0 F3600 X72.72 Y96.483
G1 F1800 X72.76 Y95.782 E34.71295
G1 X72.879 Y95.089 E34.76501
G1 X73.077 Y94.415 E34.81702
G1 X73.349 Y93.767 E34.86906
G1 X73.694 Y93.155 E34.92107
G1 X74.105 Y92.586 E34.97304
G1 X74.579 Y92.067 E35.02508
G1 X75.109 Y91.605 E35.07714
G1 X75.687 Y91.207 E35.1291
G1 X76.307 Y90.876 E35.18114
G1 X76.992 Y90.609 E35.23557
G1 X77.171 Y90.551 E35.2495
G1 X77.85 Y90.372 E35.30149
G1 X78.546 Y90.273 E35.35354
G1 X79.074 Y90.25 E35.39267
G1 X123.554 Y90.25 E38.68597
G1 X124.255 Y90.29 E38.73796
G1 X124.948 Y90.409 E38.79002
G1 X125.622 Y90.607 E38.84203
G1 X126.27 Y90.879 E38.89406
G1 X126.882 Y91.224 E38.94608
G1 X127.451 Y91.635 E38.99805
G1 X127.97 Y92.109 E39.05009
G1 X128.556 Y92.805 E39.11745
G1 X128.666 Y92.957 E39.13135
G1 X129.045 Y93.548 E39.18333
G1 X129.355 Y94.179 E39.23538
G1 X129.59 Y94.841 E39.28739
G1 X129.749 Y95.526 E39.33946
G1 X129.829 Y96.224 E39.39148
G1 X129.839 Y96.577 E39.41762
G1 X129.839 Y106.177 E40.12841
G1 X129.799 Y106.878 E40.18039
G1 X129.68 Y107.571 E40.23245
G1 X129.482 Y108.245 E40.28447
G1 X129.21 Y108.893 E40.3365
G1 X128.865 Y109.505 E40.38852
G1 X128.556 Y109.949 E40.42857
G1 X128.113 Y110.494 E40.48057
G1 X127.61 Y110.985 E40.53261
G1 X127.055 Y111.416 E40.58464
G1 X126.455 Y111.78 E40.6366
G1 X125.817 Y112.075 E40.68864
G1 X125.149 Y112.294 E40.74069
G1 X124.461 Y112.437 E40.79272
G1 X123.554 Y112.504 E40.86006
G1 X79.074 Y112.504 E44.15335
G1 X78.373 Y112.464 E44.20534
G1 X77.68 Y112.345 E44.2574
G1 X77.2 Y112.213 E44.29426
G1 X77.021 Y112.156 E44.30817
G1 X76.365 Y111.905 E44.36017
G1 X75.742 Y111.581 E44.41216
G1 X75.159 Y111.189 E44.46418
G1 X74.625 Y110.732 E44.51622
G1 X74.146 Y110.218 E44.56824
G1 X73.728 Y109.653 E44.62028
G1 X73.377 Y109.045 E44.67226
G1 X73.098 Y108.4 E44.72429
G1 X72.894 Y107.728 E44.77628
G1 X72.768 Y107.037 E44.82829
G1 X72.72 Y106.272 E44.88504
G1 X72.72 Y96.483 E45.60982
G0 F3600 X73.37 Y96.483
G1 F1800 X73.41 Y95.82 E45.659
G1 X73.529 Y95.166 E45.70821
G1 X73.726 Y94.531 E45.75744
G1 X73.998 Y93.925 E45.80662
G1 X74.34 Y93.355 E45.85584
G1 X74.749 Y92.831 E45.90505
G1 X75.217 Y92.36 E45.95421
G1 X75.739 Y91.948 E46.00345
G1 X76.306 Y91.602 E46.05263
G1 X77.192 Y91.227 E46.12386
G1 X77.371 Y91.169 E46.13779
G1 X78.014 Y91.003 E46.18696
G1 X78.673 Y90.915 E46.23619
G1 X79.074 Y90.9 E46.2659
G1 X123.554 Y90.9 E49.5592
G1 X124.217 Y90.94 E49.60838
G1 X124.871 Y91.059 E49.65759
G1 X125.506 Y91.256 E49.70682
G1 X126.112 Y91.528 E49.756
G1 X126.682 Y91.87 E49.80522
G1 X127.206 Y92.279 E49.85443
G1 X127.677 Y92.747 E49.90359
G1 X128.03 Y93.186 E49.9453
G1 X128.14 Y93.338 E49.95919
G1 X128.496 Y93.899 E50.00839
G1 X128.783 Y94.498 E50.05756
G1 X128.996 Y95.128 E50.1068
G1 X129.131 Y95.778 E50.15596
G1 X129.189 Y96.577 E50.21527
G1 X129.189 Y106.177 E50.92605
G1 X129.149 Y106.84 E50.97523
G1 X129.03 Y107.494 E51.02445
G1 X128.833 Y108.129 E51.07367
G1 X128.561 Y108.735 E51.12286
G1 X128.14 Y109.416 E51.18213
G1 X128.03 Y109.568 E51.19603
G1 X127.609 Y110.082 E51.24522
G1 X127.129 Y110.542 E51.29444
G1 X126.597 Y110.94 E51.34363
G1 X126.021 Y111.272 E51.39286
G1 X125.41 Y111.533 E51.44205
G1 X124.772 Y111.718 E51.49123
G1 X124.116 Y111.825 E51.54045
G1 X123.554 Y111.854 E51.58211
G1 X79.074 Y111.854 E54.87541
G1 X78.411 Y111.814 E54.92459
G1 X77.757 Y111.695 E54.97381
G1 X77.219 Y111.537 E55.01532
G1 X76.599 Y111.297 E55.06455
G1 X76.012 Y110.985 E55.11376
G1 X75.467 Y110.605 E55.16296
G1 X74.972 Y110.162 E55.21214
G1 X74.533 Y109.663 E55.26135
G1 X74.157 Y109.115 E55.31055
G1 X73.85 Y108.525 E55.3598
G1 X73.616 Y107.903 E55.409
G1 X73.459 Y107.258 E55.45815
G1 X73.37 Y106.272 E55.53145
G1 X73.37 Y96.483 E56.25623
G0 F3600 X74.02 Y96.483
G1 F1800 X74.06 Y95.86 E56.30245
G1 X74.179 Y95.247 E56.34869
G1 X74.376 Y94.655 E56.39488
G1 X74.646 Y94.093 E56.44104
G1 X74.987 Y93.569 E56.48733
G1 X75.391 Y93.094 E56.5335
G1 X75.853 Y92.674 E56.57973
G1 X76.364 Y92.316 E56.62593
G1 X76.918 Y92.027 E56.67219
G1 X77.392 Y91.845 E56.70978
G1 X77.571 Y91.787 E56.72371
G1 X78.176 Y91.633 E56.76994
G1 X79.074 Y91.55 E56.83671
G1 X123.554 Y91.55 E60.13001
G1 X124.177 Y91.59 E60.17623
G1 X124.79 Y91.709 E60.22246
G1 X125.382 Y91.906 E60.26866
G1 X125.944 Y92.176 E60.31482
G1 X126.468 Y92.517 E60.36111
G1 X126.943 Y92.921 E60.40728
G1 X127.503 Y93.567 E60.47058
G1 X127.613 Y93.719 E60.48447
G1 X127.946 Y94.247 E60.53069
G1 X128.209 Y94.813 E60.5769
G1 X128.397 Y95.408 E60.6231
G1 X128.507 Y96.023 E60.66936
G1 X128.539 Y96.577 E60.71044
G1 X128.539 Y106.177 E61.42123
G1 X128.499 Y106.8 E61.46745
G1 X128.38 Y107.413 E61.51368
G1 X128.183 Y108.005 E61.55988
G1 X127.913 Y108.567 E61.60604
G1 X127.613 Y109.035 E61.6472
G1 X127.503 Y109.187 E61.66109
G1 X127.106 Y109.668 E61.70727
G1 X126.65 Y110.095 E61.75352
G1 X126.143 Y110.459 E61.79973
G1 X125.594 Y110.756 E61.84595
G1 X125.012 Y110.981 E61.89215
G1 X124.406 Y111.129 E61.93833
G1 X123.554 Y111.204 E62.00166
G1 X79.074 Y111.204 E65.29496
G1 X78.451 Y111.164 E65.34118
G1 X77.595 Y110.974 E65.4061
G1 X77.416 Y110.917 E65.42001
G1 X76.834 Y110.69 E65.46626
G1 X76.287 Y110.391 E65.51242
G1 X75.782 Y110.024 E65.55864
G1 X75.328 Y109.595 E65.60488
G1 X74.933 Y109.112 E65.65108
G1 X74.602 Y108.582 E65.69735
G1 X74.342 Y108.015 E65.74353
G1 X74.157 Y107.419 E65.78974
G1 X74.049 Y106.804 E65.83597
G1 X74.02 Y106.272 E65.87542
G1 X74.02 Y96.483 E66.60019
G0 F3600 X74.67 Y96.483
G1 F1800 X74.71 Y95.903 E66.64324
G1 X74.829 Y95.335 E66.68621
G1 X75.025 Y94.788 E66.72923
G1 X75.294 Y94.273 E66.77225
G1 X75.632 Y93.8 E66.81529
G1 X76.031 Y93.377 E66.85834
G1 X76.484 Y93.014 E66.90132
G1 X76.983 Y92.716 E66.94436
G1 X77.593 Y92.464 E66.99322
G1 X77.772 Y92.406 E67.00715
G1 X78.335 Y92.265 E67.05013
G1 X79.074 Y92.2 E67.10505
G1 X123.554 Y92.2 E70.39835
G1 X124.134 Y92.24 E70.4414
G1 X124.702 Y92.359 E70.48436
G1 X125.249 Y92.555 E70.52738
G1 X125.764 Y92.824 E70.5704
G1 X126.237 Y93.162 E70.61345
G1 X126.66 Y93.561 E70.6565
G1 X126.977 Y93.948 E70.69354
G1 X127.087 Y94.1 E70.70743
G1 X127.394 Y94.593 E70.75043
G1 X127.631 Y95.124 E70.79349
G1 X127.793 Y95.682 E70.83651
G1 X127.877 Y96.257 E70.87953
G1 X127.889 Y96.577 E70.90324
G1 X127.889 Y106.177 E71.61402
G1 X127.849 Y106.757 E71.65707
G1 X127.73 Y107.325 E71.70004
G1 X127.534 Y107.872 E71.74306
G1 X127.265 Y108.387 E71.78608
G1 X126.977 Y108.806 E71.82372
G1 X126.605 Y109.252 E71.86672
G1 X126.175 Y109.643 E71.90975
G1 X125.695 Y109.971 E71.9528
G1 X125.175 Y110.231 E71.99584
G1 X124.625 Y110.416 E72.03881
G1 X124.054 Y110.524 E72.08183
G1 X123.554 Y110.554 E72.11892
G1 X79.074 Y110.554 E75.41222
G1 X78.494 Y110.514 E75.45526
G1 X77.792 Y110.355 E75.50855
G1 X77.613 Y110.298 E75.52246
G1 X77.073 Y110.084 E75.56547
G1 X76.567 Y109.798 E75.6085
G1 X76.105 Y109.445 E75.65155
G1 X75.696 Y109.032 E75.69459
G1 X75.348 Y108.567 E75.73759
G1 X75.067 Y108.059 E75.78057
G1 X74.858 Y107.517 E75.82358
G1 X74.725 Y106.951 E75.86663
G1 X74.67 Y106.272 E75.91707
G1 X74.67 Y96.483 E76.64185
G0 F3600 X75.32 Y96.483
G1 F1800 X75.36 Y95.95 E76.68142
G1 X75.479 Y95.429 E76.72099
G1 X75.674 Y94.932 E76.76052
G1 X75.941 Y94.469 E76.80009
G1 X76.275 Y94.051 E76.83971
G1 X76.666 Y93.688 E76.87921
G1 X77.108 Y93.387 E76.9188
G1 X77.793 Y93.082 E76.97432
G1 X77.972 Y93.024 E76.98825
G1 X78.491 Y92.898 E77.02779
G1 X79.074 Y92.85 E77.07111
G1 X123.554 Y92.85 E80.3644
G1 X124.087 Y92.89 E80.40398
G1 X124.608 Y93.009 E80.44355
G1 X125.105 Y93.204 E80.48307
G1 X125.568 Y93.471 E80.52265
G1 X125.986 Y93.805 E80.56226
G1 X126.45 Y94.329 E80.61408
G1 X126.56 Y94.481 E80.62797
G1 X126.84 Y94.936 E80.66753
G1 X127.049 Y95.428 E80.70711
G1 X127.183 Y95.946 E80.74672
G1 X127.239 Y96.577 E80.79363
G1 X127.239 Y106.177 E81.50441
G1 X127.199 Y106.71 E81.54399
G1 X127.08 Y107.231 E81.58355
G1 X126.885 Y107.728 E81.62308
G1 X126.56 Y108.273 E81.67006
G1 X126.45 Y108.425 E81.68396
G1 X126.105 Y108.833 E81.72352
G1 X125.704 Y109.186 E81.76307
G1 X125.254 Y109.474 E81.80263
G1 X124.766 Y109.692 E81.8422
G1 X124.251 Y109.835 E81.88177
G1 X123.554 Y109.904 E81.93363
G1 X79.074 Y109.904 E85.22693
G1 X78.541 Y109.864 E85.2665
G1 X77.989 Y109.735 E85.30848
G1 X77.81 Y109.678 E85.32239
G1 X77.315 Y109.479 E85.36189
G1 X76.854 Y109.207 E85.40152
G1 X76.439 Y108.87 E85.4411
G1 X76.08 Y108.475 E85.48062
G1 X75.783 Y108.031 E85.52017
G1 X75.555 Y107.547 E85.55978
G1 X75.402 Y107.035 E85.59935
G1 X75.32 Y106.272 E85.65616
G1 X75.32 Y96.483 E86.38094
G0 F3600 X75.97 Y96.483
G1 F1800 X76.01 Y96.001 E86.41675
G1 X76.129 Y95.533 E86.4525
G1 X76.323 Y95.09 E86.48831
G1 X76.587 Y94.686 E86.52404
G1 X76.915 Y94.33 E86.55988
G1 X77.296 Y94.034 E86.59561
G1 X77.722 Y93.804 E86.63145
G1 X77.993 Y93.7 E86.65294
G1 X78.172 Y93.642 E86.66687
G1 X78.643 Y93.532 E86.70268
G1 X79.074 Y93.5 E86.73468
G1 X123.554 Y93.5 E90.02798
G1 X124.036 Y93.54 E90.06379
G1 X124.504 Y93.659 E90.09954
G1 X124.947 Y93.853 E90.13535
G1 X125.351 Y94.117 E90.17108
G1 X125.707 Y94.445 E90.20692
G1 X125.924 Y94.71 E90.23228
G1 X126.034 Y94.862 E90.24618
G1 X126.284 Y95.276 E90.28198
G1 X126.462 Y95.725 E90.31774
G1 X126.564 Y96.197 E90.3535
G1 X126.589 Y96.577 E90.38169
G1 X126.589 Y106.177 E91.09248
G1 X126.549 Y106.659 E91.12829
G1 X126.43 Y107.127 E91.16404
G1 X126.236 Y107.57 E91.19985
G1 X126.034 Y107.892 E91.22799
G1 X125.924 Y108.044 E91.24188
G1 X125.609 Y108.411 E91.27769
G1 X125.238 Y108.721 E91.31349
G1 X124.821 Y108.965 E91.34926
G1 X124.37 Y109.138 E91.38503
G1 X123.896 Y109.234 E91.42083
