;FLAVOR:Marlin
;TIME:3040
;Filament used: 2.65074m
;Layer height: 0.32
;MINX:97.106
;MINY:114.123
;MINZ:0.28
;MAXX:153.725
;MAXY:135.877
;MAXZ:59.24
;POSTPROCESSED
;Generated with Cura_SteamEngine 5.0.0
M140 S60
M105
M190 S60
M104 S215
M105
M109 S215
M82 ;absolute extrusion mode
START_PRINT
G92 E0
G92 E0
G1 F300 E-0.5
;LAYER_COUNT:184
;LAYER:0
M107
G1 F600 Z0.68
G0 F3600 X99.035 Y115.758 Z0.68
G1 F600 Z0.68
G0 F3600 X97.107 Y120.711
;TYPE:SKIRT
G1 F600 Z0.28
G1 F120 E0
G1 F1800 X97.117 Y120.036 E0.04998
G1 X97.167 Y119.35 E0.10091
G1 X97.296 Y118.674 E0.15186
G1 X97.503 Y118.018 E0.20279
G1 X97.785 Y117.39 E0.25376
G1 X98.137 Y116.799 E0.30469
G1 X98.556 Y116.252 E0.35571
G1 X99.035 Y115.758 E0.40666
G1 X99.568 Y115.323 E0.4576
G1 X100.148 Y114.953 E0.50853
G1 X101.064 Y114.539 E0.58296
G1 X101.242 Y114.476 E0.59694
G1 X101.903 Y114.284 E0.6479
G1 X102.582 Y114.17 E0.69888
G1 X103.123 Y114.137 E0.73901
G1 X104.024 Y114.123 E0.80573
G1 X146.982 Y114.123 E3.98634
G1 X147.799 Y114.138 E4.04684
G1 X148.485 Y114.192 E4.09779
G1 X149.16 Y114.325 E4.14872
G1 X149.815 Y114.535 E4.19965
G1 X150.442 Y114.82 E4.25064
G1 X151.031 Y115.176 E4.3016
G1 X151.575 Y115.597 E4.35253
G1 X152.066 Y116.079 E4.40347
G1 X152.391 Y116.468 E4.441
G1 X152.494 Y116.603 E4.45358
G1 X152.878 Y117.173 E4.50446
G1 X153.195 Y117.785 E4.55549
G1 X153.438 Y118.428 E4.60639
G1 X153.605 Y119.096 E4.65737
G1 X153.707 Y120.086 E4.73106
G1 X153.725 Y121.107 E4.80666
G1 X153.724 Y129.141 E5.4015
G1 X153.714 Y129.868 E5.45533
G1 X153.665 Y130.555 E5.50633
G1 X153.536 Y131.231 E5.55728
G1 X153.33 Y131.888 E5.60826
G1 X153.049 Y132.516 E5.6592
G1 X152.644 Y133.185 E5.7171
G1 X152.539 Y133.335 E5.73066
G1 X152.112 Y133.875 E5.78163
G1 X151.626 Y134.361 E5.83252
G1 X151.086 Y134.789 E5.88353
G1 X150.501 Y135.15 E5.93443
G1 X149.877 Y135.442 E5.98544
G1 X149.224 Y135.659 E6.03639
G1 X148.55 Y135.798 E6.08734
G1 X147.786 Y135.861 E6.1441
G1 X146.802 Y135.877 E6.21696
G1 X103.831 Y135.876 E9.39854
G1 X103.134 Y135.866 E9.45015
G1 X102.448 Y135.817 E9.50107
G1 X101.467 Y135.602 E9.57543
G1 X101.299 Y135.55 E9.58845
G1 X100.655 Y135.309 E9.63936
G1 X100.042 Y134.994 E9.69039
G1 X99.471 Y134.611 E9.74129
G1 X98.948 Y134.164 E9.79223
G1 X98.48 Y133.659 E9.84321
G1 X98.073 Y133.104 E9.89417
G1 X97.734 Y132.505 E9.94513
G1 X97.467 Y131.871 E9.99606
G1 X97.275 Y131.21 E10.04702
G1 X97.161 Y130.531 E10.098
G1 X97.127 Y130.008 E10.1368
G1 X97.106 Y128.882 E10.22019
G1 X97.107 Y120.711 E10.82517
G0 F3600 X97.757 Y120.721
G1 F1800 X97.767 Y120.046 E10.87515
G1 X97.816 Y119.398 E10.92327
G1 X97.945 Y118.762 E10.97131
G1 X98.151 Y118.146 E11.01941
G1 X98.431 Y117.56 E11.06749
G1 X98.781 Y117.013 E11.11557
G1 X99.195 Y116.514 E11.16358
G1 X99.668 Y116.068 E11.21171
G1 X100.192 Y115.685 E11.25977
G1 X100.759 Y115.368 E11.30786
G1 X101.281 Y115.151 E11.34972
G1 X101.459 Y115.088 E11.3637
G1 X102.083 Y114.91 E11.41174
G1 X102.725 Y114.809 E11.45986
G1 X103.134 Y114.787 E11.49019
G1 X104.024 Y114.773 E11.55609
G1 X146.982 Y114.773 E14.7367
G1 X147.786 Y114.788 E14.79624
G1 X148.433 Y114.841 E14.8443
G1 X149.069 Y114.973 E14.8924
G1 X149.683 Y115.182 E14.94042
G1 X150.268 Y115.465 E14.98853
G1 X150.813 Y115.818 E15.03661
G1 X151.311 Y116.235 E15.0847
G1 X151.874 Y116.862 E15.14709
G1 X151.977 Y116.997 E15.15967
G1 X152.338 Y117.537 E15.20776
G1 X152.63 Y118.117 E15.25584
G1 X152.849 Y118.728 E15.30389
G1 X152.991 Y119.361 E15.35193
G1 X153.057 Y120.098 E15.40671
G1 X153.075 Y121.107 E15.48143
G1 X153.075 Y129.133 E16.07568
G1 X153.065 Y129.86 E16.12951
G1 X153.016 Y130.507 E16.17755
G1 X152.888 Y131.144 E16.22566
G1 X152.682 Y131.76 E16.27375
G1 X152.403 Y132.346 E16.3218
G1 X152.111 Y132.812 E16.36252
G1 X152.006 Y132.962 E16.37607
G1 X151.602 Y133.47 E16.42413
G1 X151.138 Y133.924 E16.47219
G1 X150.622 Y134.319 E16.52031
G1 X150.062 Y134.646 E16.56832
G1 X149.465 Y134.903 E16.61644
G1 X148.842 Y135.084 E16.66448
G1 X148.201 Y135.187 E16.71255
G1 X147.775 Y135.211 E16.74414
G1 X146.802 Y135.227 E16.81619
G1 X103.84 Y135.226 E19.99709
G1 X103.143 Y135.216 E20.04871
G1 X102.496 Y135.167 E20.09675
G1 X101.659 Y134.981 E20.16023
G1 X101.491 Y134.929 E20.17325
G1 X100.884 Y134.699 E20.22131
G1 X100.31 Y134.397 E20.26933
G1 X99.777 Y134.026 E20.31742
G1 X99.293 Y133.592 E20.36555
G1 X98.867 Y133.102 E20.41362
G1 X98.504 Y132.564 E20.46167
G1 X98.21 Y131.985 E20.50975
G1 X97.989 Y131.374 E20.55786
G1 X97.845 Y130.741 E20.60592
G1 X97.777 Y129.995 E20.66139
G1 X97.756 Y128.882 E20.74381
G1 X97.757 Y120.721 E21.34805
G0 F3600 X98.407 Y120.73
G1 F1800 X98.417 Y120.055 E21.39803
G1 X98.465 Y119.45 E21.44297
G1 X98.593 Y118.855 E21.48803
G1 X98.798 Y118.283 E21.53302
G1 X99.076 Y117.742 E21.57805
G1 X99.423 Y117.243 E21.62305
G1 X99.832 Y116.793 E21.66807
G1 X100.297 Y116.401 E21.7131
G1 X100.809 Y116.073 E21.75812
G1 X101.498 Y115.764 E21.81403
G1 X101.676 Y115.701 E21.82801
G1 X102.261 Y115.536 E21.87302
G1 X103.144 Y115.437 E21.9388
G1 X104.024 Y115.423 E22.00397
G1 X146.982 Y115.423 E25.18458
G1 X147.773 Y115.438 E25.24315
G1 X148.378 Y115.49 E25.28811
G1 X148.972 Y115.621 E25.33315
G1 X149.543 Y115.829 E25.37814
G1 X150.083 Y116.11 E25.42321
G1 X150.58 Y116.459 E25.46818
G1 X151.028 Y116.871 E25.51324
G1 X151.357 Y117.257 E25.55079
G1 X151.46 Y117.392 E25.56337
G1 X151.796 Y117.898 E25.60834
G1 X152.063 Y118.444 E25.65334
G1 X152.256 Y119.021 E25.69839
G1 X152.372 Y119.618 E25.74342
G1 X152.407 Y120.111 E25.78001
G1 X152.425 Y121.107 E25.85376
G1 X152.425 Y129.124 E26.44734
G1 X152.415 Y129.851 E26.50118
G1 X152.366 Y130.457 E26.54619
G1 X152.239 Y131.051 E26.59116
G1 X152.035 Y131.624 E26.6362
G1 X151.757 Y132.165 E26.68123
G1 X151.474 Y132.589 E26.71897
G1 X151.093 Y133.063 E26.764
G1 X150.654 Y133.483 E26.80898
G1 X150.163 Y133.842 E26.85402
G1 X149.629 Y134.133 E26.89905
G1 X149.062 Y134.352 E26.94405
G1 X148.471 Y134.495 E26.98907
G1 X147.764 Y134.561 E27.04164
G1 X146.802 Y134.577 E27.11288
G1 X103.85 Y134.577 E30.29304
G1 X103.153 Y134.567 E30.34466
G1 X102.547 Y134.518 E30.38967
G1 X101.851 Y134.36 E30.44251
G1 X101.683 Y134.308 E30.45553
G1 X101.116 Y134.091 E30.50048
G1 X100.582 Y133.801 E30.54548
G1 X100.09 Y133.443 E30.59053
G1 X99.65 Y133.024 E30.63551
G1 X99.268 Y132.551 E30.68053
G1 X98.952 Y132.031 E30.72558
G1 X98.706 Y131.475 E30.7706
G1 X98.536 Y130.892 E30.81556
G1 X98.443 Y130.291 E30.86059
G1 X98.427 Y129.982 E30.8835
G1 X98.406 Y128.882 E30.96495
G1 X98.407 Y120.73 E31.56853
G0 F3600 X99.056 Y120.74
G1 F1800 X99.066 Y120.065 E31.61851
G1 X99.115 Y119.504 E31.66021
G1 X99.242 Y118.955 E31.70193
G1 X99.445 Y118.429 E31.74367
G1 X99.721 Y117.938 E31.78537
G1 X100.064 Y117.49 E31.82715
G1 X100.466 Y117.096 E31.86883
G1 X100.92 Y116.762 E31.91056
G1 X101.417 Y116.496 E31.95229
G1 X101.893 Y116.314 E31.99003
G1 X102.436 Y116.164 E32.03173
G1 X103.155 Y116.087 E32.08527
G1 X104.024 Y116.073 E32.14962
G1 X146.982 Y116.073 E35.33023
G1 X147.76 Y116.088 E35.38785
G1 X148.321 Y116.139 E35.42955
G1 X148.869 Y116.269 E35.47125
G1 X149.394 Y116.475 E35.51301
G1 X149.884 Y116.754 E35.55476
G1 X150.329 Y117.099 E35.59645
G1 X150.84 Y117.651 E35.65214
G1 X150.943 Y117.786 E35.66471
G1 X151.252 Y118.257 E35.70642
G1 X151.492 Y118.767 E35.74815
G1 X151.657 Y119.306 E35.78989
G1 X151.757 Y120.123 E35.85083
G1 X151.775 Y121.107 E35.9237
G1 X151.775 Y129.115 E36.51661
G1 X151.765 Y129.842 E36.57044
G1 X151.717 Y130.403 E36.61213
G1 X151.59 Y130.952 E36.65385
G1 X151.387 Y131.478 E36.6956
G1 X151.046 Y132.067 E36.74599
G1 X150.941 Y132.217 E36.75955
G1 X150.586 Y132.654 E36.80123
G1 X150.173 Y133.037 E36.84294
G1 X149.71 Y133.358 E36.88465
G1 X149.205 Y133.61 E36.92644
G1 X148.671 Y133.788 E36.96811
G1 X148.116 Y133.889 E37.00988
G1 X147.753 Y133.911 E37.0368
G1 X146.802 Y133.927 E37.10723
G1 X103.859 Y133.927 E40.28672
G1 X103.162 Y133.917 E40.33834
G1 X102.6 Y133.869 E40.3801
G1 X102.044 Y133.739 E40.42237
G1 X101.876 Y133.687 E40.4354
G1 X101.35 Y133.483 E40.47717
G1 X100.859 Y133.206 E40.51891
G1 X100.412 Y132.863 E40.56062
G1 X100.019 Y132.46 E40.6023
G1 X99.686 Y132.005 E40.64405
G1 X99.42 Y131.508 E40.68578
G1 X99.228 Y130.978 E40.72752
G1 X99.112 Y130.427 E40.76921
G1 X99.077 Y129.969 E40.80322
G1 X99.056 Y128.882 E40.88372
G1 X99.056 Y120.74 E41.48655
G0 F3600 X99.706 Y120.75
G1 F1800 X99.716 Y120.075 E41.53653
G1 X99.764 Y119.562 E41.57468
G1 X99.89 Y119.062 E41.61286
G1 X100.092 Y118.588 E41.65101
G1 X100.365 Y118.151 E41.68916
G1 X100.702 Y117.761 E41.72732
G1 X101.095 Y117.428 E41.76546
G1 X101.535 Y117.159 E41.80364
G1 X101.932 Y116.99 E41.83559
G1 X102.11 Y116.927 E41.84957
G1 X102.607 Y116.793 E41.88768
G1 X103.165 Y116.736 E41.92921
G1 X103.97 Y116.723 E41.98882
G1 X146.982 Y116.723 E45.17343
G1 X147.747 Y116.738 E45.23008
G1 X148.26 Y116.788 E45.26824
G1 X148.759 Y116.917 E45.3064
G1 X149.232 Y117.121 E45.34454
G1 X149.667 Y117.396 E45.38264
G1 X150.055 Y117.735 E45.42079
G1 X150.323 Y118.045 E45.45113
G1 X150.426 Y118.18 E45.4637
G1 X150.706 Y118.613 E45.50188
G1 X150.916 Y119.084 E45.54007
G1 X151.05 Y119.581 E45.57818
G1 X151.107 Y120.135 E45.61941
G1 X151.125 Y121.107 E45.69139
G1 X151.125 Y129.106 E46.28364
G1 X151.115 Y129.833 E46.33747
G1 X151.068 Y130.346 E46.37561
G1 X150.942 Y130.846 E46.41379
G1 X150.74 Y131.32 E46.45194
G1 X150.514 Y131.694 E46.48429
G1 X150.409 Y131.844 E46.49785
G1 X150.082 Y132.242 E46.53599
G1 X149.697 Y132.584 E46.57411
G1 X149.263 Y132.864 E46.61235
G1 X148.792 Y133.072 E46.65048
G1 X148.294 Y133.206 E46.68866
G1 X147.741 Y133.262 E46.72981
G1 X146.858 Y133.277 E46.7952
G1 X103.868 Y133.277 E49.97818
G1 X103.171 Y133.267 E50.02979
G1 X102.658 Y133.219 E50.06794
G1 X102.236 Y133.118 E50.10006
G1 X102.068 Y133.066 E50.11309
G1 X101.589 Y132.876 E50.15124
G1 X101.145 Y132.614 E50.18941
G1 X100.747 Y132.287 E50.22755
G1 X100.404 Y131.902 E50.26573
G1 X100.125 Y131.469 E50.30386
G1 X99.916 Y130.998 E50.34202
G1 X99.782 Y130.5 E50.3802
G1 X99.727 Y129.956 E50.42068
G1 X99.706 Y128.882 E50.50022
G1 X99.706 Y120.75 E51.10231
G1 F300 E50.60231
G1 F600 Z0.68
;MESH:PLATempTower
G0 F3600 X103.931 Y120.948 Z0.68
;TYPE:WALL-INNER
G1 F600 Z0.28
G1 F120 E51.10231
G1 F1800 X103.931 Y129.052 E51.64451
G1 X146.9 Y129.052 E54.51939
G1 X146.9 Y120.948 E55.06159
G1 X103.931 Y120.948 E57.93646
G0 F3600 X103.331 Y120.348
;TYPE:WALL-OUTER
G1 F1800 X103.331 Y129.652 E58.55896
G1 X147.5 Y129.652 E61.51412
G1 X147.5 Y120.348 E62.13661
G1 X103.331 Y120.348 E65.09177
G0 F3600 X103.331 Y120.548
G0 X104.525 Y121.542
;TYPE:SKIN
G1 F1800 X104.525 Y128.458 E65.60383
G1 X146.306 Y128.458 E68.69729
G1 X146.306 Y125 E68.95332
G1 X146.306 Y121.542 E69.20935
G1 X104.525 Y121.542 E72.30282
G1 F300 E71.80282
G1 F600 Z0.68
G0 F3600 X104.849 Y127.83 Z0.68
G1 F600 Z0.28
G1 F120 E72.30282
G1 F1800 X105.151 Y128.131 E72.33439
G0 F3600 X106.07 Y128.131
G1 F1800 X104.849 Y126.911 E72.46218
G0 F3600 X104.849 Y125.992
G1 F1800 X106.989 Y128.131 E72.68621
G0 F3600 X107.908 Y128.131
G1 F1800 X104.849 Y125.073 E73.00646
G0 F3600 X104.849 Y124.153
G1 F1800 X108.827 Y128.131 E73.42299
G0 F3600 X109.747 Y128.131
G1 F1800 X104.849 Y123.234 E73.93579
G0 F3600 X104.849 Y122.315
G1 F1800 X110.666 Y128.131 E74.54483
G0 F3600 X111.585 Y128.131
G1 F1800 X105.32 Y121.867 E75.20078
G0 F3600 X106.239 Y121.867
G1 F1800 X112.504 Y128.131 E75.85672
G0 F3600 X113.424 Y128.131
G1 F1800 X107.159 Y121.867 E76.51267
G0 F3600 X108.078 Y121.867
G1 F1800 X114.343 Y128.131 E77.16861
G0 F3600 X115.262 Y128.131
G1 F1800 X108.997 Y121.867 E77.82456
G0 F3600 X109.916 Y121.867
G1 F1800 X116.181 Y128.131 E78.4805
G0 F3600 X117.101 Y128.131
G1 F1800 X110.836 Y121.867 E79.13645
G0 F3600 X111.755 Y121.867
G1 F1800 X118.02 Y128.131 E79.79239
G0 F3600 X118.939 Y128.131
G1 F1800 X112.674 Y121.867 E80.44834
G0 F3600 X113.593 Y121.867
G1 F1800 X119.858 Y128.131 E81.10428
G0 F3600 X120.778 Y128.131
G1 F1800 X114.513 Y121.867 E81.76023
G0 F3600 X115.432 Y121.867
G1 F1800 X121.697 Y128.131 E82.41617
G0 F3600 X122.616 Y128.131
G1 F1800 X116.351 Y121.867 E83.07212
G0 F3600 X117.27 Y121.867
G1 F1800 X123.535 Y128.131 E83.72807
G0 F3600 X124.455 Y128.131
G1 F1800 X118.19 Y121.867 E84.38401
G0 F3600 X119.109 Y121.867
G1 F1800 X125.374 Y128.131 E85.03996
G0 F3600 X126.293 Y128.131
G1 F1800 X120.028 Y121.867 E85.6959
G0 F3600 X120.947 Y121.867
G1 F1800 X127.212 Y128.131 E86.35185
G0 F3600 X128.131 Y128.131
G1 F1800 X121.867 Y121.867 E87.00774
G0 F3600 X122.786 Y121.867
G1 F1800 X129.051 Y128.131 E87.66369
G0 F3600 X129.97 Y128.131
G1 F1800 X123.705 Y121.867 E88.31963
G0 F3600 X124.624 Y121.867
G1 F1800 X130.889 Y128.131 E88.97558
G0 F3600 X131.808 Y128.131
G1 F1800 X125.543 Y121.867 E89.63152
G0 F3600 X126.463 Y121.867
G1 F1800 X132.728 Y128.131 E90.28747
G0 F3600 X133.647 Y128.131
G1 F1800 X127.382 Y121.867 E90.94341
G0 F3600 X128.301 Y121.867
G1 F1800 X134.566 Y128.131 E91.59936
G0 F3600 X135.485 Y128.131
G1 F1800 X129.22 Y121.867 E92.2553
G0 F3600 X130.14 Y121.867
G1 F1800 X136.405 Y128.131 E92.91125
G0 F3600 X137.324 Y128.131
G1 F1800 X131.059 Y121.867 E93.56719
G0 F3600 X131.978 Y121.867
G1 F1800 X138.243 Y128.131 E94.22314
G0 F3600 X139.162 Y128.131
G1 F1800 X132.897 Y121.867 E94.87908
G0 F3600 X133.817 Y121.867
G1 F1800 X140.082 Y128.131 E95.53503
G0 F3600 X141.001 Y128.131
G1 F1800 X134.736 Y121.867 E96.19097
G0 F3600 X135.655 Y121.867
G1 F1800 X141.92 Y128.131 E96.84692
G0 F3600 X142.839 Y128.131
G1 F1800 X136.574 Y121.867 E97.50287
G0 F3600 X137.494 Y121.867
G1 F1800 X143.759 Y128.131 E98.15881
G0 F3600 X144.678 Y128.131
G1 F1800 X138.413 Y121.867 E98.81476
G0 F3600 X139.332 Y121.867
G1 F1800 X145.597 Y128.131 E99.4707
G0 F3600 X145.98 Y127.596
M104 S210
G1 F1800 X140.251 Y121.867 E100.07058
G0 F3600 X141.171 Y121.867
G1 F1800 X145.98 Y126.676 E100.57412
G0 F3600 X145.98 Y125.757
G1 F1800 X142.09 Y121.867 E100.98143
G0 F3600 X143.009 Y121.867
G1 F1800 X145.98 Y124.838 E101.29252
G0 F3600 X145.98 Y123.919
G1 F1800 X143.928 Y121.867 E101.50738
G0 F3600 X144.847 Y121.867
G1 F1800 X145.98 Y122.999 E101.62597
G0 F3600 X145.98 Y122.08
G1 F1800 X145.767 Y121.867 E101.64827
G1 F300 E101.14827
G1 F600 Z0.68
;MESH:NONMESH
G0 F3600 X104.531 Y121.548 Z0.68
;TIME_ELAPSED:57.386315
;LAYER:1
M106 S63.8
;MESH:PLATempTower
G0 F4950 X104.531 Y121.548 Z1
;TYPE:WALL-INNER
G1 F600 Z0.6
G1 F120 E101.64827
G1 F2550 X104.531 Y128.452 E102.1608
G1 X146.3 Y128.452 E105.26159
G1 X146.3 Y121.548 E105.77412
G1 X104.531 Y121.548 E108.87491
G0 F4950 X103.931 Y120.948
G1 F2550 X103.931 Y129.052 E109.47652
G1 X146.9 Y129.052 E112.66639
G1 X146.9 Y120.948 E113.26801
G1 X103.931 Y120.948 E116.45788
G0 F4950 X103.331 Y120.348
;TYPE:WALL-OUTER
G1 F2250 X103.331 Y129.652 E117.14858
G1 X147.5 Y129.652 E120.42754
G1 X147.5 Y120.348 E121.11823
G1 X103.331 Y120.348 E124.39719
G0 F4950 X103.331 Y120.548
G1 F300 E123.89719
G1 F600 Z1
G0 F4950 X106.56 Y122.6 Z1
;TYPE:SKIN
G1 F600 Z0.6
G1 F120 E124.39719
G1 F2275 X106.56 Y127.117 E124.73973
G1 X111.079 Y127.119 E125.08242
G1 X111.078 Y124.859 E125.2538
G1 X111.078 Y122.6 E125.42511
G1 X106.56 Y122.6 E125.76772
G1 F300 E125.26772
G1 F600 Z1
G0 F4950 X113.28 Y122.148 Z1
G1 F600 Z0.6
G1 F120 E125.76772
G1 F2275 X113.28 Y127.852 E126.20027
G1 X137.64 Y127.852 E128.04757
G1 X137.64 Y125 E128.26384
G1 X137.64 Y122.148 E128.48012
G1 X113.28 Y122.148 E130.32741
G1 F300 E129.82741
G1 F600 Z1
G0 F4950 X139.84 Y122.6 Z1
G1 F600 Z0.6
G1 F120 E130.32741
G1 F2275 X139.84 Y127.117 E130.66995
G1 X144.359 Y127.119 E131.01264
G1 X144.358 Y124.859 E131.18403
G1 X144.358 Y122.6 E131.35533
G1 X139.84 Y122.6 E131.69795
G1 F300 E131.19795
G1 F600 Z1
G0 F4950 X144.057 Y126.623 Z1
;TYPE:SKIN
G1 F600 Z0.6
G1 F120 E131.69795
G1 F2100 X143.861 Y126.818 E131.71891
G0 F4950 X143.013 Y126.818
G1 F2100 X144.057 Y125.774 E131.83088
G0 F4950 X144.057 Y124.925
G1 F2100 X142.164 Y126.818 E132.03389
G0 F4950 X141.316 Y126.818
G1 F2100 X144.056 Y124.078 E132.32774
G0 F4950 X144.056 Y123.229
G1 F2100 X140.468 Y126.818 E132.71258
G0 F4950 X140.139 Y126.298
G1 F2100 X143.537 Y122.9 E133.077
G0 F4950 X142.689 Y122.9
