;FLAVOR:Marlin
;TIME:410
;Filament used: 0.668394m
;Layer height: 0.32
;MINX:129.21
;MINY:129.21
;MINZ:0.24
;MAXX:170.79
;MAXY:170.79
;MAXZ:10.16
;Generated with Cura_SteamEngine 5.0.0
M140 S80
M105
M190 S80
M104 S250
M105
M109 S250
M82 ;absolute extrusion mode
; Ender 3 Max Custom Start G-code
G92 E0 ; Reset Extruder
G28 ; Home all axes
G1 Z2.0 F3000 ; Move Z Axis up little to prevent scratching of Heat Bed
G1 X0.1 Y20 Z0.3 F5000.0 ; Move to start position
G1 X0.1 Y200.0 Z0.3 F1500.0 E15 ; Draw the first line
G1 X0.4 Y200.0 Z0.3 F5000.0 ; Move to side a little
G1 X0.4 Y20 Z0.3 F1500.0 E30 ; Draw the second line
G92 E0 ; Reset Extruder
G1 Z2.0 F3000 ; Move Z Axis up little to prevent scratching of Heat Bed
G1 X5 Y20 Z0.3 F5000.0 ; Move over to prevent blob squish
G92 E0
G92 E0
G1 F1800 E-6
;LAYER_COUNT:32
;LAYER:0
M107
G1 F300 Z0.56
G0 F6000 X132.407 Y132.469 Z0.56
G1 F300 Z0.56
G0 F6000 X129.211 Y140.725
;TYPE:SKIRT
G1 F300 Z0.24
G1 F1800 E0
G1 X129.22 Y140.06 E0.04818
G1 X129.273 Y139.124 E0.11609
G1 X129.405 Y138.196 E0.18399
G1 X129.616 Y137.283 E0.25187
G1 X129.904 Y136.391 E0.31977
G1 X130.267 Y135.526 E0.38773
G1 X130.702 Y134.696 E0.45561
G1 X131.206 Y133.906 E0.5235
G1 X131.776 Y133.162 E0.59139
G1 X132.407 Y132.469 E0.65928
G1 X133.095 Y131.832 E0.72721
G1 X133.835 Y131.256 E0.79514
G1 X134.621 Y130.745 E0.86305
G1 X135.448 Y130.304 E0.93094
G1 X136.31 Y129.934 E0.9989
G1 X137.2 Y129.639 E1.06682
G1 X138.111 Y129.421 E1.13467
G1 X139.038 Y129.282 E1.20258
G1 X139.901 Y129.223 E1.26524
G1 X140.53 Y129.21 E1.31081
G1 X159.093 Y129.21 E2.65553
G1 X159.948 Y129.221 E2.71747
G1 X160.884 Y129.275 E2.78539
G1 X161.812 Y129.407 E2.85329
G1 X162.726 Y129.619 E2.92126
G1 X163.617 Y129.908 E2.98911
G1 X164.482 Y130.271 E3.05707
G1 X165.311 Y130.707 E3.12492
G1 X166.101 Y131.212 E3.19284
G1 X166.845 Y131.783 E3.26078
G1 X167.538 Y132.415 E3.32872
G1 X168.174 Y133.103 E3.3966
G1 X168.749 Y133.843 E3.46448
G1 X169.259 Y134.63 E3.53242
G1 X169.7 Y135.457 E3.60031
G1 X170.069 Y136.319 E3.66824
G1 X170.363 Y137.209 E3.73613
G1 X170.581 Y138.121 E3.80406
G1 X170.719 Y139.048 E3.87195
G1 X170.777 Y139.901 E3.93389
G1 X170.79 Y140.53 E3.97946
G1 X170.789 Y159.2 E5.33193
G1 X170.78 Y159.927 E5.3846
G1 X170.729 Y160.863 E5.4525
G1 X170.597 Y161.791 E5.5204
G1 X170.388 Y162.705 E5.58832
G1 X170.101 Y163.597 E5.6562
G1 X169.739 Y164.462 E5.72413
G1 X169.305 Y165.293 E5.79204
G1 X168.801 Y166.084 E5.85999
G1 X168.232 Y166.829 E5.92789
G1 X167.602 Y167.522 E5.99574
G1 X166.914 Y168.16 E6.06371
G1 X166.175 Y168.737 E6.13163
G1 X165.39 Y169.248 E6.19948
G1 X164.563 Y169.691 E6.26744
G1 X163.702 Y170.061 E6.33533
G1 X162.813 Y170.357 E6.40321
G1 X161.901 Y170.577 E6.47117
G1 X160.974 Y170.717 E6.53908
G1 X160.099 Y170.777 E6.60261
G1 X159.47 Y170.79 E6.64819
G1 X140.765 Y170.789 E8.00319
G1 X140.067 Y170.78 E8.05376
G1 X139.131 Y170.728 E8.12167
G1 X138.203 Y170.596 E8.18957
G1 X137.29 Y170.386 E8.25743
G1 X136.397 Y170.099 E8.32538
G1 X135.533 Y169.736 E8.39327
G1 X134.702 Y169.302 E8.46118
G1 X133.912 Y168.798 E8.52907
G1 X133.167 Y168.228 E8.59702
G1 X132.474 Y167.598 E8.66486
G1 X131.836 Y166.91 E8.73283
G1 X131.26 Y166.171 E8.80071
G1 X130.749 Y165.385 E8.86862
G1 X130.307 Y164.558 E8.93655
G1 X129.937 Y163.697 E9.00444
G1 X129.641 Y162.807 E9.07238
G1 X129.422 Y161.896 E9.14025
G1 X129.282 Y160.969 E9.20817
G1 X129.223 Y160.088 E9.27213
G1 X129.21 Y159.458 E9.31778
G1 X129.211 Y142.24 E10.56506
G0 F1620 X129.211 Y140.725
G0 F6000 X129.871 Y140.734
G1 F1800 X129.88 Y140.069 E10.61324
G1 X129.932 Y139.162 E10.67905
G1 X130.064 Y138.263 E10.74487
G1 X130.274 Y137.378 E10.81076
G1 X130.562 Y136.516 E10.8766
G1 X130.924 Y135.683 E10.94239
G1 X131.357 Y134.884 E11.00823
G1 X131.86 Y134.126 E11.07413
G1 X132.427 Y133.416 E11.13995
G1 X133.054 Y132.758 E11.20579
G1 X133.736 Y132.158 E11.27159
G1 X134.469 Y131.621 E11.33741
G1 X135.246 Y131.149 E11.40327
G1 X136.062 Y130.748 E11.46913
G1 X136.909 Y130.42 E11.53493
G1 X137.782 Y130.168 E11.60075
G1 X138.674 Y129.994 E11.66659
G1 X139.919 Y129.883 E11.75714
G1 X140.53 Y129.87 E11.80141
G1 X159.093 Y129.87 E13.14612
G1 X159.939 Y129.881 E13.20741
G1 X160.846 Y129.934 E13.27323
G1 X161.745 Y130.067 E13.33906
G1 X162.629 Y130.278 E13.4049
G1 X163.491 Y130.566 E13.47073
G1 X164.325 Y130.928 E13.53659
G1 X165.123 Y131.363 E13.60243
G1 X165.88 Y131.865 E13.66823
G1 X166.59 Y132.433 E13.7341
G1 X167.247 Y133.061 E13.79994
G1 X167.847 Y133.744 E13.86579
G1 X168.384 Y134.477 E13.93162
G1 X168.855 Y135.254 E13.99744
G1 X169.255 Y136.07 E14.06327
G1 X169.582 Y136.918 E14.12911
G1 X169.834 Y137.791 E14.19493
G1 X170.008 Y138.683 E14.26077
G1 X170.117 Y139.92 E14.35072
G1 X170.13 Y140.53 E14.39492
G1 X170.129 Y159.192 E15.74681
G1 X170.12 Y159.919 E15.79947
G1 X170.069 Y160.826 E15.86528
G1 X169.938 Y161.726 E15.93117
G1 X169.729 Y162.61 E15.99697
G1 X169.443 Y163.473 E16.06283
G1 X169.082 Y164.307 E16.12866
G1 X168.649 Y165.106 E16.19449
G1 X168.147 Y165.864 E16.26035
G1 X167.581 Y166.575 E16.32619
G1 X166.955 Y167.233 E16.39198
G1 X166.273 Y167.834 E16.45783
G1 X165.541 Y168.373 E16.52368
G1 X164.764 Y168.845 E16.58954
G1 X163.949 Y169.247 E16.65537
G1 X163.102 Y169.576 E16.72119
G1 X162.229 Y169.829 E16.78703
G1 X161.337 Y170.005 E16.85289
G1 X160.081 Y170.117 E16.94424
G1 X159.47 Y170.13 E16.98851
G1 X140.774 Y170.129 E18.34286
G1 X140.076 Y170.12 E18.39343
G1 X139.168 Y170.068 E18.45931
G1 X138.269 Y169.937 E18.52512
G1 X137.385 Y169.727 E18.59094
G1 X136.522 Y169.441 E18.6568
G1 X135.688 Y169.079 E18.72267
G1 X134.89 Y168.646 E18.78843
G1 X134.132 Y168.144 E18.85429
G1 X133.421 Y167.578 E18.92013
G1 X132.763 Y166.951 E18.98597
G1 X132.162 Y166.269 E19.05182
G1 X131.624 Y165.536 E19.11768
G1 X131.152 Y164.76 E19.18348
G1 X130.751 Y163.944 E19.24934
G1 X130.422 Y163.097 E19.31517
G1 X130.17 Y162.224 E19.38099
G1 X129.995 Y161.332 E19.44684
G1 X129.883 Y160.07 E19.53862
G1 X129.87 Y159.458 E19.58296
G1 X129.871 Y142.249 E20.82959
G0 F1620 X129.871 Y140.734
G1 F1800 E14.82959
G1 F300 Z0.56
;MESH:Cube
G0 F6000 X141.85 Y141.85 Z0.56
;TYPE:WALL-INNER
G1 F300 Z0.24
G1 F1800 E20.82959
G1 X141.85 Y158.15 E21.93953
G1 X158.15 Y158.15 E23.04946
G1 X158.15 Y150 E23.60443
G1 X158.15 Y141.85 E24.1594
G1 X143.365 Y141.85 E25.16617
G0 F1620 X141.85 Y141.85
G0 F6000 X141.19 Y141.19
G1 F1800 X141.19 Y158.81 E26.36599
G1 X158.81 Y158.81 E27.5658
G1 X158.81 Y150 E28.16571
G1 X158.81 Y141.19 E28.76562
G1 X142.705 Y141.19 E29.86228
G0 F1620 X141.19 Y141.19
G0 F6000 X140.53 Y140.53
;TYPE:WALL-OUTER
G1 F1800 X140.53 Y159.47 E31.15198
G1 X159.47 Y159.47 E32.44169
G1 X159.47 Y150 E33.08654
G1 X159.47 Y140.53 E33.73139
G1 X142.045 Y140.53 E34.91793
G0 F1620 X140.53 Y140.53
G0 F6000 X140.53 Y140.85
G0 X141.18 Y141.18
G0 X142.35 Y142.35
;TYPE:SKIN
G1 F1800 X142.35 Y157.65 E36.02627
G1 X157.65 Y157.65 E37.13461
G1 X157.65 Y150 E37.68878
G1 X157.65 Y142.35 E38.24295
G1 X143.865 Y142.35 E39.24154
G0 F1620 X142.35 Y142.35
G0 F6000 X157.319 Y143.319
G1 F1800 X156.68 Y142.68 E39.30701
G0 F6000 X155.747 Y142.68
G1 F1800 X157.319 Y144.252 E39.46805
G0 F6000 X157.319 Y145.185
G1 F1800 X154.813 Y142.68 E39.72473
G0 F6000 X153.88 Y142.68
G1 F1800 X157.319 Y146.119 E40.07705
G0 F6000 X157.319 Y147.052
G1 F1800 X152.947 Y142.68 E40.52494
G0 F6000 X152.013 Y142.68
G1 F1800 X157.319 Y147.986 E41.06852
G0 F6000 X157.319 Y148.919
G1 F1800 X151.08 Y142.68 E41.70769
G0 F6000 X150.147 Y142.68
G1 F1800 X157.319 Y149.852 E42.44243
G0 F6000 X157.319 Y150.786
G1 F1800 X149.213 Y142.68 E43.27286
G0 F6000 X148.28 Y142.68
G1 F1800 X157.319 Y151.719 E44.19888
G0 F6000 X157.319 Y152.653
G1 F1800 X147.346 Y142.68 E45.22057
G0 F6000 X146.413 Y142.68
G1 F1800 X157.319 Y153.586 E46.33786
G0 F6000 X157.319 Y154.519
G1 F1800 X145.48 Y142.68 E47.55072
G0 F6000 X144.546 Y142.68
G1 F1800 X157.319 Y155.453 E48.85927
G0 F6000 X157.319 Y156.386
G1 F1800 X143.613 Y142.68 E50.2634
G0 F6000 X142.679 Y142.679
G1 F1800 X157.319 Y157.319 E51.76321
G0 F6000 X156.386 Y157.319
G1 F1800 X142.679 Y143.612 E53.16745
G0 F6000 X142.679 Y144.546
G1 F1800 X155.453 Y157.319 E54.47605
G0 F6000 X154.519 Y157.319
G1 F1800 X142.679 Y145.479 E55.68901
G0 F6000 X142.679 Y146.412
G1 F1800 X153.586 Y157.319 E56.8064
G0 F6000 X152.653 Y157.319
G1 F1800 X142.679 Y147.346 E57.82815
G0 F6000 X142.679 Y148.279
G1 F1800 X151.719 Y157.319 E58.75426
G0 F6000 X150.786 Y157.319
G1 F1800 X142.679 Y149.212 E59.5848
G0 F6000 X142.679 Y150.146
G1 F1800 X149.852 Y157.319 E60.31964
G0 F6000 X148.919 Y157.319
M104 S245
G1 F1800 X142.679 Y151.079 E60.95891
G0 F6000 X142.679 Y152.013
G1 F1800 X147.986 Y157.319 E61.50254
G0 F6000 X147.052 Y157.319
G1 F1800 X142.679 Y152.946 E61.95054
G0 F6000 X142.679 Y153.879
G1 F1800 X146.119 Y157.319 E62.30296
G0 F6000 X145.185 Y157.319
G1 F1800 X142.679 Y154.813 E62.55969
G0 F6000 X142.679 Y155.746
G1 F1800 X144.252 Y157.319 E62.72083
G0 F6000 X143.319 Y157.319
G1 F1800 X142.679 Y156.68 E62.78635
G1 F1800 E56.78635
;MESH:NONMESH
G0 F300 X142.679 Y156.68 Z0.56
G0 F6000 X142.1 Y142.1
;TIME_ELAPSED:44.050834
;LAYER:1
M140 S75
;TYPE:WALL-INNER
;MESH:Cube
G1 F1800 E62.78635
G1 F2250 X142.1 Y157.9 E63.9719
G1 X157.9 Y157.9 E65.15745
G1 X157.9 Y142.1 E66.343
G1 X143.35 Y142.1 E67.43476
G0 F2025 X142.1 Y142.1
G0 F6600 X141.5 Y141.5
G1 F2250 X141.5 Y158.5 E68.71035
G1 X158.5 Y158.5 E69.98594
G1 X158.5 Y141.5 E71.26154
G1 X142.75 Y141.5 E72.44334
G0 F2025 X141.5 Y141.5
G0 F6600 X140.9 Y140.9
G1 F2250 X140.9 Y159.1 E73.80897
G1 X159.1 Y159.1 E75.17461
G1 X159.1 Y140.9 E76.54024
G1 X142.15 Y140.9 E77.81208
G0 F2025 X140.9 Y140.9
G0 F6600 X140.3 Y140.3
;TYPE:WALL-OUTER
G1 F1950 X140.3 Y159.7 E79.26776
G1 X159.7 Y159.7 E80.72343
G1 X159.7 Y140.3 E82.17911
G1 X141.55 Y140.3 E83.54099
G0 F1755 X140.3 Y140.3
G0 F6600 X140.3 Y140.62
G0 X140.98 Y140.98
G0 X142.54 Y142.54
;TYPE:SKIN
G1 F1800 X142.54 Y157.46 E84.73197
G1 X157.46 Y157.46 E85.92295
G1 X157.46 Y150 E86.51844
G1 X157.46 Y142.54 E87.11393
G1 X143.79 Y142.54 E88.20513
G0 F1620 X142.54 Y142.54
G0 F6600 X142.84 Y143.113
G1 F1800 X143.114 Y142.839 E88.23606
G0 F6600 X143.962 Y142.839
G1 F1800 X142.84 Y143.961 E88.36272
G0 F6600 X142.84 Y144.81
G1 F1800 X144.811 Y142.839 E88.58522
G0 F6600 X145.659 Y142.839
G1 F1800 X142.84 Y145.659 E88.90351
G0 F6600 X142.84 Y146.507
G1 F1800 X146.508 Y142.839 E89.31759
G0 F6600 X147.356 Y142.839
G1 F1800 X142.84 Y147.356 E89.82745
G0 F6600 X142.84 Y148.204
G1 F1800 X148.205 Y142.839 E90.4331
G0 F6600 X149.053 Y142.839
G1 F1800 X142.84 Y149.053 E91.13453
G0 F6600 X142.84 Y149.901
G1 F1800 X149.902 Y142.839 E91.93175
G0 F6600 X150.75 Y142.839
G1 F1800 X142.84 Y150.75 E92.82476
G0 F6600 X142.84 Y151.598
G1 F1800 X151.599 Y142.839 E93.81355
G0 F6600 X152.447 Y142.839
G1 F1800 X142.84 Y152.447 E94.89813
G0 F6600 X142.84 Y153.295
G1 F1800 X153.296 Y142.839 E96.07849
G0 F6600 X154.145 Y142.839
G1 F1800 X142.84 Y154.144 E97.3547
G0 F6600 X142.84 Y154.992
G1 F1800 X154.993 Y142.839 E98.72663
G0 F6600 X155.842 Y142.839
G1 F1800 X142.84 Y155.841 E100.19441
G0 F6600 X142.84 Y156.689
G1 F1800 X156.69 Y142.839 E101.75792
G0 F6600 X157.159 Y143.219
G1 F1800 X143.219 Y157.159 E103.33159
G0 F6600 X144.068 Y157.159
G1 F1800 X157.159 Y144.068 E104.80941
G0 F6600 X157.159 Y144.916
G1 F1800 X144.916 Y157.159 E106.19151
G0 F6600 X145.765 Y157.159
G1 F1800 X157.159 Y145.765 E107.47776
G0 F6600 X157.159 Y146.613
G1 F1800 X146.613 Y157.159 E108.66828
G0 F6600 X147.462 Y157.159
G1 F1800 X157.159 Y147.462 E109.76296
G0 F6600 X157.159 Y148.31
G1 F1800 X148.31 Y157.159 E110.76192
G0 F6600 X149.159 Y157.159
G1 F1800 X157.159 Y149.159 E111.66502
G0 F6600 X157.159 Y150.007
G1 F1800 X150.007 Y157.159 E112.4724
G0 F6600 X150.856 Y157.159
G1 F1800 X157.159 Y150.856 E113.18394
G0 F6600 X157.159 Y151.704
G1 F1800 X151.704 Y157.159 E113.79975
G0 F6600 X152.553 Y157.159
G1 F1800 X157.159 Y152.553 E114.31971
G0 F6600 X157.159 Y153.401
G1 F1800 X153.401 Y157.159 E114.74395
G0 F6600 X154.25 Y157.159
G1 F1800 X157.159 Y154.25 E115.07234
G0 F6600 X157.159 Y155.098
G1 F1800 X155.098 Y157.159 E115.30501
G0 F6600 X155.947 Y157.159
G1 F1800 X157.159 Y155.947 E115.44183
G0 F6600 X157.159 Y156.795
G1 F1800 X156.795 Y157.159 E115.48292
G1 F1800 E109.48292
;MESH:NONMESH
G0 F300 X156.795 Y157.159 Z0.88
G0 F6600 X141.5 Y141.5
;TIME_ELAPSED:70.897632
;LAYER:2
;TYPE:WALL-INNER
;MESH:Cube
G1 F1800 E115.48292
G1 F1474.5 X141.5 Y158.5 E116.75851
G1 X158.5 Y158.5 E118.0341
G1 X158.5 Y141.5 E119.3097
G1 X142.75 Y141.5 E120.4915
G0 F1327.1 X141.5 Y141.5
G0 F7200 X140.9 Y140.9
G1 F1474.5 X140.9 Y159.1 E121.85713
G1 X159.1 Y159.1 E123.22276
G1 X159.1 Y140.9 E124.5884
G1 X142.15 Y140.9 E125.86024
G0 F1327.1 X140.9 Y140.9
G0 F7200 X140.3 Y140.3
;TYPE:WALL-OUTER
G1 F1146.9 X140.3 Y159.7 E127.31592
G1 X159.7 Y159.7 E128.77159
G1 X159.7 Y140.3 E130.22727
G1 X141.55 Y140.3 E131.58915
G0 F1032.2 X140.3 Y140.3
G0 F7200 X140.3 Y140.62
G0 X141.51 Y141.334
G1 F1800 E125.58915
;MESH:NONMESH
G0 F300 X141.51 Y141.334 Z1.2
G0 F7200 X142.1 Y142.1
;TIME_ELAPSED:81.928885
;LAYER:3
;TYPE:WALL-INNER
;MESH:Cube
G1 F1800 E131.58915
G1 F1830.6 X142.1 Y150 E132.18193
G1 X142.1 Y157.9 E132.7747
G1 X157.9 Y157.9 E133.96025
G1 X157.9 Y142.1 E135.1458
G1 X143.35 Y142.1 E136.23756
G0 F1647.6 X142.1 Y142.1
G0 F7200 X141.5 Y141.5
G1 F1830.6 X141.5 Y150 E136.87536
G1 X141.5 Y158.5 E137.51315
G1 X158.5 Y158.5 E138.78875
G1 X158.5 Y141.5 E140.06434
G1 X142.75 Y141.5 E141.24614
G0 F1647.6 X141.5 Y141.5
G0 F7200 X140.9 Y140.9
G1 F1830.6 X140.9 Y150 E141.92896
G1 X140.9 Y159.1 E142.61177
G1 X159.1 Y159.1 E143.97741
G1 X159.1 Y140.9 E145.34304
G1 X142.15 Y140.9 E146.61488
G0 F1647.6 X140.9 Y140.9
G0 F7200 X140.3 Y140.3
;TYPE:WALL-OUTER
G1 F1423.8 X140.3 Y150 E147.34272
G1 X140.3 Y159.7 E148.07056
G1 X159.7 Y159.7 E149.52624
G1 X159.7 Y140.3 E150.98191
G1 X141.55 Y140.3 E152.3438
G0 F1281.4 X140.3 Y140.3
G0 F7200 X140.3 Y140.62
G0 X141.51 Y141.334
G1 F1800 E146.3438
;MESH:NONMESH
G0 F300 X141.51 Y141.334 Z1.52
G0 F7200 X141.5 Y141.5
;TIME_ELAPSED:93.394258
;LAYER:4
;TYPE:WALL-INNER
;MESH:Cube
G1 F1800 E152.3438
G1 F1447.8 X141.5 Y158.5 E153.61939
G1 X158.5 Y158.5 E154.89498
G1 X158.5 Y141.5 E156.17057
G1 X142.75 Y141.5 E157.35237
G0 F1303 X141.5 Y141.5
G0 F7200 X140.9 Y140.9
G1 F1447.8 X140.9 Y159.1 E158.71801
G1 X159.1 Y159.1 E160.08364
G1 X159.1 Y140.9 E161.44928
G1 X142.15 Y140.9 E162.72112
G0 F1303 X140.9 Y140.9
G0 F7200 X140.3 Y140.3
;TYPE:WALL-OUTER
G1 F1126 X140.3 Y159.7 E164.17679
G1 X159.7 Y159.7 E165.63247
G1 X159.7 Y140.3 E167.08815
G1 X141.55 Y140.3 E168.45003
G0 F1013.4 X140.3 Y140.3
G0 F7200 X140.3 Y140.62
G0 X141.51 Y141.334
G1 F1800 E162.45003
;MESH:NONMESH
G0 F300 X141.51 Y141.334 Z1.84
G0 F7200 X142.1 Y142.1
;TIME_ELAPSED:104.598773
;LAYER:5
;TYPE:WALL-INNER
;MESH:Cube
G1 F1800 E168.45003
G1 F1830.6 X142.1 Y150 E169.0428
G1 X142.1 Y157.9 E169.63558
G1 X157.9 Y157.9 E170.82113
G1 X157.9 Y142.1 E172.00668
G1 X143.35 Y142.1 E173.09844
G0 F1647.6 X142.1 Y142.1
G0 F7200 X141.5 Y141.5
G1 F1830.6 X141.5 Y150 E173.73624
G1 X141.5 Y158.5 E174.37403
G1 X158.5 Y158.5 E175.64962
G1 X158.5 Y141.5 E176.92522
G1 X142.75 Y141.5 E178.10702
G0 F1647.6 X141.5 Y141.5
G0 F7200 X140.9 Y140.9
G1 F1830.6 X140.9 Y150 E178.78983
G1 X140.9 Y159.1 E179.47265
G1 X159.1 Y159.1 E180.83829
G1 X159.1 Y140.9 E182.20392
G1 X142.15 Y140.9 E183.47576
G0 F1647.6 X140.9 Y140.9
G0 F7200 X140.3 Y140.3
;TYPE:WALL-OUTER
G1 F1423.8 X140.3 Y150 E184.2036
G1 X140.3 Y159.7 E184.93144
G1 X159.7 Y159.7 E186.38711
G1 X159.7 Y140.3 E187.84279
G1 X141.55 Y140.3 E189.20467
G0 F1281.4 X140.3 Y140.3
G0 F7200 X140.3 Y140.62
G0 X141.51 Y141.334
G1 F1800 E183.20467
;MESH:NONMESH
G0 F300 X141.51 Y141.334 Z2.16
G0 F7200 X141.5 Y141.5
;TIME_ELAPSED:116.064146
;LAYER:6
;TYPE:WALL-INNER
;MESH:Cube
G1 F1800 E189.20467
G1 F1447.8 X141.5 Y158.5 E190.48027
G1 X158.5 Y158.5 E191.75586
G1 X158.5 Y150 E192.39365
G1 X158.5 Y141.5 E193.03145
G1 X142.75 Y141.5 E194.21325
G0 F1303 X141.5 Y141.5
G0 F7200 X140.9 Y140.9
G1 F1447.8 X140.9 Y159.1 E195.57888
G1 X159.1 Y159.1 E196.94452
G1 X159.1 Y150 E197.62734
