;FLAVOR:Marlin
;TIME:657
;Filament used: 2.7381m
;Layer height: 0.32
;MINX:102.225
;MINY:112.225
;MINZ:0.28
;MAXX:147.775
;MAXY:157.775
;MAXZ:25.64
;Generated with Cura_SteamEngine 5.4.0
M140 S60
M105
M190 S60
M104 S215
M105
M109 S215
M82 ;absolute extrusion mode
START_PRINT
G92 E0
G92 E0
G1 F300 E-0.5
;LAYER_COUNT:79
;LAYER:0
M107
M204 S1800
G1 F600 Z0.68
G0 F6000 X105.526 Y114.811 Z0.68
;TYPE:SKIRT
G1 F600 Z0.28
G1 F120 E0
G1 F1800 X106.943 Y113.726 E0.13214
G1 X108.632 Y112.871 E0.2723
G1 X110.122 Y112.478 E0.38639
G1 X111.452 Y112.231 E0.48655
G1 X138.628 Y112.225 E2.49866
G1 X140.415 Y112.545 E2.63308
G1 X142.105 Y113.184 E2.76685
G1 X143.763 Y114.195 E2.91063
G1 X145.189 Y115.526 E3.05506
G1 X146.274 Y116.943 E3.18719
G1 X147.129 Y118.632 E3.32736
G1 X147.522 Y120.122 E3.44145
G1 X147.769 Y121.452 E3.54161
G1 X147.775 Y148.628 E5.55372
G1 X147.455 Y150.415 E5.68813
G1 X146.816 Y152.105 E5.8219
G1 X145.805 Y153.763 E5.96568
G1 X144.474 Y155.189 E6.11011
G1 X143.057 Y156.274 E6.24225
G1 X141.368 Y157.129 E6.38241
G1 X139.878 Y157.522 E6.4965
G1 X138.548 Y157.769 E6.59666
G1 X111.372 Y157.775 E8.60877
G1 X109.585 Y157.455 E8.74319
G1 X107.895 Y156.816 E8.87696
G1 X106.237 Y155.805 E9.02074
G1 X104.811 Y154.474 E9.16517
G1 X103.726 Y153.057 E9.2973
G1 X102.871 Y151.368 E9.43747
G1 X102.478 Y149.878 E9.55156
G1 X102.231 Y148.548 E9.65172
G1 X102.225 Y121.372 E11.66383
G1 X102.545 Y119.585 E11.79824
G1 X103.184 Y117.895 E11.93201
G1 X104.195 Y116.237 E12.07579
G1 X105.526 Y114.811 E12.22022
G0 F6000 X105.963 Y115.295
G1 F1800 X107.29 Y114.278 E12.34401
G1 X108.861 Y113.483 E12.47437
G1 X110.288 Y113.107 E12.58363
G1 X111.511 Y112.881 E12.67571
G1 X138.57 Y112.875 E14.67916
G1 X140.241 Y113.174 E14.80485
G1 X141.817 Y113.77 E14.9296
G1 X143.371 Y114.718 E15.06438
G1 X144.705 Y115.963 E15.19948
G1 X145.722 Y117.29 E15.32327
G1 X146.517 Y118.861 E15.45363
G1 X146.893 Y120.288 E15.56289
G1 X147.119 Y121.511 E15.65497
G1 X147.125 Y148.57 E17.65842
G1 X146.826 Y150.241 E17.78411
G1 X146.23 Y151.817 E17.90886
G1 X145.282 Y153.371 E18.04364
G1 X144.037 Y154.705 E18.17874
G1 X142.71 Y155.722 E18.30253
G1 X141.139 Y156.517 E18.43289
G1 X139.712 Y156.893 E18.54215
G1 X138.489 Y157.119 E18.63423
G1 X111.43 Y157.125 E20.63768
G1 X109.759 Y156.826 E20.76337
G1 X108.183 Y156.23 E20.88812
G1 X106.629 Y155.282 E21.0229
G1 X105.295 Y154.037 E21.158
G1 X104.278 Y152.71 E21.28178
G1 X103.483 Y151.139 E21.41215
G1 X103.107 Y149.712 E21.52141
G1 X102.881 Y148.489 E21.61349
G1 X102.875 Y121.43 E23.61694
G1 X103.174 Y119.759 E23.74263
G1 X103.77 Y118.183 E23.86738
G1 X104.718 Y116.629 E24.00215
G1 X105.963 Y115.295 E24.13726
G0 F6000 X106.4 Y115.779
G1 F1800 X107.636 Y114.832 E24.25254
G1 X109.093 Y114.094 E24.37347
G1 X110.453 Y113.736 E24.47759
G1 X111.569 Y113.531 E24.5616
G1 X138.512 Y113.525 E26.55646
G1 X140.067 Y113.803 E26.67342
G1 X141.531 Y114.357 E26.78932
G1 X142.977 Y115.239 E26.91472
G1 X144.221 Y116.4 E27.04071
G1 X145.168 Y117.636 E27.156
G1 X145.906 Y119.093 E27.27692
G1 X146.264 Y120.453 E27.38105
G1 X146.469 Y121.569 E27.46506
G1 X146.475 Y148.512 E29.45992
G1 X146.197 Y150.067 E29.57687
G1 X145.643 Y151.531 E29.69277
G1 X144.761 Y152.977 E29.81818
G1 X143.6 Y154.221 E29.94416
G1 X142.364 Y155.168 E30.05945
G1 X140.907 Y155.906 E30.18037
G1 X139.547 Y156.264 E30.2845
G1 X138.431 Y156.469 E30.36851
G1 X111.488 Y156.475 E32.36337
G1 X109.933 Y156.197 E32.48033
G1 X108.469 Y155.643 E32.59622
G1 X107.023 Y154.761 E32.72163
G1 X105.779 Y153.6 E32.84762
G1 X104.832 Y152.364 E32.9629
G1 X104.094 Y150.907 E33.08383
G1 X103.736 Y149.547 E33.18795
G1 X103.531 Y148.431 E33.27196
G1 X103.525 Y121.488 E35.26682
G1 X103.803 Y119.933 E35.38378
G1 X104.357 Y118.469 E35.49968
G1 X105.239 Y117.023 E35.62508
G1 X106.4 Y115.779 E35.75107
G0 F6000 X106.837 Y116.263
G1 F1800 X107.982 Y115.386 E35.85785
G1 X109.324 Y114.706 E35.96924
G1 X110.619 Y114.365 E36.06839
G1 X111.626 Y114.181 E36.14419
G1 X138.453 Y114.175 E38.13046
G1 X139.894 Y114.433 E38.23885
G1 X141.245 Y114.944 E38.34579
G1 X142.583 Y115.76 E38.46182
G1 X143.737 Y116.837 E38.5787
G1 X144.614 Y117.982 E38.68548
G1 X145.294 Y119.324 E38.79687
G1 X145.635 Y120.619 E38.89602
G1 X145.819 Y121.626 E38.97181
G1 X145.825 Y148.453 E40.95808
G1 X145.567 Y149.894 E41.06647
G1 X145.056 Y151.245 E41.17342
G1 X144.24 Y152.583 E41.28945
G1 X143.163 Y153.737 E41.40632
G1 X142.018 Y154.614 E41.51311
G1 X140.676 Y155.294 E41.6245
G1 X139.381 Y155.635 E41.72365
G1 X138.374 Y155.819 E41.79944
G1 X111.547 Y155.825 E43.78571
G1 X110.106 Y155.567 E43.8941
G1 X108.755 Y155.056 E44.00104
G1 X107.417 Y154.24 E44.11708
G1 X106.263 Y153.163 E44.23395
G1 X105.386 Y152.018 E44.34074
G1 X104.706 Y150.676 E44.45213
G1 X104.365 Y149.381 E44.55128
G1 X104.181 Y148.374 E44.62707
G1 X104.175 Y121.547 E46.61334
G1 X104.433 Y120.106 E46.72173
G1 X104.944 Y118.755 E46.82867
G1 X105.76 Y117.417 E46.94471
G1 X106.837 Y116.263 E47.06158
G0 F6000 X107.271 Y116.75
G1 F1800 X108.33 Y115.938 E47.16038
G1 X109.555 Y115.318 E47.26204
G1 X110.785 Y114.994 E47.35621
G1 X111.687 Y114.831 E47.42408
G1 X138.395 Y114.825 E49.40154
G1 X139.72 Y115.062 E49.5012
G1 X140.959 Y115.531 E49.59929
G1 X142.189 Y116.281 E49.70595
G1 X143.25 Y117.271 E49.81339
G1 X144.062 Y118.33 E49.9122
G1 X144.682 Y119.555 E50.01385
G1 X145.006 Y120.785 E50.10803
G1 X145.169 Y121.687 E50.17589
G1 X145.175 Y148.395 E52.15335
G1 X144.938 Y149.72 E52.25301
G1 X144.469 Y150.959 E52.3511
G1 X143.719 Y152.189 E52.45776
G1 X142.729 Y153.25 E52.56521
G1 X141.67 Y154.062 E52.66401
G1 X140.445 Y154.682 E52.76567
G1 X139.215 Y155.006 E52.85984
G1 X138.313 Y155.169 E52.92771
G1 X111.605 Y155.175 E54.90517
G1 X110.28 Y154.938 E55.00483
G1 X109.041 Y154.469 E55.10291
G1 X107.811 Y153.719 E55.20958
G1 X106.75 Y152.729 E55.31702
G1 X105.938 Y151.67 E55.41582
G1 X105.318 Y150.445 E55.51748
G1 X104.994 Y149.215 E55.61165
G1 X104.831 Y148.313 E55.67952
G1 X104.825 Y121.605 E57.65698
G1 X105.062 Y120.28 E57.75664
G1 X105.531 Y119.041 E57.85473
G1 X106.281 Y117.811 E57.96139
G1 X107.271 Y116.75 E58.06883
G0 F6000 X107.708 Y117.234
G1 F1800 X108.676 Y116.492 E58.15914
G1 X109.786 Y115.93 E58.25126
G1 X110.951 Y115.623 E58.34046
G1 X111.746 Y115.481 E58.40025
G1 X138.337 Y115.475 E60.36905
G1 X139.546 Y115.691 E60.45998
G1 X140.673 Y116.118 E60.54921
G1 X141.795 Y116.802 E60.6465
G1 X142.766 Y117.708 E60.74483
G1 X143.508 Y118.676 E60.83514
G1 X144.07 Y119.786 E60.92725
G1 X144.377 Y120.951 E61.01645
G1 X144.519 Y121.746 E61.07625
G1 X144.525 Y148.337 E63.04504
G1 X144.309 Y149.546 E63.13598
G1 X143.882 Y150.673 E63.22521
G1 X143.198 Y151.795 E63.3225
G1 X142.292 Y152.766 E63.42083
G1 X141.324 Y153.508 E63.51113
G1 X140.214 Y154.07 E63.60325
G1 X139.049 Y154.377 E63.69245
G1 X138.254 Y154.519 E63.75224
G1 X111.663 Y154.525 E65.72104
G1 X110.454 Y154.309 E65.81197
G1 X109.327 Y153.882 E65.9012
G1 X108.205 Y153.198 E65.9985
G1 X107.234 Y152.292 E66.09683
G1 X106.492 Y151.324 E66.18713
G1 X105.93 Y150.214 E66.27925
G1 X105.623 Y149.049 E66.36845
G1 X105.481 Y148.254 E66.42824
G1 X105.475 Y121.663 E68.39704
G1 X105.691 Y120.454 E68.48797
G1 X106.118 Y119.327 E68.5772
G1 X106.802 Y118.205 E68.67449
G1 X107.708 Y117.234 E68.77282
G0 F6000 X108.145 Y117.718
G1 F1800 X109.022 Y117.046 E68.85463
G1 X110.02 Y116.54 E68.93747
G1 X111.065 Y116.263 E69.01752
G1 X111.804 Y116.131 E69.0731
G1 X138.278 Y116.125 E71.03323
G1 X139.373 Y116.321 E71.11559
G1 X140.385 Y116.704 E71.19571
G1 X141.403 Y117.325 E71.284
G1 X142.282 Y118.145 E71.373
G1 X142.954 Y119.022 E71.45481
G1 X143.46 Y120.02 E71.53765
G1 X143.737 Y121.065 E71.6177
G1 X143.869 Y121.804 E71.67328
G1 X143.875 Y148.278 E73.63341
G1 X143.679 Y149.373 E73.71577
G1 X143.296 Y150.385 E73.79589
G1 X142.675 Y151.403 E73.88418
G1 X141.855 Y152.282 E73.97318
G1 X140.978 Y152.954 E74.05499
G1 X139.98 Y153.46 E74.13783
G1 X138.935 Y153.737 E74.21788
G1 X138.196 Y153.869 E74.27346
G1 X111.722 Y153.875 E76.23359
G1 X110.627 Y153.679 E76.31596
G1 X109.615 Y153.296 E76.39607
G1 X108.597 Y152.675 E76.48436
G1 X107.718 Y151.855 E76.57336
G1 X107.046 Y150.978 E76.65517
G1 X106.54 Y149.98 E76.73801
G1 X106.263 Y148.935 E76.81806
G1 X106.131 Y148.196 E76.87364
G1 X106.125 Y121.722 E78.83377
G1 X106.321 Y120.627 E78.91614
G1 X106.704 Y119.615 E78.99625
G1 X107.325 Y118.597 E79.08454
G1 X108.145 Y117.718 E79.17354
G0 F6000 X108.582 Y118.202
G1 F1800 X109.368 Y117.6 E79.24685
G1 X110.254 Y117.151 E79.32039
G1 X111.179 Y116.903 E79.3913
G1 X111.862 Y116.781 E79.44266
G1 X138.22 Y116.775 E81.39421
G1 X139.199 Y116.95 E81.46784
G1 X140.099 Y117.291 E81.5391
G1 X141.009 Y117.846 E81.61802
G1 X141.798 Y118.582 E81.69791
G1 X142.4 Y119.368 E81.77121
G1 X142.849 Y120.254 E81.84476
G1 X143.097 Y121.179 E81.91566
G1 X143.219 Y121.862 E81.96703
G1 X143.225 Y148.22 E83.91858
G1 X143.05 Y149.199 E83.99221
G1 X142.709 Y150.099 E84.06347
G1 X142.154 Y151.009 E84.14239
G1 X141.418 Y151.798 E84.22228
G1 X140.632 Y152.4 E84.29558
G1 X139.746 Y152.849 E84.36912
G1 X138.821 Y153.097 E84.44003
G1 X138.138 Y153.219 E84.4914
G1 X111.78 Y153.225 E86.44294
G1 X110.801 Y153.05 E86.51658
G1 X109.901 Y152.709 E86.58784
G1 X108.991 Y152.154 E86.66675
G1 X108.202 Y151.418 E86.74664
G1 X107.6 Y150.632 E86.81995
G1 X107.151 Y149.746 E86.89349
G1 X106.903 Y148.821 E86.96439
G1 X106.781 Y148.138 E87.01576
G1 X106.775 Y121.78 E88.96731
G1 X106.95 Y120.801 E89.04094
G1 X107.291 Y119.901 E89.1122
G1 X107.846 Y118.991 E89.19112
G1 X108.582 Y118.202 E89.27101
G0 F6000 X109.022 Y118.683
G1 F1800 X109.715 Y118.152 E89.33565
G1 X110.488 Y117.761 E89.39979
G1 X111.293 Y117.543 E89.46154
G1 X111.92 Y117.431 E89.50869
G1 X138.161 Y117.425 E91.45158
G1 X139.026 Y117.58 E91.51664
G1 X139.811 Y117.877 E91.57878
G1 X140.614 Y118.367 E91.64843
G1 X141.317 Y119.022 E91.71957
G1 X141.848 Y119.715 E91.78421
G1 X142.239 Y120.488 E91.84835
G1 X142.457 Y121.293 E91.9101
G1 X142.569 Y121.92 E91.95726
G1 X142.575 Y148.161 E93.90014
G1 X142.42 Y149.026 E93.96521
G1 X142.123 Y149.811 E94.02735
G1 X141.633 Y150.614 E94.097
G1 X140.978 Y151.317 E94.16814
G1 X140.285 Y151.848 E94.23278
G1 X139.512 Y152.239 E94.29692
G1 X138.707 Y152.457 E94.35867
G1 X138.08 Y152.569 E94.40582
G1 X111.839 Y152.575 E96.34871
G1 X110.974 Y152.42 E96.41377
G1 X110.189 Y152.123 E96.47591
G1 X109.386 Y151.633 E96.54556
G1 X108.683 Y150.978 E96.6167
G1 X108.152 Y150.285 E96.68135
G1 X107.761 Y149.512 E96.74548
G1 X107.543 Y148.707 E96.80723
G1 X107.431 Y148.08 E96.85439
G1 X107.425 Y121.839 E98.79727
G1 X107.58 Y120.974 E98.86234
G1 X107.877 Y120.189 E98.92448
G1 X108.367 Y119.386 E98.99413
G1 X109.022 Y118.683 E99.06527
G0 F6000 X109.46 Y119.167
G1 F1800 X110.065 Y118.703 E99.12172
G1 X110.72 Y118.372 E99.17606
G1 X111.407 Y118.183 E99.22881
G1 X111.978 Y118.081 E99.27176
G1 X138.103 Y118.075 E101.20605
G1 X138.852 Y118.209 E101.26239
G1 X139.526 Y118.464 E101.31575
G1 X140.218 Y118.886 E101.37576
G1 X140.833 Y119.46 E101.43804
G1 X141.297 Y120.065 E101.49449
G1 X141.628 Y120.72 E101.54883
G1 X141.817 Y121.407 E101.60159
G1 X141.919 Y121.978 E101.64453
G1 X141.925 Y148.103 E103.57883
G1 X141.791 Y148.852 E103.63516
G1 X141.536 Y149.526 E103.68852
G1 X141.114 Y150.218 E103.74853
G1 X140.54 Y150.833 E103.81082
G1 X139.935 Y151.297 E103.86727
G1 X139.28 Y151.628 E103.9216
G1 X138.593 Y151.817 E103.97436
G1 X138.022 Y151.919 E104.0173
G1 X111.897 Y151.925 E105.9516
G1 X111.148 Y151.791 E106.00794
G1 X110.474 Y151.536 E106.06129
G1 X109.782 Y151.114 E106.1213
G1 X109.167 Y150.54 E106.18359
G1 X108.703 Y149.935 E106.24004
G1 X108.372 Y149.28 E106.29438
G1 X108.183 Y148.593 E106.34713
G1 X108.081 Y148.022 E106.39008
G1 X108.075 Y121.897 E108.32437
G1 X108.209 Y121.148 E108.38071
G1 X108.464 Y120.474 E108.43406
G1 X108.886 Y119.782 E108.49407
G1 X109.46 Y119.167 E108.55636
G0 F6000 X109.897 Y119.651
G1 F1800 X110.411 Y119.257 E108.60431
G1 X110.956 Y118.981 E108.64954
G1 X111.521 Y118.823 E108.69298
G1 X112.036 Y118.731 E108.73171
G1 X138.045 Y118.725 E110.65742
G1 X138.678 Y118.838 E110.70503
G1 X139.238 Y119.05 E110.74936
G1 X139.826 Y119.409 E110.80037
G1 X140.349 Y119.897 E110.85333
G1 X140.743 Y120.411 E110.90128
G1 X141.019 Y120.956 E110.94651
G1 X141.177 Y121.521 E110.98995
G1 X141.269 Y122.036 E111.02869
G1 X141.275 Y148.045 E112.95439
G1 X141.162 Y148.678 E113.002
G1 X140.95 Y149.238 E113.04633
G1 X140.591 Y149.826 E113.09734
G1 X140.103 Y150.349 E113.1503
G1 X139.589 Y150.743 E113.19825
G1 X139.044 Y151.019 E113.24349
G1 X138.479 Y151.177 E113.28692
G1 X137.964 Y151.269 E113.32566
G1 X111.955 Y151.275 E115.25136
G1 X111.322 Y151.162 E115.29897
G1 X110.762 Y150.95 E115.34331
G1 X110.174 Y150.591 E115.39431
G1 X109.651 Y150.103 E115.44728
G1 X109.257 Y149.589 E115.49523
G1 X108.981 Y149.044 E115.54046
G1 X108.823 Y148.479 E115.5839
G1 X108.731 Y147.964 E115.62263
G1 X108.725 Y121.955 E117.54834
G1 X108.838 Y121.322 E117.59594
G1 X109.05 Y120.762 E117.64028
G1 X109.409 Y120.174 E117.69129
G1 X109.897 Y119.651 E117.74425
G0 F6000 X110.334 Y120.135
G1 F1800 X110.761 Y119.808 E117.78407
G1 X111.19 Y119.59 E117.8197
G1 X111.635 Y119.463 E117.85396
G1 X112.094 Y119.381 E117.88848
G1 X137.987 Y119.375 E119.8056
G1 X138.503 Y119.467 E119.84441
G1 X138.951 Y119.637 E119.87988
G1 X139.434 Y119.932 E119.92179
G1 X139.865 Y120.334 E119.96543
G1 X140.192 Y120.761 E120.00525
G1 X140.41 Y121.19 E120.04088
G1 X140.537 Y121.635 E120.07514
G1 X140.619 Y122.094 E120.10966
G1 X140.625 Y147.987 E122.02678
G1 X140.533 Y148.503 E122.06559
G1 X140.363 Y148.951 E122.10106
G1 X140.068 Y149.434 E122.14297
G1 X139.666 Y149.865 E122.1866
G1 X139.239 Y150.192 E122.22643
G1 X138.81 Y150.41 E122.26205
G1 X138.365 Y150.537 E122.29632
G1 X137.906 Y150.619 E122.33084
G1 X112.013 Y150.625 E124.24796
G1 X111.497 Y150.533 E124.28676
G1 X111.049 Y150.363 E124.32224
G1 X110.566 Y150.068 E124.36415
G1 X110.135 Y149.666 E124.40778
G1 X109.808 Y149.239 E124.4476
G1 X109.59 Y148.81 E124.48323
G1 X109.463 Y148.365 E124.5175
G1 X109.381 Y147.906 E124.55202
G1 X109.375 Y122.013 E126.46914
G1 X109.467 Y121.497 E126.50794
G1 X109.637 Y121.049 E126.54342
G1 X109.932 Y120.566 E126.58532
G1 X110.334 Y120.135 E126.62896
G0 F6000 X110.773 Y120.617
G1 F1800 X111.11 Y120.36 E126.66034
G1 X111.43 Y120.197 E126.68693
G1 X111.749 Y120.103 E126.71155
G1 X112.152 Y120.031 E126.74186
G1 X137.929 Y120.025 E128.65039
G1 X138.327 Y120.096 E128.68033
G1 X138.664 Y120.224 E128.70702
G1 X139.039 Y120.453 E128.73955
G1 X139.383 Y120.773 E128.77433
G1 X139.64 Y121.11 E128.80571
G1 X139.803 Y121.43 E128.8323
G1 X139.897 Y121.749 E128.85693
G1 X139.969 Y122.152 E128.88724
G1 X139.975 Y147.929 E130.79576
G1 X139.904 Y148.327 E130.8257
G1 X139.776 Y148.664 E130.85239
G1 X139.547 Y149.039 E130.88492
G1 X139.227 Y149.383 E130.91971
G1 X138.89 Y149.64 E130.95109
G1 X138.57 Y149.803 E130.97768
G1 X138.251 Y149.897 E131.0023
G1 X137.848 Y149.969 E131.03261
G1 X112.071 Y149.975 E132.94114
G1 X111.673 Y149.904 E132.97107
G1 X111.336 Y149.776 E132.99776
G1 X110.961 Y149.547 E133.03029
G1 X110.617 Y149.227 E133.06508
G1 X110.36 Y148.89 E133.09646
G1 X110.197 Y148.57 E133.12305
G1 X110.103 Y148.251 E133.14767
G1 X110.031 Y147.848 E133.17798
G1 X110.025 Y122.071 E135.08651
G1 X110.096 Y121.673 E135.11644
G1 X110.224 Y121.336 E135.14313
G1 X110.453 Y120.961 E135.17567
G1 X110.773 Y120.617 E135.21045
G0 F6000 X111.209 Y121.102
G1 F1800 X111.458 Y120.912 E135.23364
G1 X111.668 Y120.805 E135.25109
G1 X111.933 Y120.727 E135.27155
G1 X112.209 Y120.681 E135.29226
G1 X137.871 Y120.675 E137.19228
G1 X138.151 Y120.725 E137.21334
G1 X138.377 Y120.811 E137.23124
G1 X138.647 Y120.976 E137.25467
G1 X138.898 Y121.209 E137.28002
G1 X139.088 Y121.458 E137.30321
G1 X139.195 Y121.668 E137.32066
G1 X139.273 Y121.933 E137.34112
G1 X139.319 Y122.209 E137.36183
G1 X139.325 Y147.871 E139.26185
G1 X139.275 Y148.151 E139.28291
G1 X139.189 Y148.377 E139.30081
G1 X139.024 Y148.647 E139.32424
G1 X138.791 Y148.898 E139.3496
G1 X138.542 Y149.088 E139.37279
G1 X138.332 Y149.195 E139.39024
G1 X138.067 Y149.273 E139.41069
