;FLAVOR:Marlin
;TIME:1482
;Filament used: 4.58461m
;Layer height: 0.32
;MINX:102.225
;MINY:102.225
;MINZ:0.28
;MAXX:147.775
;MAXY:147.775
;MAXZ:25.96
;Generated with Cura_SteamEngine 5.0.0
M140 S60
M105
M190 S60
M104 S215
M105
M109 S215
M82 ;absolute extrusion mode
START_PRINT
G92 E0
G92 E0
G1 F300 E-0.5
;LAYER_COUNT:80
;LAYER:0
M107
M204 S1800
G1 F600 Z0.68
G0 F3600 X105.296 Y105.058 Z0.68
G1 F600 Z0.68
G0 F3600 X102.225 Y112.3
;TYPE:SKIRT
G1 F600 Z0.28
G1 F120 E0
G1 F7500 X102.265 Y111.403 E0.06648
G1 X102.385 Y110.514 E0.1329
G1 X102.583 Y109.638 E0.19939
G1 X102.858 Y108.784 E0.26582
G1 X103.209 Y107.958 E0.33227
G1 X103.631 Y107.166 E0.39872
G1 X104.123 Y106.415 E0.46519
G1 X104.679 Y105.71 E0.53167
G1 X105.296 Y105.058 E0.59813
G1 X105.968 Y104.464 E0.66454
G1 X106.69 Y103.931 E0.73098
G1 X107.457 Y103.465 E0.79743
G1 X108.263 Y103.069 E0.86392
G1 X109.1 Y102.747 E0.93032
G1 X109.963 Y102.5 E0.99678
G1 X110.845 Y102.331 E1.06327
G1 X111.738 Y102.241 E1.12972
G1 X112.3 Y102.225 E1.17135
G1 X137.7 Y102.225 E3.05197
G1 X138.597 Y102.265 E3.11845
G1 X139.486 Y102.385 E3.18487
G1 X140.362 Y102.583 E3.25136
G1 X141.216 Y102.858 E3.31779
G1 X142.042 Y103.209 E3.38424
G1 X142.834 Y103.631 E3.45068
G1 X143.585 Y104.123 E3.51716
G1 X144.29 Y104.679 E3.58363
G1 X144.942 Y105.296 E3.6501
G1 X145.536 Y105.968 E3.7165
G1 X146.069 Y106.69 E3.78295
G1 X146.535 Y107.457 E3.8494
G1 X146.931 Y108.263 E3.91589
G1 X147.253 Y109.1 E3.98229
G1 X147.5 Y109.963 E4.04875
G1 X147.669 Y110.845 E4.11524
G1 X147.759 Y111.738 E4.18169
G1 X147.775 Y112.3 E4.22332
G1 X147.775 Y137.7 E6.10393
G1 X147.735 Y138.597 E6.17041
G1 X147.615 Y139.486 E6.23683
G1 X147.417 Y140.362 E6.30333
G1 X147.142 Y141.216 E6.36975
G1 X146.791 Y142.042 E6.4362
G1 X146.369 Y142.834 E6.50265
G1 X145.877 Y143.585 E6.56912
G1 X145.321 Y144.29 E6.6356
G1 X144.704 Y144.942 E6.70206
G1 X144.032 Y145.536 E6.76847
G1 X143.31 Y146.069 E6.83491
G1 X142.543 Y146.535 E6.90136
G1 X141.737 Y146.931 E6.96785
G1 X140.9 Y147.253 E7.03425
G1 X140.037 Y147.5 E7.10071
G1 X139.155 Y147.669 E7.16721
G1 X138.262 Y147.759 E7.23366
G1 X137.7 Y147.775 E7.27529
G1 X112.3 Y147.775 E9.1559
G1 X111.403 Y147.735 E9.22238
G1 X110.514 Y147.615 E9.2888
G1 X109.638 Y147.417 E9.35529
G1 X108.784 Y147.142 E9.42172
G1 X107.958 Y146.791 E9.48817
G1 X107.166 Y146.369 E9.55462
G1 X106.415 Y145.877 E9.62109
G1 X105.71 Y145.321 E9.68757
G1 X105.058 Y144.704 E9.75403
G1 X104.464 Y144.032 E9.82044
G1 X103.931 Y143.31 E9.88688
G1 X103.465 Y142.543 E9.95333
G1 X103.069 Y141.737 E10.01982
G1 X102.747 Y140.9 E10.08622
G1 X102.5 Y140.037 E10.15268
G1 X102.331 Y139.155 E10.21917
G1 X102.241 Y138.262 E10.28562
G1 X102.225 Y137.7 E10.32725
G1 X102.225 Y112.3 E12.20787
G0 F3600 X102.875 Y112.3
G1 F7500 X102.915 Y111.433 E12.27213
G1 X103.035 Y110.573 E12.33642
G1 X103.233 Y109.728 E12.40068
G1 X103.508 Y108.904 E12.46499
G1 X103.858 Y108.11 E12.52924
G1 X104.279 Y107.351 E12.5935
G1 X104.768 Y106.634 E12.65776
G1 X105.322 Y105.965 E12.72207
G1 X105.934 Y105.35 E12.78631
G1 X106.601 Y104.794 E12.8506
G1 X107.315 Y104.301 E12.91485
G1 X108.073 Y103.876 E12.97919
G1 X108.866 Y103.523 E13.04346
G1 X109.688 Y103.244 E13.10773
G1 X110.532 Y103.042 E13.17198
G1 X111.391 Y102.919 E13.23623
G1 X112.3 Y102.875 E13.30361
G1 X137.7 Y102.875 E15.18423
G1 X138.567 Y102.915 E15.24849
G1 X139.427 Y103.035 E15.31278
G1 X140.272 Y103.233 E15.37704
G1 X141.096 Y103.508 E15.44135
G1 X141.89 Y103.858 E15.5056
G1 X142.649 Y104.279 E15.56986
G1 X143.366 Y104.768 E15.63412
G1 X144.035 Y105.322 E15.69843
G1 X144.65 Y105.934 E15.76267
G1 X145.206 Y106.601 E15.82696
G1 X145.699 Y107.315 E15.8912
G1 X146.124 Y108.073 E15.95555
G1 X146.477 Y108.866 E16.01981
G1 X146.756 Y109.688 E16.08409
G1 X146.958 Y110.532 E16.14834
G1 X147.081 Y111.391 E16.21259
G1 X147.125 Y112.3 E16.27997
G1 X147.125 Y137.7 E18.16059
G1 X147.085 Y138.567 E18.22485
G1 X146.965 Y139.427 E18.28914
G1 X146.767 Y140.272 E18.3534
G1 X146.492 Y141.096 E18.41771
G1 X146.142 Y141.89 E18.48196
G1 X145.721 Y142.649 E18.54622
G1 X145.232 Y143.366 E18.61048
G1 X144.678 Y144.035 E18.67479
G1 X144.066 Y144.65 E18.73903
G1 X143.399 Y145.206 E18.80332
G1 X142.685 Y145.699 E18.86756
G1 X141.927 Y146.124 E18.93191
G1 X141.134 Y146.477 E18.99617
G1 X140.312 Y146.756 E19.06044
G1 X139.468 Y146.958 E19.1247
G1 X138.609 Y147.081 E19.18895
G1 X137.7 Y147.125 E19.25633
G1 X112.3 Y147.125 E21.13694
G1 X111.433 Y147.085 E21.20121
G1 X110.573 Y146.965 E21.2655
G1 X109.728 Y146.767 E21.32976
G1 X108.904 Y146.492 E21.39407
G1 X108.11 Y146.142 E21.45832
G1 X107.351 Y145.721 E21.52258
G1 X106.634 Y145.232 E21.58684
G1 X105.965 Y144.678 E21.65115
G1 X105.35 Y144.066 E21.71539
G1 X104.794 Y143.399 E21.77968
G1 X104.301 Y142.685 E21.84392
G1 X103.876 Y141.927 E21.90826
G1 X103.523 Y141.134 E21.97253
G1 X103.244 Y140.312 E22.0368
G1 X103.042 Y139.468 E22.10106
G1 X102.919 Y138.609 E22.16531
G1 X102.875 Y137.7 E22.23269
G1 X102.875 Y112.3 E24.1133
G0 F3600 X103.525 Y112.3
G1 F7500 X103.565 Y111.463 E24.17535
G1 X103.685 Y110.634 E24.23736
G1 X103.883 Y109.82 E24.29939
G1 X104.157 Y109.029 E24.36137
G1 X104.506 Y108.268 E24.42336
G1 X104.926 Y107.543 E24.48539
G1 X105.413 Y106.862 E24.54738
G1 X105.963 Y106.23 E24.60941
G1 X106.571 Y105.653 E24.67147
G1 X107.231 Y105.137 E24.7335
G1 X107.937 Y104.687 E24.79549
G1 X108.683 Y104.305 E24.85754
G1 X109.461 Y103.997 E24.9195
G1 X110.266 Y103.764 E24.98154
G1 X111.089 Y103.609 E25.04355
G1 X112.3 Y103.525 E25.13343
G1 X137.7 Y103.525 E27.01404
G1 X138.537 Y103.565 E27.07609
G1 X139.366 Y103.685 E27.1381
G1 X140.18 Y103.883 E27.20013
G1 X140.971 Y104.157 E27.26211
G1 X141.732 Y104.506 E27.3241
G1 X142.457 Y104.926 E27.38613
G1 X143.138 Y105.413 E27.44812
G1 X143.77 Y105.963 E27.51015
G1 X144.347 Y106.571 E27.57221
G1 X144.863 Y107.231 E27.63424
G1 X145.313 Y107.937 E27.69623
G1 X145.695 Y108.683 E27.75828
G1 X146.003 Y109.461 E27.82024
G1 X146.236 Y110.266 E27.88228
G1 X146.391 Y111.089 E27.94429
G1 X146.475 Y112.3 E28.03417
G1 X146.475 Y137.7 E29.91478
G1 X146.435 Y138.537 E29.97683
G1 X146.315 Y139.366 E30.03884
G1 X146.117 Y140.18 E30.10087
G1 X145.843 Y140.971 E30.16285
G1 X145.494 Y141.732 E30.22484
G1 X145.074 Y142.457 E30.28687
G1 X144.587 Y143.138 E30.34886
G1 X144.037 Y143.77 E30.41089
G1 X143.429 Y144.347 E30.47295
G1 X142.769 Y144.863 E30.53498
G1 X142.063 Y145.313 E30.59697
G1 X141.317 Y145.695 E30.65902
G1 X140.539 Y146.003 E30.72098
G1 X139.734 Y146.236 E30.78302
G1 X138.911 Y146.391 E30.84503
G1 X137.7 Y146.475 E30.93491
G1 X112.3 Y146.475 E32.81552
G1 X111.463 Y146.435 E32.87757
G1 X110.634 Y146.315 E32.93958
G1 X109.82 Y146.117 E33.00161
G1 X109.029 Y145.843 E33.06359
G1 X108.268 Y145.494 E33.12558
G1 X107.543 Y145.074 E33.18761
G1 X106.862 Y144.587 E33.2496
G1 X106.23 Y144.037 E33.31163
G1 X105.653 Y143.429 E33.37369
G1 X105.137 Y142.769 E33.43572
G1 X104.687 Y142.063 E33.49771
G1 X104.305 Y141.317 E33.55976
G1 X103.997 Y140.539 E33.62172
G1 X103.764 Y139.734 E33.68376
G1 X103.609 Y138.911 E33.74577
G1 X103.525 Y137.7 E33.83565
G1 X103.525 Y112.3 E35.71626
G0 F3600 X104.175 Y112.3
G1 F7500 X104.215 Y111.495 E35.77594
G1 X104.335 Y110.698 E35.83561
G1 X104.532 Y109.917 E35.89525
G1 X104.807 Y109.159 E35.95495
G1 X105.155 Y108.432 E36.01463
G1 X105.573 Y107.743 E36.0743
G1 X106.058 Y107.099 E36.13399
G1 X106.604 Y106.506 E36.19367
G1 X107.206 Y105.97 E36.25335
G1 X107.858 Y105.497 E36.31299
G1 X108.554 Y105.09 E36.37268
G1 X109.287 Y104.754 E36.43239
G1 X110.049 Y104.493 E36.49202
G1 X110.834 Y104.308 E36.55174
G1 X111.633 Y104.202 E36.61141
G1 X112.3 Y104.175 E36.66084
G1 X137.7 Y104.175 E38.54145
G1 X138.505 Y104.215 E38.60113
G1 X139.302 Y104.335 E38.6608
G1 X140.083 Y104.532 E38.72044
G1 X140.841 Y104.807 E38.78014
G1 X141.568 Y105.155 E38.83982
G1 X142.257 Y105.573 E38.89948
G1 X142.901 Y106.058 E38.95918
G1 X143.494 Y106.604 E39.01886
G1 X144.03 Y107.206 E39.07854
G1 X144.503 Y107.858 E39.13818
G1 X144.91 Y108.554 E39.19787
G1 X145.246 Y109.287 E39.25757
G1 X145.507 Y110.049 E39.31721
G1 X145.692 Y110.834 E39.37692
G1 X145.798 Y111.633 E39.4366
G1 X145.825 Y112.3 E39.48602
G1 X145.825 Y137.7 E41.36664
G1 X145.785 Y138.505 E41.42632
G1 X145.665 Y139.302 E41.48599
G1 X145.468 Y140.083 E41.54563
G1 X145.193 Y140.841 E41.60533
G1 X144.845 Y141.568 E41.665
G1 X144.427 Y142.257 E41.72467
G1 X143.942 Y142.901 E41.78436
G1 X143.396 Y143.494 E41.84405
G1 X142.794 Y144.03 E41.90372
G1 X142.142 Y144.503 E41.96336
G1 X141.446 Y144.91 E42.02306
G1 X140.713 Y145.246 E42.08276
G1 X139.951 Y145.507 E42.1424
G1 X139.166 Y145.692 E42.20211
G1 X138.367 Y145.798 E42.26179
G1 X137.7 Y145.825 E42.31121
G1 X112.3 Y145.825 E44.19183
G1 X111.495 Y145.785 E44.2515
G1 X110.698 Y145.665 E44.31118
G1 X109.917 Y145.468 E44.37081
G1 X109.159 Y145.193 E44.43052
G1 X108.432 Y144.845 E44.49019
G1 X107.743 Y144.427 E44.54986
G1 X107.099 Y143.942 E44.60955
G1 X106.506 Y143.396 E44.66923
G1 X105.97 Y142.794 E44.72891
G1 X105.497 Y142.142 E44.78855
G1 X105.09 Y141.446 E44.84825
G1 X104.754 Y140.713 E44.90795
G1 X104.493 Y139.951 E44.96758
G1 X104.308 Y139.166 E45.0273
G1 X104.202 Y138.367 E45.08697
G1 X104.175 Y137.7 E45.1364
G1 X104.175 Y112.3 E47.01702
G0 F3600 X104.825 Y112.3
G1 F7500 X104.865 Y111.528 E47.07425
G1 X104.984 Y110.764 E47.1315
G1 X105.182 Y110.017 E47.18872
G1 X105.456 Y109.294 E47.24596
G1 X105.803 Y108.603 E47.30321
G1 X106.22 Y107.952 E47.36045
G1 X106.701 Y107.347 E47.41768
G1 X107.243 Y106.796 E47.47491
G1 X107.838 Y106.303 E47.53212
G1 X108.481 Y105.874 E47.58935
G1 X109.166 Y105.514 E47.64664
G1 X109.883 Y105.226 E47.70385
G1 X110.627 Y105.015 E47.76111
G1 X111.388 Y104.881 E47.81832
G1 X112.3 Y104.825 E47.88597
G1 X137.7 Y104.825 E49.76659
G1 X138.472 Y104.865 E49.82382
G1 X139.236 Y104.984 E49.88107
G1 X139.983 Y105.182 E49.93829
G1 X140.706 Y105.456 E49.99554
G1 X141.397 Y105.803 E50.05279
G1 X142.048 Y106.22 E50.11003
G1 X142.653 Y106.701 E50.16725
G1 X143.204 Y107.243 E50.22448
G1 X143.697 Y107.838 E50.28169
G1 X144.126 Y108.481 E50.33892
G1 X144.486 Y109.166 E50.39621
G1 X144.774 Y109.883 E50.45342
G1 X144.985 Y110.627 E50.51068
G1 X145.119 Y111.388 E50.56789
G1 X145.175 Y112.3 E50.63554
G1 X145.175 Y137.7 E52.51616
G1 X145.135 Y138.472 E52.5734
G1 X145.016 Y139.236 E52.63064
G1 X144.818 Y139.983 E52.68786
G1 X144.544 Y140.706 E52.74511
G1 X144.197 Y141.397 E52.80236
G1 X143.78 Y142.048 E52.8596
G1 X143.299 Y142.653 E52.91682
G1 X142.757 Y143.204 E52.97405
G1 X142.162 Y143.697 E53.03126
G1 X141.519 Y144.126 E53.08849
G1 X140.834 Y144.486 E53.14579
G1 X140.117 Y144.774 E53.203
G1 X139.373 Y144.985 E53.26025
G1 X138.612 Y145.119 E53.31747
G1 X137.7 Y145.175 E53.38512
G1 X112.3 Y145.175 E55.26573
G1 X111.528 Y145.135 E55.32297
G1 X110.764 Y145.016 E55.38022
G1 X110.017 Y144.818 E55.43743
G1 X109.294 Y144.544 E55.49468
G1 X108.603 Y144.197 E55.55193
G1 X107.952 Y143.78 E55.60917
G1 X107.347 Y143.299 E55.6664
G1 X106.796 Y142.757 E55.72362
G1 X106.303 Y142.162 E55.78083
G1 X105.874 Y141.519 E55.83806
G1 X105.514 Y140.834 E55.89536
G1 X105.226 Y140.117 E55.95257
G1 X105.015 Y139.373 E56.00983
G1 X104.881 Y138.612 E56.06704
G1 X104.825 Y137.7 E56.13469
G1 X104.825 Y112.3 E58.0153
G0 F3600 X105.475 Y112.3
G1 F7500 X105.515 Y111.562 E58.07003
G1 X105.634 Y110.834 E58.12464
G1 X105.832 Y110.122 E58.17936
G1 X106.105 Y109.436 E58.23403
G1 X106.451 Y108.783 E58.28874
G1 X106.865 Y108.171 E58.34345
G1 X107.343 Y107.608 E58.39813
G1 X107.879 Y107.1 E58.45281
G1 X108.467 Y106.653 E58.50749
G1 X109.1 Y106.272 E58.5622
G1 X109.77 Y105.961 E58.61689
G1 X110.47 Y105.725 E58.67158
G1 X111.191 Y105.566 E58.72625
G1 X111.926 Y105.485 E58.781
G1 X112.3 Y105.475 E58.8087
G1 X137.7 Y105.475 E60.68931
G1 X138.438 Y105.515 E60.74403
G1 X139.166 Y105.634 E60.79865
G1 X139.878 Y105.832 E60.85337
G1 X140.564 Y106.105 E60.90803
G1 X141.217 Y106.451 E60.96275
G1 X141.829 Y106.865 E61.01745
G1 X142.392 Y107.343 E61.07214
G1 X142.9 Y107.879 E61.12681
G1 X143.347 Y108.467 E61.1815
G1 X143.728 Y109.1 E61.2362
G1 X144.039 Y109.77 E61.29089
G1 X144.275 Y110.47 E61.34559
G1 X144.434 Y111.191 E61.40025
G1 X144.515 Y111.926 E61.455
G1 X144.525 Y112.3 E61.4827
G1 X144.525 Y137.7 E63.36332
G1 X144.485 Y138.438 E63.41804
G1 X144.366 Y139.166 E63.47266
G1 X144.168 Y139.878 E63.52737
G1 X143.895 Y140.564 E63.58204
G1 X143.549 Y141.217 E63.63675
G1 X143.135 Y141.829 E63.69146
G1 X142.657 Y142.392 E63.74614
G1 X142.121 Y142.9 E63.80082
G1 X141.533 Y143.347 E63.85551
G1 X140.9 Y143.728 E63.91021
G1 X140.23 Y144.039 E63.9649
G1 X139.53 Y144.275 E64.01959
G1 X138.809 Y144.434 E64.07426
G1 X138.074 Y144.515 E64.12901
G1 X137.7 Y144.525 E64.15671
G1 X112.3 Y144.525 E66.03732
G1 X111.562 Y144.485 E66.09205
G1 X110.834 Y144.366 E66.14666
G1 X110.122 Y144.168 E66.20138
G1 X109.436 Y143.895 E66.25605
G1 X108.783 Y143.549 E66.31076
G1 X108.171 Y143.135 E66.36547
G1 X107.608 Y142.657 E66.42015
G1 X107.1 Y142.121 E66.47483
G1 X106.653 Y141.533 E66.52951
G1 X106.272 Y140.9 E66.58422
G1 X105.961 Y140.23 E66.63891
G1 X105.725 Y139.53 E66.6936
G1 X105.566 Y138.809 E66.74827
G1 X105.485 Y138.074 E66.80301
G1 X105.475 Y137.7 E66.83072
G1 X105.475 Y112.3 E68.71133
G0 F3600 X106.125 Y112.3
G1 F7500 X106.165 Y111.599 E68.76332
G1 X106.284 Y110.906 E68.81538
G1 X106.482 Y110.232 E68.86739
G1 X106.754 Y109.584 E68.91942
G1 X107.099 Y108.972 E68.97144
G1 X107.51 Y108.403 E69.02341
G1 X107.984 Y107.884 E69.07545
G1 X108.514 Y107.422 E69.12751
G1 X109.092 Y107.024 E69.17947
G1 X109.712 Y106.693 E69.2315
G1 X110.366 Y106.436 E69.28353
G1 X111.045 Y106.254 E69.33558
G1 X111.739 Y106.15 E69.38754
G1 X112.3 Y106.125 E69.42911
G1 X137.7 Y106.125 E71.30973
G1 X138.401 Y106.165 E71.36171
G1 X139.094 Y106.284 E71.41378
G1 X139.768 Y106.482 E71.46579
G1 X140.416 Y106.754 E71.51782
G1 X141.028 Y107.099 E71.56984
G1 X141.597 Y107.51 E71.62181
G1 X142.116 Y107.984 E71.67385
G1 X142.578 Y108.514 E71.7259
G1 X142.976 Y109.092 E71.77786
G1 X143.307 Y109.712 E71.8299
G1 X143.564 Y110.366 E71.88193
G1 X143.746 Y111.045 E71.93398
G1 X143.85 Y111.739 E71.98593
G1 X143.875 Y112.3 E72.02751
G1 X143.875 Y137.7 E73.90813
G1 X143.835 Y138.401 E73.96011
G1 X143.716 Y139.094 E74.01217
G1 X143.518 Y139.768 E74.06418
G1 X143.246 Y140.416 E74.11622
G1 X142.901 Y141.028 E74.16823
G1 X142.49 Y141.597 E74.2202
G1 X142.016 Y142.116 E74.27225
G1 X141.486 Y142.578 E74.3243
G1 X140.908 Y142.976 E74.37626
G1 X140.288 Y143.307 E74.4283
G1 X139.634 Y143.564 E74.48033
G1 X138.955 Y143.746 E74.53237
G1 X138.261 Y143.85 E74.58433
G1 X137.7 Y143.875 E74.62591
G1 X112.3 Y143.875 E76.50652
G1 X111.599 Y143.835 E76.55851
G1 X110.906 Y143.716 E76.61057
G1 X110.232 Y143.518 E76.66258
G1 X109.584 Y143.246 E76.71462
G1 X108.972 Y142.901 E76.76663
G1 X108.403 Y142.49 E76.8186
G1 X107.884 Y142.016 E76.87064
G1 X107.422 Y141.486 E76.9227
G1 X107.024 Y140.908 E76.97466
G1 X106.693 Y140.288 E77.0267
G1 X106.436 Y139.634 E77.07872
G1 X106.254 Y138.955 E77.13077
G1 X106.15 Y138.261 E77.18273
G1 X106.125 Y137.7 E77.22431
G1 X106.125 Y112.3 E79.10492
G0 F3600 X106.775 Y112.3
G1 F7500 X106.815 Y111.637 E79.1541
G1 X106.934 Y110.983 E79.20332
G1 X107.131 Y110.348 E79.25254
G1 X107.403 Y109.742 E79.30172
G1 X107.745 Y109.172 E79.35094
G1 X108.154 Y108.648 E79.40016
G1 X108.622 Y108.177 E79.44932
G1 X109.144 Y107.765 E79.49855
G1 X109.711 Y107.419 E79.54773
G1 X110.316 Y107.144 E79.59694
G1 X110.949 Y106.943 E79.64611
G1 X111.602 Y106.819 E79.69532
G1 X112.3 Y106.775 E79.74711
G1 X137.7 Y106.775 E81.62772
G1 X138.363 Y106.815 E81.6769
G1 X139.017 Y106.934 E81.72612
G1 X139.652 Y107.131 E81.77534
G1 X140.258 Y107.403 E81.82452
G1 X140.828 Y107.745 E81.87374
G1 X141.352 Y108.154 E81.92295
G1 X141.823 Y108.622 E81.97212
G1 X142.235 Y109.144 E82.02135
G1 X142.581 Y109.711 E82.07053
G1 X142.856 Y110.316 E82.11974
G1 X143.057 Y110.949 E82.16891
G1 X143.181 Y111.602 E82.21812
G1 X143.225 Y112.3 E82.2699
G1 X143.225 Y137.7 E84.15052
G1 X143.185 Y138.363 E84.1997
G1 X143.066 Y139.017 E84.24891
G1 X142.869 Y139.652 E84.29814
G1 X142.597 Y140.258 E84.34732
