;FLAVOR:Marlin
;TIME:774
;Filament used: 0.818547m
;Layer height: 0.32
;MINX:55.425
;MINY:108.425
;MINZ:0.28
;MAXX:88.575
;MAXY:141.575
;MAXZ:19.6
;Generated with Cura_SteamEngine 5.0.0
M140 S60
M105
M190 S60
M104 S215
M105
M109 S215
M82 ;absolute extrusion mode
START_PRINT
G92 E0
G92 E0
G1 F300 E-0.5
;LAYER_COUNT:49
;LAYER:0
M107
G1 F600 Z0.56
G0 F3600 X59.125 Y109.1 Z0.56
G1 F600 Z0.56
G0 F3600 X55.426 Y115.585
;TYPE:SKIRT
G1 F600 Z0.28
G1 F120 E0
G1 F1800 X55.435 Y114.92 E0.04781
G1 X55.484 Y114.197 E0.0999
G1 X55.613 Y113.483 E0.15205
G1 X55.82 Y112.789 E0.20411
G1 X56.102 Y112.121 E0.25623
G1 X56.456 Y111.488 E0.30837
G1 X56.878 Y110.898 E0.36051
G1 X57.361 Y110.358 E0.41259
G1 X57.902 Y109.875 E0.46472
G1 X58.492 Y109.454 E0.51682
G1 X59.125 Y109.1 E0.56896
G1 X59.793 Y108.819 E0.62105
G1 X60.488 Y108.612 E0.67318
G1 X61.202 Y108.484 E0.72532
G1 X61.825 Y108.437 E0.77023
G1 X62.33 Y108.425 E0.80655
G1 X81.293 Y108.425 E2.16967
G1 X82.085 Y108.436 E2.22661
G1 X82.808 Y108.486 E2.27871
G1 X83.522 Y108.616 E2.33087
G1 X84.216 Y108.823 E2.38293
G1 X84.884 Y109.106 E2.43508
G1 X85.516 Y109.46 E2.48715
G1 X86.106 Y109.882 E2.5393
G1 X86.646 Y110.366 E2.59142
G1 X87.129 Y110.907 E2.64356
G1 X87.549 Y111.497 E2.69562
G1 X87.902 Y112.131 E2.74778
G1 X88.183 Y112.799 E2.79987
G1 X88.389 Y113.494 E2.85198
G1 X88.517 Y114.208 E2.90412
G1 X88.563 Y114.825 E2.9486
G1 X88.575 Y115.33 E2.98491
G1 X88.574 Y134.345 E4.35177
G1 X88.565 Y135.072 E4.40404
G1 X88.517 Y135.796 E4.45619
G1 X88.388 Y136.509 E4.50828
G1 X88.182 Y137.204 E4.56039
G1 X87.901 Y137.873 E4.61255
G1 X87.548 Y138.506 E4.66465
G1 X87.127 Y139.096 E4.71675
G1 X86.644 Y139.637 E4.76888
G1 X86.104 Y140.121 E4.82101
G1 X85.514 Y140.542 E4.87311
G1 X84.882 Y140.896 E4.92518
G1 X84.214 Y141.179 E4.97733
G1 X83.519 Y141.386 E5.02946
G1 X82.806 Y141.515 E5.08154
G1 X82.175 Y141.563 E5.12703
G1 X81.67 Y141.575 E5.16334
G1 X62.622 Y141.574 E6.53258
G1 X61.924 Y141.565 E6.58276
G1 X61.201 Y141.516 E6.63485
G1 X60.487 Y141.388 E6.68699
G1 X59.792 Y141.181 E6.73912
G1 X59.124 Y140.899 E6.79124
G1 X58.491 Y140.546 E6.84334
G1 X57.901 Y140.125 E6.89544
G1 X57.361 Y139.641 E6.94757
G1 X56.877 Y139.101 E6.9997
G1 X56.456 Y138.512 E7.05174
G1 X56.102 Y137.879 E7.10387
G1 X55.82 Y137.211 E7.156
G1 X55.613 Y136.516 E7.20812
G1 X55.484 Y135.803 E7.26021
G1 X55.436 Y135.169 E7.30591
G1 X55.425 Y134.658 E7.34265
G1 X55.426 Y115.585 E8.71369
G0 F3600 X56.076 Y115.594
G1 F1800 X56.085 Y114.929 E8.76149
G1 X56.134 Y114.242 E8.811
G1 X56.262 Y113.566 E8.86046
G1 X56.468 Y112.91 E8.90989
G1 X56.749 Y112.281 E8.95941
G1 X57.101 Y111.69 E9.00886
G1 X57.519 Y111.143 E9.05834
G1 X57.997 Y110.649 E9.10775
G1 X58.53 Y110.213 E9.15725
G1 X59.11 Y109.842 E9.20675
G1 X59.728 Y109.541 E9.25616
G1 X60.378 Y109.313 E9.30567
G1 X61.049 Y109.162 E9.35512
G1 X61.843 Y109.086 E9.41245
G1 X62.33 Y109.075 E9.44747
G1 X81.293 Y109.075 E10.81059
G1 X82.076 Y109.086 E10.86688
G1 X82.762 Y109.135 E10.91632
G1 X83.438 Y109.264 E10.96579
G1 X84.095 Y109.471 E11.01531
G1 X84.723 Y109.752 E11.06476
G1 X85.314 Y110.105 E11.11425
G1 X85.86 Y110.523 E11.16368
G1 X86.355 Y111.002 E11.21319
G1 X86.79 Y111.535 E11.26265
G1 X87.16 Y112.115 E11.3121
G1 X87.461 Y112.734 E11.36158
G1 X87.688 Y113.383 E11.411
G1 X87.839 Y114.055 E11.46051
G1 X87.914 Y114.843 E11.51741
G1 X87.925 Y115.33 E11.55243
G1 X87.925 Y134.337 E12.91872
G1 X87.916 Y135.064 E12.97098
G1 X87.867 Y135.751 E13.02049
G1 X87.739 Y136.427 E13.06995
G1 X87.534 Y137.084 E13.11942
G1 X87.254 Y137.713 E13.16891
G1 X86.903 Y138.304 E13.21832
G1 X86.486 Y138.852 E13.26782
G1 X86.008 Y139.347 E13.31729
G1 X85.475 Y139.783 E13.36679
G1 X84.896 Y140.155 E13.41626
G1 X84.278 Y140.457 E13.4657
G1 X83.629 Y140.685 E13.51515
G1 X82.957 Y140.837 E13.56468
G1 X82.157 Y140.914 E13.62245
G1 X81.67 Y140.925 E13.65746
G1 X62.631 Y140.925 E15.02605
G1 X61.933 Y140.916 E15.07623
G1 X61.246 Y140.867 E15.12574
G1 X60.57 Y140.739 E15.1752
G1 X59.913 Y140.533 E15.22469
G1 X59.285 Y140.253 E15.27412
G1 X58.693 Y139.901 E15.32363
G1 X58.146 Y139.484 E15.37307
G1 X57.651 Y139.005 E15.42259
G1 X57.215 Y138.473 E15.47203
G1 X56.844 Y137.894 E15.52146
G1 X56.542 Y137.275 E15.57097
G1 X56.314 Y136.626 E15.62042
G1 X56.163 Y135.954 E15.66993
G1 X56.086 Y135.151 E15.72792
G1 X56.075 Y134.658 E15.76336
G1 X56.076 Y115.594 E17.13375
G0 F3600 X56.725 Y115.603
G1 F1800 X56.734 Y114.938 E17.18156
G1 X56.783 Y114.29 E17.22827
G1 X56.911 Y113.654 E17.2749
G1 X57.116 Y113.038 E17.32157
G1 X57.396 Y112.451 E17.36832
G1 X57.745 Y111.904 E17.41496
G1 X58.159 Y111.404 E17.46163
G1 X58.631 Y110.958 E17.50831
G1 X59.154 Y110.573 E17.55499
G1 X59.721 Y110.256 E17.60169
G1 X60.322 Y110.011 E17.64834
G1 X60.949 Y109.842 E17.69502
G1 X61.861 Y109.736 E17.76102
G1 X62.33 Y109.725 E17.79474
G1 X81.293 Y109.725 E19.15787
G1 X82.067 Y109.736 E19.21351
G1 X82.714 Y109.785 E19.26015
G1 X83.35 Y109.913 E19.30679
G1 X83.966 Y110.119 E19.35348
G1 X84.552 Y110.399 E19.40016
G1 X85.099 Y110.748 E19.4468
G1 X85.6 Y111.162 E19.49352
G1 X86.045 Y111.635 E19.54021
G1 X86.429 Y112.158 E19.58685
G1 X86.746 Y112.725 E19.63354
G1 X86.99 Y113.327 E19.68023
G1 X87.159 Y113.954 E19.72691
G1 X87.264 Y114.862 E19.79262
G1 X87.275 Y115.33 E19.82627
G1 X87.275 Y134.329 E21.19198
G1 X87.266 Y135.056 E21.24425
G1 X87.218 Y135.704 E21.29096
G1 X87.09 Y136.341 E21.33766
G1 X86.886 Y136.957 E21.38431
G1 X86.607 Y137.543 E21.43096
G1 X86.259 Y138.091 E21.47762
G1 X85.846 Y138.592 E21.5243
G1 X85.374 Y139.038 E21.57098
G1 X84.851 Y139.423 E21.61766
G1 X84.285 Y139.741 E21.66433
G1 X83.684 Y139.987 E21.71101
G1 X83.057 Y140.157 E21.75771
G1 X82.139 Y140.264 E21.82414
G1 X81.67 Y140.275 E21.85787
G1 X62.639 Y140.275 E23.22588
G1 X61.941 Y140.266 E23.27606
G1 X61.293 Y140.217 E23.32277
G1 X60.657 Y140.09 E23.36939
G1 X60.041 Y139.885 E23.41606
G1 X59.454 Y139.606 E23.46278
G1 X58.907 Y139.257 E23.50942
G1 X58.406 Y138.844 E23.55609
G1 X57.96 Y138.372 E23.60277
G1 X57.575 Y137.849 E23.64946
G1 X57.258 Y137.282 E23.69615
G1 X57.012 Y136.681 E23.74283
G1 X56.842 Y136.055 E23.78946
G1 X56.736 Y135.134 E23.8561
G1 X56.725 Y134.658 E23.89033
G1 X56.725 Y115.603 E25.26007
G0 F3600 X57.375 Y115.611
G1 F1800 X57.384 Y114.946 E25.30788
G1 X57.433 Y114.34 E25.35158
G1 X57.56 Y113.746 E25.39524
G1 X57.764 Y113.173 E25.43896
G1 X58.041 Y112.632 E25.48265
G1 X58.387 Y112.132 E25.52636
G1 X58.796 Y111.682 E25.57008
G1 X59.26 Y111.29 E25.61374
G1 X59.772 Y110.961 E25.65749
G1 X60.322 Y110.703 E25.70116
G1 X60.901 Y110.519 E25.74483
G1 X61.5 Y110.412 E25.78857
G1 X61.879 Y110.386 E25.81588
G1 X62.33 Y110.375 E25.8483
G1 X81.359 Y110.375 E27.21618
G1 X82.057 Y110.385 E27.26635
G1 X82.663 Y110.434 E27.31006
G1 X83.258 Y110.562 E27.35381
G1 X83.83 Y110.766 E27.39746
G1 X84.371 Y111.044 E27.44118
G1 X84.87 Y111.391 E27.48487
G1 X85.32 Y111.8 E27.52859
G1 X85.713 Y112.264 E27.5723
G1 X86.041 Y112.776 E27.61601
G1 X86.299 Y113.326 E27.65968
G1 X86.482 Y113.906 E27.70339
G1 X86.588 Y114.505 E27.74712
G1 X86.614 Y114.88 E27.77414
G1 X86.625 Y115.33 E27.8065
G1 X86.625 Y134.321 E29.17164
G1 X86.616 Y135.048 E29.2239
G1 X86.568 Y135.654 E29.2676
G1 X86.442 Y136.249 E29.31132
G1 X86.238 Y136.822 E29.35504
G1 X85.961 Y137.363 E29.39873
G1 X85.616 Y137.863 E29.4424
G1 X85.208 Y138.314 E29.48611
G1 X84.744 Y138.707 E29.52982
G1 X84.233 Y139.036 E29.57351
G1 X83.683 Y139.295 E29.61721
G1 X83.104 Y139.48 E29.66091
G1 X82.505 Y139.587 E29.70465
G1 X82.121 Y139.614 E29.73232
G1 X81.67 Y139.625 E29.76475
G1 X62.647 Y139.625 E31.13218
G1 X61.949 Y139.616 E31.18236
G1 X61.343 Y139.568 E31.22606
G1 X60.749 Y139.441 E31.26973
G1 X60.176 Y139.237 E31.31345
G1 X59.635 Y138.96 E31.35714
G1 X59.135 Y138.614 E31.40085
G1 X58.684 Y138.206 E31.44456
G1 X58.291 Y137.742 E31.48827
G1 X57.963 Y137.231 E31.53192
G1 X57.704 Y136.681 E31.57562
G1 X57.519 Y136.101 E31.61938
G1 X57.412 Y135.503 E31.66305
G1 X57.386 Y135.116 E31.69093
G1 X57.375 Y134.658 E31.72387
G1 X57.375 Y115.611 E33.09303
G0 F3600 X58.025 Y115.62
G1 F1800 X58.034 Y114.955 E33.14084
G1 X58.082 Y114.394 E33.18131
G1 X58.208 Y113.844 E33.22187
G1 X58.411 Y113.319 E33.26233
G1 X58.686 Y112.827 E33.30285
G1 X59.028 Y112.379 E33.34336
G1 X59.43 Y111.984 E33.38388
G1 X59.884 Y111.65 E33.42439
G1 X60.381 Y111.383 E33.46495
G1 X60.91 Y111.189 E33.50545
G1 X61.461 Y111.072 E33.54594
G1 X61.898 Y111.036 E33.57746
G1 X62.33 Y111.025 E33.60852
G1 X81.35 Y111.025 E34.97575
G1 X82.048 Y111.035 E35.02593
G1 X82.609 Y111.083 E35.0664
G1 X83.159 Y111.21 E35.10698
G1 X83.684 Y111.414 E35.14747
G1 X84.176 Y111.689 E35.18798
G1 X84.623 Y112.032 E35.22848
G1 X85.018 Y112.434 E35.269
G1 X85.352 Y112.888 E35.30951
G1 X85.618 Y113.384 E35.34997
G1 X85.812 Y113.914 E35.39054
G1 X85.928 Y114.465 E35.43102
G1 X85.964 Y114.898 E35.46225
G1 X85.975 Y115.33 E35.49331
G1 X85.975 Y134.313 E36.85788
G1 X85.966 Y135.04 E36.91014
G1 X85.919 Y135.602 E36.95068
G1 X85.793 Y136.151 E36.99117
G1 X85.591 Y136.677 E37.03167
G1 X85.316 Y137.169 E37.07219
G1 X84.975 Y137.618 E37.11272
G1 X84.573 Y138.013 E37.15323
G1 X84.12 Y138.348 E37.19373
G1 X83.624 Y138.615 E37.23422
G1 X83.095 Y138.81 E37.27475
G1 X82.544 Y138.927 E37.31524
G1 X82.102 Y138.964 E37.34712
G1 X81.67 Y138.975 E37.37819
G1 X62.656 Y138.975 E38.74498
G1 X61.958 Y138.966 E38.79516
G1 X61.396 Y138.918 E38.8357
G1 X60.847 Y138.792 E38.87619
G1 X60.321 Y138.59 E38.9167
G1 X59.829 Y138.315 E38.95721
G1 X59.381 Y137.973 E38.99773
G1 X58.986 Y137.572 E39.03819
G1 X58.651 Y137.118 E39.07875
G1 X58.384 Y136.622 E39.11924
G1 X58.19 Y136.093 E39.15974
G1 X58.072 Y135.542 E39.20025
G1 X58.035 Y135.098 E39.23227
G1 X58.025 Y134.658 E39.26391
G1 X58.025 Y115.62 E40.63243
G0 F3600 X58.675 Y115.629
G1 F1800 X58.684 Y114.964 E40.68024
G1 X58.731 Y114.451 E40.71727
G1 X58.857 Y113.951 E40.75433
G1 X59.058 Y113.477 E40.79134
G1 X59.33 Y113.039 E40.8284
G1 X59.667 Y112.649 E40.86545
G1 X60.06 Y112.315 E40.90253
G1 X60.5 Y112.046 E40.9396
G1 X60.976 Y111.849 E40.97663
G1 X61.476 Y111.727 E41.01363
G1 X61.916 Y111.685 E41.0454
G1 X62.33 Y111.675 E41.07517
G1 X81.341 Y111.675 E42.44174
G1 X82.039 Y111.685 E42.49192
G1 X82.552 Y111.733 E42.52896
G1 X83.052 Y111.859 E42.56603
G1 X83.526 Y112.06 E42.60304
G1 X83.963 Y112.333 E42.64008
G1 X84.353 Y112.67 E42.67713
G1 X84.686 Y113.063 E42.71415
G1 X84.955 Y113.503 E42.75123
G1 X85.152 Y113.979 E42.78826
G1 X85.273 Y114.48 E42.82531
G1 X85.315 Y114.917 E42.85686
G1 X85.325 Y115.33 E42.88656
G1 X85.325 Y134.305 E44.25055
G1 X85.316 Y135.032 E44.30281
G1 X85.269 Y135.545 E44.33984
G1 X85.144 Y136.045 E44.37689
G1 X84.944 Y136.52 E44.41394
G1 X84.672 Y136.958 E44.451
G1 X84.336 Y137.349 E44.48806
G1 X83.943 Y137.683 E44.52513
G1 X83.504 Y137.952 E44.56214
G1 X83.028 Y138.15 E44.5992
G1 X82.527 Y138.272 E44.63627
G1 X82.084 Y138.315 E44.66826
G1 X81.67 Y138.325 E44.69803
G1 X62.664 Y138.325 E46.06425
G1 X61.966 Y138.316 E46.11443
G1 X61.453 Y138.269 E46.15146
G1 X60.953 Y138.144 E46.18851
G1 X60.478 Y137.943 E46.22558
G1 X60.041 Y137.671 E46.26258
G1 X59.65 Y137.334 E46.29969
G1 X59.316 Y136.942 E46.33671
G1 X59.047 Y136.502 E46.37378
G1 X58.849 Y136.026 E46.41084
G1 X58.727 Y135.526 E46.44783
G1 X58.685 Y135.081 E46.47996
G1 X58.675 Y134.658 E46.51038
G1 X58.675 Y115.629 E47.87825
G1 F300 E47.37825
G1 F600 Z0.56
;MESH:0.60mm-nozzle-1.20mm-walls.stl
G0 F3600 X62.9 Y115.9 Z0.56
;TYPE:WALL-INNER
G1 F600 Z0.28
G1 F120 E47.87825
G1 F1800 X62.9 Y134.1 E49.08589
G1 X81.1 Y134.1 E50.29353
G1 X81.1 Y125 E50.89736
G1 X81.1 Y115.9 E51.50118
G1 X62.9 Y115.9 E52.70882
G0 F3600 X62.3 Y115.3
;TYPE:WALL-OUTER
G1 F1800 X62.3 Y134.7 E53.99609
G1 X81.7 Y134.7 E55.28335
G1 X81.7 Y125 E55.92699
G1 X81.7 Y115.3 E56.57062
G1 X62.3 Y115.3 E57.85789
G0 F3600 X62.3 Y115.5
G0 X63.494 Y116.494
;TYPE:SKIN
G1 F1800 X63.494 Y133.506 E59.08077
G1 X80.506 Y133.506 E60.30365
G1 X80.506 Y125 E60.91509
G1 X80.506 Y116.494 E61.52653
G1 X63.494 Y116.494 E62.74941
G1 F300 E62.24941
G1 F600 Z0.56
G0 F3600 X80.181 Y116.951 Z0.56
G1 F600 Z0.28
G1 F120 E62.74941
G1 F1800 X80.048 Y116.818 E62.76293
G0 F3600 X79.129 Y116.818
G1 F1800 X80.181 Y117.87 E62.86988
G0 F3600 X80.181 Y118.789
G1 F1800 X78.21 Y116.818 E63.07025
G0 F3600 X77.291 Y116.818
G1 F1800 X80.181 Y119.708 E63.36404
G0 F3600 X80.181 Y120.628
G1 F1800 X76.371 Y116.818 E63.75136
G0 F3600 X75.452 Y116.818
G1 F1800 X80.181 Y121.547 E64.2321
G0 F3600 X80.181 Y122.466
G1 F1800 X74.533 Y116.818 E64.80627
G0 F3600 X73.614 Y116.818
G1 F1800 X80.181 Y123.385 E65.47386
G0 F3600 X80.181 Y124.305
G1 F1800 X72.694 Y116.818 E66.23498
G0 F3600 X71.775 Y116.818
G1 F1800 X80.181 Y125.224 E67.08952
G0 F3600 X80.181 Y126.143
G1 F1800 X70.856 Y116.818 E68.03749
G0 F3600 X69.937 Y116.818
G1 F1800 X80.181 Y127.062 E69.07888
G0 F3600 X80.181 Y127.982
G1 F1800 X69.017 Y116.818 E70.2138
G0 F3600 X68.098 Y116.818
G1 F1800 X80.181 Y128.901 E71.44214
G0 F3600 X80.181 Y129.82
G1 F1800 X67.179 Y116.818 E72.7639
G0 F3600 X66.26 Y116.818
G1 F1800 X80.181 Y130.739 E74.17909
G0 F3600 X80.181 Y131.659
G1 F1800 X65.34 Y116.818 E75.6878
G0 F3600 X64.421 Y116.818
G1 F1800 X80.181 Y132.578 E77.28994
G0 F3600 X79.864 Y133.18
G1 F1800 X63.819 Y117.135 E78.92106
G0 F3600 X63.819 Y118.054
G1 F1800 X78.944 Y133.18 E80.45869
G0 F3600 X78.025 Y133.18
G1 F1800 X63.819 Y118.973 E81.9029
G0 F3600 X63.819 Y119.892
G1 F1800 X77.106 Y133.18 E83.25369
G0 F3600 X76.187 Y133.18
G1 F1800 X63.819 Y120.812 E84.51101
G0 F3600 X63.819 Y121.731
G1 F1800 X75.267 Y133.18 E85.67484
G0 F3600 X74.348 Y133.18
G1 F1800 X63.819 Y122.65 E86.74526
G0 F3600 X63.819 Y123.569
G1 F1800 X73.429 Y133.18 E87.72225
G0 F3600 X72.51 Y133.18
G1 F1800 X63.819 Y124.488 E88.60581
G0 F3600 X63.819 Y125.408
G1 F1800 X71.591 Y133.18 E89.3959
G0 F3600 X70.671 Y133.18
G1 F1800 X63.819 Y126.327 E90.09252
G0 F3600 X63.819 Y127.246
M104 S210
G1 F1800 X69.752 Y133.18 E90.69571
G0 F3600 X68.833 Y133.18
G1 F1800 X63.819 Y128.165 E91.20548
G0 F3600 X63.819 Y129.085
G1 F1800 X67.914 Y133.18 E91.62177
G0 F3600 X66.994 Y133.18
G1 F1800 X63.819 Y130.004 E91.94459
G0 F3600 X63.819 Y130.923
G1 F1800 X66.075 Y133.18 E92.17398
G0 F3600 X65.156 Y133.18
G1 F1800 X63.819 Y131.842 E92.30995
G0 F3600 X63.819 Y132.762
G1 F1800 X64.237 Y133.18 E92.35244
G1 F300 E91.85244
G1 F600 Z0.56
;MESH:NONMESH
G0 F3600 X63.5 Y116.5 Z0.56
;TIME_ELAPSED:52.719576
;LAYER:1
M106 S63.8
;MESH:0.60mm-nozzle-1.20mm-walls.stl
G0 F4950 X63.5 Y116.5 Z0.86
;TYPE:WALL-INNER
G1 F600 Z0.58
G1 F120 E92.35244
G1 F2550 X63.5 Y133.5 E93.56103
G1 X80.5 Y133.5 E94.76962
G1 X80.5 Y125 E95.37392
G1 X80.5 Y116.5 E95.97821
G1 X63.5 Y116.5 E97.1868
G0 F4950 X62.9 Y115.9
G1 F2550 X62.9 Y134.1 E98.4807
G1 X81.1 Y134.1 E99.77461
G1 X81.1 Y125 E100.42156
G1 X81.1 Y115.9 E101.06851
G1 X62.9 Y115.9 E102.36241
G0 F4950 X62.3 Y115.3
;TYPE:WALL-OUTER
G1 F1950 X62.3 Y134.7 E103.74163
G1 X81.7 Y134.7 E105.12084
G1 X81.7 Y125 E105.81045
G1 X81.7 Y115.3 E106.50005
G1 X62.3 Y115.3 E107.87927
G0 F4950 X62.3 Y115.5
G1 F300 E107.37927
G1 F600 Z0.86
G0 F4950 X64.1 Y117.1 Z0.86
;TYPE:SKIN
G1 F600 Z0.58
G1 F120 E107.87927
G1 F2112.5 X64.1 Y132.9 E109.00255
G1 X79.9 Y132.9 E110.12583
G1 X79.9 Y125 E110.68746
G1 X79.9 Y117.1 E111.2491
G1 X64.1 Y117.1 E112.37238
G0 F4950 X64.4 Y118.033
;TYPE:SKIN
G1 F1950 X65.034 Y117.399 E112.43612
G0 F4950 X65.882 Y117.399
G1 F1950 X64.4 Y118.881 E112.58513
G0 F4950 X64.4 Y119.73
G1 F1950 X66.731 Y117.399 E112.81949
G0 F4950 X67.579 Y117.399
G1 F1950 X64.4 Y120.578 E113.13911
G0 F4950 X64.4 Y121.427
G1 F1950 X68.428 Y117.399 E113.54409
G0 F4950 X69.276 Y117.399
G1 F1950 X64.4 Y122.275 E114.03433
G0 F4950 X64.4 Y123.124
G1 F1950 X70.125 Y117.399 E114.60993
G0 F4950 X70.973 Y117.399
G1 F1950 X64.4 Y123.972 E115.27079
G0 F4950 X64.4 Y124.821
G1 F1950 X71.822 Y117.399 E116.01701
G0 F4950 X72.67 Y117.399
G1 F1950 X64.4 Y125.669 E116.84849
G0 F4950 X64.4 Y126.518
G1 F1950 X73.519 Y117.399 E117.76532
G0 F4950 X74.367 Y117.399
G1 F1950 X64.4 Y127.366 E118.76742
G0 F4950 X64.4 Y128.215
G1 F1950 X75.216 Y117.399 E119.85488
G0 F4950 X76.064 Y117.399
G1 F1950 X64.4 Y129.063 E121.02759
