;FLAVOR:Marlin
;TIME:573
;Filament used: 0.79576m
;Layer height: 0.32
;MINX:132.74
;MINY:121.71
;MINZ:0.24
;MAXX:167.26
;MAXY:178.29
;MAXZ:7.92
;Generated with Cura_SteamEngine 5.0.0
M140 S80
M105
M190 S80
M104 S245
M105
M109 S245
M82 ;absolute extrusion mode
; Ender 3 Max Custom Start G-code
G92 E0 ; Reset Extruder
G28 ; Home all axes
G1 Z2.0 F3000 ; Move Z Axis up little to prevent scratching of Heat Bed
G1 X0.1 Y20 Z0.3 F5000.0 ; Move to start position
G1 X0.1 Y200.0 Z0.3 F1500.0 E15 ; Draw the first line
G1 X0.4 Y200.0 Z0.3 F5000.0 ; Move to side a little
G1 X0.4 Y20 Z0.3 F1500.0 E30 ; Draw the second line
G92 E0 ; Reset Extruder
G1 Z2.0 F3000 ; Move Z Axis up little to prevent scratching of Heat Bed
G1 X5 Y20 Z0.3 F5000.0 ; Move over to prevent blob squish
G92 E0
G92 E0
G1 F2100 E-5
;LAYER_COUNT:25
;LAYER:0
M107
G1 F300 Z0.56
G0 F6000 X135.932 Y124.974 Z0.56
G1 F300 Z0.56
G0 F6000 X132.74 Y133.265
;TYPE:SKIRT
G1 F300 Z0.24
G1 F2100 E0
G1 F1800 X132.749 Y132.568 E0.06059
G1 X132.801 Y131.632 E0.14209
G1 X132.933 Y130.704 E0.22357
G1 X133.143 Y129.79 E0.30509
G1 X133.43 Y128.898 E0.38655
G1 X133.793 Y128.034 E0.46801
G1 X134.227 Y127.203 E0.54951
G1 X134.731 Y126.412 E0.63104
G1 X135.301 Y125.668 E0.71251
G1 X135.932 Y124.974 E0.79405
G1 X136.619 Y124.337 E0.87549
G1 X137.359 Y123.761 E0.95701
G1 X138.145 Y123.25 E1.03851
G1 X138.971 Y122.808 E1.11994
G1 X139.832 Y122.437 E1.20144
G1 X140.722 Y122.142 E1.28295
G1 X141.634 Y121.923 E1.36448
G1 X142.56 Y121.783 E1.44589
G1 X143.465 Y121.723 E1.52473
G1 X144.14 Y121.71 E1.58342
G1 X155.563 Y121.71 E2.57641
G1 X156.418 Y121.721 E2.65074
G1 X157.354 Y121.775 E2.73224
G1 X158.282 Y121.907 E2.81372
G1 X159.196 Y122.119 E2.89528
G1 X160.087 Y122.408 E2.97671
G1 X160.952 Y122.771 E3.05825
G1 X161.781 Y123.207 E3.13968
G1 X162.571 Y123.712 E3.22118
G1 X163.315 Y124.283 E3.30271
G1 X164.008 Y124.915 E3.38424
G1 X164.644 Y125.603 E3.46569
G1 X165.219 Y126.343 E3.54715
G1 X165.729 Y127.13 E3.62867
G1 X166.17 Y127.957 E3.71014
G1 X166.539 Y128.819 E3.79165
G1 X166.833 Y129.709 E3.87313
G1 X167.051 Y130.621 E3.95465
G1 X167.189 Y131.548 E4.03612
G1 X167.246 Y132.394 E4.10982
G1 X167.26 Y133.023 E4.16452
G1 X167.26 Y166.73 E7.09462
G1 X167.25 Y167.444 E7.15669
G1 X167.197 Y168.38 E7.23819
G1 X167.064 Y169.308 E7.31968
G1 X166.853 Y170.221 E7.40114
G1 X166.565 Y171.113 E7.48262
G1 X166.201 Y171.977 E7.56412
G1 X165.766 Y172.807 E7.64558
G1 X165.261 Y173.597 E7.72709
G1 X164.691 Y174.341 E7.80856
G1 X164.059 Y175.034 E7.89009
G1 X163.371 Y175.671 E7.9716
G1 X162.631 Y176.246 E8.05306
G1 X161.844 Y176.756 E8.13458
G1 X161.017 Y177.198 E8.2161
G1 X160.155 Y177.567 E8.29761
G1 X159.265 Y177.861 E8.37909
G1 X158.354 Y178.079 E8.46051
G1 X157.427 Y178.218 E8.542
G1 X156.536 Y178.277 E8.61962
G1 X155.861 Y178.29 E8.67831
G1 X144.295 Y178.289 E9.68373
G1 X143.597 Y178.28 E9.74441
G1 X142.661 Y178.228 E9.8259
G1 X141.733 Y178.096 E9.90738
G1 X140.82 Y177.886 E9.98882
G1 X139.927 Y177.599 E10.07036
G1 X139.063 Y177.236 E10.15182
G1 X138.232 Y176.802 E10.23332
G1 X137.442 Y176.298 E10.31478
G1 X136.697 Y175.728 E10.39632
G1 X136.004 Y175.098 E10.47773
G1 X135.366 Y174.41 E10.5593
G1 X134.79 Y173.671 E10.64075
G1 X134.279 Y172.885 E10.72224
G1 X133.837 Y172.058 E10.80376
G1 X133.467 Y171.197 E10.88522
G1 X133.171 Y170.307 E10.96675
G1 X132.952 Y169.396 E11.0482
G1 X132.812 Y168.469 E11.1297
G1 X132.752 Y167.566 E11.20837
G1 X132.74 Y166.931 E11.26358
G1 X132.74 Y134.628 E14.07164
G0 F1620 X132.74 Y133.265
G0 F6000 X133.4 Y133.274
G1 F1800 X133.409 Y132.577 E14.13223
G1 X133.461 Y131.669 E14.21129
G1 X133.592 Y130.77 E14.29026
G1 X133.802 Y129.886 E14.36925
G1 X134.088 Y129.023 E14.44828
G1 X134.45 Y128.189 E14.52731
G1 X134.883 Y127.39 E14.60631
G1 X135.385 Y126.633 E14.68527
G1 X135.951 Y125.922 E14.76427
G1 X136.578 Y125.264 E14.84328
G1 X137.26 Y124.663 E14.9223
G1 X137.993 Y124.125 E15.00134
G1 X138.769 Y123.653 E15.0803
G1 X139.585 Y123.252 E15.15933
G1 X140.432 Y122.923 E15.23832
G1 X141.305 Y122.671 E15.31731
G1 X142.197 Y122.496 E15.39633
G1 X143.481 Y122.383 E15.50837
G1 X144.14 Y122.37 E15.56567
G1 X155.563 Y122.37 E16.55866
G1 X156.409 Y122.381 E16.6322
G1 X157.316 Y122.434 E16.71118
G1 X158.215 Y122.567 E16.79018
G1 X159.099 Y122.778 E16.86919
G1 X159.961 Y123.066 E16.94819
G1 X160.795 Y123.428 E17.02722
G1 X161.593 Y123.863 E17.10623
G1 X162.35 Y124.365 E17.18519
G1 X163.06 Y124.933 E17.26423
G1 X163.717 Y125.561 E17.34324
G1 X164.317 Y126.244 E17.42226
G1 X164.854 Y126.977 E17.50125
G1 X165.325 Y127.754 E17.58024
G1 X165.725 Y128.57 E17.65923
G1 X166.052 Y129.418 E17.73824
G1 X166.304 Y130.291 E17.81723
G1 X166.478 Y131.183 E17.89623
G1 X166.587 Y132.413 E18.00357
G1 X166.6 Y133.023 E18.05661
G1 X166.6 Y166.721 E20.98593
G1 X166.59 Y167.435 E21.04801
G1 X166.537 Y168.342 E21.12698
G1 X166.405 Y169.241 E21.20597
G1 X166.194 Y170.125 E21.28497
G1 X165.907 Y170.987 E21.36395
G1 X165.544 Y171.821 E21.44302
G1 X165.11 Y172.619 E21.52198
G1 X164.607 Y173.376 E21.60099
G1 X164.04 Y174.087 E21.68004
G1 X163.413 Y174.744 E21.75899
G1 X162.73 Y175.344 E21.83802
G1 X161.997 Y175.881 E21.91701
G1 X161.22 Y176.352 E21.99599
G1 X160.404 Y176.753 E22.07503
G1 X159.556 Y177.08 E22.15403
G1 X158.683 Y177.332 E22.23302
G1 X157.791 Y177.506 E22.31202
G1 X156.519 Y177.617 E22.42302
G1 X155.861 Y177.63 E22.48023
G1 X144.304 Y177.629 E23.48486
G1 X143.606 Y177.62 E23.54554
G1 X142.698 Y177.568 E23.6246
G1 X141.799 Y177.437 E23.70358
G1 X140.915 Y177.227 E23.78256
G1 X140.052 Y176.941 E23.86159
G1 X139.218 Y176.579 E23.94063
G1 X138.42 Y176.146 E24.01955
G1 X137.662 Y175.644 E24.09858
G1 X136.951 Y175.078 E24.17758
G1 X136.293 Y174.451 E24.25659
G1 X135.692 Y173.769 E24.33561
G1 X135.154 Y173.036 E24.41465
G1 X134.682 Y172.26 E24.4936
G1 X134.281 Y171.444 E24.57264
G1 X133.952 Y170.597 E24.65163
G1 X133.7 Y169.724 E24.73062
G1 X133.525 Y168.832 E24.80963
G1 X133.412 Y167.549 E24.9216
G1 X133.4 Y166.931 E24.97533
G1 X133.4 Y134.637 E27.7826
G0 F1620 X133.4 Y133.274
G1 F2100 E22.7826
G1 F300 Z0.56
;MESH:z-post-stop-v2.stl
G0 F6000 X145.384 Y136.472 Z0.56
;TYPE:WALL-INNER
G1 F300 Z0.24
G1 F2100 E27.7826
G1 F1760 X145.472 Y136.148 E27.80757
G1 F1734.3 X145.561 Y135.823 E27.83299
G1 F1721.7 X145.804 Y135.277 E27.87842
G1 X146.031 Y134.893 E27.91232
G1 X146.235 Y134.594 E27.93984
G1 X146.423 Y134.366 E27.9623
G1 X145.394 Y134.365 E28.04051
G1 X145.395 Y135.798 E28.14943
G1 F1739.4 X145.388 Y136.248 E28.18329
G1 F1765.2 X145.384 Y136.472 E28.1999
G1 F2100 E23.1999
G1 F300 Z0.56
G0 F6000 X145.374 Y138.711 Z0.56
G1 F300 Z0.24
G1 F2100 E28.1999
G1 F1813.7 X145.38 Y139.272 E28.24038
G1 F1800 X145.379 Y140.171 E28.30574
G1 X145.38 Y146.513 E28.76683
G1 X145.379 Y153.061 E29.2429
G1 X145.381 Y159.968 E29.74506
G1 X145.38 Y161.248 E29.83813
G1 F1844.7 X145.365 Y161.563 E29.8605
G1 F1938 X145.35 Y161.878 E29.88179
G1 F1919.2 X145.398 Y161.474 E29.90953
G1 F1841.9 X145.486 Y161.152 E29.93325
G1 F1813.7 X145.575 Y160.829 E29.95743
G1 F1800 X145.817 Y160.284 E30.00078
G1 X146.121 Y159.777 E30.04376
G1 X146.534 Y159.253 E30.09227
G1 X146.956 Y158.843 E30.13504
G1 X147.483 Y158.451 E30.1828
G1 X148.036 Y158.142 E30.22885
G1 X148.602 Y157.916 E30.27316
G1 X149.156 Y157.771 E30.3148
G1 X149.787 Y157.69 E30.36105
G1 X150.42 Y157.689 E30.40707
G1 X151.052 Y157.772 E30.45341
G1 X151.597 Y157.916 E30.4944
G1 X152.2 Y158.16 E30.54169
G1 X152.711 Y158.447 E30.5843
G1 X153.228 Y158.83 E30.63108
G1 X153.697 Y159.288 E30.67874
G1 X154.073 Y159.763 E30.72279
G1 X154.369 Y160.26 E30.76484
G1 X154.608 Y160.796 E30.80751
G1 X154.621 Y160.834 E30.81043
G1 X154.621 Y139.166 E32.38578
G1 X154.515 Y139.433 E32.40667
G1 X154.223 Y140 E32.45303
G1 X153.88 Y140.492 E32.49664
G1 X153.479 Y140.936 E32.54014
G1 X153.025 Y141.333 E32.58398
G1 X152.465 Y141.703 E32.63278
G1 X151.925 Y141.963 E32.67636
G1 X151.348 Y142.157 E32.72061
G1 X150.759 Y142.275 E32.76429
G1 X150.143 Y142.32 E32.80919
G1 X149.477 Y142.281 E32.8577
G1 X148.846 Y142.157 E32.90445
G1 X148.336 Y141.986 E32.94356
G1 X147.781 Y141.726 E32.98812
G1 X147.25 Y141.388 E33.03388
G1 X146.744 Y140.963 E33.08192
G1 X146.34 Y140.519 E33.12557
G1 X145.972 Y139.991 E33.17236
G1 X145.68 Y139.43 E33.21834
G1 X145.483 Y138.892 E33.25999
G1 F1827.7 X145.424 Y138.601 E33.28125
G1 F1885.7 X145.364 Y138.31 E33.30187
G1 F1870.9 X145.374 Y138.711 E33.32993
G1 F2100 E28.32993
G1 F300 Z0.56
G0 F6000 X154.643 Y135.961 Z0.56
G1 F300 Z0.24
G1 F2100 E33.32993
G1 F1925.4 X154.642 Y134.328 E33.44092
G1 X153.704 Y134.328 E33.50468
G1 X154.055 Y134.776 E33.54336
G1 X154.35 Y135.272 E33.58258
G1 X154.411 Y135.407 E33.59265
G0 F1620 X154.588 Y135.805
G0 X154.643 Y135.961
G1 F2100 E28.59265
G1 F300 Z0.56
G0 F6000 X154.642 Y164.05 Z0.56
G1 F300 Z0.24
G1 F2100 E33.59265
G1 F1922.3 X154.496 Y164.425 E33.62005
G1 X154.204 Y164.99 E33.66334
G1 X153.864 Y165.48 E33.70395
G1 X153.7 Y165.671 E33.72108
G1 X154.642 Y165.671 E33.78521
G1 X154.642 Y164.909 E33.83709
G0 F1620 X154.642 Y164.05
G1 F2100 E28.83709
G1 F300 Z0.56
G0 F6000 X145.468 Y163.897 Z0.56
G1 F300 Z0.24
G1 F2100 E33.83709
G1 F1765.2 X145.416 Y163.604 E33.85915
G1 F1859.2 X145.364 Y163.31 E33.88017
G1 F1919.2 X145.358 Y163.249 E33.88434
G1 F1844.7 X145.387 Y163.711 E33.91718
G1 F1754.8 X145.391 Y163.992 E33.93814
G1 F1734.3 X145.395 Y164.273 E33.95935
G1 F1721.7 X145.395 Y165.635 E34.06287
G1 X146.42 Y165.634 E34.14078
G1 X146.209 Y165.371 E34.16641
G1 X145.959 Y165 E34.20041
G1 X145.697 Y164.495 E34.24366
G0 F1620 X145.667 Y164.436
G0 X145.468 Y163.897
G1 F2100 E29.24366
G1 F300 Z0.56
G0 F6000 X151.771 Y166.309 Z0.56
G1 F300 Z0.24
G1 F2100 E34.24366
G1 F1800 X152.613 Y166.309 E34.30487
G1 X153.18 Y166.308 E34.3461
G1 X153.76 Y166.31 E34.38827
G1 X155.281 Y166.31 E34.49885
G1 X155.281 Y164.087 E34.66047
G1 F1687.5 X155.237 Y163.74 E34.68759
G1 F1500 X155.193 Y163.392 E34.7182
G1 F1412.6 X155.188 Y162.875 E34.7661
G1 F1407.6 X155.19 Y162.273 E34.82207
G1 F1394.4 X155.18 Y161.932 E34.85408
G1 F1359.3 X155.169 Y161.591 E34.88693
G1 F1434.8 X155.225 Y161.294 E34.9145
G1 F1659.2 X155.281 Y160.996 E34.93841
G1 F1800 X155.281 Y139.087 E36.53129
G1 F1687.5 X155.237 Y138.74 E36.55841
G1 F1500 X155.193 Y138.392 E36.58901
G1 F1412.6 X155.188 Y137.875 E36.63691
G1 F1407.6 X155.19 Y137.273 E36.69288
G1 F1394.4 X155.18 Y136.932 E36.7249
G1 F1359.3 X155.169 Y136.591 E36.75775
G1 F1434.8 X155.225 Y136.294 E36.78532
G1 F1659.2 X155.281 Y135.996 E36.80923
G1 F1800 X155.28 Y133.69 E36.97689
G1 X151.759 Y133.69 E37.23288
G1 X152.064 Y133.828 E37.25722
G1 X152.373 Y134.013 E37.2834
G1 X152.826 Y134.353 E37.32458
G1 X153.226 Y134.748 E37.36545
G1 X153.545 Y135.16 E37.40333
G1 X153.794 Y135.585 E37.43915
G1 X154.001 Y136.055 E37.47648
G1 F1704.4 X154.111 Y136.291 E37.49648
G1 F1540.9 X154.221 Y136.527 E37.51859
G1 F1404.3 X154.288 Y136.656 E37.53214
G1 F1368.7 X154.34 Y137.119 E37.57669
G1 F1404.3 X154.349 Y137.684 E37.62935
G1 F1402.6 X154.331 Y137.924 E37.6518
G1 F1379.8 X154.313 Y138.164 E37.67463
G1 F1452.3 X154.199 Y138.441 E37.70162
G1 F1652.3 X154.084 Y138.718 E37.72538
G1 F1786.5 X153.902 Y139.19 E37.76243
G1 F1800 X153.642 Y139.687 E37.80321
G1 X153.349 Y140.1 E37.84003
G1 X152.998 Y140.485 E37.87791
G1 X152.601 Y140.826 E37.91596
G1 X152.112 Y141.145 E37.9584
G1 X151.655 Y141.361 E37.99515
G1 X151.151 Y141.527 E38.03373
G1 X150.643 Y141.626 E38.07136
G1 X150.109 Y141.661 E38.11027
G1 X149.529 Y141.623 E38.15253
G1 X148.991 Y141.513 E38.19245
G1 X148.559 Y141.365 E38.22565
G1 X148.071 Y141.133 E38.26494
G1 X147.618 Y140.84 E38.30416
G1 X147.179 Y140.466 E38.34609
G1 X146.841 Y140.088 E38.38296
G1 X146.52 Y139.623 E38.42404
G1 X146.273 Y139.14 E38.46348
G1 X146.108 Y138.68 E38.49901
G1 F1802.7 X145.994 Y138.175 E38.53659
G1 X145.939 Y137.593 E38.57903
G1 F1800 X145.957 Y137.098 E38.61504
G1 X146.039 Y136.584 E38.65288
G1 X146.205 Y136.026 E38.69521
G1 X146.413 Y135.568 E38.73178
G1 X146.603 Y135.251 E38.75865
G1 X146.756 Y135.023 E38.77861
G1 X147.044 Y134.673 E38.81157
G1 X147.405 Y134.327 E38.84792
G1 X147.866 Y133.988 E38.88953
G1 X148.343 Y133.726 E38.92909
G1 X148.422 Y133.691 E38.93537
G1 X144.719 Y133.69 E39.2046
G1 X144.72 Y161.248 E41.20817
G1 F1802.7 X144.719 Y163.31 E41.35786
G1 X144.72 Y164.272 E41.4277
G1 F1800 X144.72 Y166.31 E41.57587
G1 X148.432 Y166.31 E41.84575
G1 X148.07 Y166.134 E41.87501
G1 X147.618 Y165.841 E41.91417
G1 X147.179 Y165.467 E41.9561
G1 X146.841 Y165.088 E41.99302
G1 X146.586 Y164.722 E42.02545
G1 X146.452 Y164.506 E42.04393
G1 X146.273 Y164.14 E42.07356
G1 X146.108 Y163.68 E42.10909
G1 F1802.7 X145.994 Y163.175 E42.14667
G1 X145.939 Y162.593 E42.18911
G1 F1800 X145.957 Y162.098 E42.22512
G1 F1802.7 X146.04 Y161.585 E42.26284
G1 X146.205 Y161.027 E42.30508
G1 F1800 X146.413 Y160.568 E42.34172
G1 X146.681 Y160.127 E42.37924
G1 X147.044 Y159.673 E42.4215
G1 X147.405 Y159.327 E42.45786
G1 X147.866 Y158.988 E42.49946
G1 X148.344 Y158.726 E42.53909
G1 X148.834 Y158.534 E42.57735
G1 X149.308 Y158.413 E42.61292
G1 X149.857 Y158.346 E42.65313
G1 X150.407 Y158.349 E42.69312
G1 X150.95 Y158.424 E42.73297
G1 X151.414 Y158.55 E42.76793
G1 X151.942 Y158.767 E42.80943
G1 X152.373 Y159.014 E42.84555
G1 X152.825 Y159.353 E42.88663
G1 X153.225 Y159.749 E42.92755
G1 X153.545 Y160.159 E42.96536
G1 X153.794 Y160.585 E43.00124
G1 X154.001 Y161.055 E43.03857
G1 F1704.4 X154.111 Y161.291 E43.05857
G1 F1540.9 X154.221 Y161.527 E43.08068
G1 F1404.3 X154.288 Y161.656 E43.09423
G1 F1370.2 X154.341 Y162.119 E43.13873
G1 F1405.9 X154.349 Y162.684 E43.19133
G1 F1402.6 X154.331 Y162.924 E43.21379
G1 F1379.8 X154.313 Y163.164 E43.23661
G1 F1452.3 X154.199 Y163.441 E43.26361
G1 F1652.3 X154.085 Y163.718 E43.28733
G1 F1786.5 X153.902 Y164.19 E43.32441
G1 F1800 X153.642 Y164.687 E43.36519
G1 X153.35 Y165.101 E43.40203
G1 X152.998 Y165.485 E43.4399
G1 X152.601 Y165.827 E43.478
G1 X152.242 Y166.061 E43.50915
G0 F1620 X152.112 Y166.145
G0 X151.771 Y166.309
G0 F6000 X150.541 Y166.06
;TYPE:WALL-OUTER
G1 F1445.3 X150.079 Y166.079 E43.55057
G1 F1452.3 X149.827 Y166.066 E43.57306
G1 F1434.8 X149.575 Y166.052 E43.59583
G1 F1534.9 X149.13 Y165.896 E43.6356
G1 F1726.7 X148.783 Y165.744 E43.66399
G1 F1800 X148.36 Y165.54 E43.69777
G1 X147.986 Y165.293 E43.73
G1 X147.614 Y164.97 E43.76543
G1 X147.341 Y164.658 E43.79524
G1 X147.134 Y164.354 E43.82169
G1 X146.866 Y163.85 E43.86274
G1 X146.733 Y163.467 E43.8919
G1 X146.636 Y163.025 E43.92444
G1 X146.597 Y162.541 E43.95936
G1 X146.616 Y162.134 E43.98866
G1 F1802.7 X146.69 Y161.697 E44.02048
G1 X146.835 Y161.225 E44.05594
G1 F1800 X147.009 Y160.852 E44.08554
G1 X147.241 Y160.477 E44.11725
G1 X147.554 Y160.093 E44.15288
G1 X147.853 Y159.811 E44.18243
G1 X148.25 Y159.525 E44.21762
G1 X148.651 Y159.31 E44.25034
G1 X149.066 Y159.152 E44.28227
G1 X149.46 Y159.055 E44.31145
G1 X149.928 Y159.002 E44.34533
G1 X150.395 Y159.009 E44.37891
G1 X150.848 Y159.076 E44.41184
G1 X151.23 Y159.184 E44.44039
G1 X151.684 Y159.375 E44.47581
G1 X152.035 Y159.58 E44.50504
G1 X152.423 Y159.876 E44.54014
G1 X152.753 Y160.21 E44.5739
G1 X153.017 Y160.556 E44.6052
G1 X153.22 Y160.909 E44.63449
G1 X153.394 Y161.313 E44.66612
G1 F1802.7 X153.515 Y161.729 E44.69723
G1 X153.594 Y162.231 E44.73372
G1 F1800 X153.599 Y162.688 E44.76658
G1 X153.555 Y163.07 E44.79424
G1 X153.438 Y163.562 E44.83061
G1 X153.289 Y163.946 E44.86023
G1 X153.061 Y164.375 E44.89516
G1 X152.819 Y164.709 E44.92482
G1 X152.517 Y165.033 E44.95668
G1 X152.178 Y165.32 E44.98862
G1 X151.76 Y165.587 E45.02429
G1 X151.385 Y165.76 E45.05399
G1 F1765.2 X150.957 Y165.91 E45.08724
G1 F1567.3 X150.541 Y166.06 E45.12377
G0 F6000 X150.221 Y166.073
G1 F2100 E40.12377
G1 F300 Z0.56
G0 F6000 X145.358 Y163.249 Z0.56
;TYPE:WALL-INNER
G1 F300 Z0.24
G1 F2100 E45.12377
G1 F1973.4 X145.344 Y162.945 E45.14395
G1 F2066.1 X145.33 Y162.641 E45.16322
G1 F2098.9 X145.334 Y162.352 E45.18125
G1 F2069.7 X145.339 Y162.063 E45.19952
G1 F2020.4 X145.35 Y161.878 E45.21153
G1 F2100 E40.21153
G1 F300 Z0.56
G0 F6000 X145.358 Y138.249 Z0.56
G1 F300 Z0.24
G1 F2100 E45.21153
G1 F1973.4 X145.344 Y137.945 E45.23171
