;FLAVOR:Marlin
;TIME:902
;Filament used: 1.35m
;Layer height: 0.32
;MINX:116.733
;MINY:121.71
;MINZ:0.24
;MAXX:169.053
;MAXY:178.29
;MAXZ:6.32
;Generated with Cura_SteamEngine 5.0.0
M140 S70
M105
M190 S70
M104 S245
M105
M109 S245
M82 ;absolute extrusion mode
; Ender 3 Max Custom Start G-code
G92 E0 ; Reset Extruder
G28 ; Home all axes
G1 Z2.0 F3000 ; Move Z Axis up little to prevent scratching of Heat Bed
G1 X0.1 Y20 Z0.3 F5000.0 ; Move to start position
G1 X0.1 Y200.0 Z0.3 F1500.0 E15 ; Draw the first line
G1 X0.4 Y200.0 Z0.3 F5000.0 ; Move to side a little
G1 X0.4 Y20 Z0.3 F1500.0 E30 ; Draw the second line
G92 E0 ; Reset Extruder
G1 Z2.0 F3000 ; Move Z Axis up little to prevent scratching of Heat Bed
G1 X5 Y20 Z0.3 F5000.0 ; Move over to prevent blob squish
G92 E0
G92 E0
G1 F2100 E-5
;LAYER_COUNT:19
;LAYER:0
M107
G1 F300 Z0.56
G0 F6000 X119.925 Y124.974 Z0.56
G1 F300 Z0.56
G0 F6000 X116.733 Y133.265
;TYPE:SKIRT
G1 F300 Z0.24
G1 F2100 E0
G1 F1800 X116.742 Y132.568 E0.0505
G1 X116.794 Y131.632 E0.1184
G1 X116.926 Y130.704 E0.18631
G1 X117.136 Y129.79 E0.25424
G1 X117.423 Y128.898 E0.32212
G1 X117.786 Y128.034 E0.39001
G1 X118.22 Y127.203 E0.45792
G1 X118.724 Y126.412 E0.52587
G1 X119.294 Y125.668 E0.59376
G1 X119.925 Y124.974 E0.66171
G1 X120.612 Y124.337 E0.72958
G1 X121.352 Y123.761 E0.79751
G1 X122.138 Y123.25 E0.86542
G1 X122.964 Y122.808 E0.93329
G1 X123.825 Y122.437 E1.0012
G1 X124.715 Y122.142 E1.06912
G1 X125.627 Y121.923 E1.13707
G1 X126.553 Y121.783 E1.20491
G1 X127.458 Y121.723 E1.27061
G1 X128.133 Y121.71 E1.31952
G1 X139.529 Y121.71 E2.14505
G1 X141.711 Y121.74 E2.30313
G1 X144.328 Y121.74 E2.49271
G1 X145.933 Y121.71 E2.60899
G1 X157.513 Y121.711 E3.44786
G1 X158.211 Y121.721 E3.49843
G1 X159.147 Y121.775 E3.56634
G1 X160.075 Y121.907 E3.63424
G1 X160.989 Y122.119 E3.70221
G1 X161.88 Y122.408 E3.77007
G1 X162.745 Y122.771 E3.83802
G1 X163.574 Y123.207 E3.90587
G1 X164.364 Y123.712 E3.9738
G1 X165.108 Y124.283 E4.04173
G1 X165.801 Y124.915 E4.10968
G1 X166.437 Y125.603 E4.17755
G1 X167.012 Y126.343 E4.24544
G1 X167.522 Y127.13 E4.31337
G1 X167.963 Y127.957 E4.38126
G1 X168.332 Y128.819 E4.44919
G1 X168.626 Y129.709 E4.51709
G1 X168.844 Y130.621 E4.58502
G1 X168.982 Y131.548 E4.65291
G1 X169.039 Y132.394 E4.71433
G1 X169.053 Y133.023 E4.75991
G1 X169.053 Y166.73 E7.20166
G1 X169.043 Y167.444 E7.25339
G1 X168.99 Y168.38 E7.3213
G1 X168.857 Y169.308 E7.38921
G1 X168.646 Y170.221 E7.4571
G1 X168.358 Y171.113 E7.525
G1 X167.994 Y171.977 E7.59291
G1 X167.559 Y172.807 E7.6608
G1 X167.054 Y173.597 E7.72872
G1 X166.484 Y174.341 E7.79661
G1 X165.852 Y175.034 E7.86456
G1 X165.164 Y175.671 E7.93248
G1 X164.424 Y176.246 E8.00036
G1 X163.637 Y176.756 E8.0683
G1 X162.81 Y177.198 E8.13623
G1 X161.948 Y177.567 E8.20415
G1 X161.058 Y177.861 E8.27205
G1 X160.147 Y178.079 E8.33991
G1 X159.22 Y178.218 E8.40781
G1 X158.329 Y178.277 E8.47249
G1 X157.654 Y178.29 E8.5214
G1 X146.1 Y178.289 E9.35838
G1 X144.075 Y178.26 E9.50509
G1 X141.458 Y178.26 E9.69466
G1 X139.854 Y178.29 E9.81088
G1 X128.288 Y178.289 E10.64873
G1 X127.59 Y178.28 E10.69929
G1 X126.654 Y178.228 E10.7672
G1 X125.726 Y178.096 E10.8351
G1 X124.813 Y177.886 E10.90297
G1 X123.92 Y177.599 E10.97092
G1 X123.056 Y177.236 E11.03881
G1 X122.225 Y176.802 E11.10672
G1 X121.435 Y176.298 E11.1746
G1 X120.69 Y175.728 E11.24255
G1 X119.997 Y175.098 E11.3104
G1 X119.359 Y174.41 E11.37837
G1 X118.783 Y173.671 E11.44624
G1 X118.272 Y172.885 E11.51416
G1 X117.83 Y172.058 E11.58209
G1 X117.46 Y171.197 E11.64997
G1 X117.164 Y170.307 E11.71792
G1 X116.945 Y169.396 E11.78579
G1 X116.805 Y168.469 E11.8537
G1 X116.745 Y167.566 E11.91926
G1 X116.733 Y166.931 E11.96527
G1 X116.733 Y134.628 E14.30532
G0 F1620 X116.733 Y133.265
G0 F6000 X117.393 Y133.274
G1 F1800 X117.402 Y132.577 E14.35581
G1 X117.454 Y131.669 E14.4217
G1 X117.585 Y130.77 E14.48751
G1 X117.795 Y129.886 E14.55333
G1 X118.081 Y129.023 E14.61919
G1 X118.443 Y128.189 E14.68505
G1 X118.876 Y127.39 E14.75088
G1 X119.378 Y126.633 E14.81668
G1 X119.944 Y125.922 E14.88251
G1 X120.571 Y125.264 E14.94836
G1 X121.253 Y124.663 E15.01421
G1 X121.986 Y124.125 E15.08007
G1 X122.762 Y123.653 E15.14587
G1 X123.578 Y123.252 E15.21173
G1 X124.425 Y122.923 E15.27755
G1 X125.298 Y122.671 E15.34338
G1 X126.19 Y122.496 E15.40923
G1 X127.474 Y122.383 E15.5026
G1 X128.133 Y122.37 E15.55035
G1 X139.529 Y122.37 E16.37588
G1 X141.702 Y122.4 E16.53331
G1 X144.342 Y122.4 E16.72455
G1 X145.933 Y122.37 E16.83982
G1 X157.504 Y122.371 E17.67803
G1 X158.202 Y122.381 E17.7286
G1 X159.109 Y122.434 E17.79442
G1 X160.008 Y122.567 E17.86025
G1 X160.892 Y122.778 E17.92609
G1 X161.754 Y123.066 E17.99193
G1 X162.588 Y123.428 E18.05779
G1 X163.386 Y123.863 E18.12362
G1 X164.143 Y124.365 E18.18942
G1 X164.853 Y124.933 E18.25529
G1 X165.51 Y125.561 E18.32113
G1 X166.11 Y126.244 E18.38699
G1 X166.647 Y126.977 E18.45281
G1 X167.118 Y127.754 E18.51863
G1 X167.518 Y128.57 E18.58446
G1 X167.845 Y129.418 E18.6503
G1 X168.097 Y130.291 E18.71612
G1 X168.271 Y131.183 E18.78196
G1 X168.38 Y132.413 E18.87141
G1 X168.393 Y133.023 E18.91561
G1 X168.393 Y166.721 E21.35671
G1 X168.383 Y167.435 E21.40844
G1 X168.33 Y168.342 E21.47425
G1 X168.198 Y169.241 E21.54008
G1 X167.987 Y170.125 E21.60591
G1 X167.7 Y170.987 E21.67173
G1 X167.337 Y171.821 E21.73762
G1 X166.903 Y172.619 E21.80342
G1 X166.4 Y173.376 E21.86926
G1 X165.833 Y174.087 E21.93514
G1 X165.206 Y174.744 E22.00092
G1 X164.523 Y175.344 E22.06678
G1 X163.79 Y175.881 E22.13261
G1 X163.013 Y176.352 E22.19843
G1 X162.197 Y176.753 E22.26429
G1 X161.349 Y177.08 E22.33013
G1 X160.476 Y177.332 E22.39595
G1 X159.584 Y177.506 E22.46179
G1 X158.312 Y177.617 E22.55428
G1 X157.654 Y177.63 E22.60195
G1 X146.109 Y177.629 E23.43828
G1 X144.084 Y177.6 E23.58499
G1 X141.444 Y177.6 E23.77623
G1 X139.854 Y177.63 E23.89143
G1 X128.297 Y177.629 E24.72863
G1 X127.599 Y177.62 E24.7792
G1 X126.691 Y177.568 E24.84508
G1 X125.792 Y177.437 E24.91089
G1 X124.908 Y177.227 E24.97671
G1 X124.045 Y176.941 E25.04257
G1 X123.211 Y176.579 E25.10843
G1 X122.413 Y176.146 E25.1742
G1 X121.655 Y175.644 E25.24006
G1 X120.944 Y175.078 E25.30589
G1 X120.286 Y174.451 E25.37173
G1 X119.685 Y173.769 E25.43759
G1 X119.147 Y173.036 E25.50345
G1 X118.675 Y172.26 E25.56925
G1 X118.274 Y171.444 E25.63511
G1 X117.945 Y170.597 E25.70093
G1 X117.693 Y169.724 E25.76676
G1 X117.518 Y168.832 E25.83261
G1 X117.405 Y167.549 E25.92591
G1 X117.393 Y166.931 E25.97068
G1 X117.393 Y134.637 E28.31008
G0 F1620 X117.393 Y133.274
G1 F2100 E23.31008
G1 F300 Z0.56
;MESH:z-post-stop.stl
G0 F6000 X129.409 Y136.211 Z0.56
;TYPE:WALL-INNER
G1 F300 Z0.24
G1 F2100 E28.31008
G1 F1634.1 X129.403 Y136.453 E28.32623
G1 F1668.5 X129.394 Y136.867 E28.3533
G1 X129.456 Y136.457 E28.3804
G1 F1634.1 X129.643 Y135.816 E28.42496
G1 F1623 X129.889 Y135.273 E28.46502
G1 X130.082 Y134.951 E28.49025
G1 X130.332 Y134.589 E28.51981
G1 X130.502 Y134.387 E28.53755
G1 X129.409 Y134.387 E28.611
G1 X129.409 Y135.362 E28.67651
G0 F1620 X129.409 Y136.211
G1 F2100 E23.67651
G1 F300 Z0.56
G0 F6000 X138.609 Y136.113 Z0.56
G1 F300 Z0.24
G1 F2100 E28.67651
G1 F1794.6 X138.613 Y135.753 E28.69839
G1 X138.612 Y134.351 E28.78359
G1 X137.605 Y134.351 E28.84479
G1 X137.895 Y134.695 E28.87213
G1 X138.119 Y135.033 E28.89677
G1 X138.233 Y135.248 E28.91156
G0 F1620 X138.403 Y135.569
G0 X138.609 Y136.113
G1 F2100 E23.91156
G1 F300 Z0.56
G0 F6000 X129.378 Y161.453 Z0.56
G1 F300 Z0.24
G1 F2100 E28.91156
G1 F1729.3 X129.394 Y161.868 E28.93775
G1 X129.481 Y161.462 E28.96394
G1 F1783.8 X129.677 Y160.827 E29.00457
G1 F1800 X129.921 Y160.29 E29.0403
G1 X130.228 Y159.79 E29.07585
G1 X130.644 Y159.274 E29.11601
G1 X130.813 Y159.102 E29.13062
G1 X131.117 Y158.832 E29.15525
G1 X131.626 Y158.473 E29.19299
G1 X132.169 Y158.188 E29.23014
G1 X132.702 Y157.988 E29.26463
G1 X133.325 Y157.841 E29.30342
G1 X133.564 Y157.807 E29.31804
G1 X133.993 Y157.778 E29.34409
G1 X134.546 Y157.8 E29.37762
G1 X135.131 Y157.894 E29.41352
G1 X135.767 Y158.084 E29.45374
G1 X136.3 Y158.326 E29.4892
G1 X136.803 Y158.635 E29.52497
G1 X137.287 Y159.024 E29.56259
G1 X137.742 Y159.503 E29.60262
G1 X137.895 Y159.698 E29.61763
G1 X138.12 Y160.036 E29.64223
G1 X138.402 Y160.568 E29.67871
G1 X138.61 Y161.113 E29.71406
G1 X138.614 Y160.753 E29.73587
G1 X138.614 Y138.84 E31.06351
G1 X138.515 Y139.156 E31.08357
G1 X138.425 Y139.384 E31.09842
G1 X138.265 Y139.707 E31.12026
G1 X137.955 Y140.214 E31.15626
G1 X137.57 Y140.692 E31.19345
G1 X137.093 Y141.147 E31.23339
G1 X136.9 Y141.299 E31.24827
G1 X136.562 Y141.526 E31.27294
G1 X136.018 Y141.812 E31.31018
G1 X135.485 Y142.011 E31.34465
G1 X134.862 Y142.159 E31.38344
G1 X134.223 Y142.221 E31.42234
G1 X133.648 Y142.201 E31.4572
G1 X133.056 Y142.107 E31.49351
G1 X132.42 Y141.917 E31.53373
G1 X131.843 Y141.653 E31.57217
G1 X131.315 Y141.318 E31.61006
G1 X130.847 Y140.931 E31.64685
G1 X130.454 Y140.508 E31.68183
G1 X130.079 Y139.986 E31.72078
G1 X129.783 Y139.43 E31.75894
G1 X129.582 Y138.893 E31.79368
G1 F1754.8 X129.495 Y138.606 E31.81232
G1 F1668.5 X129.408 Y138.318 E31.83198
G1 F1682.7 X129.384 Y138.721 E31.85814
G1 F1757.4 X129.378 Y139.003 E31.87565
G1 F1786.5 X129.372 Y139.285 E31.89287
G1 F1800 X129.374 Y140.205 E31.94861
G1 X129.372 Y140.918 E31.9918
G1 X129.373 Y142.006 E32.05772
G1 X129.372 Y142.358 E32.07905
G1 X129.373 Y161.211 E33.22129
G1 F1783.8 X129.378 Y161.453 E33.23609
G1 F2100 E28.23609
G1 F300 Z0.56
G0 F6000 X129.548 Y163.906 Z0.56
G1 F300 Z0.24
G1 F2100 E33.23609
G1 F1625.2 X129.408 Y163.318 E33.27665
G1 X129.41 Y163.929 E33.31765
G1 F1623 X129.409 Y164.527 E33.35783
G1 X129.41 Y165.208 E33.40359
G1 X129.409 Y165.614 E33.43088
G1 X130.176 Y165.614 E33.48241
G1 X130.497 Y165.612 E33.50399
G1 X130.302 Y165.373 E33.52471
G1 X130.051 Y165.009 E33.55442
G1 X129.893 Y164.713 E33.57697
G0 F1620 X129.751 Y164.446
G0 X129.548 Y163.906
G1 F2100 E28.57697
G1 F300 Z0.56
G0 F6000 X138.613 Y163.846 Z0.56
G1 F300 Z0.24
G1 F2100 E33.57697
G1 F1794.6 X138.516 Y164.156 E33.59671
G1 X138.426 Y164.382 E33.61149
G1 X138.268 Y164.71 E33.63362
G1 X138.004 Y165.139 E33.66423
G1 X137.832 Y165.383 E33.68237
G1 X137.608 Y165.649 E33.7035
G1 X138.613 Y165.649 E33.76458
G1 X138.613 Y164.815 E33.81526
G0 F1620 X138.613 Y163.846
G1 F2100 E28.81526
G1 F300 Z0.56
G0 F6000 X132.692 Y133.691 Z0.56
G1 F300 Z0.24
G1 F2100 E33.81526
G1 F1800 X130.907 Y133.69 E33.92341
G1 X130.238 Y133.691 E33.96394
G1 X128.713 Y133.691 E34.05633
G1 X128.713 Y136.211 E34.20901
G1 F1802.7 X128.711 Y136.453 E34.22365
G1 X128.713 Y137.418 E34.28203
G1 F1800 X128.712 Y138.248 E34.33232
G1 F1802.7 X128.713 Y138.721 E34.36093
G1 X128.712 Y139.284 E34.39499
G1 F1800 X128.713 Y140.205 E34.45079
G1 X128.712 Y142.358 E34.58123
G1 X128.714 Y163.093 E35.8375
G1 F1802.7 X128.713 Y163.721 E35.87549
G1 X128.713 Y166.31 E36.03211
G1 F1800 X130.176 Y166.31 E36.12075
G1 X130.747 Y166.309 E36.15534
G1 X132.69 Y166.31 E36.27306
G1 X132.132 Y166.06 E36.31011
G1 X131.681 Y165.77 E36.34259
G1 X131.279 Y165.431 E36.37445
G1 X130.948 Y165.072 E36.40404
G1 X130.648 Y164.647 E36.43556
G1 X130.373 Y164.134 E36.47082
G1 X130.205 Y163.677 E36.50032
G1 X130.087 Y163.17 E36.53186
G1 X130.032 Y162.596 E36.5668
G1 X130.051 Y162.1 E36.59687
G1 X130.137 Y161.577 E36.62898
G1 X130.304 Y161.032 E36.66352
G1 X130.514 Y160.58 E36.69371
G1 X130.784 Y160.146 E36.72468
G1 X131.149 Y159.7 E36.7596
G1 X131.555 Y159.326 E36.79304
G1 X131.994 Y159.021 E36.82543
G1 X132.463 Y158.779 E36.8574
G1 X132.919 Y158.612 E36.88683
G1 X133.465 Y158.486 E36.92078
G1 X134.038 Y158.437 E36.95562
G1 X134.502 Y158.459 E36.98376
G1 X135.016 Y158.544 E37.01533
G1 X135.562 Y158.711 E37.04992
G1 X136.011 Y158.919 E37.0799
G1 X136.448 Y159.191 E37.11109
G1 X136.861 Y159.528 E37.14338
G1 X137.254 Y159.947 E37.17819
G1 X137.572 Y160.402 E37.21182
G1 X137.813 Y160.864 E37.24339
G1 X137.982 Y161.328 E37.27331
G1 F1638.6 X138.108 Y161.584 E37.2923
G1 F1389.5 X138.234 Y161.841 E37.31476
G1 F1301.2 X138.252 Y162.124 E37.33853
G1 F1324.4 X138.271 Y162.408 E37.36197
G1 F1327.4 X138.253 Y162.954 E37.40685
G1 F1379.8 X138.17 Y163.197 E37.42715
G1 F1517.2 X138.086 Y163.44 E37.44563
G1 F1643.2 X137.986 Y163.699 E37.46405
G1 F1744.5 X137.886 Y163.958 E37.48141
G1 F1800 X137.673 Y164.421 E37.51229
G1 X137.449 Y164.781 E37.53798
G1 X137.066 Y165.266 E37.57542
G1 X136.648 Y165.66 E37.61022
G1 X136.194 Y165.979 E37.64384
G1 X135.725 Y166.221 E37.67581
G1 X135.495 Y166.309 E37.69073
G1 X136.294 Y166.31 E37.73914
G1 X136.701 Y166.308 E37.7638
G1 X138.282 Y166.31 E37.85959
G1 X139.274 Y166.31 E37.91969
G1 X139.274 Y164.171 E38.04929
G1 F1786.5 X139.269 Y163.729 E38.07627
G1 F1636.4 X139.213 Y163.462 E38.09445
G1 F1417.7 X139.157 Y163.195 E38.11544
G1 F1333.3 X139.16 Y162.577 E38.16599
G1 F1331.8 X139.156 Y162.275 E38.19072
G1 F1320 X139.152 Y161.973 E38.21567
G1 F1383 X139.196 Y161.637 E38.24239
G1 F1540.9 X139.241 Y161.3 E38.26645
G1 F1673.2 X139.257 Y161.026 E38.28434
G1 F1757.4 X139.274 Y160.752 E38.30138
G1 F1800 X139.274 Y139.171 E39.6089
G1 F1786.5 X139.269 Y138.729 E39.63588
G1 F1636.4 X139.213 Y138.462 E39.65406
G1 F1417.7 X139.157 Y138.195 E39.67505
G1 F1331.8 X139.159 Y137.577 E39.72566
G1 F1330.3 X139.156 Y137.275 E39.75041
G1 F1320 X139.152 Y136.973 E39.77537
G1 F1383 X139.196 Y136.637 E39.80209
G1 F1540.9 X139.241 Y136.3 E39.82615
G1 F1673.2 X139.257 Y136.026 E39.84404
G1 F1757.4 X139.274 Y135.752 E39.86108
G1 F1800 X139.273 Y133.69 E39.98601
G1 X135.497 Y133.69 E40.21478
G1 X136.012 Y133.919 E40.24893
G1 X136.448 Y134.19 E40.28003
G1 X136.861 Y134.528 E40.31236
G1 X137.255 Y134.947 E40.34721
G1 X137.459 Y135.233 E40.3685
G1 X137.634 Y135.508 E40.38824
G1 X137.813 Y135.865 E40.41244
G1 X137.981 Y136.328 E40.44228
G1 F1638.6 X138.107 Y136.584 E40.46127
G1 F1389.5 X138.234 Y136.841 E40.48377
G1 F1301.2 X138.252 Y137.124 E40.50754
G1 F1324.4 X138.271 Y137.408 E40.53097
G1 F1325.9 X138.253 Y137.954 E40.57591
G1 F1378.2 X138.17 Y138.197 E40.59623
G1 F1517.2 X138.086 Y138.44 E40.61471
G1 F1643.2 X137.986 Y138.699 E40.63313
G1 F1744.5 X137.886 Y138.958 E40.65049
G1 F1800 X137.673 Y139.418 E40.6812
G1 X137.4 Y139.857 E40.71252
G1 X137.065 Y140.267 E40.7446
G1 X136.648 Y140.66 E40.77932
G1 X136.194 Y140.978 E40.8129
G1 X135.724 Y141.221 E40.84496
G1 X135.268 Y141.388 E40.87438
G1 X134.722 Y141.514 E40.90833
G1 X134.176 Y141.563 E40.94154
G1 X133.689 Y141.542 E40.97108
G1 X133.17 Y141.457 E41.00294
G1 X132.624 Y141.289 E41.03755
G1 X132.133 Y141.06 E41.07038
G1 X131.681 Y140.769 E41.10294
G1 X131.279 Y140.431 E41.13477
G1 X130.949 Y140.071 E41.16435
G1 X130.623 Y139.612 E41.19846
G1 X130.373 Y139.133 E41.2312
G1 X130.205 Y138.676 E41.2607
G1 X130.087 Y138.17 E41.29218
G1 X130.031 Y137.596 E41.32712
G1 X130.051 Y137.099 E41.35726
G1 F1802.7 X130.138 Y136.578 E41.38921
G1 X130.304 Y136.032 E41.42373
G1 F1800 X130.515 Y135.579 E41.45401
G1 X130.668 Y135.327 E41.47187
G1 X130.864 Y135.038 E41.49303
G1 X131.149 Y134.699 E41.51986
G1 X131.555 Y134.326 E41.55326
G1 X131.994 Y134.021 E41.58565
G1 X132.125 Y133.953 E41.59459
G0 F1620 X132.462 Y133.779
G0 X132.692 Y133.691
G0 F6000 X134.076 Y133.994
;TYPE:WALL-OUTER
G1 F1376.6 X134.134 Y133.994 E41.59914
G1 F1363.9 X134.513 Y134.013 E41.62915
G1 F1322.9 X134.924 Y134.067 E41.66295
G1 F1394.4 X135.141 Y134.203 E41.68276
G1 F1640.9 X135.358 Y134.339 E41.6996
G1 F1800 X135.723 Y134.513 E41.72383
G1 X136.092 Y134.746 E41.74998
G1 X136.435 Y135.032 E41.77675
G1 X136.767 Y135.392 E41.80609
G1 X136.911 Y135.6 E41.82126
G1 X137.044 Y135.804 E41.83585
G1 X137.223 Y136.161 E41.85978
G1 X137.357 Y136.542 E41.88399
G1 X137.463 Y137.011 E41.9128
G1 X137.498 Y137.462 E41.93991
G1 X137.474 Y137.907 E41.96662
G1 F1802.7 X137.397 Y138.303 E41.99076
G1 X137.256 Y138.76 E42.01937
G1 F1800 X137.08 Y139.129 E42.04387
G1 X136.844 Y139.501 E42.07028
G1 X136.561 Y139.841 E42.09679
G1 X136.202 Y140.173 E42.12609
G1 X135.826 Y140.43 E42.15338
G1 X135.43 Y140.63 E42.17997
G1 X135.052 Y140.764 E42.204
G1 X134.582 Y140.869 E42.23286
G1 X134.129 Y140.905 E42.2601
G1 X133.73 Y140.883 E42.28404
G1 X133.285 Y140.807 E42.3111
