;FLAVOR:Marlin
;TIME:2748
;Filament used: 6.98958m
;Layer height: 0.3
;MINX:75.3
;MINY:75.3
;MINZ:0.28
;MAXX:174.7
;MAXY:174.7
;MAXZ:3.98
;POSTPROCESSED
;Generated with Cura_SteamEngine 5.4.0
M140 S60
M105
M190 S60
M104 S215
M105
M109 S215
M82 ;absolute extrusion mode
START_PRINT
G92 E0
G92 E0
G1 F300 E-0.5
;LAYER_COUNT:12
;LAYER:0
M107
M204 S1800
G1 F600 Z0.68
;MESH:coaster-wa-husky.stl
G0 F4800 X164.95 Y173.5 Z0.68
;TYPE:WALL-INNER
G1 F600 Z0.28
G1 F120 E0
G1 F1800 X166.023 Y173.434 E0.07193
G1 X167.033 Y173.249 E0.14062
G1 X168.013 Y172.943 E0.20931
G1 X168.955 Y172.52 E0.2784
G1 X169.829 Y171.992 E0.34672
G1 X170.641 Y171.355 E0.41577
G1 X171.355 Y170.641 E0.48333
G1 X171.992 Y169.828 E0.55243
G1 X172.521 Y168.953 E0.62084
G1 X172.943 Y168.013 E0.68978
G1 X173.249 Y167.033 E0.75847
G1 X173.435 Y166.016 E0.82764
G1 X173.5 Y164.951 E0.89903
G1 X173.5 Y85.042 E6.2454
G1 X173.436 Y83.986 E6.31618
G1 X173.248 Y82.96 E6.38597
G1 X172.944 Y81.988 E6.45411
G1 X172.52 Y81.045 E6.52328
G1 X171.988 Y80.166 E6.59203
G1 X171.355 Y79.36 E6.6606
G1 X170.641 Y78.645 E6.7282
G1 X169.829 Y78.008 E6.79725
G1 X168.955 Y77.48 E6.86557
G1 X168.013 Y77.057 E6.93466
G1 X167.033 Y76.751 E7.00335
G1 X166.022 Y76.566 E7.07211
G1 X164.95 Y76.5 E7.14397
G1 X85.05 Y76.5 E12.48974
G1 X83.978 Y76.566 E12.5616
G1 X82.967 Y76.751 E12.63036
G1 X81.988 Y77.057 E12.69899
G1 X81.044 Y77.48 E12.7682
G1 X80.171 Y78.008 E12.83646
G1 X79.359 Y78.645 E12.90551
G1 X78.645 Y79.36 E12.97311
G1 X78.012 Y80.166 E13.04168
G1 X77.48 Y81.045 E13.11043
G1 X77.056 Y81.988 E13.1796
G1 X76.752 Y82.96 E13.24774
G1 X76.564 Y83.985 E13.31746
G1 X76.5 Y85.049 E13.38878
G1 X76.501 Y164.958 E18.73515
G1 X76.565 Y166.015 E18.806
G1 X76.751 Y167.033 E18.87524
G1 X77.057 Y168.013 E18.94393
G1 X77.479 Y168.953 E19.01287
G1 X78.008 Y169.828 E19.08128
G1 X78.645 Y170.641 E19.15038
G1 X79.359 Y171.355 E19.21794
G1 X80.171 Y171.992 E19.28699
G1 X81.044 Y172.52 E19.35525
G1 X81.987 Y172.943 E19.4244
G1 X82.967 Y173.249 E19.49308
G1 X83.977 Y173.433 E19.56177
G1 X85.05 Y173.5 E19.6337
G1 X164.95 Y173.5 E24.97947
G0 F4800 X164.968 Y174.1
G1 F1800 X166.095 Y174.03 E25.05502
G1 X167.177 Y173.833 E25.1286
G1 X168.226 Y173.505 E25.20214
G1 X169.235 Y173.052 E25.27614
G1 X170.17 Y172.486 E25.34926
G1 X171.039 Y171.805 E25.42313
G1 X171.805 Y171.039 E25.49561
G1 X172.487 Y170.17 E25.56952
G1 X173.054 Y169.232 E25.64285
G1 X173.505 Y168.226 E25.71661
G1 X173.833 Y167.177 E25.79014
G1 X174.032 Y166.088 E25.86421
G1 X174.1 Y164.969 E25.93922
G1 X174.1 Y85.024 E31.288
G1 X174.032 Y83.913 E31.36247
G1 X173.831 Y82.816 E31.43709
G1 X173.506 Y81.774 E31.51011
G1 X173.052 Y80.765 E31.58414
G1 X172.483 Y79.824 E31.65771
G1 X171.805 Y78.961 E31.73114
G1 X171.039 Y78.195 E31.80362
G1 X170.17 Y77.514 E31.87749
G1 X169.235 Y76.948 E31.95061
G1 X168.226 Y76.495 E32.02461
G1 X167.177 Y76.167 E32.09815
G1 X166.095 Y75.97 E32.17173
G1 X164.968 Y75.9 E32.24728
G1 X85.032 Y75.9 E37.59546
G1 X83.905 Y75.97 E37.671
G1 X82.823 Y76.167 E37.74459
G1 X81.774 Y76.495 E37.81812
G1 X80.765 Y76.948 E37.89212
G1 X79.83 Y77.513 E37.96521
G1 X78.961 Y78.195 E38.03912
G1 X78.195 Y78.961 E38.1116
G1 X77.517 Y79.824 E38.18503
G1 X76.948 Y80.765 E38.2586
G1 X76.494 Y81.774 E38.33263
G1 X76.169 Y82.816 E38.40565
G1 X75.968 Y83.913 E38.48027
G1 X75.9 Y85.031 E38.55521
G1 X75.901 Y164.976 E43.90399
G1 X75.968 Y166.087 E43.97846
G1 X76.167 Y167.177 E44.05259
G1 X76.495 Y168.226 E44.12613
G1 X76.946 Y169.232 E44.19989
G1 X77.513 Y170.17 E44.27322
G1 X78.195 Y171.039 E44.34713
G1 X78.961 Y171.805 E44.41961
G1 X79.83 Y172.487 E44.49352
G1 X80.765 Y173.052 E44.56661
G1 X81.774 Y173.505 E44.64061
G1 X82.823 Y173.833 E44.71414
G1 X83.905 Y174.03 E44.78772
G1 X85.032 Y174.1 E44.86327
G1 X164.968 Y174.1 E50.21145
G0 F4800 X164.986 Y174.7
;TYPE:WALL-OUTER
G1 F1800 X166.167 Y174.627 E50.29062
G1 X167.321 Y174.417 E50.36909
G1 X168.439 Y174.067 E50.44747
G1 X169.514 Y173.584 E50.52632
G1 X170.512 Y172.981 E50.60434
G1 X171.438 Y172.255 E50.68306
G1 X172.255 Y171.438 E50.76037
G1 X172.981 Y170.512 E50.83909
G1 X173.586 Y169.511 E50.91735
G1 X174.067 Y168.439 E50.99596
G1 X174.417 Y167.321 E51.07434
G1 X174.629 Y166.16 E51.1533
G1 X174.7 Y164.987 E51.23193
G1 X174.7 Y85.006 E56.58312
G1 X174.629 Y83.841 E56.66121
G1 X174.415 Y82.672 E56.74072
G1 X174.068 Y81.561 E56.81859
G1 X173.584 Y80.486 E56.89747
G1 X172.977 Y79.482 E56.97597
G1 X172.255 Y78.562 E57.05421
G1 X171.438 Y77.745 E57.13151
G1 X170.512 Y77.019 E57.21024
G1 X169.514 Y76.416 E57.28825
G1 X168.439 Y75.933 E57.3671
G1 X167.321 Y75.583 E57.44548
G1 X166.167 Y75.373 E57.52396
G1 X164.986 Y75.3 E57.60313
G1 X85.014 Y75.3 E62.95371
G1 X83.833 Y75.373 E63.03288
G1 X82.679 Y75.583 E63.11136
G1 X81.561 Y75.933 E63.18974
G1 X80.486 Y76.416 E63.26859
G1 X79.488 Y77.019 E63.3466
G1 X78.562 Y77.745 E63.42533
G1 X77.745 Y78.562 E63.50263
G1 X77.023 Y79.482 E63.58088
G1 X76.416 Y80.486 E63.65937
G1 X75.932 Y81.561 E63.73825
G1 X75.585 Y82.672 E63.81612
G1 X75.371 Y83.841 E63.89564
G1 X75.3 Y85.013 E63.97419
G1 X75.301 Y164.994 E69.32538
G1 X75.371 Y166.159 E69.40347
G1 X75.583 Y167.321 E69.4825
G1 X75.933 Y168.439 E69.56088
G1 X76.414 Y169.511 E69.63949
G1 X77.019 Y170.512 E69.71774
G1 X77.745 Y171.438 E69.79647
G1 X78.562 Y172.255 E69.87377
G1 X79.488 Y172.981 E69.9525
G1 X80.486 Y173.584 E70.03051
G1 X81.561 Y174.067 E70.10936
G1 X82.679 Y174.417 E70.18774
G1 X83.833 Y174.627 E70.26622
G1 X85.014 Y174.7 E70.34539
G1 X164.986 Y174.7 E75.69597
G0 F4800 X165.185 Y174.688
G1 F300 E75.19597
G1 F600 Z0.68
G0 F4800 X164.929 Y173.001 Z0.68
;TYPE:SKIN
G1 F600 Z0.28
G1 F120 E75.69597
G1 F1800 X85.071 Y173.001 E79.78937
G1 X84.039 Y172.936 E79.84237
G1 X83.087 Y172.763 E79.89197
G1 X82.165 Y172.474 E79.9415
G1 X81.27 Y172.072 E79.99179
G1 X80.454 Y171.579 E80.04066
G1 X79.685 Y170.975 E80.09078
G1 X79.025 Y170.315 E80.13862
G1 X78.421 Y169.546 E80.18875
G1 X77.924 Y168.725 E80.23794
G1 X77.524 Y167.831 E80.28814
G1 X77.237 Y166.913 E80.33745
G1 X77.061 Y165.949 E80.38767
G1 X77.001 Y164.947 E80.43913
G1 X76.999 Y85.068 E84.5336
G1 X77.06 Y84.056 E84.58557
G1 X77.239 Y83.077 E84.63658
G1 X77.523 Y82.169 E84.68535
G1 X77.927 Y81.27 E84.73587
G1 X78.425 Y80.449 E84.78509
G1 X79.025 Y79.685 E84.83488
G1 X79.685 Y79.025 E84.88273
G1 X80.454 Y78.421 E84.93285
G1 X81.27 Y77.928 E84.98172
G1 X82.166 Y77.526 E85.03206
G1 X83.088 Y77.236 E85.0816
G1 X84.039 Y77.064 E85.13114
G1 X85.071 Y76.999 E85.18414
G1 X164.929 Y76.999 E89.27754
G1 X165.96 Y77.064 E89.33049
G1 X166.913 Y77.237 E89.38014
G1 X167.835 Y77.526 E89.42966
G1 X168.73 Y77.928 E89.47996
G1 X169.546 Y78.422 E89.52885
G1 X170.315 Y79.025 E89.57894
G1 X170.975 Y79.685 E89.62679
G1 X171.575 Y80.449 E89.67658
G1 X172.073 Y81.27 E89.7258
G1 X172.477 Y82.169 E89.77632
G1 X172.761 Y83.077 E89.82509
G1 X172.94 Y84.056 E89.8761
G1 X173.001 Y85.053 E89.9273
G1 X173.001 Y164.932 E94.02177
G1 X172.938 Y165.951 E94.07411
G1 X172.763 Y166.914 E94.12428
G1 X172.476 Y167.831 E94.17353
G1 X172.076 Y168.725 E94.22373
G1 X171.579 Y169.546 E94.27292
G1 X170.975 Y170.315 E94.32305
G1 X170.315 Y170.975 E94.37089
G1 X169.547 Y171.577 E94.42091
G1 X168.73 Y172.072 E94.46988
G1 X167.835 Y172.474 E94.52017
G1 X166.913 Y172.763 E94.56969
G1 X165.961 Y172.936 E94.61929
G1 X164.929 Y173.001 E94.6723
G1 F300 E94.1723
G1 F600 Z0.68
G0 F4800 X81.607 Y171.976 Z0.68
G1 F600 Z0.28
G1 F120 E94.6723
G1 F1800 X78.02 Y168.388 E94.93235
G1 X77.914 Y168.282
G0 F4800 X77.605 Y167.337
G1 F1800 X82.66 Y172.392 E95.29879
G0 F4800 X83.515 Y172.611
G1 F1800 X77.387 Y166.482 E95.74305
G0 F4800 X77.273 Y165.732
G1 F1800 X84.264 Y172.723 E96.24983
G0 F4800 X84.944 Y172.766
G1 F1800 X77.232 Y165.054 E96.80888
G0 F4800 X77.225 Y164.411
G1 F1800 X85.588 Y172.775 E97.41515
G0 F4800 X86.225 Y172.775
G1 F1800 X77.225 Y163.775 E98.06756
G0 F4800 X77.225 Y163.138
G1 F1800 X86.861 Y172.775 E98.76612
G0 F4800 X87.498 Y172.775
G1 F1800 X77.225 Y162.502 E99.51081
G0 F4800 X77.225 Y161.865
G1 F1800 X88.134 Y172.775 E100.30164
G0 F4800 X88.77 Y172.775
G1 F1800 X77.225 Y161.229 E101.13858
G0 F4800 X77.225 Y160.593
G1 F1800 X89.407 Y172.775 E102.02166
G0 F4800 X90.043 Y172.775
G1 F1800 X77.225 Y159.956 E102.95088
G0 F4800 X77.225 Y159.32
G1 F1800 X90.68 Y172.775 E103.92624
G0 F4800 X91.316 Y172.775
G1 F1800 X77.225 Y158.683 E104.94773
G0 F4800 X77.225 Y158.047
G1 F1800 X91.952 Y172.775 E106.01534
G0 F4800 X92.589 Y172.775
G1 F1800 X77.225 Y157.411 E107.12908
G0 F4800 X77.225 Y156.774
G1 F1800 X93.225 Y172.775 E108.28896
G0 F4800 X93.862 Y172.775
G1 F1800 X77.225 Y156.138 E109.49498
G0 F4800 X77.225 Y155.501
G1 F1800 X94.498 Y172.775 E110.74715
G0 F4800 X95.134 Y172.775
G1 F1800 X77.225 Y154.865 E112.04541
G0 F4800 X77.225 Y154.229
G1 F1800 X95.771 Y172.775 E113.38982
G0 F4800 X96.407 Y172.775
G1 F1800 X77.225 Y153.592 E114.78037
G0 F4800 X77.225 Y152.956
G1 F1800 X97.044 Y172.775 E116.21705
G0 F4800 X97.68 Y172.775
G1 F1800 X77.225 Y152.319 E117.69988
G0 F4800 X77.225 Y151.683
G1 F1800 X98.316 Y172.775 E119.22881
G0 F4800 X98.953 Y172.775
G1 F1800 X77.225 Y151.047 E120.80388
G0 F4800 X77.225 Y150.41
G1 F1800 X99.589 Y172.775 E122.42509
G0 F4800 X100.226 Y172.775
G1 F1800 X77.225 Y149.774 E124.09244
G0 F4800 X77.225 Y149.138
G1 F1800 X100.862 Y172.775 E125.8059
G0 F4800 X101.498 Y172.775
G1 F1800 X77.225 Y148.501 E127.5655
G0 F4800 X77.225 Y147.865
G1 F1800 X102.135 Y172.775 E129.37123
G0 F4800 X102.771 Y172.775
G1 F1800 X77.225 Y147.228 E131.22311
G0 F4800 X77.225 Y146.592
G1 F1800 X103.408 Y172.775 E133.12112
G0 F4800 X104.044 Y172.775
G1 F1800 X77.225 Y145.956 E135.06524
G0 F4800 X77.225 Y145.319
G1 F1800 X104.68 Y172.775 E137.0555
G0 F4800 X105.317 Y172.775
G1 F1800 X77.225 Y144.683 E139.0919
G0 F4800 X77.225 Y144.046
G1 F1800 X105.953 Y172.775 E141.17444
G0 F4800 X106.589 Y172.775
G1 F1800 X77.225 Y143.41 E143.30308
G0 F4800 X77.225 Y142.774
G1 F1800 X107.226 Y172.775 E145.47787
G0 F4800 X107.862 Y172.775
G1 F1800 X77.225 Y142.137 E147.69879
G0 F4800 X77.225 Y141.501
G1 F1800 X108.499 Y172.775 E149.96586
G0 F4800 X109.135 Y172.775
G1 F1800 X77.225 Y140.864 E152.27906
G0 F4800 X77.225 Y140.228
G1 F1800 X109.771 Y172.775 E154.63837
G0 F4800 X110.408 Y172.775
G1 F1800 X77.225 Y139.592 E157.04382
G0 F4800 X77.225 Y138.955
G1 F1800 X111.044 Y172.775 E159.49541
G0 F4800 X111.681 Y172.775
G1 F1800 X77.225 Y138.319 E161.99314
G0 F4800 X77.224 Y137.682
G1 F1800 X112.317 Y172.775 E164.53704
G0 F4800 X112.953 Y172.775
G1 F1800 X77.224 Y137.045 E167.12709
G0 F4800 X77.224 Y136.409
G1 F1800 X113.59 Y172.775 E169.76327
G0 F4800 X114.226 Y172.775
G1 F1800 X77.224 Y135.772 E172.4456
G0 F4800 X77.224 Y135.136
G1 F1800 X114.863 Y172.775 E175.17406
G0 F4800 X115.499 Y172.775
G1 F1800 X77.224 Y134.5 E177.94863
G0 F4800 X77.224 Y133.863
G1 F1800 X116.135 Y172.775 E180.76934
G0 F4800 X116.772 Y172.775
G1 F1800 X77.224 Y133.227 E183.63619
G0 F4800 X77.224 Y132.591
G1 F1800 X117.408 Y172.775 E186.54914
G0 F4800 X118.045 Y172.775
G1 F1800 X77.224 Y131.954 E189.50827
G0 F4800 X77.224 Y131.318
G1 F1800 X118.681 Y172.775 E192.51351
G0 F4800 X119.317 Y172.775
G1 F1800 X77.224 Y130.681 E195.56488
G0 F4800 X77.224 Y130.045
G1 F1800 X119.954 Y172.775 E198.6624
G0 F4800 X120.59 Y172.775
G1 F1800 X77.224 Y129.409 E201.80601
G0 F4800 X77.224 Y128.772
G1 F1800 X121.227 Y172.775 E204.99581
G0 F4800 X121.863 Y172.775
G1 F1800 X77.224 Y128.136 E208.23171
G0 F4800 X77.224 Y127.499
G1 F1800 X122.499 Y172.775 E211.51374
G0 F4800 X123.136 Y172.775
G1 F1800 X77.224 Y126.863 E214.84192
G0 F4800 X77.224 Y126.227
G1 F1800 X123.772 Y172.775 E218.21621
G0 F4800 X124.409 Y172.775
G1 F1800 X77.224 Y125.59 E221.63666
G0 F4800 X77.224 Y124.954
G1 F1800 X125.045 Y172.775 E225.10323
G0 F4800 X125.681 Y172.775
G1 F1800 X77.224 Y124.317 E228.61593
G0 F4800 X77.224 Y123.681
G1 F1800 X126.318 Y172.775 E232.17477
G0 F4800 X126.954 Y172.775
G1 F1800 X77.224 Y123.045 E235.77972
G0 F4800 X77.224 Y122.408
G1 F1800 X127.591 Y172.775 E239.43084
G0 F4800 X128.227 Y172.775
G1 F1800 X77.224 Y121.772 E243.12807
G0 F4800 X77.224 Y121.135
G1 F1800 X128.863 Y172.775 E246.87144
G0 F4800 X129.5 Y172.775
G1 F1800 X77.224 Y120.499 E250.66094
G0 F4800 X77.224 Y119.863
G1 F1800 X130.136 Y172.775 E254.49655
G0 F4800 X130.773 Y172.775
G1 F1800 X77.224 Y119.226 E258.37834
G0 F4800 X77.224 Y118.59
G1 F1800 X131.409 Y172.775 E262.30623
G0 F4800 X132.045 Y172.775
G1 F1800 X77.224 Y117.953 E266.28026
G0 F4800 X77.224 Y117.317
G1 F1800 X132.682 Y172.775 E270.30044
G0 F4800 X133.318 Y172.775
G1 F1800 X77.224 Y116.681 E274.36671
G0 F4800 X77.224 Y116.044
G1 F1800 X133.955 Y172.775 E278.47916
G0 F4800 X134.591 Y172.775
G1 F1800 X77.224 Y115.408 E282.63772
G0 F4800 X77.224 Y114.771
G1 F1800 X135.227 Y172.775 E286.84242
G0 F4800 X135.864 Y172.775
G1 F1800 X77.224 Y114.135 E291.09325
G0 F4800 X77.224 Y113.499
G1 F1800 X136.5 Y172.775 E295.39019
G0 F4800 X137.136 Y172.775
G1 F1800 X77.224 Y112.862 E299.73327
G0 F4800 X77.224 Y112.226
G1 F1800 X137.773 Y172.775 E304.12249
G0 F4800 X138.409 Y172.775
G1 F1800 X77.223 Y111.589 E308.55789
G0 F4800 X77.223 Y110.952
G1 F1800 X139.046 Y172.775 E313.03946
G0 F4800 X139.682 Y172.775
G1 F1800 X77.223 Y110.316 E317.56714
G0 F4800 X77.223 Y109.68
G1 F1800 X140.318 Y172.775 E322.14092
G0 F4800 X140.955 Y172.775
G1 F1800 X77.223 Y109.043 E326.76088
G0 F4800 X77.223 Y108.407
G1 F1800 X141.591 Y172.775 E331.42694
G0 F4800 X142.228 Y172.775
G1 F1800 X77.223 Y107.77 E336.13917
G0 F4800 X77.223 Y107.134
G1 F1800 X142.864 Y172.775 E340.89752
G0 F4800 X143.5 Y172.775
G1 F1800 X77.223 Y106.498 E345.70196
G0 F4800 X77.223 Y105.861
G1 F1800 X144.137 Y172.775 E350.55258
G0 F4800 X144.773 Y172.775
G1 F1800 X77.223 Y105.225 E355.44931
G0 F4800 X77.223 Y104.588
G1 F1800 X145.41 Y172.775 E360.39221
G0 F4800 X146.046 Y172.775
G1 F1800 X77.223 Y103.952 E365.38122
G0 F4800 X77.223 Y103.316
G1 F1800 X146.682 Y172.775 E370.41632
G0 F4800 X147.319 Y172.775
G1 F1800 X77.223 Y102.679 E375.49761
G0 F4800 X77.223 Y102.043
G1 F1800 X147.955 Y172.775 E380.625
G0 F4800 X148.592 Y172.775
G1 F1800 X77.223 Y101.406 E385.79857
G0 F4800 X77.223 Y100.77
G1 F1800 X149.228 Y172.775 E391.01824
G0 F4800 X149.864 Y172.775
G1 F1800 X77.223 Y100.134 E396.28401
G0 F4800 X77.223 Y99.497
G1 F1800 X150.501 Y172.775 E401.59596
G0 F4800 X151.137 Y172.775
G1 F1800 X77.223 Y98.861 E406.95401
G0 F4800 X77.223 Y98.224
G1 F1800 X151.774 Y172.775 E412.35825
G0 F4800 X152.41 Y172.775
G1 F1800 X77.223 Y97.588 E417.80858
G0 F4800 X77.223 Y96.952
G1 F1800 X153.046 Y172.775 E423.30502
G0 F4800 X153.683 Y172.775
G1 F1800 X77.223 Y96.315 E428.84763
G0 F4800 X77.223 Y95.679
G1 F1800 X154.319 Y172.775 E434.43635
G0 F4800 X154.956 Y172.775
G1 F1800 X77.223 Y95.042 E440.07125
G0 F4800 X77.223 Y94.406
G1 F1800 X155.592 Y172.775 E445.75225
G0 F4800 X156.228 Y172.775
G1 F1800 X77.223 Y93.77 E451.47935
G0 F4800 X77.223 Y93.133
G1 F1800 X156.865 Y172.775 E457.25263
G0 F4800 X157.501 Y172.775
G1 F1800 X77.223 Y92.497 E463.07201
G0 F4800 X77.223 Y91.86
G1 F1800 X158.138 Y172.775 E468.93757
G0 F4800 X158.774 Y172.775
G1 F1800 X77.223 Y91.224 E474.84923
G0 F4800 X77.223 Y90.588
G1 F1800 X159.41 Y172.775 E480.807
G0 F4800 X160.047 Y172.775
G1 F1800 X77.223 Y89.951 E486.81094
G0 F4800 X77.223 Y89.315
G1 F1800 X160.683 Y172.775 E492.86099
G0 F4800 X161.32 Y172.775
G1 F1800 X77.223 Y88.678 E498.95721
G0 F4800 X77.223 Y88.042
G1 F1800 X161.956 Y172.775 E505.09954
G0 F4800 X162.592 Y172.775
G1 F1800 X77.223 Y87.406 E511.28797
G0 F4800 X77.223 Y86.769
G1 F1800 X163.229 Y172.775 E517.52258
G0 F4800 X163.865 Y172.775
G1 F1800 X77.223 Y86.133 E523.80329
G0 F4800 X77.223 Y85.496
G1 F1800 X164.502 Y172.775 E530.13018
G0 F4800 X165.124 Y172.761
G1 F1800 X77.235 Y84.872 E536.50129
G0 F4800 X77.271 Y84.272
G1 F1800 X165.723 Y172.723 E542.91317
G0 F4800 X166.283 Y172.647
G1 F1800 X77.35 Y83.714 E549.35996
G0 F4800 X77.448 Y83.176
G1 F1800 X166.822 Y172.549 E555.83868
G0 F4800 X167.31 Y172.401
G1 F1800 X77.596 Y82.687 E562.34208
G0 F4800 X77.752 Y82.207
G1 F1800 X167.791 Y172.246 E568.86904
G0 F4800 X168.229 Y172.048
