;FLAVOR:Marlin
;TIME:2686
;Filament used: 7.56806m
;Layer height: 0.3
;MINX:71.95
;MINY:71.95
;MINZ:0.28
;MAXX:178.05
;MAXY:178.05
;MAXZ:13.58
;TARGET_MACHINE.NAME:VORON2 250
;Generated with Cura_SteamEngine 5.6.0
M140 S60
M105
M190 S60
M104 S215
M105
M109 S215
M82 ;absolute extrusion mode
START_PRINT
G92 E0
G92 E0
G1 F300 E-0.5
;LAYER_COUNT:44
;LAYER:0
M107
M204 S1800
G1 F600 Z0.68
;MESH:100-coaster-jig-v2.stl
G0 F4800 X73.717 Y142.435 Z0.68
;TYPE:WALL-INNER
G1 F600 Z0.28
G1 F120 E0
G1 F1700.8 X73.508 Y142.046 E0.03127
G1 F1624.1 X73.5 Y141.884 E0.0433
G1 F1633.9 X73.504 Y108.118 E2.53211
G1 F1711.6 X73.718 Y107.573 E2.57331
G1 F1800 X74.096 Y107.283 E2.60519
G1 X74.445 Y107.218 E2.62894
G1 X75.344 Y107.228 E2.68909
G1 X75.857 Y107.252 E2.72345
G1 X77.753 Y107.485 E2.85126
G1 X79.535 Y107.897 E2.97363
G1 X81.246 Y108.48 E3.09457
G1 X82.908 Y109.243 E3.21693
G1 X84.49 Y110.18 E3.33994
G1 X85.965 Y111.273 E3.46277
G1 X87.329 Y112.522 E3.58651
G1 X88.557 Y113.905 E3.71025
G1 X89.651 Y115.441 E3.83642
G1 X90.542 Y117.003 E3.95673
G1 X91.282 Y118.685 E4.07968
G1 X91.844 Y120.434 E4.20259
G1 X92.225 Y122.247 E4.32654
G1 X92.416 Y124.075 E4.44951
G1 X92.416 Y125.925 E4.57329
G1 X92.225 Y127.753 E4.69626
G1 X91.845 Y129.562 E4.81993
G1 X91.294 Y131.282 E4.94077
G1 X90.542 Y132.997 E5.06606
G1 X89.602 Y134.636 E5.19247
G1 X88.557 Y136.095 E5.31254
G1 X87.354 Y137.451 E5.43382
G1 X85.991 Y138.705 E5.55774
G1 X84.49 Y139.82 E5.68284
G1 X82.908 Y140.757 E5.80586
G1 X81.246 Y141.52 E5.92821
G1 X79.446 Y142.128 E6.05533
G1 X77.661 Y142.531 E6.17776
G1 X75.921 Y142.743 E6.29504
G1 X74.453 Y142.784 E6.39329
G1 X74.103 Y142.723 E6.41706
G1 X73.717 Y142.435 E6.44929
G1 F300 E5.94929
G1 F600 Z0.68
G0 F4800 X175.549 Y143.382 Z0.68
G1 F600 Z0.28
G1 F120 E6.44929
G1 F1800 X174.684 Y143.373 E6.50716
G1 X174.113 Y143.347 E6.54541
G1 X172.192 Y143.118 E6.67484
G1 X170.345 Y142.696 E6.8016
G1 X168.531 Y142.077 E6.92984
G1 X166.771 Y141.266 E7.05949
G1 X165.185 Y140.324 E7.18291
G1 X163.657 Y139.193 E7.3101
G1 X162.247 Y137.901 E7.43805
G1 X160.978 Y136.474 E7.56582
G1 X159.874 Y134.932 E7.6927
G1 X158.925 Y133.271 E7.82069
G1 X158.133 Y131.462 E7.95282
G1 X157.576 Y129.718 E8.07531
G1 X157.183 Y127.847 E8.20322
G1 X156.988 Y125.999 E8.32755
G1 X156.988 Y124.001 E8.46123
G1 X157.176 Y122.201 E8.58231
G1 X157.572 Y120.289 E8.71295
G1 X158.138 Y118.524 E8.83696
G1 X158.897 Y116.786 E8.96385
G1 X159.874 Y115.068 E9.09608
G1 X160.939 Y113.577 E9.21867
G1 X162.232 Y112.11 E9.34951
G1 X163.659 Y110.806 E9.47884
G1 X165.185 Y109.676 E9.60588
G1 X166.823 Y108.707 E9.73321
G1 X168.53 Y107.923 E9.85889
G1 X170.345 Y107.304 E9.98719
G1 X172.194 Y106.881 E10.1141
G1 X174.15 Y106.651 E10.24587
G1 X175.532 Y106.616 E10.33836
G1 X176.116 Y106.717 E10.37801
G1 X176.591 Y107.072 E10.41769
G1 X176.591 Y73.41 E12.66987
G1 X143.427 Y73.41 E14.88873
G1 X143.425 Y74.726 E14.97678
G1 X143.328 Y76.583 E15.10119
G1 X143.026 Y78.489 E15.23031
G1 X142.531 Y80.334 E15.35811
G1 X141.835 Y82.146 E15.48798
G1 X140.97 Y83.841 E15.6153
G1 X139.9 Y85.492 E15.74693
G1 X138.681 Y86.993 E15.8763
G1 X137.365 Y88.31 E16.00087
G1 X135.814 Y89.57 E16.13457
G1 X134.263 Y90.578 E16.25833
G1 X132.54 Y91.462 E16.38789
G1 X130.737 Y92.16 E16.51725
G1 X128.828 Y92.676 E16.64956
G1 X126.93 Y92.976 E16.77812
G1 X125.043 Y93.076 E16.90455
G1 X123.009 Y92.968 E17.04083
G1 X121.222 Y92.685 E17.16188
G1 X119.307 Y92.177 E17.29443
G1 X117.516 Y91.488 E17.42282
G1 X115.793 Y90.611 E17.55217
G1 X114.186 Y89.57 E17.68028
G1 X112.681 Y88.352 E17.80982
G1 X111.319 Y86.993 E17.93855
G1 X110.054 Y85.427 E18.07323
G1 X109.03 Y83.841 E18.19954
G1 X108.167 Y82.147 E18.32674
G1 X107.474 Y80.341 E18.45616
G1 X106.973 Y78.48 E18.58511
G1 X106.672 Y76.574 E18.71421
G1 X106.575 Y74.733 E18.83756
G1 X106.574 Y73.41 E18.92607
G1 X73.41 Y73.41 E21.14493
G1 X73.409 Y107.08 E23.39765
G1 X73.871 Y106.727 E23.43655
G1 X74.451 Y106.618 E23.47604
G1 X75.374 Y106.628 E23.53779
G1 X75.994 Y106.662 E23.57934
G1 X77.809 Y106.882 E23.70166
G1 X79.655 Y107.304 E23.82835
G1 X81.47 Y107.923 E23.95666
G1 X83.177 Y108.707 E24.08233
G1 X84.815 Y109.676 E24.20967
G1 X86.342 Y110.806 E24.33676
G1 X87.753 Y112.098 E24.46476
G1 X89.022 Y113.526 E24.59258
G1 X90.126 Y115.068 E24.71946
G1 X91.075 Y116.729 E24.84745
G1 X91.842 Y118.468 E24.97462
G1 X92.423 Y120.278 E25.1018
G1 X92.818 Y122.153 E25.23
G1 X93.012 Y124.001 E25.35433
G1 X93.015 Y125.956 E25.48513
G1 X92.818 Y127.847 E25.61233
G1 X92.424 Y129.719 E25.74032
G1 X91.842 Y131.532 E25.86772
G1 X91.103 Y133.214 E25.99064
G1 X90.126 Y134.932 E26.12287
G1 X89.022 Y136.474 E26.24975
G1 X87.751 Y137.903 E26.37771
G1 X86.343 Y139.193 E26.50547
G1 X84.815 Y140.324 E26.63266
G1 X83.177 Y141.293 E26.75999
G1 X81.469 Y142.077 E26.88573
G1 X79.655 Y142.696 E27.01397
G1 X77.809 Y143.118 E27.14066
G1 X75.994 Y143.339 E27.26299
G1 X74.468 Y143.384 E27.36514
G1 X73.885 Y143.282 E27.40474
G1 X73.408 Y142.926 E27.44456
G1 X73.41 Y176.589 E29.69681
G1 X106.574 Y176.591 E31.91567
G1 X106.575 Y175.274 E32.00378
G1 X106.672 Y173.422 E32.12786
G1 X106.973 Y171.52 E32.2567
G1 X107.474 Y169.659 E32.38565
G1 X108.167 Y167.853 E32.51507
G1 X109.03 Y166.159 E32.64227
G1 X110.1 Y164.508 E32.7739
G1 X111.319 Y163.007 E32.90327
G1 X112.634 Y161.691 E33.02774
G1 X114.136 Y160.467 E33.15738
G1 X115.737 Y159.422 E33.28529
G1 X117.46 Y158.538 E33.41486
G1 X119.263 Y157.84 E33.54421
G1 X121.172 Y157.324 E33.67652
G1 X123.025 Y157.03 E33.80204
G1 X124.957 Y156.924 E33.9315
G1 X126.93 Y157.024 E34.06368
G1 X128.828 Y157.324 E34.19224
G1 X130.683 Y157.821 E34.32073
G1 X132.484 Y158.512 E34.44979
G1 X134.207 Y159.389 E34.57914
G1 X135.813 Y160.429 E34.70715
G1 X137.319 Y161.648 E34.83679
G1 X138.681 Y163.007 E34.96551
G1 X139.9 Y164.508 E35.09489
G1 X140.97 Y166.159 E35.22652
G1 X141.833 Y167.853 E35.35372
G1 X142.526 Y169.659 E35.48314
G1 X143.027 Y171.52 E35.61208
G1 X143.327 Y173.413 E35.74032
G1 X143.424 Y175.267 E35.86453
G1 X143.426 Y176.59 E35.95305
G1 X176.591 Y176.591 E38.17197
G1 X176.591 Y142.919 E40.42483
G1 X176.13 Y143.273 E40.46371
G1 X175.549 Y143.382 E40.50326
G1 F300 E40.00326
G1 F600 Z0.68
G0 F4800 X107.174 Y175.305 Z0.68
G1 F600 Z0.28
G1 F120 E40.50326
G1 F1800 X107.277 Y173.433 E40.6287
G1 X107.573 Y171.597 E40.75313
G1 X108.044 Y169.846 E40.87444
G1 X108.715 Y168.099 E40.99965
G1 X109.556 Y166.448 E41.12362
G1 X110.56 Y164.896 E41.24729
G1 X111.736 Y163.441 E41.37246
G1 X113.05 Y162.124 E41.49693
G1 X114.504 Y160.941 E41.62234
G1 X116.088 Y159.911 E41.74876
G1 X117.723 Y159.077 E41.87156
G1 X119.467 Y158.404 E41.99663
G1 X121.265 Y157.919 E42.12122
G1 X123.133 Y157.621 E42.24778
G1 X124.974 Y157.524 E42.37113
G1 X126.867 Y157.621 E42.49795
G1 X128.704 Y157.911 E42.62237
G1 X130.5 Y158.393 E42.74679
G1 X132.244 Y159.062 E42.87176
G1 X133.912 Y159.911 E42.99699
G1 X135.51 Y160.952 E43.12459
G1 X136.963 Y162.136 E43.24999
G1 X138.24 Y163.414 E43.37087
G1 X139.44 Y164.896 E43.49845
G1 X140.428 Y166.42 E43.61997
G1 X141.285 Y168.099 E43.74609
G1 X141.956 Y169.846 E43.8713
G1 X142.427 Y171.597 E43.99261
G1 X142.723 Y173.433 E44.11704
G1 X142.825 Y175.298 E44.242
G1 X142.826 Y177.19 E44.36859
G1 X177.191 Y177.191 E46.66781
G1 X177.191 Y142.732 E48.97331
G1 F1698.1 X177.155 Y142.101 E49.01814
G1 F1614.3 X177.158 Y125.108 E50.28581
G1 F1629 X177.161 Y108.115 E51.54212
G1 F1714.3 X177.191 Y107.254 E51.60264
G1 F1800 X177.191 Y72.81 E53.90714
G1 X142.827 Y72.81 E56.20629
G1 X142.826 Y74.695 E56.33241
G1 X142.723 Y76.563 E56.45758
G1 X142.427 Y78.403 E56.58227
G1 X141.956 Y80.154 E56.70359
G1 X141.285 Y81.901 E56.82879
G1 X140.444 Y83.552 E56.95276
G1 X139.44 Y85.104 E57.07643
G1 X138.24 Y86.586 E57.20402
G1 X136.95 Y87.877 E57.32612
G1 X135.497 Y89.058 E57.4514
G1 X133.912 Y90.089 E57.5779
G1 X132.277 Y90.923 E57.70071
G1 X130.501 Y91.607 E57.82804
G1 X128.705 Y92.089 E57.95245
G1 X126.867 Y92.379 E58.07695
G1 X125.026 Y92.476 E58.20029
G1 X123.133 Y92.379 E58.32711
G1 X121.326 Y92.094 E58.4495
G1 X119.499 Y91.607 E58.57601
G1 X117.756 Y90.938 E58.70092
G1 X116.088 Y90.089 E58.82614
G1 X114.534 Y89.081 E58.95007
G1 X113.037 Y87.864 E59.07915
G1 X111.76 Y86.586 E59.20003
G1 X110.546 Y85.083 E59.32929
G1 X109.572 Y83.58 E59.44912
G1 X108.715 Y81.901 E59.57524
G1 X108.044 Y80.154 E59.70045
G1 X107.553 Y78.31 E59.82812
G1 X107.277 Y76.563 E59.94646
G1 X107.174 Y74.702 E60.07116
G1 X107.174 Y72.81 E60.19775
G1 X72.81 Y72.81 E62.4969
G1 X72.809 Y107.267 E64.80227
G1 F1711.6 X72.84 Y108.118 E64.86219
G1 F1624.1 X72.841 Y125.111 E66.12228
G1 F1614.3 X72.843 Y142.104 E67.38996
G1 F1700.8 X72.809 Y142.746 E67.43548
G1 F1800 X72.81 Y177.189 E69.73992
G1 X107.174 Y177.191 E72.03907
G1 X107.174 Y175.305 E72.16525
G1 F300 E71.66525
G1 F600 Z0.68
G0 F4800 X176.282 Y142.427 Z0.68
G1 F600 Z0.28
G1 F120 E72.16525
G1 F1800 X175.904 Y142.717 E72.19713
G1 X175.555 Y142.782 E72.22088
G1 X174.656 Y142.772 E72.28103
G1 X174.078 Y142.742 E72.31975
G1 X172.247 Y142.515 E72.4432
G1 X170.465 Y142.103 E72.56557
G1 X168.754 Y141.52 E72.68651
G1 X167.092 Y140.757 E72.80886
G1 X165.51 Y139.82 E72.93188
G1 X164.034 Y138.726 E73.0548
G1 X162.671 Y137.477 E73.17849
G1 X161.409 Y136.05 E73.30594
G1 X160.349 Y134.559 E73.42834
G1 X159.458 Y132.997 E73.54865
G1 X158.718 Y131.315 E73.6716
G1 X158.165 Y129.594 E73.79254
G1 X157.781 Y127.782 E73.91647
G1 X157.586 Y125.951 E74.03967
G1 X157.588 Y124.029 E74.16826
G1 X157.776 Y122.247 E74.28815
G1 X158.168 Y120.394 E74.41487
G1 X158.706 Y118.718 E74.53264
G1 X159.458 Y117.003 E74.65793
G1 X160.398 Y115.364 E74.78434
G1 X161.443 Y113.905 E74.90441
G1 X162.646 Y112.548 E75.02574
G1 X164.035 Y111.273 E75.15189
G1 X165.51 Y110.18 E75.27472
G1 X167.092 Y109.243 E75.39773
G1 X168.754 Y108.48 E75.52009
G1 X170.554 Y107.872 E75.64721
G1 X172.339 Y107.469 E75.76964
G1 X174.079 Y107.257 E75.88691
G1 X175.547 Y107.216 E75.98517
G1 X175.898 Y107.276 E76.009
G1 X176.283 Y107.564 E76.04116
G1 F1714.3 X176.5 Y108.116 E76.08283
G1 F1631.4 X176.496 Y141.882 E78.57542
G1 F1619.2 X176.488 Y142.044 E78.58748
G1 F1698.1 X176.282 Y142.427 E78.61832
G0 F4800 X175.65 Y142.183
;TYPE:WALL-OUTER
G1 F1800 X174.685 Y142.173 E78.68289
G1 X174.15 Y142.146 E78.71873
G1 X172.381 Y141.93 E78.83796
G1 X170.658 Y141.535 E78.95623
G1 X168.977 Y140.963 E79.07503
G1 X167.347 Y140.213 E79.19508
G1 X165.823 Y139.307 E79.3137
G1 X164.397 Y138.247 E79.43258
G1 X163.095 Y137.053 E79.55078
G1 X161.897 Y135.701 E79.67164
G1 X160.87 Y134.261 E79.78997
G1 X159.984 Y132.705 E79.90977
G1 X159.272 Y131.082 E80.02835
G1 X158.731 Y129.389 E80.14726
G1 X158.368 Y127.659 E80.26553
G1 X158.184 Y125.877 E80.38539
G1 X158.185 Y124.091 E80.50489
G1 X158.368 Y122.341 E80.62261
G1 X158.74 Y120.577 E80.74323
G1 X159.283 Y118.889 E80.86186
G1 X159.992 Y117.278 E80.97962
G1 X160.886 Y115.713 E81.10021
G1 X161.917 Y114.274 E81.21865
G1 X163.105 Y112.937 E81.33831
G1 X164.412 Y111.74 E81.45689
G1 X165.836 Y110.684 E81.5755
G1 X167.362 Y109.779 E81.69421
G1 X168.992 Y109.031 E81.8142
G1 X170.658 Y108.465 E81.93192
G1 X172.411 Y108.065 E82.05222
G1 X174.18 Y107.851 E82.17144
G1 X175.65 Y107.814 E82.26982
G1 X175.808 Y107.932 E82.28302
G1 X175.87 Y108.116 E82.29601
G1 X175.861 Y142.02 E84.56438
G1 X175.65 Y142.183 E84.58222
G0 F4800 X175.45 Y142.181
G1 F300 E84.08222
G1 F600 Z0.68
G0 F4800 X142.226 Y175.346 Z0.68
G1 F600 Z0.28
G1 F120 E84.58222
G1 F1800 X142.226 Y177.79 E84.74574
G1 X177.791 Y177.791 E87.12524
G1 X177.791 Y72.21 E94.18922
G1 X142.226 Y72.21 E96.56872
G1 X142.227 Y74.647 E96.73177
G1 X142.13 Y76.469 E96.85384
G1 X141.854 Y78.216 E96.97218
G1 X141.386 Y79.968 E97.09351
G1 X140.731 Y81.67 E97.21552
G1 X139.907 Y83.282 E97.33665
G1 X138.932 Y84.782 E97.45634
G1 X137.79 Y86.189 E97.57758
G1 X136.515 Y87.461 E97.69808
G1 X135.108 Y88.599 E97.81916
G1 X133.605 Y89.573 E97.93898
G1 X131.991 Y90.394 E98.06014
G1 X130.329 Y91.032 E98.17925
G1 X128.566 Y91.504 E98.30136
G1 X126.788 Y91.783 E98.42177
G1 X124.984 Y91.876 E98.54263
G1 X123.181 Y91.78 E98.66343
G1 X121.403 Y91.497 E98.78389
G1 X119.666 Y91.03 E98.90423
G1 X117.98 Y90.381 E99.0251
G1 X116.384 Y89.567 E99.14497
G1 X114.867 Y88.581 E99.26602
G1 X113.461 Y87.44 E99.38717
G1 X112.202 Y86.18 E99.50634
G1 X111.05 Y84.757 E99.62883
G1 X110.077 Y83.255 E99.74857
G1 X109.256 Y81.641 E99.86972
G1 X108.614 Y79.968 E99.98962
G1 X108.146 Y78.216 E100.11094
G1 X107.867 Y76.438 E100.23136
G1 X107.774 Y74.654 E100.35088
G1 X107.774 Y72.21 E100.5144
G1 X72.21 Y72.21 E102.89383
G1 X72.209 Y177.79 E109.95774
G1 X107.774 Y177.791 E112.33725
G1 X107.774 Y175.337 E112.50143
G1 X107.87 Y173.527 E112.6227
G1 X108.146 Y171.784 E112.74077
G1 X108.614 Y170.032 E112.8621
G1 X109.269 Y168.33 E112.98412
G1 X110.093 Y166.718 E113.10524
G1 X111.068 Y165.218 E113.22494
G1 X112.21 Y163.811 E113.34618
G1 X113.485 Y162.539 E113.46668
G1 X114.893 Y161.4 E113.58785
G1 X116.395 Y160.427 E113.70758
G1 X118.009 Y159.606 E113.82874
G1 X119.671 Y158.968 E113.94784
G1 X121.434 Y158.496 E114.06995
G1 X123.212 Y158.217 E114.19037
G1 X125.016 Y158.124 E114.31123
G1 X126.819 Y158.22 E114.43203
G1 X128.597 Y158.503 E114.55248
G1 X130.334 Y158.97 E114.67283
G1 X132.02 Y159.619 E114.7937
G1 X133.616 Y160.433 E114.91357
G1 X135.132 Y161.418 E115.03452
G1 X136.539 Y162.56 E115.15577
G1 X137.811 Y163.835 E115.27626
G1 X138.946 Y165.236 E115.3969
G1 X139.923 Y166.745 E115.51717
G1 X140.744 Y168.359 E115.63833
G1 X141.386 Y170.032 E115.75822
G1 X141.854 Y171.784 E115.87955
G1 X142.133 Y173.558 E115.9997
G1 X142.226 Y175.346 E116.11949
G0 F4800 X142.226 Y175.546
G1 F300 E115.61949
G1 F600 Z0.68
G0 F4800 X74.351 Y142.186 Z0.68
G1 F600 Z0.28
G1 F120 E116.11949
G1 F1800 X74.192 Y142.068 E116.13273
G1 X74.134 Y141.936 E116.14238
G1 X74.135 Y108.118 E118.405
G1 X74.196 Y107.936 E118.41784
G1 X74.35 Y107.817 E118.43086
G1 X75.315 Y107.827 E118.49543
G1 X75.85 Y107.854 E118.53127
G1 X77.619 Y108.07 E118.65051
G1 X79.342 Y108.465 E118.76877
G1 X81.023 Y109.037 E118.88758
G1 X82.657 Y109.789 E119.00792
G1 X84.177 Y110.693 E119.12625
G1 X85.588 Y111.74 E119.2438
G1 X86.905 Y112.946 E119.36328
G1 X88.103 Y114.299 E119.48419
G1 X89.13 Y115.739 E119.60252
G1 X90.016 Y117.295 E119.72232
G1 X90.728 Y118.918 E119.8409
G1 X91.268 Y120.607 E119.95954
G1 X91.632 Y122.341 E120.07808
G1 X91.816 Y124.123 E120.19794
G1 X91.815 Y125.909 E120.31744
G1 X91.632 Y127.659 E120.43516
G1 X91.261 Y129.419 E120.5555
G1 X90.717 Y131.111 E120.67441
G1 X90.008 Y132.722 E120.79217
G1 X89.114 Y134.287 E120.91276
G1 X88.083 Y135.726 E121.0312
G1 X86.895 Y137.062 E121.15081
G1 X85.589 Y138.259 E121.26934
G1 X84.164 Y139.316 E121.38805
G1 X82.638 Y140.221 E121.50675
G1 X81.008 Y140.969 E121.62674
G1 X79.342 Y141.535 E121.74446
G1 X77.589 Y141.935 E121.86476
G1 X75.82 Y142.149 E121.98398
G1 X74.351 Y142.186 E122.0823
G0 F4800 X74.192 Y142.068
G0 X74.192 Y142.067
G1 F300 E121.5823
G1 F600 Z0.68
G0 F4800 X143.83 Y173.465 Z0.68
;TYPE:SKIN
G1 F600 Z0.28
G1 F120 E122.0823
G1 F1800 X143.809 Y173.267 E122.09251
G1 X143.529 Y171.5 E122.18421
G1 X143.49 Y171.321 E122.1936
G1 X143.007 Y169.52 E122.28918
G1 X142.289 Y167.651 E122.39181
G1 X141.376 Y165.861 E122.49481
G1 X140.312 Y164.226 E122.5948
G1 X139.056 Y162.677 E122.69702
G1 X137.651 Y161.273 E122.79883
G1 X136.116 Y160.03 E122.90007
G1 X134.461 Y158.958 E123.00115
G1 X132.684 Y158.054 E123.10334
G1 X130.844 Y157.348 E123.20436
G1 X128.945 Y156.837 E123.30517
G1 X126.996 Y156.529 E123.40631
G1 X124.96 Y156.425 E123.51081
G1 X123.027 Y156.527 E123.61003
G1 X121.007 Y156.849 E123.71488
G1 X119.173 Y157.34 E123.81219
G1 X117.317 Y158.051 E123.91407
G1 X115.554 Y158.95 E124.01551
G1 X113.902 Y160.018 E124.11635
G1 X112.344 Y161.276 E124.21899
G1 X110.902 Y162.724 E124.32374
G1 X109.66 Y164.264 E124.42515
G1 X108.635 Y165.843 E124.52164
G1 X107.772 Y167.521 E124.61836
G1 X107.677 Y167.73 E124.63013
G1 X106.999 Y169.5 E124.72729
G1 X106.512 Y171.31 E124.82337
G1 X106.471 Y171.5 E124.83333
G1 X106.191 Y173.264 E124.92488
G1 X106.171 Y173.455 E124.93472
G1 X106.076 Y175.25 E125.02686
G1 X106.075 Y176.092 E125.07002
