;FLAVOR:Marlin
;TIME:5839
;Filament used: 14.998m
;Layer height: 0.3
;MINX:70.099
;MINY:70.1
;MINZ:0.28
;MAXX:179.9
;MAXY:179.9
;MAXZ:22.28
;Generated with Cura_SteamEngine 5.4.0
M140 S60
M105
M190 S60
M104 S215
M105
M109 S215
M82 ;absolute extrusion mode
START_PRINT
G92 E0
G92 E0
G1 F300 E-0.5
;LAYER_COUNT:73
;LAYER:0
M107
M204 S1800
G1 F600 Z0.68
;MESH:100-coaster-jig.stl
G0 F4800 X72.718 Y150.768 Z0.68
;TYPE:WALL-INNER
G1 F600 Z0.28
G1 F120 E0
G1 F1330 X72.703 Y150.49 E0.02521
G1 F1340 X72.705 Y99.514 E4.60676
G1 F1534.1 X72.926 Y98.93 E4.65578
G1 F1800 X73.231 Y98.469 E4.69277
G1 X73.617 Y98.182 E4.72495
G1 X73.998 Y98.046 E4.75201
G1 X74.329 Y98.014 E4.77426
G1 X76.117 Y98.041 E4.8939
G1 X78.255 Y98.232 E5.03752
G1 X80.64 Y98.649 E5.19951
G1 X82.78 Y99.213 E5.34758
G1 X84.883 Y99.964 E5.49698
G1 X86.956 Y100.902 E5.64922
G1 X88.952 Y102.016 E5.80215
G1 X90.854 Y103.303 E5.9558
G1 X92.721 Y104.818 E6.11667
G1 X94.282 Y106.319 E6.26156
G1 X95.788 Y108.028 E6.41396
G1 X97.223 Y109.977 E6.57589
G1 X98.345 Y111.807 E6.71951
G1 X99.432 Y113.966 E6.88123
G1 X100.275 Y116.084 E7.03375
G1 X100.928 Y118.22 E7.18319
G1 X101.405 Y120.444 E7.33537
G1 X101.697 Y122.724 E7.48916
G1 X101.791 Y125.031 E7.64364
G1 X101.699 Y127.244 E7.79183
G1 X101.406 Y129.55 E7.94736
G1 X100.928 Y131.779 E8.09988
G1 X100.257 Y133.971 E8.25326
G1 X99.407 Y136.092 E8.40614
G1 X98.378 Y138.137 E8.5593
G1 X97.189 Y140.076 E8.71148
G1 X95.827 Y141.925 E8.86513
G1 X94.282 Y143.681 E9.02162
G1 X92.675 Y145.225 E9.17072
G1 X90.854 Y146.697 E9.32738
G1 X89.006 Y147.952 E9.47684
G1 X87.011 Y149.071 E9.62988
G1 X84.942 Y150.014 E9.78201
G1 X82.78 Y150.787 E9.93563
G1 X80.517 Y151.377 E10.09209
G1 X78.256 Y151.768 E10.24561
G1 X76.007 Y151.965 E10.39666
G1 X74.328 Y151.99 E10.50901
G1 X73.996 Y151.958 E10.53132
G1 X73.615 Y151.823 E10.55837
G1 X73.228 Y151.536 E10.5906
G1 F1714.3 X72.895 Y151.087 E10.62987
G1 F1459.5 X72.718 Y150.768 E10.65998
G0 F4800 X73.659 Y151.118
G1 F1803 X73.475 Y150.841 E10.68219
G1 X73.405 Y150.601 E10.69889
G1 F1800 X73.409 Y99.514 E14.1169
G1 X73.479 Y99.164 E14.14078
G1 X73.662 Y98.887 E14.163
G1 X73.894 Y98.715 E14.18232
G1 X74.122 Y98.633 E14.19853
G1 X74.321 Y98.614 E14.2119
G1 X76.064 Y98.639 E14.32853
G1 X78.202 Y98.83 E14.47215
G1 X80.488 Y99.229 E14.62741
G1 X82.566 Y99.776 E14.77117
G1 X84.681 Y100.529 E14.92138
G1 X86.707 Y101.448 E15.07022
G1 X88.724 Y102.58 E15.22497
G1 X90.578 Y103.845 E15.37514
G1 X92.249 Y105.201 E15.51912
G1 X93.919 Y106.807 E15.67413
G1 X95.336 Y108.423 E15.81793
G1 X96.712 Y110.291 E15.97316
G1 X97.834 Y112.121 E16.11678
G1 X98.875 Y114.189 E16.27168
G1 X99.701 Y116.259 E16.42079
G1 X100.347 Y118.371 E16.56856
G1 X100.814 Y120.545 E16.71733
G1 X101.099 Y122.774 E16.86768
G1 X101.191 Y125.045 E17.01975
G1 X101.1 Y127.207 E17.16453
G1 X100.815 Y129.45 E17.3158
G1 X100.347 Y131.628 E17.46485
G1 X99.691 Y133.772 E17.61486
G1 X98.86 Y135.846 E17.76434
G1 X97.854 Y137.845 E17.91407
G1 X96.712 Y139.709 E18.06033
G1 X95.359 Y141.549 E18.21313
G1 X93.919 Y143.193 E18.35936
G1 X92.26 Y144.79 E18.51342
G1 X90.517 Y146.201 E18.66346
G1 X88.691 Y147.441 E18.81114
G1 X86.74 Y148.535 E18.96079
G1 X84.716 Y149.458 E19.10963
G1 X82.566 Y150.224 E19.26233
G1 X80.414 Y150.786 E19.41114
G1 X78.202 Y151.17 E19.56135
G1 X76.065 Y151.362 E19.7049
G1 X74.319 Y151.39 E19.82174
G1 X74.119 Y151.371 E19.83518
G1 X73.891 Y151.29 E19.85137
G1 X73.659 Y151.118 E19.87069
G1 F300 E19.37069
G1 F600 Z0.68
G0 F4800 X150.768 Y177.282 Z0.68
G1 F600 Z0.28
G1 F120 E19.87069
G1 F1330 X150.49 Y177.297 E19.8959
G1 F1340 X99.514 Y177.295 E24.47745
G1 F1536.3 X98.93 Y177.074 E24.5264
G1 F1800 X98.469 Y176.769 E24.56338
G1 X98.182 Y176.383 E24.59557
G1 X98.046 Y176.002 E24.62263
G1 X98.014 Y175.671 E24.64488
G1 X98.041 Y173.883 E24.76452
G1 X98.232 Y171.745 E24.90814
G1 X98.623 Y169.481 E25.06185
G1 X99.213 Y167.221 E25.21813
G1 X99.986 Y165.058 E25.37181
G1 X100.929 Y162.989 E25.52394
G1 X102.047 Y160.996 E25.67683
G1 X103.379 Y159.044 E25.83494
G1 X104.775 Y157.325 E25.9831
G1 X106.412 Y155.629 E26.1408
G1 X108.075 Y154.173 E26.28869
G1 X109.924 Y152.811 E26.44234
G1 X111.807 Y151.655 E26.59017
G1 X113.908 Y150.593 E26.74767
G1 X116.029 Y149.743 E26.90055
G1 X118.217 Y149.073 E27.05365
G1 X120.45 Y148.594 E27.20645
G1 X122.75 Y148.302 E27.36157
G1 X124.969 Y148.209 E27.51016
G1 X127.25 Y148.302 E27.6629
G1 X129.55 Y148.594 E27.81802
G1 X131.783 Y149.073 E27.97082
G1 X133.971 Y149.743 E28.12392
G1 X136.092 Y150.593 E28.2768
G1 X138.138 Y151.623 E28.43005
G1 X140.076 Y152.811 E28.58214
G1 X141.925 Y154.173 E28.73579
G1 X143.681 Y155.718 E28.89227
G1 X145.225 Y157.325 E29.04138
G1 X146.697 Y159.146 E29.19804
G1 X147.953 Y160.996 E29.34765
G1 X149.071 Y162.989 E29.50054
G1 X150.014 Y165.058 E29.65266
G1 X150.787 Y167.221 E29.80635
G1 X151.351 Y169.357 E29.95415
G1 X151.768 Y171.744 E30.11628
G1 X151.965 Y173.993 E30.26732
G1 X151.99 Y175.672 E30.37967
G1 X151.958 Y176.004 E30.40199
G1 X151.823 Y176.385 E30.42903
G1 X151.536 Y176.772 E30.46127
G1 F1714.3 X151.087 Y177.105 E30.50054
G1 F1459.5 X150.768 Y177.282 E30.53064
G0 F4800 X150.602 Y176.595
G1 F1800 X99.514 Y176.592 E33.94872
G1 X99.164 Y176.521 E33.97262
G1 X98.887 Y176.338 E33.99483
G1 X98.715 Y176.106 E34.01415
G1 X98.633 Y175.878 E34.03036
G1 X98.614 Y175.679 E34.04374
G1 X98.639 Y173.936 E34.16037
G1 X98.83 Y171.798 E34.30398
G1 X99.214 Y169.584 E34.45432
G1 X99.799 Y167.36 E34.60818
G1 X100.542 Y165.284 E34.7557
G1 X101.465 Y163.26 E34.90454
G1 X102.557 Y161.312 E35.05395
G1 X103.799 Y159.483 E35.20187
G1 X105.225 Y157.723 E35.35342
G1 X106.779 Y156.107 E35.50342
G1 X108.451 Y154.641 E35.6522
G1 X110.259 Y153.309 E35.80245
G1 X112.121 Y152.166 E35.94863
G1 X114.154 Y151.14 E36.10099
G1 X116.228 Y150.309 E36.25047
G1 X118.367 Y149.654 E36.40014
G1 X120.55 Y149.185 E36.54953
G1 X122.75 Y148.904 E36.69792
G1 X125.038 Y148.809 E36.85113
G1 X127.212 Y148.901 E36.99672
G1 X129.45 Y149.185 E37.14765
G1 X131.633 Y149.654 E37.29704
G1 X133.772 Y150.309 E37.44671
G1 X135.846 Y151.14 E37.5962
G1 X137.846 Y152.147 E37.74601
G1 X139.709 Y153.288 E37.89218
G1 X141.549 Y154.641 E38.04498
G1 X143.193 Y156.081 E38.19121
G1 X144.79 Y157.74 E38.34527
G1 X146.201 Y159.483 E38.49531
G1 X147.463 Y161.345 E38.64581
G1 X148.535 Y163.26 E38.79264
G1 X149.458 Y165.284 E38.94148
G1 X150.201 Y167.361 E39.08906
G1 X150.771 Y169.51 E39.23781
G1 X151.17 Y171.798 E39.3932
G1 X151.362 Y173.935 E39.53676
G1 X151.39 Y175.681 E39.65359
G1 X151.371 Y175.881 E39.66703
G1 X151.29 Y176.109 E39.68322
G1 X151.118 Y176.341 E39.70254
G1 F1803 X150.841 Y176.525 E39.72476
G1 X150.602 Y176.595 E39.74139
G0 F4800 X150.838 Y178.095
G1 F1459.5 X151.303 Y178.175 E39.78032
G1 F1714.3 X152.117 Y178.205 E39.83755
G1 F1800 X178.208 Y178.203 E41.58319
G1 X178.207 Y152.112 E43.32882
G1 F1711.6 X178.176 Y151.298 E43.38614
G1 F1455.5 X178.096 Y150.834 E43.4251
G1 F1325.2 X178.103 Y150.486 E43.45673
G1 F1340 X178.103 Y99.51 E48.03829
G1 F1538.5 X178.205 Y98.696 E48.1025
G1 F1800 X178.204 Y71.792 E49.90254
G1 X151.991 Y71.792 E51.65634
G1 X151.99 Y74.86 E51.8616
G1 X151.899 Y77.02 E52.00625
G1 X151.593 Y79.418 E52.16799
G1 X151.104 Y81.665 E52.32185
G1 X150.469 Y83.734 E52.46665
G1 X149.621 Y85.86 E52.61979
G1 X148.53 Y88.022 E52.78181
G1 X147.33 Y89.961 E52.93438
G1 X145.961 Y91.805 E53.08803
G1 X144.53 Y93.431 E53.23295
G1 X142.879 Y95.019 E53.38622
G1 X141.1 Y96.464 E53.53956
G1 X139.097 Y97.819 E53.70136
G1 X137.099 Y98.928 E53.85424
G1 X135 Y99.869 E54.00815
G1 X132.898 Y100.612 E54.15731
G1 X130.692 Y101.186 E54.30982
G1 X128.421 Y101.574 E54.46396
G1 X126.151 Y101.768 E54.61639
G1 X123.849 Y101.767 E54.77041
G1 X121.579 Y101.574 E54.92283
G1 X119.308 Y101.185 E55.07699
G1 X117.103 Y100.611 E55.22943
G1 X115 Y99.869 E55.37864
G1 X112.786 Y98.87 E55.54115
G1 X110.794 Y97.752 E55.69398
G1 X109.003 Y96.54 E55.83867
G1 X107.121 Y95.019 E56.00056
G1 X105.47 Y93.431 E56.15383
G1 X104.039 Y91.805 E56.29875
G1 X102.599 Y89.856 E56.46088
G1 X101.408 Y87.911 E56.61347
G1 X100.379 Y85.86 E56.76699
G1 X99.531 Y83.734 E56.92013
G1 X98.894 Y81.656 E57.06555
G1 X98.407 Y79.418 E57.21879
G1 X98.111 Y77.146 E57.37208
G1 X98.009 Y74.868 E57.52465
G1 X98.007 Y71.793 E57.73038
G1 X71.792 Y71.796 E59.48432
G1 X71.792 Y98.701 E61.28442
G1 F1534.1 X71.897 Y99.514 E61.34877
G1 F1340 X71.897 Y150.49 E65.93033
G1 F1330 X71.905 Y150.838 E65.96184
G1 F1459.5 X71.825 Y151.303 E66.00078
G1 F1714.3 X71.795 Y152.117 E66.058
G1 F1800 X71.797 Y178.207 E67.80357
G1 X98.701 Y178.208 E69.6036
G1 F1536.3 X99.514 Y178.103 E69.66787
G1 F1340 X150.49 Y178.103 E74.24942
G1 F1330 X150.838 Y178.095 E74.28094
G1 F300 E73.78094
G1 F600 Z0.68
G0 F4800 X126.125 Y101.168 Z0.68
G1 F600 Z0.28
G1 F120 E74.28094
G1 F1800 X123.875 Y101.168 E74.43148
G1 X121.617 Y100.973 E74.58311
G1 X119.397 Y100.59 E74.73384
G1 X117.315 Y100.048 E74.87778
G1 X115.2 Y99.303 E75.02781
G1 X113.148 Y98.381 E75.17832
G1 X111.13 Y97.255 E75.33293
G1 X109.339 Y96.043 E75.47762
G1 X107.536 Y94.586 E75.63271
G1 X105.921 Y93.034 E75.78257
G1 X104.49 Y91.408 E75.92749
G1 X103.11 Y89.541 E76.08282
G1 X101.944 Y87.641 E76.23197
G1 X100.936 Y85.636 E76.38212
G1 X100.13 Y83.629 E76.52682
G1 X99.469 Y81.483 E76.67706
G1 X98.981 Y79.216 E76.83221
G1 X98.7 Y76.995 E76.98199
G1 X98.608 Y74.843 E77.1261
G1 X98.607 Y71.193 E77.37031
G1 X71.192 Y71.196 E79.20453
G1 X71.197 Y178.807 E86.40433
G1 X178.808 Y178.803 E93.60412
G1 X178.804 Y71.192 E100.80392
G1 X151.391 Y71.192 E102.638
G1 X151.391 Y74.834 E102.88167
G1 X151.3 Y76.994 E103.02632
G1 X151.019 Y79.217 E103.17623
G1 X150.53 Y81.489 E103.33172
G1 X149.87 Y83.629 E103.48156
G1 X149.064 Y85.636 E103.62626
G1 X148.056 Y87.641 E103.77641
G1 X146.89 Y89.541 E103.92556
G1 X145.51 Y91.408 E104.08089
G1 X144.026 Y93.09 E104.23096
G1 X142.464 Y94.586 E104.37567
G1 X140.661 Y96.043 E104.53076
G1 X138.87 Y97.255 E104.67545
G1 X136.852 Y98.381 E104.83006
G1 X134.8 Y99.303 E104.98058
G1 X132.722 Y100.038 E105.12805
G1 X130.566 Y100.599 E105.2771
G1 X128.345 Y100.979 E105.42786
G1 X126.125 Y101.168 E105.57692
G1 F300 E105.07692
G1 F600 Z0.68
G0 F4800 X177.28 Y150.764 Z0.68
G1 F600 Z0.28
G1 F120 E105.57692
G1 F1455.5 X177.104 Y151.082 E105.607
G1 F1711.6 X176.77 Y151.531 E105.64637
G1 F1800 X176.383 Y151.818 E105.67861
G1 X176.003 Y151.954 E105.70561
G1 X175.671 Y151.986 E105.72793
G1 X173.997 Y151.964 E105.83994
G1 X171.62 Y151.751 E105.99961
G1 X169.483 Y151.377 E106.14476
G1 X167.22 Y150.787 E106.30123
G1 X165.058 Y150.014 E106.45485
G1 X162.989 Y149.071 E106.60697
G1 X160.994 Y147.952 E106.76001
G1 X159.044 Y146.621 E106.91797
G1 X157.325 Y145.225 E107.06613
G1 X155.629 Y143.588 E107.22384
G1 X154.173 Y141.925 E107.37172
G1 X152.811 Y140.076 E107.52537
G1 X151.622 Y138.137 E107.67755
G1 X150.593 Y136.092 E107.83072
G1 X149.743 Y133.971 E107.9836
G1 X149.072 Y131.779 E108.13697
G1 X148.594 Y129.55 E108.28949
G1 X148.301 Y127.244 E108.44502
G1 X148.209 Y125.031 E108.59321
G1 X148.304 Y122.724 E108.74769
G1 X148.595 Y120.445 E108.90141
G1 X149.09 Y118.159 E109.0579
G1 X149.725 Y116.084 E109.20308
G1 X150.568 Y113.966 E109.3556
G1 X151.655 Y111.807 E109.51733
G1 X152.777 Y109.977 E109.66094
G1 X154.212 Y108.028 E109.82288
G1 X155.718 Y106.319 E109.97528
G1 X157.279 Y104.818 E110.12017
G1 X159.146 Y103.303 E110.28103
G1 X161.049 Y102.016 E110.43474
G1 X163.044 Y100.902 E110.58762
G1 X164.999 Y100.011 E110.73136
G1 X167.22 Y99.213 E110.88926
G1 X169.36 Y98.649 E111.03733
G1 X171.621 Y98.249 E111.19095
G1 X173.993 Y98.035 E111.35029
G1 X175.672 Y98.01 E111.46264
G1 X176.003 Y98.042 E111.48489
G1 X176.384 Y98.177 E111.51193
G1 X176.772 Y98.464 E111.54422
G1 X177.078 Y98.924 E111.58119
G1 F1538.5 X177.297 Y99.51 E111.63016
G1 F1340 X177.295 Y150.486 E116.21172
G1 F1325.2 X177.28 Y150.764 E116.23702
G0 F4800 X176.106 Y151.285
G1 F1800 X175.878 Y151.367 E116.25323
G1 X175.679 Y151.386 E116.2666
G1 X173.936 Y151.361 E116.38323
G1 X171.798 Y151.17 E116.52685
G1 X169.586 Y150.786 E116.67705
G1 X167.433 Y150.224 E116.82593
G1 X165.284 Y149.458 E116.97857
G1 X163.26 Y148.535 E117.1274
G1 X161.309 Y147.441 E117.27706
G1 X159.483 Y146.201 E117.42473
G1 X157.723 Y144.775 E117.57629
G1 X156.107 Y143.221 E117.72629
G1 X154.641 Y141.549 E117.87507
G1 X153.309 Y139.741 E118.02531
G1 X152.165 Y137.878 E118.17158
G1 X151.14 Y135.846 E118.32385
G1 X150.309 Y133.772 E118.47334
G1 X149.653 Y131.628 E118.62335
G1 X149.185 Y129.45 E118.7724
G1 X148.903 Y127.244 E118.92119
G1 X148.809 Y124.962 E119.074
G1 X148.899 Y122.812 E119.21797
G1 X149.186 Y120.545 E119.37086
G1 X149.653 Y118.371 E119.51963
G1 X150.324 Y116.188 E119.67243
G1 X151.125 Y114.189 E119.81651
G1 X152.166 Y112.121 E119.97142
G1 X153.288 Y110.291 E120.11503
G1 X154.666 Y108.421 E120.27045
G1 X156.081 Y106.807 E120.41406
G1 X157.751 Y105.201 E120.56907
G1 X159.483 Y103.799 E120.71816
G1 X161.276 Y102.58 E120.86322
G1 X163.293 Y101.448 E121.01797
G1 X165.248 Y100.557 E121.16172
G1 X167.434 Y99.776 E121.31703
G1 X169.512 Y99.229 E121.46079
G1 X171.798 Y98.83 E121.61605
G1 X173.935 Y98.638 E121.7596
G1 X175.681 Y98.61 E121.87644
G1 X175.88 Y98.629 E121.88981
G1 X176.109 Y98.71 E121.90606
G1 X176.341 Y98.882 E121.92539
G1 X176.525 Y99.158 E121.94758
G1 X176.595 Y99.51 E121.97159
G1 X176.591 Y150.601 E125.38987
G1 X176.521 Y150.836 E125.40628
G1 X176.339 Y151.113 E125.42845
G1 X176.106 Y151.285 E125.44783
G0 F4800 X175.907 Y150.695
;TYPE:WALL-OUTER
G1 F1800 X175.735 Y150.787 E125.46088
G1 X173.99 Y150.763 E125.57764
G1 X171.827 Y150.569 E125.72294
G1 X169.665 Y150.19 E125.8698
G1 X167.562 Y149.636 E126.0153
G1 X165.509 Y148.902 E126.16117
G1 X163.52 Y147.994 E126.30746
G1 X161.614 Y146.924 E126.4537
G1 X159.8 Y145.689 E126.60053
G1 X158.111 Y144.317 E126.74611
G1 X156.532 Y142.797 E126.89275
G1 X155.101 Y141.163 E127.03808
G1 X153.8 Y139.395 E127.18494
G1 X152.67 Y137.553 E127.32952
G1 X151.682 Y135.588 E127.47667
G1 X150.875 Y133.573 E127.6219
G1 X150.231 Y131.466 E127.76931
G1 X149.775 Y129.336 E127.91505
G1 X149.499 Y127.163 E128.0616
G1 X149.409 Y124.987 E128.20731
G1 X149.501 Y122.811 E128.35303
G1 X149.78 Y120.633 E128.49994
G1 X150.234 Y118.522 E128.64441
G1 X150.881 Y116.411 E128.79213
G1 X151.682 Y114.412 E128.93621
G1 X152.678 Y112.435 E129.08432
G1 X153.814 Y110.584 E129.22963
G1 X155.117 Y108.817 E129.37652
G1 X156.55 Y107.184 E129.52188
G1 X158.129 Y105.667 E129.66838
G1 X159.821 Y104.295 E129.81412
G1 X161.614 Y103.076 E129.95918
G1 X163.542 Y101.994 E130.1071
G1 X165.497 Y101.103 E130.25085
G1 X167.587 Y100.356 E130.39934
G1 X169.665 Y99.809 E130.54311
G1 X171.827 Y99.431 E130.68995
G1 X174.011 Y99.235 E130.83666
G1 X175.738 Y99.209 E130.95222
G1 X175.911 Y99.3 E130.9653
G1 X175.995 Y99.427 E130.97549
G1 X175.987 Y150.538 E134.39511
G1 X175.907 Y150.695 E134.4069
G0 F4800 X175.735 Y150.787
G0 X175.73 Y150.787
G1 F300 E133.9069
G1 F600 Z0.68
G0 F4800 X150.7 Y175.911 Z0.68
G1 F600 Z0.28
G1 F120 E134.4069
G1 F1800 X150.542 Y175.991 E134.41875
G1 X99.514 Y175.992 E137.83281
G1 X99.305 Y175.907 E137.84791
G1 X99.213 Y175.735 E137.86096
G1 X99.237 Y173.99 E137.97772
G1 X99.431 Y171.827 E138.12302
G1 X99.81 Y169.663 E138.27001
G1 X100.364 Y167.562 E138.41538
G1 X101.098 Y165.509 E138.56125
G1 X102.006 Y163.52 E138.70754
G1 X103.075 Y161.615 E138.85369
G1 X104.311 Y159.8 E139.00061
G1 X105.683 Y158.111 E139.1462
G1 X107.203 Y156.532 E139.29284
G1 X108.837 Y155.101 E139.43816
G1 X110.605 Y153.8 E139.58502
G1 X112.435 Y152.678 E139.72864
G1 X114.412 Y151.682 E139.87675
G1 X116.427 Y150.875 E140.02198
G1 X118.529 Y150.232 E140.16904
G1 X120.663 Y149.775 E140.31506
G1 X122.831 Y149.5 E140.46127
G1 X125.013 Y149.409 E140.60739
G1 X127.194 Y149.502 E140.75344
G1 X129.363 Y149.779 E140.89974
G1 X131.483 Y150.235 E141.04482
G1 X133.573 Y150.875 E141.19107
G1 X135.6 Y151.687 E141.33716
G1 X137.554 Y152.671 E141.48354
G1 X139.416 Y153.814 E141.62971
G1 X141.183 Y155.117 E141.7766
G1 X142.816 Y156.55 E141.92196
G1 X144.333 Y158.129 E142.06846
G1 X145.705 Y159.821 E142.21421
G1 X146.933 Y161.628 E142.36038
