;FLAVOR:Marlin
;TIME:4412
;Filament used: 14.9218m
;Layer height: 0.3
;MINX:70.099
;MINY:70.1
;MINZ:0.28
;MAXX:179.9
;MAXY:179.9
;MAXZ:22.28
;Generated with Cura_SteamEngine 5.4.0
M140 S60
M105
M190 S60
M104 S215
M105
M109 S215
M82 ;absolute extrusion mode
START_PRINT
G92 E0
G92 E0
G1 F300 E-0.5
;LAYER_COUNT:73
;LAYER:0
M107
M204 S1800
G1 F600 Z0.68
;MESH:100-coaster-jig.stl
G0 F4800 X72.718 Y150.768 Z0.68
;TYPE:WALL-INNER
G1 F600 Z0.28
G1 F120 E0
G1 F1330 X72.703 Y150.49 E0.02521
G1 F1340 X72.705 Y99.514 E4.60676
G1 F1534.1 X72.926 Y98.93 E4.65578
G1 F1800 X73.231 Y98.469 E4.69277
G1 X73.617 Y98.182 E4.72495
G1 X73.998 Y98.046 E4.75201
G1 X74.329 Y98.014 E4.77426
G1 X76.117 Y98.041 E4.8939
G1 X78.255 Y98.232 E5.03752
G1 X80.64 Y98.649 E5.19951
G1 X82.78 Y99.213 E5.34758
G1 X84.883 Y99.964 E5.49698
G1 X86.956 Y100.902 E5.64922
G1 X88.952 Y102.016 E5.80215
G1 X90.854 Y103.303 E5.9558
G1 X92.721 Y104.818 E6.11667
G1 X94.282 Y106.319 E6.26156
G1 X95.788 Y108.028 E6.41396
G1 X97.223 Y109.977 E6.57589
G1 X98.345 Y111.807 E6.71951
G1 X99.432 Y113.966 E6.88123
G1 X100.275 Y116.084 E7.03375
G1 X100.928 Y118.22 E7.18319
G1 X101.405 Y120.444 E7.33537
G1 X101.697 Y122.724 E7.48916
G1 X101.791 Y125.031 E7.64364
G1 X101.699 Y127.244 E7.79183
G1 X101.406 Y129.55 E7.94736
G1 X100.928 Y131.779 E8.09988
G1 X100.257 Y133.971 E8.25326
G1 X99.407 Y136.092 E8.40614
G1 X98.378 Y138.137 E8.5593
G1 X97.189 Y140.076 E8.71148
G1 X95.827 Y141.925 E8.86513
G1 X94.282 Y143.681 E9.02162
G1 X92.675 Y145.225 E9.17072
G1 X90.854 Y146.697 E9.32738
G1 X89.006 Y147.952 E9.47684
G1 X87.011 Y149.071 E9.62988
G1 X84.942 Y150.014 E9.78201
G1 X82.78 Y150.787 E9.93563
G1 X80.517 Y151.377 E10.09209
G1 X78.256 Y151.768 E10.24561
G1 X76.007 Y151.965 E10.39666
G1 X74.328 Y151.99 E10.50901
G1 X73.996 Y151.958 E10.53132
G1 X73.615 Y151.823 E10.55837
G1 X73.228 Y151.536 E10.5906
G1 F1714.3 X72.895 Y151.087 E10.62987
G1 F1459.5 X72.718 Y150.768 E10.65998
G0 F4800 X73.659 Y151.118
G1 F1803 X73.475 Y150.841 E10.68219
G1 X73.405 Y150.601 E10.69889
G1 F1800 X73.409 Y99.514 E14.1169
G1 X73.479 Y99.164 E14.14078
G1 X73.662 Y98.887 E14.163
G1 X73.894 Y98.715 E14.18232
G1 X74.122 Y98.633 E14.19853
G1 X74.321 Y98.614 E14.2119
G1 X76.064 Y98.639 E14.32853
G1 X78.202 Y98.83 E14.47215
G1 X80.488 Y99.229 E14.62741
G1 X82.566 Y99.776 E14.77117
G1 X84.681 Y100.529 E14.92138
G1 X86.707 Y101.448 E15.07022
G1 X88.724 Y102.58 E15.22497
G1 X90.578 Y103.845 E15.37514
G1 X92.249 Y105.201 E15.51912
G1 X93.919 Y106.807 E15.67413
G1 X95.336 Y108.423 E15.81793
G1 X96.712 Y110.291 E15.97316
G1 X97.834 Y112.121 E16.11678
G1 X98.875 Y114.189 E16.27168
G1 X99.701 Y116.259 E16.42079
G1 X100.347 Y118.371 E16.56856
G1 X100.814 Y120.545 E16.71733
G1 X101.099 Y122.774 E16.86768
G1 X101.191 Y125.045 E17.01975
G1 X101.1 Y127.207 E17.16453
G1 X100.815 Y129.45 E17.3158
G1 X100.347 Y131.628 E17.46485
G1 X99.691 Y133.772 E17.61486
G1 X98.86 Y135.846 E17.76434
G1 X97.854 Y137.845 E17.91407
G1 X96.712 Y139.709 E18.06033
G1 X95.359 Y141.549 E18.21313
G1 X93.919 Y143.193 E18.35936
G1 X92.277 Y144.775 E18.51191
G1 X90.517 Y146.201 E18.66346
G1 X88.691 Y147.441 E18.81114
G1 X86.74 Y148.535 E18.96079
G1 X84.716 Y149.458 E19.10963
G1 X82.566 Y150.224 E19.26233
G1 X80.414 Y150.786 E19.41114
G1 X78.202 Y151.17 E19.56135
G1 X76.065 Y151.362 E19.7049
G1 X74.319 Y151.39 E19.82174
G1 X74.119 Y151.371 E19.83518
G1 X73.891 Y151.29 E19.85137
G1 X73.659 Y151.118 E19.87069
G1 F300 E19.37069
G1 F600 Z0.68
G0 F4800 X150.768 Y177.282 Z0.68
G1 F600 Z0.28
G1 F120 E19.87069
G1 F1330 X150.49 Y177.297 E19.8959
G1 F1340 X99.514 Y177.295 E24.47745
G1 F1536.3 X98.93 Y177.074 E24.5264
G1 F1800 X98.469 Y176.769 E24.56338
G1 X98.182 Y176.383 E24.59557
G1 X98.046 Y176.002 E24.62263
G1 X98.014 Y175.671 E24.64488
G1 X98.041 Y173.883 E24.76452
G1 X98.232 Y171.745 E24.90814
G1 X98.623 Y169.481 E25.06185
G1 X99.213 Y167.221 E25.21813
G1 X99.986 Y165.058 E25.37181
G1 X100.929 Y162.989 E25.52394
G1 X102.047 Y160.996 E25.67683
G1 X103.379 Y159.044 E25.83494
G1 X104.775 Y157.325 E25.9831
G1 X106.412 Y155.629 E26.1408
G1 X108.075 Y154.173 E26.28869
G1 X109.924 Y152.811 E26.44234
G1 X111.862 Y151.623 E26.59442
G1 X113.908 Y150.593 E26.74768
G1 X116.029 Y149.743 E26.90056
G1 X118.217 Y149.073 E27.05366
G1 X120.45 Y148.594 E27.20646
G1 X122.75 Y148.302 E27.36157
G1 X125.031 Y148.209 E27.51431
G1 X127.25 Y148.302 E27.66291
G1 X129.55 Y148.594 E27.81803
G1 X131.783 Y149.073 E27.97082
G1 X133.971 Y149.743 E28.12392
G1 X136.092 Y150.593 E28.2768
G1 X138.138 Y151.623 E28.43006
G1 X140.076 Y152.811 E28.58215
G1 X141.925 Y154.173 E28.73579
G1 X143.681 Y155.718 E28.89228
G1 X145.225 Y157.325 E29.04138
G1 X146.697 Y159.146 E29.19805
G1 X147.953 Y160.996 E29.34765
G1 X149.071 Y162.989 E29.50054
G1 X150.014 Y165.058 E29.65267
G1 X150.787 Y167.221 E29.80635
G1 X151.351 Y169.357 E29.95416
G1 X151.768 Y171.744 E30.11628
G1 X151.965 Y173.993 E30.26733
G1 X151.99 Y175.672 E30.37968
G1 X151.958 Y176.004 E30.40199
G1 X151.823 Y176.385 E30.42904
G1 X151.536 Y176.772 E30.46127
G1 F1714.3 X151.087 Y177.105 E30.50054
G1 F1459.5 X150.768 Y177.282 E30.53065
G0 F4800 X150.602 Y176.595
G1 F1800 X99.514 Y176.592 E33.94873
G1 X99.164 Y176.521 E33.97262
G1 X98.887 Y176.338 E33.99483
G1 X98.715 Y176.106 E34.01416
G1 X98.633 Y175.878 E34.03037
G1 X98.614 Y175.679 E34.04374
G1 X98.639 Y173.936 E34.16037
G1 X98.83 Y171.798 E34.30399
G1 X99.214 Y169.584 E34.45433
G1 X99.799 Y167.36 E34.60819
G1 X100.542 Y165.284 E34.75571
G1 X101.465 Y163.26 E34.90454
G1 X102.557 Y161.312 E35.05396
G1 X103.799 Y159.483 E35.20188
G1 X105.225 Y157.723 E35.35343
G1 X106.779 Y156.107 E35.50343
G1 X108.451 Y154.641 E35.65221
G1 X110.259 Y153.309 E35.80246
G1 X112.121 Y152.166 E35.94863
G1 X114.154 Y151.14 E36.10099
G1 X116.228 Y150.309 E36.25048
G1 X118.367 Y149.654 E36.40015
G1 X120.55 Y149.185 E36.54954
G1 X122.75 Y148.904 E36.69793
G1 X125.019 Y148.809 E36.84987
G1 X127.212 Y148.901 E36.99672
G1 X129.45 Y149.185 E37.14766
G1 X131.633 Y149.654 E37.29705
G1 X133.772 Y150.309 E37.44672
G1 X135.846 Y151.14 E37.5962
G1 X137.846 Y152.147 E37.74602
G1 X139.709 Y153.288 E37.89218
G1 X141.549 Y154.641 E38.04499
G1 X143.193 Y156.081 E38.19121
G1 X144.79 Y157.74 E38.34528
G1 X146.201 Y159.483 E38.49532
G1 X147.463 Y161.345 E38.64581
G1 X148.535 Y163.26 E38.79265
G1 X149.458 Y165.284 E38.94148
G1 X150.201 Y167.361 E39.08907
G1 X150.771 Y169.51 E39.23782
G1 X151.17 Y171.798 E39.39321
G1 X151.362 Y173.935 E39.53677
G1 X151.39 Y175.681 E39.6536
G1 X151.371 Y175.881 E39.66704
G1 X151.29 Y176.109 E39.68323
G1 X151.118 Y176.341 E39.70255
G1 F1803 X150.841 Y176.525 E39.72476
G1 X150.602 Y176.595 E39.7414
G0 F4800 X150.838 Y178.095
G1 F1459.5 X151.303 Y178.175 E39.78033
G1 F1714.3 X152.117 Y178.205 E39.83755
G1 F1800 X178.208 Y178.203 E41.58319
G1 X178.207 Y152.112 E43.32883
G1 F1711.6 X178.176 Y151.298 E43.38615
G1 F1455.5 X178.096 Y150.834 E43.4251
G1 F1325.2 X178.103 Y150.486 E43.45674
G1 F1340 X178.103 Y99.51 E48.03829
G1 F1538.5 X178.205 Y98.696 E48.10251
G1 F1800 X178.204 Y71.792 E49.90254
G1 X151.991 Y71.792 E51.65634
G1 X151.99 Y74.86 E51.86161
G1 X151.899 Y77.02 E52.00626
G1 X151.593 Y79.418 E52.168
G1 X151.104 Y81.665 E52.32185
G1 X150.469 Y83.734 E52.46665
G1 X149.621 Y85.86 E52.61979
G1 X148.53 Y88.022 E52.78182
G1 X147.33 Y89.961 E52.93438
G1 X145.961 Y91.805 E53.08804
G1 X144.53 Y93.431 E53.23296
G1 X142.879 Y95.019 E53.38622
G1 X141.1 Y96.464 E53.53957
G1 X139.097 Y97.819 E53.70136
G1 X137.099 Y98.928 E53.85425
G1 X135 Y99.869 E54.00815
G1 X132.898 Y100.612 E54.15732
G1 X130.692 Y101.186 E54.30982
G1 X128.421 Y101.574 E54.46397
G1 X126.151 Y101.768 E54.6164
G1 X123.849 Y101.767 E54.77042
G1 X121.579 Y101.574 E54.92284
G1 X119.308 Y101.185 E55.077
G1 X117.103 Y100.611 E55.22944
G1 X115 Y99.869 E55.37864
G1 X112.786 Y98.87 E55.54115
G1 X110.794 Y97.752 E55.69399
G1 X109.003 Y96.54 E55.83867
G1 X107.121 Y95.019 E56.00057
G1 X105.47 Y93.431 E56.15384
G1 X104.039 Y91.805 E56.29875
G1 X102.599 Y89.856 E56.46089
G1 X101.408 Y87.911 E56.61348
G1 X100.379 Y85.86 E56.767
G1 X99.531 Y83.734 E56.92014
G1 X98.894 Y81.656 E57.06556
G1 X98.407 Y79.418 E57.2188
G1 X98.111 Y77.146 E57.37209
G1 X98.009 Y74.868 E57.52465
G1 X98.007 Y71.793 E57.73039
G1 X71.792 Y71.796 E59.48432
G1 X71.792 Y98.701 E61.28442
G1 F1534.1 X71.897 Y99.514 E61.34878
G1 F1340 X71.897 Y150.49 E65.93033
G1 F1330 X71.905 Y150.838 E65.96185
G1 F1459.5 X71.825 Y151.303 E66.00078
G1 F1714.3 X71.795 Y152.117 E66.05801
G1 F1800 X71.797 Y178.207 E67.80358
G1 X98.701 Y178.208 E69.60361
G1 F1536.3 X99.514 Y178.103 E69.66787
G1 F1340 X150.49 Y178.103 E74.24943
G1 F1330 X150.838 Y178.095 E74.28095
G1 F300 E73.78095
G1 F600 Z0.68
G0 F4800 X126.125 Y101.168 Z0.68
G1 F600 Z0.28
G1 F120 E74.28095
G1 F1800 X123.875 Y101.168 E74.43149
G1 X121.617 Y100.973 E74.58312
G1 X119.397 Y100.59 E74.73385
G1 X117.315 Y100.048 E74.87779
G1 X115.2 Y99.303 E75.02781
G1 X113.148 Y98.381 E75.17833
G1 X111.13 Y97.255 E75.33294
G1 X109.339 Y96.043 E75.47763
G1 X107.536 Y94.586 E75.63272
G1 X105.921 Y93.034 E75.78258
G1 X104.49 Y91.408 E75.9275
G1 X103.11 Y89.541 E76.08283
G1 X101.944 Y87.641 E76.23198
G1 X100.936 Y85.636 E76.38213
G1 X100.13 Y83.629 E76.52683
G1 X99.469 Y81.483 E76.67707
G1 X98.981 Y79.216 E76.83221
G1 X98.7 Y76.995 E76.982
G1 X98.608 Y74.843 E77.12611
G1 X98.607 Y71.193 E77.37032
G1 X71.192 Y71.196 E79.20454
G1 X71.197 Y178.807 E86.40433
G1 X178.808 Y178.803 E93.60413
G1 X178.804 Y71.192 E100.80392
G1 X151.391 Y71.192 E102.63801
G1 X151.391 Y74.834 E102.88168
G1 X151.3 Y76.994 E103.02633
G1 X151.019 Y79.217 E103.17624
G1 X150.53 Y81.489 E103.33173
G1 X149.87 Y83.629 E103.48156
G1 X149.064 Y85.636 E103.62627
G1 X148.056 Y87.641 E103.77641
G1 X146.89 Y89.541 E103.92556
G1 X145.51 Y91.408 E104.08089
G1 X144.026 Y93.09 E104.23097
G1 X142.464 Y94.586 E104.37568
G1 X140.661 Y96.043 E104.53077
G1 X138.87 Y97.255 E104.67546
G1 X136.852 Y98.381 E104.83007
G1 X134.8 Y99.303 E104.98058
G1 X132.722 Y100.038 E105.12805
G1 X130.566 Y100.599 E105.2771
G1 X128.345 Y100.979 E105.42786
G1 X126.125 Y101.168 E105.57693
G1 F300 E105.07693
G1 F600 Z0.68
G0 F4800 X177.28 Y150.764 Z0.68
G1 F600 Z0.28
G1 F120 E105.57693
G1 F1455.5 X177.104 Y151.082 E105.607
G1 F1711.6 X176.77 Y151.531 E105.64638
G1 F1800 X176.383 Y151.818 E105.67861
G1 X176.003 Y151.954 E105.70562
G1 X175.671 Y151.986 E105.72793
G1 X173.997 Y151.964 E105.83994
G1 X171.62 Y151.751 E105.99961
G1 X169.483 Y151.377 E106.14476
G1 X167.22 Y150.787 E106.30123
G1 X165.058 Y150.014 E106.45485
G1 X162.989 Y149.071 E106.60698
G1 X160.994 Y147.952 E106.76002
G1 X159.044 Y146.621 E106.91798
G1 X157.325 Y145.225 E107.06614
G1 X155.629 Y143.588 E107.22385
G1 X154.173 Y141.925 E107.37173
G1 X152.811 Y140.076 E107.52538
G1 X151.622 Y138.137 E107.67756
G1 X150.593 Y136.092 E107.83072
G1 X149.743 Y133.971 E107.9836
G1 X149.072 Y131.779 E108.13698
G1 X148.594 Y129.55 E108.2895
G1 X148.301 Y127.244 E108.44503
G1 X148.209 Y125.031 E108.59322
G1 X148.304 Y122.724 E108.7477
G1 X148.595 Y120.445 E108.90141
G1 X149.09 Y118.159 E109.05791
G1 X149.725 Y116.084 E109.20309
G1 X150.568 Y113.966 E109.35561
G1 X151.655 Y111.807 E109.51733
G1 X152.777 Y109.977 E109.66095
G1 X154.212 Y108.028 E109.82288
G1 X155.718 Y106.319 E109.97529
G1 X157.279 Y104.818 E110.12018
G1 X159.146 Y103.303 E110.28104
G1 X161.049 Y102.016 E110.43475
G1 X163.044 Y100.902 E110.58762
G1 X164.999 Y100.011 E110.73137
G1 X167.22 Y99.213 E110.88927
G1 X169.36 Y98.649 E111.03733
G1 X171.621 Y98.249 E111.19096
G1 X173.993 Y98.035 E111.3503
G1 X175.672 Y98.01 E111.46265
G1 X176.003 Y98.042 E111.4849
G1 X176.384 Y98.177 E111.51194
G1 X176.772 Y98.464 E111.54423
G1 X177.078 Y98.924 E111.58119
G1 F1538.5 X177.297 Y99.51 E111.63017
G1 F1340 X177.295 Y150.486 E116.21172
G1 F1325.2 X177.28 Y150.764 E116.23702
G0 F4800 X176.339 Y151.113
G1 F1800 X176.106 Y151.285 E116.2564
G1 X175.878 Y151.367 E116.27261
G1 X175.679 Y151.386 E116.28599
G1 X173.936 Y151.361 E116.40261
G1 X171.798 Y151.17 E116.54623
G1 X169.586 Y150.786 E116.69644
G1 X167.433 Y150.224 E116.84531
G1 X165.284 Y149.458 E116.99795
G1 X163.26 Y148.535 E117.14679
G1 X161.309 Y147.441 E117.29644
G1 X159.483 Y146.201 E117.44412
G1 X157.723 Y144.775 E117.59567
G1 X156.107 Y143.221 E117.74567
G1 X154.641 Y141.549 E117.89445
G1 X153.309 Y139.741 E118.0447
G1 X152.165 Y137.878 E118.19097
G1 X151.14 Y135.846 E118.34324
G1 X150.309 Y133.772 E118.49272
G1 X149.653 Y131.628 E118.64273
G1 X149.185 Y129.45 E118.79178
G1 X148.903 Y127.244 E118.94058
G1 X148.809 Y124.962 E119.09338
G1 X148.899 Y122.812 E119.23736
G1 X149.186 Y120.545 E119.39024
G1 X149.653 Y118.371 E119.53901
G1 X150.324 Y116.188 E119.69181
G1 X151.125 Y114.189 E119.8359
G1 X152.166 Y112.121 E119.9908
G1 X153.288 Y110.291 E120.13442
G1 X154.666 Y108.421 E120.28983
G1 X156.081 Y106.807 E120.43344
G1 X157.751 Y105.201 E120.58846
G1 X159.483 Y103.799 E120.73754
G1 X161.276 Y102.58 E120.8826
G1 X163.293 Y101.448 E121.03735
G1 X165.248 Y100.557 E121.1811
G1 X167.434 Y99.776 E121.33641
G1 X169.512 Y99.229 E121.48018
G1 X171.798 Y98.83 E121.63543
G1 X173.935 Y98.638 E121.77899
G1 X175.681 Y98.61 E121.89582
G1 X175.88 Y98.629 E121.90919
G1 X176.109 Y98.71 E121.92545
G1 X176.341 Y98.882 E121.94477
G1 X176.525 Y99.158 E121.96696
G1 X176.595 Y99.51 E121.99097
G1 X176.591 Y150.601 E125.40926
G1 X176.521 Y150.836 E125.42566
G1 X176.339 Y151.113 E125.44784
G1 F300 E124.94784
G1 F600 Z0.68
G0 F4800 X150.7 Y175.911 Z0.68
;TYPE:WALL-OUTER
G1 F600 Z0.28
G1 F120 E125.44784
G1 F1800 X150.542 Y175.991 E125.45969
G1 X99.514 Y175.992 E128.87375
G1 X99.305 Y175.907 E128.88885
G1 X99.213 Y175.735 E128.9019
G1 X99.237 Y173.99 E129.01866
G1 X99.431 Y171.827 E129.16396
G1 X99.81 Y169.663 E129.31095
G1 X100.364 Y167.562 E129.45632
G1 X101.098 Y165.509 E129.60219
G1 X102.006 Y163.52 E129.74848
G1 X103.075 Y161.615 E129.89463
G1 X104.311 Y159.8 E130.04155
G1 X105.683 Y158.111 E130.18714
G1 X107.203 Y156.532 E130.33378
G1 X108.837 Y155.101 E130.4791
G1 X110.605 Y153.8 E130.62596
G1 X112.446 Y152.671 E130.77045
G1 X114.412 Y151.682 E130.91769
G1 X116.427 Y150.875 E131.06292
G1 X118.529 Y150.232 E131.20999
G1 X120.663 Y149.775 E131.356
G1 X122.831 Y149.5 E131.50222
G1 X125.007 Y149.409 E131.64793
G1 X127.194 Y149.502 E131.79439
G1 X129.363 Y149.779 E131.94068
G1 X131.483 Y150.235 E132.08577
G1 X133.573 Y150.875 E132.23201
G1 X135.6 Y151.687 E132.3781
G1 X137.554 Y152.671 E132.52448
G1 X139.416 Y153.814 E132.67066
G1 X141.183 Y155.117 E132.81755
G1 X142.816 Y156.55 E132.96291
G1 X144.333 Y158.129 E133.10941
G1 X145.705 Y159.821 E133.25515
G1 X146.933 Y161.628 E133.40132
G1 X148 Y163.531 E133.54729
G1 X148.906 Y165.52 E133.69352
G1 X149.644 Y167.587 E133.84037
G1 X150.191 Y169.663 E133.98401
G1 X150.569 Y171.827 E134.13098
G1 X150.765 Y174.011 E134.27769
G1 X150.791 Y175.738 E134.39325
G1 X150.7 Y175.911 E134.40633
G0 F4800 X150.542 Y175.991
G0 X150.519 Y175.991
G1 F300 E133.90633
G1 F600 Z0.68
G0 F4800 X126.087 Y100.569 Z0.68
G1 F600 Z0.28
G1 F120 E134.40633
G1 F1800 X123.887 Y100.567 E134.55352
G1 X121.718 Y100.381 E134.69917
G1 X119.548 Y100.009 E134.84648
G1 X117.441 Y99.459 E134.99217
G1 X115.377 Y98.728 E135.13867
G1 X113.394 Y97.834 E135.2842
G1 X111.466 Y96.758 E135.43193
G1 X109.675 Y95.546 E135.57661
G1 X107.97 Y94.169 E135.72324
G1 X106.371 Y92.638 E135.87136
G1 X104.94 Y91.012 E136.01628
G1 X103.635 Y89.248 E136.16309
G1 X102.492 Y87.393 E136.30886
G1 X101.493 Y85.412 E136.4573
G1 X100.687 Y83.405 E136.60201
G1 X100.037 Y81.288 E136.75017
G1 X99.58 Y79.166 E136.8954
G1 X99.302 Y76.994 E137.04191
G1 X99.208 Y74.805 E137.1885
G1 X99.206 Y70.756 E137.4594
G1 X99.043 Y70.593 E137.47482
G1 X70.707 Y70.597 E139.37066
G1 X70.592 Y70.688 E139.38048
G1 X70.598 Y179.293 E146.64678
G1 X70.688 Y179.408 E146.65655
G1 X179.293 Y179.402 E153.92285
G1 X179.408 Y179.312 E153.93262
G1 X179.403 Y70.707 E161.19892
G1 X179.312 Y70.592 E161.20873
G1 X151.037 Y70.593 E163.10049
G1 X150.792 Y70.747 E163.11985
G1 X150.791 Y74.809 E163.39162
G1 X150.698 Y76.994 E163.53794
G1 X150.42 Y79.166 E163.68445
