;FLAVOR:Marlin
;TIME:2753
;Filament used: 5.08566m
;Layer height: 0.32
;MINX:82.67
;MINY:67.67
;MINZ:0.24
;MAXX:215.45
;MAXY:220.451
;MAXZ:9.2
;Generated with Cura_SteamEngine 5.0.0
M140 S80
M105
M190 S80
M104 S245
M105
M109 S245
M82 ;absolute extrusion mode
; Ender 3 Max Custom Start G-code
G92 E0 ; Reset Extruder
G28 ; Home all axes
G1 Z2.0 F3000 ; Move Z Axis up little to prevent scratching of Heat Bed
G1 X0.1 Y20 Z0.3 F5000.0 ; Move to start position
G1 X0.1 Y200.0 Z0.3 F1500.0 E15 ; Draw the first line
G1 X0.4 Y200.0 Z0.3 F5000.0 ; Move to side a little
G1 X0.4 Y20 Z0.3 F1500.0 E30 ; Draw the second line
G92 E0 ; Reset Extruder
G1 Z2.0 F3000 ; Move Z Axis up little to prevent scratching of Heat Bed
G1 X5 Y20 Z0.3 F5000.0 ; Move over to prevent blob squish
G92 E0
G92 E0
G1 F2100 E-5
;LAYER_COUNT:28
;LAYER:0
M107
G1 F300 Z0.56
G0 F6000 X88.872 Y186.02 Z0.56
G1 F300 Z0.56
G0 F6000 X82.671 Y196.024
;TYPE:SKIRT
G1 F300 Z0.24
G1 F2100 E0
G1 F1800 X82.681 Y195.335 E0.0599
G1 X82.734 Y194.428 E0.13888
G1 X82.867 Y193.529 E0.21788
G1 X83.078 Y192.645 E0.29688
G1 X83.366 Y191.783 E0.37589
G1 X83.729 Y190.949 E0.45495
G1 X84.164 Y190.151 E0.53396
G1 X84.667 Y189.394 E0.61297
G1 X85.234 Y188.685 E0.69189
G1 X85.862 Y188.027 E0.77095
G1 X86.545 Y187.428 E0.84993
G1 X87.278 Y186.891 E0.92891
G1 X88.056 Y186.42 E1.00797
G1 X88.872 Y186.02 E1.08697
G1 X89.72 Y185.693 E1.16598
G1 X90.593 Y185.442 E1.24494
G1 X91.485 Y185.268 E1.32394
G1 X92.573 Y185.164 E1.41895
G1 X93.248 Y185.138 E1.47767
G1 X95.08 Y185.096 E1.63697
G1 X97.745 Y184.997 E1.86879
G1 X99.336 Y184.903 E2.00734
G1 X101.927 Y184.695 E2.23329
G1 X103.863 Y184.491 E2.40252
G1 X106.417 Y184.166 E2.62632
G1 X108.193 Y183.897 E2.78247
G1 X110.721 Y183.459 E3.0055
G1 X112.506 Y183.105 E3.16369
G1 X115.074 Y182.54 E3.39226
G1 X116.663 Y182.151 E3.53447
G1 X119.178 Y181.48 E3.76074
G1 X120.992 Y180.949 E3.92505
G1 X123.465 Y180.166 E4.15054
G1 X124.966 Y179.652 E4.28846
G1 X127.416 Y178.76 E4.51511
G1 X129.029 Y178.128 E4.66571
G1 X131.363 Y177.158 E4.88542
G1 X133.258 Y176.313 E5.06579
G1 X135.577 Y175.218 E5.28872
G1 X137.208 Y174.398 E5.44741
G1 X140.59 Y172.579 E5.78123
G1 X143.07 Y171.134 E6.03074
G1 X144.803 Y170.062 E6.20788
G1 X146.979 Y168.647 E6.43351
G1 X148.261 Y167.771 E6.56848
G1 X150.41 Y166.239 E6.7979
G1 X151.722 Y165.258 E6.94031
G1 X153.768 Y163.659 E7.16604
G1 X155.412 Y162.305 E7.35118
G1 X158.337 Y159.745 E7.68908
G1 X160.406 Y157.807 E7.93551
G1 X161.711 Y156.52 E8.09484
G1 X163.551 Y154.627 E8.32432
G1 X164.675 Y153.416 E8.46795
G1 X166.441 Y151.431 E8.69891
G1 X167.557 Y150.112 E8.8491
G1 X169.214 Y148.071 E9.07763
G1 X170.362 Y146.584 E9.24093
G1 X171.914 Y144.48 E9.46821
G1 X172.871 Y143.119 E9.61284
G1 X174.328 Y140.949 E9.84005
G1 X175.285 Y139.449 E9.99472
G1 X176.621 Y137.255 E10.21802
G1 X177.57 Y135.607 E10.38333
G1 X179.389 Y132.227 E10.717
G1 X180.664 Y129.653 E10.9667
G1 X181.491 Y127.869 E11.13763
G1 X182.532 Y125.483 E11.36392
G1 X183.184 Y123.887 E11.51379
G1 X184.103 Y121.498 E11.7363
G1 X184.744 Y119.705 E11.90182
G1 X185.557 Y117.259 E12.12589
G1 X186.05 Y115.655 E12.27176
G1 X186.772 Y113.121 E12.50081
G1 X187.208 Y111.44 E12.65177
G1 X187.816 Y108.869 E12.88143
G1 X188.181 Y107.141 E13.03495
G1 X188.669 Y104.566 E13.26278
G1 X188.945 Y102.892 E13.41026
G1 X189.315 Y100.314 E13.63666
G1 X189.534 Y98.476 E13.79757
G1 X189.882 Y94.619 E14.13421
G1 X190.042 Y91.771 E14.38217
G1 X190.096 Y90.074 E14.52977
G1 X190.137 Y88.284 E14.68541
G1 X190.163 Y87.599 E14.745
G1 X190.238 Y86.693 E14.82403
G1 X190.321 Y86.152 E14.8716
G1 X190.436 Y85.522 E14.92727
G1 X190.748 Y83.92 E15.06915
G1 X191.168 Y81.394 E15.29175
G1 X191.509 Y78.895 E15.511
G1 X191.732 Y76.876 E15.68757
G1 X191.872 Y75.977 E15.76666
G1 X192.09 Y75.095 E15.84564
G1 X192.384 Y74.235 E15.92465
G1 X192.753 Y73.405 E16.00361
G1 X193.194 Y72.61 E16.08264
G1 X193.703 Y71.857 E16.16165
G1 X194.276 Y71.151 E16.24069
G1 X194.908 Y70.499 E16.31962
G1 X195.596 Y69.905 E16.39863
G1 X196.333 Y69.373 E16.47765
G1 X197.114 Y68.908 E16.55666
G1 X197.933 Y68.514 E16.63567
G1 X198.784 Y68.194 E16.7147
G1 X199.659 Y67.949 E16.79369
G1 X200.552 Y67.782 E16.87266
G1 X201.69 Y67.685 E16.97194
G1 X202.415 Y67.67 E17.03498
G1 X203.68 Y67.68 E17.14495
G1 X204.587 Y67.727 E17.2239
G1 X205.487 Y67.854 E17.30291
G1 X206.373 Y68.06 E17.38198
G1 X207.236 Y68.342 E17.46091
G1 X208.072 Y68.699 E17.53993
G1 X208.873 Y69.128 E17.61892
G1 X209.633 Y69.627 E17.69795
G1 X210.347 Y70.189 E17.77694
G1 X211.008 Y70.813 E17.85596
G1 X211.612 Y71.492 E17.93495
G1 X212.154 Y72.222 E18.01399
G1 X212.63 Y72.996 E18.09298
G1 X213.035 Y73.809 E18.17193
G1 X213.368 Y74.655 E18.25097
G1 X213.625 Y75.527 E18.32999
G1 X213.863 Y76.851 E18.44693
G1 X214.053 Y78.531 E18.5939
G1 X214.39 Y81.094 E18.81862
G1 X214.796 Y83.627 E19.04162
G1 X215.261 Y86.089 E19.25942
G1 X215.39 Y86.988 E19.33837
G1 X215.435 Y87.687 E19.39926
G1 X215.45 Y88.33 E19.45517
G1 X215.45 Y118.531 E22.0805
G1 X215.43 Y119.978 E22.2063
G1 X215.362 Y122.51 E22.42648
G1 X215.306 Y123.741 E22.5336
G1 X215.062 Y126.842 E22.804
G1 X214.956 Y127.933 E22.89929
G1 X214.877 Y128.578 E22.95578
G1 X214.53 Y131.174 E23.18345
G1 X214.349 Y132.347 E23.28663
G1 X213.795 Y135.318 E23.54934
G1 X213.583 Y136.364 E23.64212
G1 X213.383 Y137.233 E23.71963
G1 X212.807 Y139.592 E23.93072
G1 X212.54 Y140.607 E24.02196
G1 X212.272 Y141.533 E24.10576
G1 X211.585 Y143.816 E24.31301
G1 X211.262 Y144.825 E24.4051
G1 X211.051 Y145.435 E24.46121
G1 X210.182 Y147.851 E24.6844
G1 X209.803 Y148.856 E24.77777
G1 X209.539 Y149.505 E24.83868
G1 X208.532 Y151.894 E25.06405
G1 X208.061 Y152.954 E25.16488
G1 X206.693 Y155.793 E25.43882
G1 X206.143 Y156.871 E25.54403
G1 X204.616 Y159.648 E25.81952
G1 X204.105 Y160.536 E25.90858
G1 X203.756 Y161.111 E25.96705
G1 X202.392 Y163.298 E26.1911
G1 X201.817 Y164.187 E26.28314
G1 X201.391 Y164.811 E26.34882
G1 X199.971 Y166.839 E26.56403
G1 X199.457 Y167.553 E26.64051
G1 X199.224 Y167.864 E26.67429
G1 X197.282 Y170.356 E26.94892
G1 X196.637 Y171.151 E27.03792
G1 X196.223 Y171.639 E27.09355
G1 X194.462 Y173.659 E27.3265
G1 X193.8 Y174.392 E27.41236
G1 X193.321 Y174.899 E27.47299
G1 X191.476 Y176.8 E27.70328
G1 X190.438 Y177.844 E27.83125
G1 X185.993 Y182.204 E28.3725
G1 X182.708 Y185.49 E28.77641
G1 X181.807 Y186.371 E28.88595
G1 X179.249 Y188.817 E29.19361
G1 X178.227 Y189.761 E29.31455
G1 X175.347 Y192.287 E29.64756
G1 X174.297 Y193.173 E29.76699
G1 X171.365 Y195.525 E30.09374
G1 X170.269 Y196.371 E30.21409
G1 X167.226 Y198.602 E30.54209
G1 X166.116 Y199.386 E30.66023
G1 X162.946 Y201.501 E30.99149
G1 X161.81 Y202.232 E31.10892
G1 X158.578 Y204.193 E31.43755
G1 X157.365 Y204.901 E31.55964
G1 X154.067 Y206.708 E31.88654
G1 X152.817 Y207.364 E32.00926
G1 X149.41 Y209.042 E32.3394
G1 X148.213 Y209.606 E32.45442
G1 X144.741 Y211.133 E32.78414
G1 X143.462 Y211.669 E32.90469
G1 X139.912 Y213.049 E33.23578
G1 X138.622 Y213.521 E33.35519
G1 X135.024 Y214.742 E33.68548
G1 X133.781 Y215.138 E33.79888
G1 X130.159 Y216.193 E34.12682
G1 X128.81 Y216.562 E34.2484
G1 X125.057 Y217.479 E34.58424
G1 X123.825 Y217.756 E34.69401
G1 X120.034 Y218.509 E35.02999
G1 X118.693 Y218.749 E35.14842
G1 X114.975 Y219.322 E35.47543
G1 X113.623 Y219.505 E35.59403
G1 X109.853 Y219.915 E35.92368
G1 X108.425 Y220.045 E36.04833
G1 X104.717 Y220.288 E36.37136
G1 X103.357 Y220.353 E36.48971
G1 X99.424 Y220.438 E36.83168
G1 X98.214 Y220.451 E36.93687
G1 X93.549 Y220.449 E37.3424
G1 X92.86 Y220.439 E37.4023
G1 X91.953 Y220.386 E37.48127
G1 X91.054 Y220.253 E37.56027
G1 X90.17 Y220.042 E37.63928
G1 X89.308 Y219.754 E37.71828
G1 X88.474 Y219.391 E37.79735
G1 X87.676 Y218.956 E37.87636
G1 X86.919 Y218.453 E37.95536
G1 X86.21 Y217.886 E38.03428
G1 X85.552 Y217.258 E38.11335
G1 X84.953 Y216.575 E38.19232
G1 X84.416 Y215.842 E38.27131
G1 X83.945 Y215.064 E38.35037
G1 X83.545 Y214.248 E38.42937
G1 X83.218 Y213.4 E38.50837
G1 X82.967 Y212.527 E38.58733
G1 X82.793 Y211.635 E38.66634
G1 X82.684 Y210.404 E38.77376
G1 X82.67 Y209.759 E38.82985
G1 X82.671 Y197.387 E39.90533
G0 F1620 X82.671 Y196.024
G1 F2100 E34.90533
G1 F300 Z0.56
;MESH:aza-ptfe-guide-110mm.v4.stl
G0 F6000 X94.65 Y206.612 Z0.56
;TYPE:WALL-INNER
G1 F300 Z0.24
G1 F2100 E39.90533
G1 F1800 X94.651 Y208.47 E40.04041
G1 X98.752 Y208.471 E40.33857
G1 X103.415 Y208.368 E40.67767
G1 X104.347 Y208.306 E40.74558
G1 X104.795 Y208.279 E40.77821
G1 X105.297 Y208.243 E40.8148
G1 X106.091 Y208.194 E40.87264
G1 X108.03 Y208.065 E41.01393
G1 X112.632 Y207.561 E41.35051
G1 X117.092 Y206.874 E41.67859
G1 X117.351 Y206.828 E41.69772
G1 X121.744 Y205.955 E42.02335
G1 X126.267 Y204.851 E42.36185
G1 X130.737 Y203.548 E42.70036
G1 X135.115 Y202.06 E43.03654
G1 X139.429 Y200.382 E43.37308
G1 X143.68 Y198.511 E43.71075
G1 X147.835 Y196.464 E44.04751
G1 X151.895 Y194.236 E44.38421
G1 X155.867 Y191.825 E44.72203
G1 X159.723 Y189.249 E45.05918
G1 X163.452 Y186.514 E45.3954
G1 X167.076 Y183.606 E45.73321
G1 X170.555 Y180.555 E46.06964
G1 X173.416 Y177.822 E46.3573
G1 X173.934 Y177.322 E46.40964
G1 X177.893 Y173.362 E46.81675
G1 X182.541 Y168.807 E47.2899
G1 X185.121 Y166.143 E47.55952
G1 X187.27 Y163.679 E47.79723
G1 X187.55 Y163.357 E47.82825
G1 X189.823 Y160.446 E48.09677
G1 X191.94 Y157.419 E48.36533
G1 X193.895 Y154.283 E48.634
G1 X195.679 Y151.049 E48.90253
G1 X197.288 Y147.726 E49.17096
G1 X198.716 Y144.33 E49.4388
G1 X199.967 Y140.854 E49.70739
G1 X200.996 Y137.427 E49.96753
G1 X201.063 Y137.178 E49.98628
G1 X201.901 Y133.748 E50.24299
G1 X202.588 Y130.082 E50.51416
G1 X203.078 Y126.419 E50.78285
G1 X203.372 Y122.748 E51.0506
G1 X203.469 Y119.063 E51.31861
G1 X203.471 Y118.987 E51.32413
G1 X203.471 Y89.579 E53.46221
G1 X203.088 Y89.494 E53.49074
G1 X202.871 Y89.384 E53.50842
G1 X202.806 Y89.342 E53.51405
G1 X202.55 Y89.483 E53.5353
G1 X202.298 Y89.571 E53.55471
G1 X202.09 Y89.604 E53.57002
G1 X202.017 Y92.736 E53.79779
G1 X201.694 Y97.558 E54.14915
G1 X201.145 Y102.436 E54.50604
G1 X200.38 Y107.286 E54.86302
G1 X199.397 Y112.088 E55.21938
G1 X198.202 Y116.843 E55.57584
G1 X198.182 Y116.915 E55.58127
G1 X196.785 Y121.571 E55.93469
G1 X195.673 Y124.752 E56.17968
G1 X195.157 Y126.221 E56.29288
G1 X193.315 Y130.81 E56.6524
G1 X191.292 Y135.257 E57.00759
G1 X189.06 Y139.636 E57.36494
G1 X186.636 Y143.904 E57.72179
G1 X184.032 Y148.046 E58.0775
G1 X181.269 Y152.035 E58.43029
G1 X178.292 Y155.946 E58.78764
G1 X178.256 Y155.992 E58.79189
G1 X175.161 Y159.701 E59.1431
G1 X171.849 Y163.325 E59.50003
G1 X171.798 Y163.379 E59.50543
G1 X168.33 Y166.842 E59.86175
G1 X167.08 Y167.985 E59.9849
G1 X166.756 Y168.278 E60.01666
G1 X166.226 Y168.767 E60.06909
G1 X165.492 Y169.435 E60.14124
G1 X164.707 Y170.154 E60.21864
G1 X160.943 Y173.297 E60.57516
G1 X157.095 Y176.225 E60.9267
G1 X156.333 Y176.755 E60.99419
G1 X153.062 Y179.021 E61.28349
G1 X152.974 Y179.078 E61.29111
G1 X148.848 Y181.669 E61.64533
G1 X144.624 Y184.068 E61.99851
G1 X140.254 Y186.294 E62.35507
G1 X135.739 Y188.344 E62.71558
G1 X131.238 Y190.151 E63.06821
G1 X126.554 Y191.789 E63.42898
G1 X121.925 Y193.179 E63.78037
G1 X121.853 Y193.199 E63.7858
G1 X117.169 Y194.379 E64.13699
G1 X112.364 Y195.366 E64.49362
G1 X110.871 Y195.603 E64.60353
G1 X107.514 Y196.134 E64.85063
G1 X107.442 Y196.144 E64.85592
G1 X105.99 Y196.306 E64.96214
G1 X105.083 Y196.411 E65.02852
G1 X103.494 Y196.589 E65.14477
G1 X102.567 Y196.693 E65.21259
G1 X97.744 Y197.018 E65.56403
G1 X94.65 Y197.091 E65.78904
G1 X94.65 Y200.744 E66.05463
G1 X94.806 Y200.656 E66.06765
G1 X95.315 Y200.539 E66.10562
G1 X97.817 Y200.375 E66.28792
G1 X103.796 Y199.98 E66.72357
G1 X104.186 Y200 E66.75196
G1 X104.548 Y200.106 E66.77938
G1 X104.999 Y200.331 E66.81602
G1 X105.231 Y200.521 E66.83783
G1 X105.412 Y200.731 E66.85798
G1 X105.604 Y201.08 E66.88694
G1 X105.711 Y201.375 E66.90976
G1 X105.766 Y201.703 E66.93394
G1 X105.947 Y204.456 E67.13452
G1 X105.936 Y204.784 E67.15838
G1 X105.841 Y205.158 E67.18644
G1 X105.557 Y205.713 E67.23177
G1 X105.255 Y206.026 E67.26339
G1 X104.847 Y206.264 E67.29773
G1 X104.506 Y206.383 E67.32399
G1 X104.224 Y206.426 E67.34473
G1 X95.91 Y206.975 E67.9505
G0 F1620 X95.743 Y206.986
G0 X95.47 Y206.982
G0 X94.991 Y206.86
G0 X94.823 Y206.788
G0 X94.65 Y206.612
G1 F2100 E62.9505
G1 F300 Z0.56
G0 F6000 X93.99 Y201.765 Z0.56
G1 F300 Z0.24
G1 F2100 E67.9505
G1 F1638.6 X94.054 Y202.083 E67.97641
G1 F1389.5 X94.119 Y202.401 E68.00698
G1 F1447 X94.298 Y202.003 E68.04645
G1 F1719.2 X94.397 Y201.847 E68.06051
G1 F1800 X94.939 Y201.314 E68.11578
G1 X95.358 Y201.198 E68.14739
G1 X97.861 Y201.034 E68.32976
G1 X103.839 Y200.639 E68.76533
G1 X104.291 Y200.714 E68.79864
G1 X104.629 Y200.878 E68.82595
G1 X104.876 Y201.118 E68.85099
G1 X105.038 Y201.441 E68.87726
G1 X105.107 Y201.746 E68.9
G1 X105.288 Y204.5 E69.10066
G1 X105.225 Y204.921 E69.13161
G1 X105.026 Y205.321 E69.16409
G1 X104.845 Y205.509 E69.18306
G1 X104.6 Y205.652 E69.20369
G1 X104.35 Y205.741 E69.22298
G1 X104.181 Y205.768 E69.23542
G1 X95.7 Y206.327 E69.85336
G1 X95.248 Y206.252 E69.88668
G1 X95.08 Y206.18 E69.89996
G1 F1729.3 X94.878 Y206.01 E69.91994
G1 F1603.2 X94.675 Y205.839 E69.94161
G1 F1494.3 X94.472 Y205.669 E69.9648
G1 F1224.7 X94.219 Y205.364 E70.00714
G1 F1168.1 X94.119 Y205.624 E70.03835
G1 F1367.1 X94.071 Y205.747 E70.05099
G1 F1483.1 X94.051 Y206.036 E70.07655
G1 F1561.1 X94.031 Y206.325 E70.10083
G1 F1650 X94.011 Y206.615 E70.12389
G1 F1747.1 X93.99 Y206.904 E70.1456
G1 F1800 X93.991 Y209.13 E70.30743
G1 X98.766 Y209.131 E70.6546
G1 X103.423 Y209.028 E70.99326
G1 X106.927 Y208.799 E71.24856
G1 X108.087 Y208.722 E71.33308
G1 X112.718 Y208.216 E71.67178
G1 X117.338 Y207.503 E72.01165
G1 X121.887 Y206.6 E72.34883
G1 X126.438 Y205.489 E72.68942
G1 X130.936 Y204.177 E73.03007
G1 X135.341 Y202.68 E73.36832
G1 X139.682 Y200.992 E73.70695
G1 X143.959 Y199.11 E74.04668
G1 X148.139 Y197.049 E74.38552
G1 X152.225 Y194.808 E74.72433
G1 X156.221 Y192.381 E75.06424
G1 X160.101 Y189.79 E75.40345
G1 X163.854 Y187.038 E75.74181
G1 X167.5 Y184.112 E76.08169
G1 X171.001 Y181.042 E76.42023
G1 X174.388 Y177.803 E76.76095
G1 X175.292 Y176.897 E76.854
G1 X178.355 Y173.833 E77.16899
G1 X183.015 Y169.266 E77.64337
G1 X185.607 Y166.59 E77.91423
G1 X188.06 Y163.777 E78.18558
G1 X190.354 Y160.839 E78.45659
G1 X192.491 Y157.783 E78.7277
G1 X194.464 Y154.617 E78.99892
G1 X196.265 Y151.352 E79.27002
G1 X197.89 Y147.998 E79.54098
G1 X199.332 Y144.57 E79.81136
G1 X200.594 Y141.06 E80.08255
G1 X201.628 Y137.617 E80.34391
G1 X201.705 Y137.335 E80.36517
G1 X202.546 Y133.887 E80.6232
G1 X203.24 Y130.186 E80.89697
G1 X203.735 Y126.489 E81.16815
G1 X204.031 Y122.783 E81.43845
G1 X204.131 Y118.987 E81.71453
G1 X204.131 Y89.331 E83.87064
G1 X204.13 Y88.99 E83.89543
G1 X203.789 Y88.99 E83.92023
G1 X203.368 Y88.896 E83.95159
G1 X203.007 Y88.69 E83.98181
G1 X202.782 Y88.425 E84.00708
G1 X202.569 Y88.702 E84.03248
G1 X202.328 Y88.86 E84.05344
G1 X202.096 Y88.943 E84.07135
G1 X201.792 Y88.99 E84.09372
G1 X201.443 Y88.99 E84.11909
G1 X201.359 Y92.692 E84.38831
G1 X201.031 Y97.558 E84.74289
G1 X200.483 Y102.405 E85.09753
G1 X199.723 Y107.2 E85.4505
G1 X198.74 Y111.999 E85.80665
G1 X197.55 Y116.725 E86.16097
G1 X196.155 Y121.376 E86.514
G1 X194.544 Y125.975 E86.86829
G1 X192.714 Y130.536 E87.22559
G1 X190.702 Y134.961 E87.579
G1 X188.486 Y139.31 E87.93387
G1 X186.077 Y143.552 E88.28854
G1 X183.506 Y147.644 E88.63989
G1 X180.728 Y151.657 E88.99474
G1 X177.749 Y155.569 E89.35224
G1 X174.624 Y159.312 E89.70674
G1 X173.701 Y160.321 E89.80616
G1 X171.331 Y162.912 E90.06146
G1 X167.884 Y166.355 E90.41567
G1 X164.283 Y169.647 E90.77039
G1 X160.543 Y172.771 E91.12468
G1 X156.695 Y175.699 E91.47623
G1 X152.686 Y178.478 E91.83088
G1 X148.548 Y181.08 E92.18627
G1 X144.28 Y183.503 E92.54308
G1 X139.933 Y185.715 E92.89769
G1 X135.493 Y187.731 E93.25222
G1 X130.967 Y189.547 E93.60677
G1 X126.364 Y191.157 E93.96131
G1 X121.692 Y192.559 E94.31595
G1 X117.007 Y193.739 E94.6672
G1 X112.187 Y194.727 E95.02492
G1 X107.368 Y195.488 E95.37963
G1 X102.523 Y196.034 E95.73411
G1 X97.655 Y196.361 E96.08883
