;FLAVOR:Marlin
;TIME:3683
;Filament used: 5.5398m
;Layer height: 0.32
;MINX:102.384
;MINY:98.368
;MINZ:0.24
;MAXX:197.607
;MAXY:201.634
;MAXZ:21.68
;Generated with Cura_SteamEngine 5.0.0
M140 S70
M105
M190 S70
M104 S245
M105
M109 S245
M82 ;absolute extrusion mode
; Ender 3 Max Custom Start G-code
G92 E0 ; Reset Extruder
G28 ; Home all axes
G1 Z2.0 F3000 ; Move Z Axis up little to prevent scratching of Heat Bed
G1 X0.1 Y20 Z0.3 F5000.0 ; Move to start position
G1 X0.1 Y200.0 Z0.3 F1500.0 E15 ; Draw the first line
G1 X0.4 Y200.0 Z0.3 F5000.0 ; Move to side a little
G1 X0.4 Y20 Z0.3 F1500.0 E30 ; Draw the second line
G92 E0 ; Reset Extruder
G1 Z2.0 F3000 ; Move Z Axis up little to prevent scratching of Heat Bed
G1 X5 Y20 Z0.3 F5000.0 ; Move over to prevent blob squish
G92 E0
G92 E0
G1 F2100 E-5
;LAYER_COUNT:67
;LAYER:0
M107
G1 F300 Z0.56
G0 F6000 X109.365 Y106.113 Z0.56
G1 F300 Z0.56
G0 F6000 X102.997 Y117.968
;TYPE:SKIRT
G1 F300 Z0.24
G1 F2100 E0
G1 F1800 X103.161 Y117.277 E0.05145
G1 X103.37 Y116.53 E0.10764
G1 X103.692 Y115.489 E0.18657
G1 X103.928 Y114.811 E0.23858
G1 X104.226 Y114.06 E0.29711
G1 X104.644 Y113.081 E0.37422
G1 X104.957 Y112.413 E0.42766
G1 X105.339 Y111.681 E0.48747
G1 X105.814 Y110.822 E0.55858
G1 X106.173 Y110.222 E0.60923
G1 X106.613 Y109.551 E0.66736
G1 X107.222 Y108.673 E0.74476
G1 X107.682 Y108.059 E0.80034
G1 X108.191 Y107.438 E0.8585
G1 X108.858 Y106.662 E0.93263
G1 X109.365 Y106.113 E0.98676
G1 X109.901 Y105.58 E1.04152
G1 X110.676 Y104.844 E1.11895
G1 X111.32 Y104.281 E1.18091
G1 X112.132 Y103.634 E1.25612
G1 X112.706 Y103.198 E1.30834
G1 X113.837 Y102.451 E1.40653
G1 X116.299 Y101.047 E1.61184
G1 X117.004 Y100.68 E1.66941
G1 X117.679 Y100.375 E1.72307
G1 X118.395 Y100.09 E1.7789
G1 X119.494 Y99.69 E1.86362
G1 X120.186 Y99.465 E1.91633
G1 X120.919 Y99.262 E1.97143
G1 X122.013 Y98.988 E2.05312
G1 X122.827 Y98.818 E2.11336
G1 X123.847 Y98.652 E2.18823
G1 X124.564 Y98.552 E2.24067
G1 X125.232 Y98.481 E2.28933
G1 X126.022 Y98.428 E2.34669
G1 X127.236 Y98.379 E2.4347
G1 X127.652 Y98.371 E2.46484
G1 X171.821 Y98.368 E5.66447
G1 X173.034 Y98.389 E5.75235
G1 X174.106 Y98.44 E5.8301
G1 X174.79 Y98.487 E5.87976
G1 X175.54 Y98.566 E5.9344
G1 X176.342 Y98.685 E5.99313
G1 X177.354 Y98.858 E6.0675
G1 X178.113 Y99.017 E6.12368
G1 X178.853 Y99.206 E6.179
G1 X179.895 Y99.498 E6.2574
G1 X180.671 Y99.749 E6.31648
G1 X181.406 Y100.023 E6.3733
G1 X182.378 Y100.411 E6.44911
G1 X183.471 Y100.923 E6.53655
G1 X184.084 Y101.261 E6.58726
G1 X186.298 Y102.548 E6.77277
G1 X187.021 Y103.009 E6.83489
G1 X187.19 Y103.127 E6.84982
G1 X187.721 Y103.524 E6.89785
G1 X188.506 Y104.156 E6.97085
G1 X189.067 Y104.628 E7.02396
G1 X189.587 Y105.096 E7.07464
G1 X190.204 Y105.697 E7.13703
G1 X190.907 Y106.418 E7.20998
G1 X191.431 Y106.998 E7.2666
G1 X191.958 Y107.634 E7.32644
G1 X192.596 Y108.442 E7.40102
G1 X193.045 Y109.055 E7.45606
G1 X193.441 Y109.649 E7.50778
G1 X194.037 Y110.589 E7.5884
G1 X194.426 Y111.257 E7.6444
G1 X194.817 Y112 E7.70522
G1 X195.276 Y112.928 E7.78022
G1 X195.589 Y113.623 E7.83544
G1 X195.88 Y114.353 E7.89237
G1 X196.258 Y115.371 E7.97103
G1 X196.505 Y116.124 E8.02844
G1 X196.727 Y116.915 E8.08795
G1 X196.98 Y117.912 E8.16246
G1 X197.14 Y118.658 E8.21773
G1 X197.269 Y119.418 E8.27358
G1 X197.431 Y120.526 E8.35469
G1 X197.522 Y121.406 E8.41878
G1 X197.58 Y122.432 E8.49322
G1 X197.606 Y123.175 E8.54708
G1 X197.607 Y123.847 E8.59576
G1 X197.578 Y124.623 E8.65201
G1 X197.507 Y125.74 E8.73309
G1 X197.426 Y126.535 E8.79098
G1 X197.299 Y127.392 E8.85374
G1 X197.13 Y128.371 E8.92571
G1 X196.978 Y129.099 E8.97958
G1 X196.784 Y129.859 E9.0364
G1 X196.493 Y130.895 E9.11436
G1 X196.252 Y131.644 E9.17135
G1 X195.972 Y132.397 E9.22955
G1 X195.585 Y133.369 E9.30534
G1 X195.24 Y134.142 E9.36666
G1 X194.763 Y135.096 E9.44392
G1 X194.397 Y135.786 E9.50051
G1 X193.981 Y136.499 E9.5603
G1 X193.407 Y137.392 E9.6372
G1 X192.996 Y138.001 E9.69043
G1 X192.589 Y138.562 E9.74064
G1 X192.105 Y139.177 E9.79733
G1 X191.404 Y140.021 E9.87681
G1 X190.836 Y140.651 E9.93825
G1 X190.049 Y141.447 E10.01934
G1 X189.33 Y142.137 E10.09153
G1 X188.502 Y142.892 E10.1727
G1 X188.247 Y143.117 E10.19734
G1 X186.393 Y144.851 E10.38123
G1 X184.586 Y146.639 E10.56538
G1 X182.844 Y148.464 E10.74814
G1 X181.137 Y150.356 E10.93274
G1 X179.486 Y152.291 E11.117
G1 X177.907 Y154.254 E11.2995
G1 X176.366 Y156.285 E11.48418
G1 X174.898 Y158.337 E11.66695
G1 X173.48 Y160.444 E11.85093
G1 X172.137 Y162.565 E12.03278
G1 X170.826 Y164.77 E12.21862
G1 X169.583 Y167.005 E12.40388
G1 X168.424 Y169.234 E12.58587
G1 X167.328 Y171.497 E12.76802
G1 X166.274 Y173.838 E12.954
G1 X165.295 Y176.19 E13.13855
G1 X164.396 Y178.532 E13.32027
G1 X163.545 Y180.954 E13.50624
G1 X162.78 Y183.339 E13.68768
G1 X162.076 Y185.776 E13.87143
G1 X161.439 Y188.236 E14.05552
G1 X160.871 Y190.72 E14.2401
G1 X160.477 Y192.621 E14.38074
G1 X160.251 Y193.501 E14.44656
G1 X159.97 Y194.306 E14.50832
G1 X159.86 Y194.583 E14.52991
G1 X159.487 Y195.412 E14.59576
G1 X159.044 Y196.205 E14.66156
G1 X158.518 Y196.975 E14.72912
G1 X158.367 Y197.176 E14.74733
G1 X157.79 Y197.877 E14.8131
G1 X157.153 Y198.526 E14.87897
G1 X156.508 Y199.08 E14.94057
G1 X156.304 Y199.241 E14.95939
G1 X155.566 Y199.772 E15.02525
G1 X154.785 Y200.236 E15.09106
G1 X153.996 Y200.617 E15.15453
G1 X153.748 Y200.724 E15.1741
G1 X152.899 Y201.047 E15.2399
G1 X152.024 Y201.294 E15.30576
G1 X151.097 Y201.468 E15.37409
G1 X150.735 Y201.519 E15.40057
G1 X149.469 Y201.619 E15.49257
G1 X148.467 Y201.634 E15.56516
G1 X127.142 Y201.631 E17.10996
G1 X126.427 Y201.621 E17.16176
G1 X125.832 Y201.595 E17.2049
G1 X125.111 Y201.539 E17.25729
G1 X124.618 Y201.489 E17.29318
G1 X123.524 Y201.319 E17.37338
G1 X122.776 Y201.148 E17.42897
G1 X122.261 Y201.013 E17.46753
G1 X121.116 Y200.641 E17.55475
G1 X120.104 Y200.239 E17.63363
G1 X119.895 Y200.149 E17.65011
G1 X118.743 Y199.565 E17.74368
G1 X118.113 Y199.186 E17.79693
G1 X117.717 Y198.933 E17.83098
G1 X116.71 Y198.2 E17.9212
G1 X116.062 Y197.666 E17.98203
G1 X115.552 Y197.22 E18.03111
G1 X114.72 Y196.377 E18.11691
G1 X114.308 Y195.9 E18.16257
G1 X113.979 Y195.5 E18.20009
G1 X113.252 Y194.5 E18.28965
G1 X112.686 Y193.602 E18.36654
G1 X112.559 Y193.387 E18.38463
G1 X111.989 Y192.273 E18.47528
G1 X111.692 Y191.574 E18.5303
G1 X111.502 Y191.088 E18.5681
G1 X111.127 Y189.933 E18.65607
G1 X110.864 Y188.897 E18.7335
G1 X110.809 Y188.65 E18.75183
G1 X110.621 Y187.512 E18.83538
G1 X110.549 Y186.735 E18.89191
G1 X110.505 Y186.012 E18.94438
G1 X110.486 Y185.388 E18.9896
G1 X110.481 Y165.947 E20.39792
G1 X110.444 Y163.343 E20.58658
G1 X110.336 Y160.787 E20.7719
G1 X110.158 Y158.287 E20.95346
G1 X109.904 Y155.716 E21.14061
G1 X109.589 Y153.258 E21.32013
G1 X109.189 Y150.71 E21.50697
G1 X108.731 Y148.248 E21.68837
G1 X108.189 Y145.729 E21.87503
G1 X107.602 Y143.331 E22.05387
G1 X106.919 Y140.852 E22.24014
G1 X106.172 Y138.412 E22.42499
G1 X105.36 Y136.006 E22.60894
G1 X104.482 Y133.623 E22.79291
G1 X104.159 Y132.796 E22.85723
G1 X103.761 Y131.692 E22.94224
G1 X103.43 Y130.678 E23.01951
G1 X103.201 Y129.864 E23.08077
G1 X102.97 Y128.882 E23.15384
G1 X102.813 Y128.141 E23.20871
G1 X102.675 Y127.33 E23.26831
G1 X102.542 Y126.285 E23.34462
G1 X102.468 Y125.585 E23.39561
G1 X102.418 Y124.892 E23.44594
G1 X102.394 Y124.149 E23.49979
G1 X102.384 Y123.084 E23.57695
G1 X102.403 Y122.358 E23.62956
G1 X102.457 Y121.58 E23.68605
G1 X102.558 Y120.521 E23.76311
G1 X102.643 Y119.859 E23.81146
G1 X102.737 Y119.306 E23.8521
G0 F1620 X102.78 Y119.051
G0 X102.997 Y117.968
G1 F2100 E18.8521
G1 F300 Z0.56
;MESH:aza-ptfe-guide-mount-v3.stl
G0 F6000 X135.544 Y138.618 Z0.56
;TYPE:WALL-INNER
G1 F300 Z0.24
G1 F2100 E23.8521
G1 F1800 X135.456 Y138.611 E23.85745
G1 X134.724 Y138.533 E23.90205
G1 X134.365 Y138.454 E23.92432
G1 X133.665 Y138.215 E23.96913
G1 X133.441 Y138.12 E23.98387
G1 X133.328 Y138.055 E23.99177
G1 X132.703 Y137.667 E24.03634
G1 X132.508 Y137.526 E24.05092
G1 X132.363 Y137.397 E24.06268
G1 X131.88 Y136.913 E24.10411
G1 X131.68 Y136.676 E24.1229
G1 X131.614 Y136.579 E24.13
G1 X131.227 Y135.954 E24.17454
G1 X131.104 Y135.716 E24.19077
G1 X131.067 Y135.617 E24.19718
G1 X130.827 Y134.914 E24.24218
G1 X130.748 Y134.565 E24.26386
G1 X130.667 Y133.828 E24.30878
G1 X130.669 Y133.54 E24.32623
G1 X130.749 Y132.774 E24.37289
G1 X130.827 Y132.428 E24.39438
G1 X131.067 Y131.725 E24.43939
G1 X131.227 Y131.388 E24.46199
G1 X131.615 Y130.763 E24.50656
G1 X131.756 Y130.568 E24.52114
G1 X131.881 Y130.428 E24.53251
G1 X132.368 Y129.941 E24.57424
G1 X132.612 Y129.736 E24.59355
G1 X132.703 Y129.674 E24.60022
G1 X133.402 Y129.243 E24.64997
G1 X133.665 Y129.127 E24.66739
G1 X134.365 Y128.888 E24.7122
G1 X134.724 Y128.809 E24.73447
G1 X135.487 Y128.728 E24.78096
G1 X135.775 Y128.728 E24.79841
G1 X136.508 Y128.81 E24.8431
G1 X136.857 Y128.888 E24.86476
G1 X137.565 Y129.13 E24.9101
G1 X137.892 Y129.286 E24.93205
G1 X138.517 Y129.673 E24.97658
G1 X138.719 Y129.819 E24.99169
G1 X138.856 Y129.942 E25.00284
G1 X139.379 Y130.467 E25.04774
G1 X139.545 Y130.67 E25.06363
G1 X139.583 Y130.725 E25.06768
G1 X140.02 Y131.429 E25.11788
G1 X140.127 Y131.65 E25.13275
G1 X140.215 Y131.901 E25.14887
G1 X140.394 Y132.422 E25.18225
G1 X140.458 Y132.671 E25.19782
G1 X140.472 Y132.771 E25.20394
G1 X140.55 Y133.461 E25.24601
G1 X140.552 Y133.82 E25.26776
G1 X140.467 Y134.616 E25.31626
G1 X140.395 Y134.914 E25.33484
G1 X140.133 Y135.677 E25.38371
G1 X140.018 Y135.923 E25.40017
G1 X139.963 Y136.015 E25.40666
G1 X139.564 Y136.638 E25.45148
G1 X139.343 Y136.913 E25.47286
G1 X138.857 Y137.4 E25.51454
G1 X138.517 Y137.67 E25.54085
G1 X137.892 Y138.056 E25.58535
G1 X137.673 Y138.171 E25.60034
G1 X137.565 Y138.212 E25.60734
G1 X136.906 Y138.441 E25.64961
G1 X136.893 Y138.445 E25.65043
G0 F1620 X136.672 Y138.504
G0 X136.561 Y138.521
G0 X135.828 Y138.609
G0 X135.544 Y138.618
G1 F2100 E20.65043
G1 F300 Z0.56
G0 F6000 X139.783 Y132.681 Z0.56
G1 F300 Z0.24
G1 F2100 E25.65043
G1 F1800 X139.816 Y132.845 E25.66057
G1 X139.894 Y133.535 E25.70264
G1 X139.895 Y133.751 E25.71573
G1 X139.813 Y134.522 E25.7627
G1 X139.721 Y134.844 E25.78299
G1 X139.517 Y135.44 E25.82116
G1 X139.407 Y135.659 E25.83601
G1 X139.008 Y136.282 E25.88083
G1 X138.875 Y136.447 E25.89367
G1 X138.389 Y136.934 E25.93535
G1 X138.17 Y137.108 E25.9523
G1 X137.545 Y137.495 E25.99684
G1 X137.348 Y137.589 E26.01006
G1 X136.689 Y137.818 E26.05233
G1 X136.483 Y137.865 E26.06513
G1 X135.75 Y137.954 E26.10987
G1 X135.526 Y137.955 E26.12344
G1 X134.794 Y137.877 E26.16804
G1 X134.579 Y137.829 E26.18139
G1 X133.879 Y137.59 E26.2262
G1 X133.676 Y137.495 E26.23978
G1 X133.051 Y137.107 E26.28435
G1 X132.834 Y136.935 E26.30113
G1 X132.31 Y136.408 E26.34616
G1 X132.175 Y136.231 E26.35964
G1 X131.765 Y135.568 E26.40687
G1 X131.692 Y135.403 E26.4178
G1 X131.451 Y134.7 E26.46283
G1 X131.402 Y134.465 E26.47737
G1 X131.325 Y133.775 E26.51944
G1 X131.335 Y133.515 E26.5352
G1 X131.405 Y132.849 E26.57577
G1 X131.454 Y132.634 E26.58913
G1 X131.692 Y131.939 E26.63364
G1 X131.788 Y131.736 E26.64725
G1 X132.175 Y131.111 E26.69179
G1 X132.347 Y130.895 E26.70851
G1 X132.834 Y130.407 E26.75028
G1 X133.032 Y130.248 E26.76567
G1 X133.676 Y129.847 E26.81163
G1 X133.879 Y129.752 E26.82521
G1 X134.579 Y129.513 E26.87003
G1 X134.794 Y129.465 E26.88337
G1 X135.544 Y129.385 E26.92907
G1 X135.791 Y129.393 E26.94404
G1 X136.447 Y129.467 E26.98404
G1 X136.722 Y129.539 E27.00126
G1 X137.349 Y129.753 E27.0414
G1 X137.545 Y129.847 E27.05457
G1 X138.17 Y130.234 E27.09911
G1 X138.389 Y130.408 E27.11606
G1 X138.897 Y130.918 E27.15967
G1 X139.031 Y131.088 E27.17279
G1 X139.247 Y131.436 E27.1976
G0 F1620 X139.465 Y131.788
G0 X139.59 Y132.115
G0 X139.783 Y132.681
G1 F2100 E22.1976
G1 F300 Z0.56
G0 F6000 X132.076 Y134.487 Z0.56
;TYPE:WALL-OUTER
G1 F300 Z0.24
G1 F2100 E27.1976
G1 F1800 X132.058 Y134.391 E27.20345
G1 X131.983 Y133.722 E27.2438
G1 X131.991 Y133.584 E27.25208
G1 X132.061 Y132.924 E27.29186
G1 X132.078 Y132.848 E27.29652
G1 X132.316 Y132.152 E27.3406
G1 X132.349 Y132.084 E27.34513
G1 X132.747 Y131.443 E27.39035
G1 X132.814 Y131.361 E27.3967
G1 X133.315 Y130.861 E27.43911
G1 X133.399 Y130.796 E27.44548
G1 X134.039 Y130.399 E27.49061
G1 X134.092 Y130.376 E27.49408
G1 X134.792 Y130.137 E27.5384
G1 X134.864 Y130.121 E27.54282
G1 X135.602 Y130.043 E27.5873
G1 X135.717 Y130.049 E27.5942
G1 X136.365 Y130.122 E27.63328
G1 X136.508 Y130.163 E27.64219
G1 X137.132 Y130.377 E27.68172
G1 X137.197 Y130.408 E27.68604
G1 X137.839 Y130.806 E27.73131
G1 X137.922 Y130.874 E27.73774
G1 X138.428 Y131.383 E27.78075
G1 X138.48 Y131.451 E27.78588
G1 X138.879 Y132.093 E27.83118
G1 X138.966 Y132.329 E27.84625
G1 X139.149 Y132.865 E27.88019
G1 X139.16 Y132.919 E27.8835
G1 X139.238 Y133.609 E27.92511
G1 X139.239 Y133.682 E27.92949
G1 X139.158 Y134.441 E27.97523
G1 X139.097 Y134.631 E27.98719
G1 X138.898 Y135.21 E28.02388
G1 X138.851 Y135.303 E28.03012
G1 X138.452 Y135.926 E28.07446
G1 X138.408 Y135.981 E28.07868
G1 X137.922 Y136.468 E28.11991
G1 X137.822 Y136.547 E28.12755
G1 X137.175 Y136.947 E28.17313
G1 X137.132 Y136.965 E28.17593
G1 X136.449 Y137.202 E28.21925
G1 X136.404 Y137.21 E28.22199
G1 X135.65 Y137.3 E28.2675
G1 X135.596 Y137.299 E28.27073
G1 X134.864 Y137.221 E28.31485
G1 X134.792 Y137.205 E28.31927
G1 X134.07 Y136.957 E28.36502
G1 X134.024 Y136.934 E28.3681
G1 X133.399 Y136.546 E28.41219
G1 X133.297 Y136.464 E28.42003
G1 X132.802 Y135.968 E28.46202
G1 X132.736 Y135.883 E28.46847
G1 X132.636 Y135.722 E28.47983
G0 F1620 X132.333 Y135.231
G0 X132.316 Y135.19
G0 X132.076 Y134.487
G0 F6000 X132.058 Y134.391
G0 X132.034 Y134.17
G1 F2100 E23.47983
G1 F300 Z0.56
G0 F6000 X122.462 Y183.003 Z0.56
;TYPE:WALL-INNER
G1 F300 Z0.24
G1 F2100 E28.47983
G1 F1800 X122.461 Y185.439 E28.62742
G1 X122.518 Y186.136 E28.66979
G1 X122.665 Y186.768 E28.7091
G1 X122.922 Y187.388 E28.74977
G1 X123.245 Y187.916 E28.78727
G1 X123.667 Y188.418 E28.827
G1 X124.16 Y188.842 E28.8664
G1 X124.729 Y189.195 E28.90697
G1 X125.312 Y189.437 E28.94521
G1 X125.941 Y189.591 E28.98445
G1 X126.656 Y189.652 E29.02792
G1 X145.056 Y189.653 E30.14272
G1 X148.76 Y189.654 E30.36713
G1 X148.76 Y182.996 E30.77052
G1 X148.515 Y183.438 E30.80113
G1 X148.216 Y183.826 E30.83081
G1 X147.908 Y184.132 E30.85712
G1 X147.528 Y184.42 E30.886
G1 X147.154 Y184.634 E30.91211
G1 X146.707 Y184.817 E30.94138
G1 X146.292 Y184.927 E30.96739
G1 X145.816 Y184.988 E30.99646
G1 X145.378 Y184.986 E31.023
G1 X144.896 Y184.919 E31.05248
G1 X144.487 Y184.807 E31.07817
G1 X144.047 Y184.623 E31.10707
G1 X143.677 Y184.408 E31.133
G1 X143.29 Y184.11 E31.16259
G1 X142.982 Y183.8 E31.18907
G1 X142.692 Y183.418 E31.21812
G1 X142.479 Y183.046 E31.2441
G1 X142.297 Y182.599 E31.27334
G1 X142.187 Y182.182 E31.29947
G1 X142.127 Y181.708 E31.32841
G1 X142.117 Y181.395 E31.34739
G1 X142.182 Y180.885 E31.37853
G1 X142.241 Y180.563 E31.39837
G1 X142.432 Y180.079 E31.42989
G1 X142.55 Y179.817 E31.4473
G1 X142.703 Y179.575 E31.46465
G1 X143.006 Y179.182 E31.49471
G1 X143.213 Y178.959 E31.51315
G1 X143.57 Y178.681 E31.54056
G1 X143.767 Y178.534 E31.55546
G1 X144.067 Y178.373 E31.57608
G1 X144.514 Y178.19 E31.60535
G1 X144.93 Y178.081 E31.6314
G1 X145.406 Y178.02 E31.66048
G1 X145.844 Y178.022 E31.68701
G1 X146.326 Y178.089 E31.7165
G1 X146.733 Y178.201 E31.74207
G1 X147.172 Y178.383 E31.77087
G1 X147.545 Y178.6 E31.79701
G1 X147.933 Y178.899 E31.82669
G1 X148.238 Y179.206 E31.85291
G1 X148.525 Y179.584 E31.88166
G1 X148.739 Y179.954 E31.90756
G1 X148.76 Y180.005 E31.9109
G1 X148.761 Y138.495 E34.42585
G1 X148.784 Y138.215 E34.44287
G1 X148.849 Y137.961 E34.45876
G1 X149.022 Y137.585 E34.48384
G1 X149.193 Y137.316 E34.50315
G1 X149.443 Y137.06 E34.52483
G1 X149.654 Y136.912 E34.54044
G1 X149.885 Y136.799 E34.55602
G1 X150.181 Y136.702 E34.57489
G1 X150.423 Y136.656 E34.58982
G1 X150.609 Y136.646 E34.6011
G1 X172.474 Y136.644 E35.92583
G1 X173.826 Y136.572 E36.00786
G1 X174.323 Y136.494 E36.03834
G1 X173.987 Y135.954 E36.07687
G1 X173.827 Y135.617 E36.09948
G1 X173.587 Y134.914 E36.14448
G1 X173.508 Y134.565 E36.16616
G1 X173.431 Y133.88 E36.20793
