;FLAVOR:Marlin
;TIME:2830
;Filament used: 5.21946m
;Layer height: 0.32
;MINX:22.431
;MINY:70.777
;MINZ:0.24
;MAXX:94.774
;MAXY:261.621
;MAXZ:9.2
;Generated with Cura_SteamEngine 5.0.0
M140 S80
M105
M190 S80
M104 S245
M105
M109 S245
M82 ;absolute extrusion mode
; Ender 3 Max Custom Start G-code
G92 E0 ; Reset Extruder
G28 ; Home all axes
G1 Z2.0 F3000 ; Move Z Axis up little to prevent scratching of Heat Bed
G1 X0.1 Y20 Z0.3 F5000.0 ; Move to start position
G1 X0.1 Y200.0 Z0.3 F1500.0 E15 ; Draw the first line
G1 X0.4 Y200.0 Z0.3 F5000.0 ; Move to side a little
G1 X0.4 Y20 Z0.3 F1500.0 E30 ; Draw the second line
G92 E0 ; Reset Extruder
G1 Z2.0 F3000 ; Move Z Axis up little to prevent scratching of Heat Bed
G1 X5 Y20 Z0.3 F5000.0 ; Move over to prevent blob squish
G92 E0
G92 E0
G1 F2100 E-5
;LAYER_COUNT:28
;LAYER:0
M107
G1 F300 Z0.56
G0 F6000 X29.906 Y71.563 Z0.56
G1 F300 Z0.56
G0 F6000 X22.431 Y82.368
;TYPE:SKIRT
G1 F300 Z0.24
G1 F2100 E0
G1 F1800 X22.459 Y81.459 E0.07906
G1 X22.568 Y80.557 E0.15804
G1 X22.755 Y79.668 E0.23701
G1 X23.019 Y78.798 E0.31604
G1 X23.359 Y77.955 E0.39506
G1 X23.772 Y77.145 E0.47409
G1 X24.254 Y76.375 E0.55306
G1 X24.573 Y75.938 E0.60009
G1 X25.06 Y75.305 E0.66952
G1 X25.645 Y74.61 E0.74849
G1 X26.289 Y73.969 E0.82747
G1 X26.703 Y73.611 E0.87505
G1 X27.262 Y73.158 E0.9376
G1 X27.555 Y72.931 E0.96982
G1 X28.298 Y72.407 E1.04885
G1 X29.083 Y71.949 E1.12786
G1 X29.906 Y71.563 E1.20688
G1 X30.759 Y71.25 E1.28586
G1 X31.637 Y71.014 E1.36489
G1 X32.532 Y70.856 E1.4439
G1 X33.437 Y70.777 E1.52287
G1 X34.346 Y70.777 E1.60189
G1 X35.251 Y70.858 E1.68087
G1 X36.146 Y71.018 E1.75991
G1 X37.023 Y71.256 E1.8389
G1 X37.876 Y71.57 E1.91791
G1 X38.858 Y72.044 E2.0127
G1 X39.67 Y72.492 E2.09332
G1 X40.687 Y73.071 E2.19505
G1 X42.906 Y74.253 E2.4136
G1 X45.891 Y75.73 E2.70311
G1 X46.689 Y76.166 E2.78216
G1 X47.445 Y76.67 E2.86114
G1 X48.421 Y77.482 E2.97151
G1 X48.883 Y77.924 E3.02709
G1 X70.164 Y99.203 E5.64316
G1 X71.328 Y100.402 E5.78843
G1 X73.038 Y102.207 E6.00457
G1 X73.58 Y102.794 E6.07402
G1 X73.839 Y103.086 E6.10795
G1 X75.934 Y105.537 E6.38824
G1 X76.591 Y106.337 E6.47823
G1 X77.008 Y106.869 E6.53698
G1 X78.601 Y108.955 E6.76515
G1 X79.243 Y109.826 E6.85921
G1 X79.617 Y110.358 E6.91574
G1 X81.136 Y112.582 E7.14986
G1 X81.686 Y113.417 E7.23677
G1 X82.09 Y114.065 E7.30315
G1 X83.426 Y116.264 E7.52682
G1 X83.968 Y117.193 E7.62032
G1 X84.296 Y117.784 E7.67908
G1 X85.533 Y120.085 E7.90617
G1 X85.921 Y120.831 E7.97927
G1 X86.09 Y121.172 E8.01235
G1 X87.448 Y124.039 E8.28812
G1 X87.796 Y124.805 E8.36126
G1 X87.948 Y125.158 E8.39467
G1 X89.141 Y128.071 E8.6683
G1 X89.586 Y129.224 E8.77574
G1 X90.61 Y132.159 E9.04596
G1 X91.003 Y133.364 E9.15614
G1 X91.899 Y136.445 E9.43506
G1 X92.166 Y137.436 E9.52428
G1 X92.33 Y138.105 E9.58415
G1 X92.92 Y140.655 E9.81168
G1 X93.146 Y141.71 E9.90547
G1 X93.283 Y142.433 E9.96944
G1 X93.732 Y144.982 E10.19443
G1 X93.901 Y146.046 E10.28808
G1 X93.991 Y146.72 E10.34719
G1 X94.304 Y149.282 E10.57156
G1 X94.424 Y150.425 E10.67146
G1 X94.474 Y151.046 E10.72562
G1 X94.655 Y153.677 E10.95487
G1 X94.713 Y154.793 E11.05201
G1 X94.731 Y155.458 E11.10984
G1 X94.771 Y158.068 E11.33675
G1 X94.774 Y159.603 E11.47019
G1 X94.715 Y165.505 E11.98327
G1 X94.714 Y170.491 E12.41669
G1 X94.701 Y171.719 E12.52345
G1 X94.621 Y175.309 E12.8356
G1 X94.565 Y176.746 E12.96061
G1 X94.31 Y180.599 E13.29628
G1 X94.189 Y182.017 E13.41999
G1 X93.775 Y185.776 E13.74873
G1 X93.59 Y187.206 E13.87408
G1 X93.021 Y190.881 E14.19735
G1 X92.777 Y192.299 E14.32242
G1 X92.025 Y196.066 E14.65634
G1 X91.743 Y197.356 E14.77113
G1 X90.812 Y201.148 E15.11055
G1 X90.479 Y202.407 E15.22376
G1 X89.393 Y206.12 E15.56005
G1 X88.964 Y207.494 E15.68518
G1 X87.744 Y211.077 E16.0142
G1 X87.287 Y212.344 E16.13129
G1 X85.899 Y215.904 E16.46344
G1 X85.375 Y217.182 E16.58351
G1 X83.826 Y220.689 E16.91678
G1 X83.223 Y221.993 E17.04167
G1 X81.503 Y225.468 E17.37873
G1 X80.869 Y226.689 E17.49832
G1 X79.049 Y229.995 E17.82638
G1 X78.335 Y231.234 E17.95069
G1 X76.319 Y234.548 E18.28789
G1 X75.608 Y235.665 E18.40299
G1 X73.478 Y238.843 E18.73556
G1 X72.676 Y239.99 E18.85722
G1 X70.447 Y243.019 E19.18414
G1 X69.566 Y244.173 E19.31035
G1 X67.195 Y247.117 E19.63894
G1 X66.317 Y248.169 E19.75806
G1 X63.722 Y251.115 E20.09933
G1 X62.834 Y252.085 E20.21365
G1 X60.205 Y254.821 E20.54349
G1 X59.186 Y255.845 E20.66907
G1 X56.49 Y258.412 E20.99267
G1 X55.976 Y258.887 E21.05351
G1 X55.282 Y259.473 E21.13247
G1 X54.539 Y259.997 E21.21151
G1 X53.753 Y260.453 E21.2905
G1 X52.93 Y260.839 E21.36952
G1 X52.076 Y261.15 E21.44852
G1 X51.198 Y261.386 E21.52756
G1 X50.303 Y261.543 E21.60655
G1 X49.398 Y261.621 E21.68551
G1 X48.489 Y261.619 E21.76453
G1 X47.584 Y261.537 E21.84352
G1 X46.904 Y261.422 E21.90347
G1 X46.022 Y261.205 E21.98243
G1 X45.162 Y260.911 E22.06143
G1 X44.331 Y260.543 E22.14044
G1 X43.536 Y260.103 E22.21942
G1 X42.782 Y259.594 E22.29851
G1 X42.076 Y259.022 E22.37749
G1 X41.735 Y258.706 E22.41791
G1 X41.049 Y258.038 E22.50114
G1 X31.073 Y248.063 E23.72749
G1 X30.579 Y247.553 E23.78921
G1 X29.976 Y246.873 E23.86821
G1 X29.435 Y246.143 E23.9472
G1 X28.961 Y245.368 E24.02617
G1 X28.556 Y244.554 E24.1052
G1 X28.224 Y243.708 E24.1842
G1 X27.969 Y242.836 E24.26318
G1 X27.79 Y241.944 E24.34227
G1 X27.691 Y241.041 E24.42123
G1 X27.672 Y240.132 E24.50027
G1 X27.732 Y239.225 E24.57929
G1 X27.872 Y238.327 E24.65829
G1 X28.091 Y237.445 E24.73729
G1 X28.386 Y236.586 E24.81624
G1 X28.755 Y235.755 E24.89528
G1 X29.196 Y234.961 E24.97424
G1 X29.576 Y234.385 E25.03422
G1 X29.745 Y234.147 E25.0596
G1 X30.304 Y233.43 E25.13863
G1 X30.634 Y233.06 E25.18173
G1 X32.1 Y231.498 E25.36794
G1 X33.89 Y229.537 E25.59875
G1 X34.947 Y228.322 E25.73874
G1 X36.644 Y226.289 E25.96894
G1 X37.741 Y224.909 E26.12219
G1 X39.32 Y222.836 E26.34872
G1 X40.394 Y221.352 E26.50796
G1 X41.861 Y219.23 E26.73221
G1 X42.889 Y217.664 E26.89505
G1 X44.241 Y215.506 E27.11642
G1 X45.155 Y213.969 E27.27187
G1 X46.413 Y211.744 E27.49406
G1 X47.251 Y210.18 E27.6483
G1 X48.413 Y207.893 E27.8713
G1 X49.132 Y206.391 E28.01605
G1 X50.694 Y202.897 E28.34875
G1 X51.751 Y200.301 E28.5924
G1 X52.524 Y198.242 E28.78359
G1 X53.772 Y194.583 E29.11965
G1 X54.607 Y191.835 E29.36932
G1 X55.144 Y189.883 E29.54531
G1 X55.774 Y187.377 E29.76993
G1 X56.165 Y185.65 E29.92385
G1 X56.676 Y183.149 E30.14575
G1 X56.971 Y181.507 E30.29078
G1 X57.376 Y178.97 E30.51411
G1 X57.609 Y177.249 E30.66508
G1 X57.91 Y174.619 E30.89519
G1 X58.048 Y173.104 E31.02743
G1 X58.234 Y170.503 E31.25411
G1 X58.318 Y168.701 E31.41093
G1 X58.384 Y166.088 E31.63814
G1 X58.386 Y164.3 E31.79357
G1 X58.334 Y161.705 E32.0192
G1 X58.267 Y160.12 E32.1571
G1 X58.103 Y157.505 E32.38487
G1 X57.931 Y155.538 E32.55651
G1 X57.646 Y152.963 E32.78172
G1 X57.429 Y151.35 E32.9232
G1 X56.821 Y147.582 E33.25498
G1 X56.274 Y144.791 E33.50221
G1 X55.808 Y142.707 E33.68785
G1 X54.792 Y138.76 E34.04214
G1 X54.089 Y136.365 E34.25912
G1 X53.514 Y134.569 E34.42305
G1 X52.667 Y132.101 E34.64987
G1 X52.125 Y130.631 E34.78607
G1 X51.158 Y128.165 E35.01632
G1 X50.398 Y126.36 E35.18657
G1 X49.349 Y124.013 E35.41004
G1 X48.597 Y122.433 E35.56215
G1 X47.444 Y120.137 E35.7855
G1 X46.627 Y118.6 E35.93681
G1 X45.335 Y116.286 E36.16719
G1 X44.535 Y114.929 E36.30413
G1 X43.182 Y112.736 E36.52812
G1 X42.183 Y111.201 E36.68733
G1 X40.743 Y109.086 E36.90975
G1 X39.616 Y107.515 E37.07782
G1 X38.06 Y105.444 E37.303
G1 X37.051 Y104.165 E37.44462
G1 X35.424 Y102.183 E37.66753
G1 X34.215 Y100.781 E37.82846
G1 X32.45 Y98.823 E38.05761
G1 X31.471 Y97.784 E38.18171
G1 X30.279 Y96.536 E38.33173
G1 X29.762 Y95.977 E38.39792
G1 X29.175 Y95.283 E38.47693
G1 X28.714 Y94.637 E38.54592
G1 X28.244 Y93.92 E38.62044
G1 X27.563 Y92.843 E38.73121
G1 X26.144 Y90.739 E38.95182
G1 X24.978 Y89.1 E39.12667
G1 X24.405 Y88.312 E39.21137
G1 X23.904 Y87.554 E39.29035
G1 X23.471 Y86.755 E39.36935
G1 X23.109 Y85.921 E39.44838
G1 X22.823 Y85.059 E39.52733
G1 X22.613 Y84.174 E39.6064
G1 X22.547 Y83.725 E39.64585
G0 F1620 X22.482 Y83.275
G0 X22.431 Y82.368
G1 F2100 E34.64585
G1 F300 Z0.56
;MESH:aza-ptfe-guide-110mm.v4.stl
G0 F6000 X74.246 Y170.499 Z0.56
;TYPE:WALL-INNER
G1 F300 Z0.24
G1 F2100 E39.64585
G1 F1800 X73.965 Y170.115 E39.68045
G1 X73.852 Y169.847 E39.70159
G1 X73.749 Y169.443 E39.7319
G1 X73.735 Y169.223 E39.74793
G1 X73.734 Y160.722 E40.36599
G1 X73.78 Y160.33 E40.39468
G1 X73.913 Y159.972 E40.42245
G1 X74.195 Y159.507 E40.46199
G1 X74.435 Y159.271 E40.48646
G1 X74.776 Y159.061 E40.51558
G1 X75.078 Y158.952 E40.53892
G1 X75.428 Y158.88 E40.5649
G1 X75.584 Y158.873 E40.57625
G1 X78.344 Y158.873 E40.77691
G1 X78.817 Y158.941 E40.81166
G1 X79.093 Y159.052 E40.83328
G1 X79.589 Y159.359 E40.87569
G1 X79.884 Y159.699 E40.90842
G1 X80.077 Y160.099 E40.94071
G1 X80.114 Y160.217 E40.9497
G1 X80.194 Y160.723 E40.98695
G1 X80.194 Y169.224 E41.605
G1 X80.171 Y169.509 E41.62579
G1 X80.014 Y169.973 E41.66141
G1 X79.633 Y170.549 E41.71162
G1 X79.303 Y170.806 E41.74203
G1 X78.968 Y170.956 E41.76871
G1 X78.585 Y171.056 E41.79749
G1 X78.344 Y171.074 E41.81506
G1 X75.584 Y171.073 E42.01572
G1 X75.462 Y171.06 E42.02464
G0 F1620 X75.237 Y171.037
G0 X74.834 Y170.894
G0 X74.457 Y170.679
G0 X74.246 Y170.499
G0 F6000 X74.548 Y169.806
G1 F1800 X74.442 Y169.527 E42.04634
G1 X74.395 Y169.223 E42.06871
G1 X74.394 Y160.722 E42.68676
G1 X74.501 Y160.272 E42.72039
G1 X74.703 Y159.928 E42.7494
G1 X74.918 Y159.735 E42.7704
G1 X75.162 Y159.618 E42.79008
G1 X75.49 Y159.537 E42.81464
G1 X75.584 Y159.533 E42.82148
G1 X78.344 Y159.533 E43.02214
G1 X78.628 Y159.573 E43.04299
G1 X78.955 Y159.722 E43.06912
G1 X79.155 Y159.857 E43.08666
G1 X79.333 Y160.061 E43.10635
G1 X79.448 Y160.301 E43.1257
G1 X79.534 Y160.723 E43.15701
G1 X79.534 Y169.224 E43.77506
G1 X79.426 Y169.674 E43.80871
G1 X79.165 Y170.084 E43.84405
G1 X78.967 Y170.238 E43.86228
G1 X78.648 Y170.366 E43.88727
G1 X78.344 Y170.414 E43.90965
G1 X75.7 Y170.413 E44.10188
G0 F1620 X75.584 Y170.413
G0 X75.258 Y170.359
G0 X74.973 Y170.224
G0 X74.717 Y170.036
G0 X74.548 Y169.806
G1 F2100 E39.10188
G1 F300 Z0.56
G0 F6000 X78.874 Y169.224 Z0.56
;TYPE:WALL-OUTER
G1 F300 Z0.24
G1 F2100 E44.10188
G1 F1800 X78.757 Y169.535 E44.12577
G1 X78.564 Y169.7 E44.14403
G1 X78.276 Y169.754 E44.16511
G1 X75.584 Y169.753 E44.3587
G1 X75.273 Y169.636 E44.38259
G1 X75.108 Y169.443 E44.40085
G1 X75.055 Y169.223 E44.41713
G1 X75.054 Y160.722 E45.02847
G1 X75.171 Y160.411 E45.05236
G1 X75.364 Y160.246 E45.07062
G1 X75.584 Y160.193 E45.0869
G1 X78.344 Y160.193 E45.28538
G1 X78.655 Y160.31 E45.30927
G1 X78.82 Y160.503 E45.32753
G1 X78.874 Y160.723 E45.34382
G1 X78.874 Y167.861 E45.85714
G0 F1620 X78.874 Y169.224
G0 F6000 X78.762 Y169.523
G1 F2100 E40.85714
G1 F300 Z0.56
G0 F6000 X47.248 Y247.296 Z0.56
;TYPE:WALL-INNER
G1 F300 Z0.24
G1 F2100 E45.85714
G1 F1800 X48.977 Y249.023 E46.03482
G1 X51.203 Y246.901 E46.25841
G1 X54.432 Y243.537 E46.59742
G1 X57.531 Y240.017 E46.93839
G1 X60.472 Y236.362 E47.27947
G1 X63.251 Y232.584 E47.62045
G1 X65.183 Y229.698 E47.87295
G1 X65.858 Y228.691 E47.96109
G1 X68.3 Y224.679 E48.30256
G1 X70.558 Y220.577 E48.64299
G1 X72.641 Y216.364 E48.98469
G1 X74.535 Y212.071 E49.32583
G1 X76.238 Y207.703 E49.66668
G1 X77.746 Y203.268 E50.00726
G1 X79.064 Y198.758 E50.34887
G1 X80.18 Y194.204 E50.68976
G1 X81.095 Y189.612 E51.03018
G1 X81.813 Y184.965 E51.37204
G1 X82.324 Y180.306 E51.7128
G1 X82.631 Y175.623 E52.054
G1 X82.735 Y170.899 E52.39754
G1 X82.735 Y164.947 E52.83027
G1 X82.802 Y158.802 E53.27707
G1 X82.745 Y155.154 E53.54232
G1 X82.736 Y154.958 E53.55659
G1 X82.483 Y151.307 E53.82267
G1 X82.049 Y147.755 E54.08283
G1 X81.998 Y147.418 E54.10761
G1 X81.374 Y143.896 E54.36766
G1 X80.533 Y140.27 E54.63829
G1 X79.487 Y136.647 E54.91245
G1 X78.258 Y133.107 E55.18489
G1 X76.842 Y129.637 E55.45737
G1 X75.245 Y126.249 E55.72969
G1 X73.469 Y122.948 E56.00221
G1 X71.523 Y119.748 E56.27451
G1 X69.406 Y116.653 E56.54713
G1 X67.145 Y113.694 E56.81788
G1 X64.707 Y110.833 E57.09116
G1 X62.103 Y108.086 E57.36635
G1 X41.336 Y87.318 E59.50165
G1 X40.852 Y87.802 E59.55141
G1 X40.621 Y87.996 E59.57334
G1 X40.267 Y88.181 E59.60238
G1 X40.035 Y88.259 E59.62018
G1 X39.939 Y88.281 E59.62734
G1 X39.877 Y88.52 E59.64529
G1 X39.738 Y88.81 E59.66867
G1 X39.62 Y88.969 E59.68307
G1 X41.721 Y91.166 E59.90408
G1 X44.937 Y94.842 E60.25918
G1 X47.988 Y98.661 E60.61456
G1 X48.033 Y98.72 E60.61996
G1 X50.863 Y102.608 E60.96959
G1 X53.56 Y106.685 E61.32499
G1 X56.072 Y110.875 E61.68017
G1 X56.109 Y110.94 E61.68561
G1 X58.406 Y115.197 E62.03729
G1 X60.52 Y119.573 E62.39062
G1 X60.551 Y119.639 E62.39592
G1 X62.449 Y124.059 E62.74565
G1 X62.534 Y124.279 E62.76279
G1 X64.199 Y128.692 E63.10571
G1 X65.718 Y133.342 E63.46137
G1 X66.709 Y136.891 E63.72927
G1 X66.943 Y137.726 E63.79231
G1 X67.028 Y138.058 E63.81723
G1 X68.125 Y142.816 E64.17223
G1 X68.947 Y147.252 E64.50023
G1 X69.007 Y147.622 E64.52749
G1 X69.632 Y152.091 E64.85556
G1 X69.676 Y152.53 E64.88764
G1 X70.102 Y156.993 E65.21359
G1 X70.125 Y157.327 E65.23793
G1 X70.256 Y159.995 E65.43214
G1 X70.349 Y161.871 E65.5687
G1 X70.357 Y162.205 E65.59299
G1 X70.379 Y166.762 E65.92431
G1 X70.373 Y167.091 E65.94823
G1 X70.19 Y171.641 E66.2793
G1 X70.169 Y171.97 E66.30327
G1 X69.787 Y176.471 E66.63169
G1 X69.474 Y178.917 E66.81097
G1 X69.167 Y181.302 E66.9858
G1 X69.156 Y181.375 E66.99117
G1 X68.329 Y186.126 E67.34178
G1 X68.315 Y186.199 E67.34718
G1 X67.275 Y190.901 E67.6973
G1 X66.001 Y195.654 E68.05506
G1 X64.527 Y200.311 E68.4102
G1 X62.846 Y204.896 E68.76524
G1 X60.961 Y209.403 E69.12042
G1 X58.873 Y213.828 E69.47616
G1 X56.604 Y218.128 E69.82964
G1 X54.141 Y222.331 E70.18382
G1 X54.102 Y222.394 E70.1892
G1 X51.485 Y226.43 E70.53892
G1 X50.299 Y228.097 E70.68766
G1 X48.654 Y230.405 E70.89373
G1 X48.12 Y231.09 E70.95687
G1 X45.592 Y234.314 E71.25474
G1 X42.46 Y237.965 E71.60447
G1 X42.411 Y238.02 E71.60982
G1 X40.26 Y240.31 E71.83824
G1 X42.703 Y242.752 E72.08938
G1 X48.208 Y236.47 E72.69666
G1 X48.479 Y236.24 E72.7225
G1 X48.783 Y236.077 E72.74758
G1 X49.282 Y235.913 E72.78577
G1 X49.606 Y235.888 E72.80939
G1 X49.899 Y235.92 E72.83082
G1 X50.155 Y235.994 E72.8502
G1 X50.586 Y236.204 E72.88505
G1 X50.774 Y236.346 E72.90218
G1 X52.852 Y238.167 E73.10306
G1 X53.163 Y238.531 E73.13787
G1 X53.292 Y238.784 E73.15852
G1 X53.421 Y239.127 E73.18516
G1 X53.479 Y239.467 E73.21024
G1 X53.46 Y239.845 E73.23775
G1 X53.345 Y240.231 E73.26704
G1 X53.295 Y240.346 E73.27615
G1 X53.023 Y240.776 E73.31315
G1 X48.179 Y246.307 E73.84769
G0 F1620 X47.421 Y247.172
G0 X47.248 Y247.296
G0 F6000 X46.082 Y247.065
G1 F1800 X46.965 Y247.945 E73.93832
G1 X48.966 Y249.945 E74.14401
G1 X51.679 Y247.358 E74.41656
G1 X54.918 Y243.984 E74.7566
G1 X58.036 Y240.442 E75.09968
G1 X60.996 Y236.765 E75.44287
G1 X63.791 Y232.963 E75.78595
G1 X66.415 Y229.046 E76.12872
G1 X68.871 Y225.01 E76.47222
G1 X71.144 Y220.882 E76.81483
G1 X73.239 Y216.643 E77.15861
G1 X75.145 Y212.324 E77.50183
G1 X76.858 Y207.929 E77.84478
G1 X78.375 Y203.467 E78.18742
G1 X79.453 Y199.778 E78.46684
G1 X79.702 Y198.93 E78.5311
G1 X80.825 Y194.347 E78.87416
G1 X81.745 Y189.727 E79.21665
G1 X82.468 Y185.052 E79.56058
G1 X82.964 Y180.518 E79.89218
G1 X82.992 Y180.209 E79.91474
G1 X83.291 Y175.651 E80.24684
G1 X83.395 Y170.899 E80.59241
G1 X83.395 Y164.955 E81.02456
G1 X83.462 Y158.792 E81.47266
G1 X83.405 Y155.144 E81.73792
G1 X83.395 Y154.913 E81.75473
G1 X83.141 Y151.244 E82.02212
G1 X82.68 Y147.488 E82.29725
G1 X82.055 Y143.948 E82.5586
G1 X81.979 Y143.582 E82.58578
G1 X81.172 Y140.104 E82.84536
G1 X80.117 Y136.447 E83.12208
G1 X78.876 Y132.874 E83.39707
G1 X77.447 Y129.372 E83.67206
G1 X75.834 Y125.951 E83.94704
G1 X74.119 Y122.76 E84.21043
G1 X73.96 Y122.484 E84.23359
G1 X72.158 Y119.52 E84.48578
G1 X71.991 Y119.264 E84.508
G1 X69.941 Y116.266 E84.77205
G1 X67.659 Y113.28 E85.04529
G1 X65.198 Y110.392 E85.32115
G1 X62.576 Y107.625 E85.5983
G1 X41.336 Y86.384 E87.78222
G1 X40.385 Y87.336 E87.88006
G1 X40.034 Y87.563 E87.91045
G1 X39.63 Y87.677 E87.94097
G1 X39.275 Y87.65 E87.96685
G1 X39.32 Y88.003 E87.99272
