;FLAVOR:Marlin
;TIME:3556
;Filament used: 5.39129m
;Layer height: 0.32
;MINX:102.391
;MINY:95.368
;MINZ:0.24
;MAXX:197.607
;MAXY:204.632
;MAXZ:21.68
;Generated with Cura_SteamEngine 5.0.0
M140 S70
M105
M190 S70
M104 S245
M105
M109 S245
M82 ;absolute extrusion mode
; Ender 3 Max Custom Start G-code
G92 E0 ; Reset Extruder
G28 ; Home all axes
G1 Z2.0 F3000 ; Move Z Axis up little to prevent scratching of Heat Bed
G1 X0.1 Y20 Z0.3 F5000.0 ; Move to start position
G1 X0.1 Y200.0 Z0.3 F1500.0 E15 ; Draw the first line
G1 X0.4 Y200.0 Z0.3 F5000.0 ; Move to side a little
G1 X0.4 Y20 Z0.3 F1500.0 E30 ; Draw the second line
G92 E0 ; Reset Extruder
G1 Z2.0 F3000 ; Move Z Axis up little to prevent scratching of Heat Bed
G1 X5 Y20 Z0.3 F5000.0 ; Move over to prevent blob squish
G92 E0
G92 E0
G1 F2100 E-5
;LAYER_COUNT:67
;LAYER:0
M107
G1 F300 Z0.56
G0 F6000 X109.26 Y103.233 Z0.56
G1 F300 Z0.56
G0 F6000 X103.913 Y111.881
;TYPE:SKIRT
G1 F300 Z0.24
G1 F2100 E0
G1 F1800 X104.106 Y111.354 E0.04066
G1 X104.39 Y110.659 E0.09504
G1 X104.81 Y109.735 E0.16857
G1 X105.12 Y109.094 E0.22015
G1 X105.394 Y108.567 E0.26318
G1 X105.748 Y107.944 E0.31508
G1 X106.22 Y107.162 E0.38125
G1 X106.616 Y106.556 E0.43369
G1 X107.471 Y105.351 E0.54072
G1 X107.669 Y105.089 E0.56451
G1 X108.083 Y104.575 E0.61232
G1 X109.041 Y103.471 E0.71821
G1 X109.26 Y103.233 E0.74164
G1 X109.74 Y102.745 E0.79123
G1 X110.829 Y101.717 E0.89971
G1 X111.215 Y101.374 E0.93712
G1 X111.84 Y100.858 E0.99583
G1 X112.542 Y100.337 E1.05916
G1 X113.398 Y99.78 E1.13314
G1 X116.392 Y98.034 E1.38421
G1 X116.99 Y97.71 E1.43348
G1 X117.251 Y97.58 E1.4546
G1 X118.15 Y97.185 E1.52574
G1 X118.844 Y96.923 E1.57947
G1 X119.773 Y96.598 E1.65077
G1 X120.545 Y96.362 E1.70925
G1 X121.527 Y96.106 E1.78276
G1 X122.06 Y95.98 E1.82244
G1 X122.706 Y95.849 E1.87019
G1 X124.098 Y95.618 E1.9724
G1 X124.473 Y95.567 E1.99982
G1 X125.139 Y95.499 E2.04831
G1 X126.621 Y95.4 E2.15591
G1 X127.664 Y95.37 E2.2315
G1 X171.824 Y95.368 E5.43047
G1 X173.089 Y95.389 E5.52212
G1 X173.926 Y95.428 E5.58282
G1 X174.467 Y95.463 E5.62209
G1 X175.132 Y95.527 E5.67049
G1 X176.551 Y95.717 E5.7742
G1 X176.903 Y95.774 E5.80003
G1 X177.591 Y95.909 E5.85082
G1 X179.015 Y96.247 E5.95684
G1 X179.341 Y96.335 E5.9813
G1 X179.946 Y96.518 E6.02709
G1 X181.012 Y96.877 E6.10857
G1 X181.71 Y97.134 E6.16246
G1 X182.29 Y97.372 E6.20787
G1 X182.56 Y97.493 E6.2293
G1 X183.573 Y98.017 E6.31192
G1 X185.379 Y99.079 E6.46369
G1 X186.555 Y99.756 E6.56199
G1 X187.248 Y100.193 E6.62134
G1 X187.801 Y100.589 E6.67061
G1 X188.185 Y100.882 E6.7056
G1 X188.791 Y101.382 E6.76251
G1 X189.552 Y102.065 E6.83659
G1 X189.916 Y102.407 E6.87277
G1 X190.366 Y102.856 E6.91882
G1 X191.13 Y103.668 E6.99958
G1 X191.616 Y104.214 E7.05254
G1 X192.012 Y104.696 E7.09773
G1 X192.694 Y105.58 E7.17861
G1 X193.135 Y106.187 E7.23296
G1 X193.475 Y106.696 E7.2773
G1 X194.053 Y107.62 E7.35625
G1 X194.527 Y108.432 E7.42436
G1 X194.78 Y108.9 E7.4629
G1 X195.106 Y109.563 E7.51642
G1 X195.497 Y110.416 E7.58439
G1 X195.768 Y111.062 E7.63514
G1 X196.262 Y112.384 E7.73738
G1 X196.391 Y112.764 E7.76645
G1 X196.579 Y113.383 E7.81331
G1 X196.946 Y114.761 E7.91661
G1 X197.071 Y115.297 E7.95648
G1 X197.186 Y115.86 E7.99811
G1 X197.302 Y116.56 E8.04951
G1 X197.429 Y117.479 E8.11671
G1 X197.503 Y118.205 E8.16958
G1 X197.594 Y119.649 E8.27439
G1 X197.606 Y120.001 E8.2999
G1 X197.607 Y120.668 E8.34822
G1 X197.556 Y122.141 E8.45499
G1 X197.535 Y122.462 E8.47829
G1 X197.47 Y123.122 E8.52634
G1 X197.282 Y124.532 E8.62938
G1 X197.222 Y124.902 E8.65653
G1 X197.087 Y125.587 E8.70711
G1 X196.754 Y126.994 E8.81185
G1 X196.667 Y127.318 E8.83615
G1 X196.477 Y127.945 E8.88361
G1 X196.008 Y129.314 E8.98844
G1 X195.881 Y129.653 E9.01467
G1 X195.624 Y130.277 E9.06355
G1 X195.045 Y131.546 E9.1646
G1 X194.875 Y131.892 E9.19252
G1 X194.56 Y132.484 E9.2411
G1 X193.816 Y133.767 E9.34854
G1 X193.633 Y134.061 E9.37362
G1 X193.271 Y134.603 E9.42084
G1 X192.44 Y135.757 E9.52385
G1 X192.233 Y136.027 E9.5485
G1 X191.815 Y136.538 E9.59632
G1 X191.083 Y137.376 E9.67693
G1 X190.557 Y137.945 E9.73306
G1 X190.105 Y138.395 E9.77926
G1 X187.854 Y140.505 E10.00277
G1 X186.025 Y142.297 E10.18825
G1 X184.263 Y144.127 E10.37228
G1 X182.556 Y146.001 E10.55591
G1 X180.875 Y147.956 E10.74269
G1 X179.312 Y149.878 E10.92214
G1 X177.747 Y151.921 E11.10857
G1 X176.273 Y153.962 E11.29095
G1 X174.837 Y156.073 E11.4759
G1 X173.477 Y158.2 E11.65878
G1 X172.188 Y160.346 E11.84013
G1 X170.914 Y162.609 E12.02825
G1 X169.746 Y164.831 E12.2101
G1 X168.634 Y167.098 E12.39302
G1 X167.583 Y169.407 E12.57679
G1 X166.597 Y171.743 E12.76047
G1 X165.672 Y174.117 E12.94504
G1 X164.813 Y176.526 E13.13031
G1 X164.039 Y178.905 E13.31154
G1 X163.325 Y181.334 E13.49494
G1 X162.67 Y183.814 E13.68075
G1 X162.093 Y186.284 E13.8645
G1 X161.59 Y188.751 E14.04689
G1 X161.153 Y191.253 E14.23088
G1 X160.616 Y195.058 E14.50925
G1 X160.457 Y195.953 E14.57509
G1 X160.219 Y196.83 E14.64092
G1 X159.905 Y197.683 E14.70677
G1 X159.518 Y198.505 E14.77258
G1 X159.239 Y199.001 E14.81381
G1 X159.006 Y199.39 E14.84666
G1 X158.505 Y200.148 E14.91248
G1 X157.939 Y200.86 E14.97837
G1 X157.314 Y201.519 E15.04416
G1 X156.632 Y202.12 E15.11001
G1 X155.576 Y202.868 E15.20375
G1 X155.335 Y203.017 E15.22428
G1 X154.542 Y203.461 E15.29012
G1 X153.713 Y203.833 E15.35594
G1 X152.593 Y204.205 E15.44143
G1 X152.415 Y204.253 E15.45478
G1 X151.527 Y204.451 E15.52069
G1 X150.626 Y204.57 E15.58653
G1 X149.937 Y204.607 E15.63651
G1 X148.602 Y204.632 E15.73324
G1 X127.15 Y204.631 E17.28723
G1 X126.44 Y204.621 E17.33867
G1 X125.851 Y204.596 E17.38137
G1 X125.091 Y204.537 E17.4366
G1 X124.619 Y204.489 E17.47096
G1 X123.528 Y204.319 E17.55095
G1 X122.78 Y204.148 E17.60653
G1 X122.265 Y204.013 E17.6451
G1 X121.12 Y203.641 E17.73231
G1 X120.108 Y203.239 E17.81119
G1 X119.899 Y203.149 E17.82768
G1 X118.749 Y202.566 E17.92108
G1 X118.125 Y202.191 E17.97382
G1 X117.724 Y201.935 E18.00828
G1 X116.711 Y201.198 E18.09903
G1 X116.061 Y200.662 E18.16006
G1 X115.304 Y199.971 E18.23431
G1 X115.012 Y199.677 E18.26432
G1 X114.365 Y198.963 E18.33412
G1 X113.988 Y198.505 E18.3771
G1 X113.265 Y197.511 E18.46614
G1 X112.66 Y196.552 E18.54827
G1 X112.537 Y196.342 E18.5659
G1 X111.965 Y195.211 E18.65772
G1 X111.69 Y194.557 E18.70911
G1 X111.503 Y194.079 E18.74629
G1 X111.125 Y192.913 E18.83509
G1 X110.879 Y191.946 E18.90737
G1 X110.819 Y191.68 E18.92712
G1 X110.624 Y190.495 E19.01412
G1 X110.553 Y189.735 E19.06941
G1 X110.509 Y189.015 E19.12167
G1 X110.49 Y188.387 E19.16718
G1 X110.485 Y162.89 E21.0142
G1 X110.448 Y160.287 E21.20278
G1 X110.34 Y157.73 E21.38818
G1 X110.162 Y155.228 E21.56988
G1 X109.908 Y152.667 E21.75631
G1 X109.592 Y150.193 E21.93698
G1 X109.195 Y147.666 E22.12229
G1 X108.73 Y145.167 E22.30642
G1 X108.209 Y142.738 E22.48638
G1 X107.588 Y140.212 E22.67482
G1 X106.922 Y137.791 E22.85671
G1 X106.181 Y135.369 E23.04019
G1 X105.378 Y132.988 E23.22222
G1 X104.221 Y129.886 E23.46205
G1 X103.824 Y128.86 E23.54174
G1 X103.641 Y128.34 E23.58168
G1 X103.418 Y127.627 E23.63579
G1 X103.153 Y126.637 E23.71003
G1 X103.03 Y126.133 E23.74762
G1 X102.899 Y125.515 E23.79338
G1 X102.707 Y124.449 E23.87184
G1 X102.564 Y123.487 E23.9423
G1 X102.503 Y122.958 E23.98087
G1 X102.448 Y122.242 E24.03289
G1 X102.402 Y121.311 E24.10042
G1 X102.391 Y120.596 E24.15222
G1 X102.413 Y119.489 E24.23242
G1 X102.448 Y118.755 E24.28566
G1 X102.503 Y118.126 E24.3314
G1 X102.686 Y116.641 E24.43978
G1 X102.766 Y116.125 E24.47761
G1 X102.905 Y115.399 E24.53116
G1 X103.145 Y114.376 E24.60728
G1 X103.277 Y113.87 E24.64516
G1 X103.452 Y113.273 E24.69022
G1 X103.485 Y113.175 E24.69771
G0 F1620 X103.913 Y111.881
G1 F2100 E19.69771
G1 F300 Z0.56
;MESH:aza-ptfe-guide-mount-v4.stl
G0 F6000 X131.45 Y133.611 Z0.56
;TYPE:WALL-INNER
G1 F300 Z0.24
G1 F2100 E24.69771
G1 F1800 X131.378 Y133.497 E24.70588
G1 X131.021 Y132.871 E24.74954
G1 X130.894 Y132.59 E24.76823
G1 X130.663 Y131.866 E24.81427
G1 X130.594 Y131.537 E24.83464
G1 X130.521 Y130.828 E24.87782
G1 X130.522 Y130.539 E24.89533
G1 X130.595 Y129.802 E24.9402
G1 X130.64 Y129.552 E24.95559
G1 X130.679 Y129.415 E24.96422
G1 X130.907 Y128.728 E25.00808
G1 X131.031 Y128.444 E25.02685
G1 X131.413 Y127.791 E25.07269
G1 X131.618 Y127.513 E25.09361
G1 X132.104 Y126.98 E25.13732
G1 X132.298 Y126.798 E25.15343
G1 X132.882 Y126.373 E25.19719
G1 X133.189 Y126.192 E25.21879
G1 X133.875 Y125.882 E25.26439
G1 X134.178 Y125.784 E25.28369
G1 X134.884 Y125.629 E25.32748
G1 X135.22 Y125.592 E25.34796
G1 X136.066 Y125.594 E25.39922
G1 X136.346 Y125.629 E25.41631
G1 X137.025 Y125.774 E25.45838
G1 X137.324 Y125.872 E25.47744
G1 X138.012 Y126.173 E25.52294
G1 X138.282 Y126.33 E25.54187
G1 X138.889 Y126.766 E25.58715
G1 X139.078 Y126.929 E25.60227
G1 X139.619 Y127.52 E25.65081
G1 X139.777 Y127.726 E25.66654
G1 X139.849 Y127.842 E25.67481
G1 X140.209 Y128.471 E25.71872
G1 X140.347 Y128.787 E25.73961
G1 X140.565 Y129.47 E25.78305
G1 X140.634 Y129.799 E25.80342
G1 X140.706 Y130.475 E25.8446
G1 X140.707 Y130.809 E25.86484
G1 X140.637 Y131.526 E25.90849
G1 X140.59 Y131.79 E25.92473
G1 X140.518 Y132.025 E25.93962
G1 X140.322 Y132.614 E25.97723
G1 X140.181 Y132.929 E25.99814
G1 X139.817 Y133.551 E26.04181
G1 X139.674 Y133.758 E26.05705
G1 X139.167 Y134.324 E26.10309
G1 X138.969 Y134.51 E26.11955
G1 X138.335 Y134.977 E26.16726
G1 X138.042 Y135.148 E26.18781
G1 X137.383 Y135.448 E26.23168
G1 X137.052 Y135.558 E26.25281
G1 X136.353 Y135.711 E26.29616
G1 X136.097 Y135.747 E26.31183
G1 X135.944 Y135.753 E26.3211
G1 X135.22 Y135.749 E26.36497
G1 X134.955 Y135.727 E26.38108
G1 X134.619 Y135.657 E26.40187
G1 X134.163 Y135.557 E26.43016
G1 X133.903 Y135.468 E26.44681
G1 X133.245 Y135.179 E26.49035
G1 X132.948 Y135.01 E26.51105
G1 X132.381 Y134.604 E26.5533
G0 F1620 X132.363 Y134.591
G0 X132.105 Y134.362
G0 X131.611 Y133.822
G0 X131.45 Y133.611
G0 F6000 X131.594 Y132.544
G1 F1800 X131.511 Y132.354 E26.56587
G1 X131.275 Y131.606 E26.61339
G1 X131.249 Y131.445 E26.62327
G1 X131.179 Y130.774 E26.66414
G1 X131.187 Y130.526 E26.67918
G1 X131.251 Y129.872 E26.71899
G1 X131.306 Y129.623 E26.73444
G1 X131.534 Y128.935 E26.77835
G1 X131.619 Y128.746 E26.79091
G1 X131.983 Y128.124 E26.83457
G1 X132.106 Y127.957 E26.84714
G1 X132.592 Y127.424 E26.89084
G1 X132.78 Y127.262 E26.90587
G1 X133.298 Y126.887 E26.94462
G1 X133.582 Y126.739 E26.96402
G1 X134.137 Y126.487 E27.00095
G1 X134.385 Y126.414 E27.01661
G1 X135.022 Y126.274 E27.05613
G1 X135.23 Y126.253 E27.06879
G1 X136.04 Y126.253 E27.11787
G1 X136.238 Y126.28 E27.12998
G1 X136.88 Y126.418 E27.16976
G1 X137.202 Y126.539 E27.1906
G1 X137.735 Y126.773 E27.22587
G1 X138.015 Y126.951 E27.24597
G1 X138.539 Y127.329 E27.28512
G1 X138.719 Y127.513 E27.30071
G1 X139.128 Y127.962 E27.33751
G1 X139.276 Y128.169 E27.35293
G1 X139.635 Y128.798 E27.39681
G1 X139.719 Y128.987 E27.40934
G1 X139.937 Y129.67 E27.45278
G1 X139.978 Y129.868 E27.46503
G1 X140.049 Y130.544 E27.50621
G1 X140.01 Y131.158 E27.54348
G1 X139.98 Y131.462 E27.56199
G1 X139.926 Y131.713 E27.57755
G1 X139.696 Y132.407 E27.62184
G1 X139.611 Y132.595 E27.63434
G1 X139.247 Y133.218 E27.67806
G1 X139.128 Y133.38 E27.69024
G1 X138.676 Y133.882 E27.73116
G1 X138.526 Y134.017 E27.74339
G1 X137.944 Y134.445 E27.78716
G1 X137.769 Y134.547 E27.79943
G1 X137.11 Y134.847 E27.8433
G1 X136.911 Y134.914 E27.85602
G1 X136.212 Y135.066 E27.89936
G1 X135.948 Y135.093 E27.91544
G1 X135.166 Y135.088 E27.96282
G1 X134.757 Y135.011 E27.98804
G1 X134.341 Y134.922 E28.01381
G1 X134.168 Y134.864 E28.02487
G1 X133.51 Y134.575 E28.06841
G1 X133.332 Y134.473 E28.08084
G1 X132.747 Y134.054 E28.12443
G1 X132.534 Y133.854 E28.14214
G1 X132.36 Y133.663 E28.15779
G0 F1620 X132.102 Y133.38
G0 X131.952 Y133.17
G0 X131.594 Y132.544
G0 F6000 X132.154 Y132.191
;TYPE:WALL-OUTER
G1 F1800 X132.14 Y132.154 E28.16016
G1 X131.914 Y131.442 E28.20493
G1 X131.905 Y131.377 E28.20886
G1 X131.837 Y130.721 E28.24838
G1 X131.844 Y130.59 E28.25625
G1 X131.91 Y129.92 E28.29659
G1 X131.932 Y129.831 E28.30209
G1 X132.16 Y129.143 E28.34552
G1 X132.189 Y129.08 E28.34968
G1 X132.565 Y128.438 E28.39426
G1 X132.594 Y128.402 E28.39703
G1 X133.093 Y127.855 E28.44141
G1 X133.168 Y127.796 E28.44712
G1 X133.68 Y127.425 E28.48502
G1 X133.854 Y127.34 E28.49662
G1 X134.399 Y127.093 E28.53248
G1 X134.526 Y127.059 E28.54036
G1 X135.193 Y126.914 E28.58126
G1 X136.014 Y126.913 E28.63047
G1 X136.1 Y126.926 E28.63568
G1 X136.736 Y127.062 E28.67465
G1 X136.938 Y127.144 E28.68772
G1 X137.459 Y127.372 E28.7218
G1 X137.631 Y127.487 E28.7342
G1 X138.117 Y127.837 E28.77009
G1 X138.231 Y127.958 E28.78005
G1 X138.653 Y128.422 E28.81764
G1 X138.703 Y128.496 E28.82299
G1 X139.072 Y129.143 E28.86763
G1 X139.09 Y129.188 E28.87053
G1 X139.308 Y129.871 E28.9135
G1 X139.322 Y129.937 E28.91754
G1 X139.393 Y130.613 E28.95828
G1 X139.353 Y131.094 E28.9872
G1 X139.32 Y131.419 E29.00678
G1 X139.266 Y131.609 E29.01862
G1 X139.07 Y132.199 E29.05587
G1 X139.041 Y132.262 E29.06003
G1 X138.657 Y132.916 E29.10548
G1 X138.186 Y133.44 E29.1477
G1 X138.136 Y133.485 E29.15173
G1 X137.554 Y133.913 E29.19503
G1 X137.495 Y133.947 E29.19911
G1 X136.836 Y134.247 E29.2425
G1 X136.77 Y134.269 E29.24667
G1 X136.071 Y134.422 E29.28955
G1 X135.952 Y134.433 E29.29671
G1 X135.208 Y134.429 E29.3413
G1 X134.895 Y134.366 E29.36043
G1 X134.486 Y134.277 E29.38552
G1 X134.434 Y134.26 E29.3888
G1 X133.776 Y133.971 E29.43187
G1 X133.716 Y133.937 E29.436
G1 X133.131 Y133.518 E29.47912
G1 X133.022 Y133.409 E29.48836
G1 X132.927 Y133.305 E29.4968
G0 F1620 X132.579 Y132.922
G0 X132.525 Y132.843
G0 X132.154 Y132.191
G0 F6000 X132.14 Y132.154
G0 X132.055 Y131.887
G1 F2100 E24.4968
G1 F300 Z0.56
G0 F6000 X149.987 Y142.141 Z0.56
G1 F300 Z0.24
G1 F2100 E29.4968
G1 F1363.9 X149.97 Y142.46 E29.52206
G1 F1311.3 X149.952 Y142.779 E29.54835
G1 F2100 E24.54835
G1 F300 Z0.56
G0 F6000 X148.764 Y182.692 Z0.56
;TYPE:WALL-INNER
G1 F300 Z0.24
G1 F2100 E29.54835
G1 F1800 X148.764 Y146.355 E31.74989
G1 X148.541 Y146.484 E31.76549
G1 X147.88 Y146.783 E31.80945
G1 X147.552 Y146.892 E31.83039
G1 X146.854 Y147.045 E31.87368
G1 X146.598 Y147.081 E31.88935
G1 X146.444 Y147.087 E31.89868
G1 X145.72 Y147.083 E31.94255
G1 X145.384 Y147.046 E31.96303
G1 X144.721 Y146.904 E32.00411
G1 X144.406 Y146.802 E32.02417
G1 X143.747 Y146.514 E32.06774
G1 X143.531 Y146.4 E32.08254
G1 X143.281 Y146.224 E32.10106
G1 X142.862 Y145.924 E32.13229
G1 X142.666 Y145.759 E32.14781
G1 X142.604 Y145.695 E32.15321
G1 X142.118 Y145.162 E32.19691
G1 X141.95 Y144.944 E32.21358
G1 X141.878 Y144.83 E32.22175
G1 X141.521 Y144.204 E32.26541
G1 X141.382 Y143.888 E32.28633
G1 X141.163 Y143.201 E32.33002
G1 X141.107 Y142.965 E32.34471
G1 X141.066 Y142.599 E32.36703
G1 X141.024 Y142.196 E32.39157
G1 X141.016 Y141.576 E32.42914
G1 X141.015 Y135.495 E32.79757
G1 X141.036 Y135.224 E32.81404
G1 X141.158 Y134.822 E32.83949
G1 X141.276 Y134.584 E32.85558
G1 X141.638 Y134.111 E32.89167
G1 X141.916 Y133.907 E32.91256
G1 X142.24 Y133.763 E32.93404
G1 X142.486 Y133.689 E32.94961
G1 X142.73 Y133.651 E32.96457
G1 X143.28 Y133.646 E32.99789
G1 X172.475 Y133.644 E34.76672
G1 X173.763 Y133.58 E34.84485
G1 X174.155 Y133.523 E34.86885
G1 X173.958 Y133.181 E34.89277
G1 X173.781 Y132.871 E34.91439
G1 X173.642 Y132.554 E34.93536
G1 X173.423 Y131.866 E34.97911
G1 X173.354 Y131.537 E34.99948
G1 X173.284 Y130.866 E35.04035
G1 X173.283 Y130.533 E35.06053
G1 X173.353 Y129.816 E35.10417
G1 X173.4 Y129.552 E35.12042
G1 X173.439 Y129.415 E35.12905
G1 X173.667 Y128.727 E35.17296
G1 X173.76 Y128.504 E35.1876
G1 X173.809 Y128.413 E35.19386
G1 X174.173 Y127.791 E35.23753
G1 X174.335 Y127.562 E35.25452
G1 X174.865 Y126.979 E35.30226
G1 X175.114 Y126.756 E35.32251
G1 X175.677 Y126.348 E35.36463
G1 X175.949 Y126.192 E35.38363
G1 X176.635 Y125.882 E35.42924
G1 X176.938 Y125.784 E35.44854
G1 X177.644 Y125.629 E35.49233
G1 X177.893 Y125.595 E35.50755
G1 X178.046 Y125.589 E35.51683
G1 X178.831 Y125.594 E35.56439
G1 X179.106 Y125.629 E35.58119
G1 X179.844 Y125.788 E35.62693
G1 X180.084 Y125.872 E35.64233
G1 X180.741 Y126.159 E35.68577
