;FLAVOR:Marlin
;TIME:1273
;Filament used: 2.37025m
;Layer height: 0.32
;MINX:99.689
;MINY:99.688
;MINZ:0.24
;MAXX:182.469
;MAXY:182.469
;MAXZ:9.2
;Generated with Cura_SteamEngine 5.0.0
M140 S70
M105
M190 S70
M104 S245
M105
M109 S245
M82 ;absolute extrusion mode
; Ender 3 Max Custom Start G-code
G92 E0 ; Reset Extruder
G28 ; Home all axes
G1 Z2.0 F3000 ; Move Z Axis up little to prevent scratching of Heat Bed
G1 X0.1 Y20 Z0.3 F5000.0 ; Move to start position
G1 X0.1 Y200.0 Z0.3 F1500.0 E15 ; Draw the first line
G1 X0.4 Y200.0 Z0.3 F5000.0 ; Move to side a little
G1 X0.4 Y20 Z0.3 F1500.0 E30 ; Draw the second line
G92 E0 ; Reset Extruder
G1 Z2.0 F3000 ; Move Z Axis up little to prevent scratching of Heat Bed
G1 X5 Y20 Z0.3 F5000.0 ; Move over to prevent blob squish
G92 E0
G92 E0
G1 F2100 E-5
;LAYER_COUNT:28
;LAYER:0
M107
G1 F300 Z0.56
G0 F6000 X115.688 Y114.902 Z0.56
G1 F300 Z0.56
G0 F6000 X110.321 Y121.032
;TYPE:SKIRT
G1 F300 Z0.24
G1 F2100 E0
G1 F1800 X111.057 Y120.067 E0.08792
G1 X111.974 Y118.935 E0.19345
G1 X112.815 Y117.943 E0.28766
G1 X113.813 Y116.836 E0.39563
G1 X114.601 Y115.996 E0.47906
G1 X115.688 Y114.902 E0.59078
G1 X116.504 Y114.117 E0.6728
G1 X117.63 Y113.093 E0.78306
G1 X118.533 Y112.309 E0.86969
G1 X119.74 Y111.318 E0.98282
G1 X120.631 Y110.62 E1.06481
G1 X121.849 Y109.722 E1.17443
G1 X122.824 Y109.033 E1.26092
G1 X124.093 Y108.193 E1.37116
G1 X125.074 Y107.572 E1.45526
G1 X126.372 Y106.804 E1.56452
G1 X127.439 Y106.202 E1.65327
G1 X128.797 Y105.488 E1.76441
G1 X129.804 Y104.986 E1.84592
G1 X131.208 Y104.337 E1.95796
G1 X132.295 Y103.863 E2.04387
G1 X133.689 Y103.303 E2.15269
G1 X134.834 Y102.871 E2.24135
G1 X136.219 Y102.394 E2.34746
G1 X137.369 Y102.024 E2.43497
G1 X138.823 Y101.605 E2.54459
G1 X139.953 Y101.306 E2.62926
G1 X141.465 Y100.952 E2.74175
G1 X142.559 Y100.72 E2.82277
G1 X144.042 Y100.45 E2.93196
G1 X145.239 Y100.258 E3.01978
G1 X146.713 Y100.066 E3.12746
G1 X147.962 Y99.931 E3.21847
G1 X149.437 Y99.815 E3.32565
G1 X150.542 Y99.752 E3.40582
G1 X152.161 Y99.705 E3.52315
G1 X153.586 Y99.688 E3.62639
G1 X171.583 Y99.69 E4.9301
G1 X172.278 Y99.7 E4.98045
G1 X173.185 Y99.753 E5.04627
G1 X174.084 Y99.886 E5.1121
G1 X174.968 Y100.097 E5.17794
G1 X175.83 Y100.385 E5.24377
G1 X176.663 Y100.747 E5.30957
G1 X177.462 Y101.182 E5.37547
G1 X178.219 Y101.685 E5.44131
G1 X178.929 Y102.252 E5.50713
G1 X179.586 Y102.88 E5.57297
G1 X180.185 Y103.563 E5.63878
G1 X180.722 Y104.296 E5.7046
G1 X181.193 Y105.074 E5.77049
G1 X181.593 Y105.89 E5.83632
G1 X181.921 Y106.738 E5.90218
G1 X182.172 Y107.611 E5.96798
G1 X182.346 Y108.503 E6.03382
G1 X182.454 Y109.697 E6.12067
G1 X182.469 Y110.34 E6.16726
G1 X182.468 Y114.062 E6.43688
G1 X182.458 Y114.796 E6.49006
G1 X182.406 Y115.703 E6.55587
G1 X182.274 Y116.602 E6.62169
G1 X182.063 Y117.486 E6.68753
G1 X181.776 Y118.349 E6.75341
G1 X181.414 Y119.182 E6.81921
G1 X180.98 Y119.981 E6.88507
G1 X180.478 Y120.738 E6.95087
G1 X179.911 Y121.449 E7.01675
G1 X179.284 Y122.106 E7.08254
G1 X178.601 Y122.706 E7.1484
G1 X177.868 Y123.244 E7.21426
G1 X177.091 Y123.715 E7.28008
G1 X175.983 Y124.239 E7.36887
G1 X173.338 Y125.303 E7.5754
G1 X171.022 Y126.312 E7.7584
G1 X168.706 Y127.401 E7.94379
G1 X166.432 Y128.55 E8.12836
G1 X164.227 Y129.743 E8.30997
G1 X162.019 Y131.02 E8.49474
G1 X159.881 Y132.337 E8.67665
G1 X157.748 Y133.738 E8.86151
G1 X155.668 Y135.189 E9.04523
G1 X153.614 Y136.71 E9.23038
G1 X151.634 Y138.265 E9.41275
G1 X149.667 Y139.902 E9.59813
G1 X147.796 Y141.551 E9.7788
G1 X145.931 Y143.29 E9.96352
G1 X144.125 Y145.073 E10.14736
G1 X142.346 Y146.932 E10.33376
G1 X140.678 Y148.776 E10.51388
G1 X139.004 Y150.735 E10.70055
G1 X137.433 Y152.682 E10.88178
G1 X135.882 Y154.721 E11.06736
G1 X134.408 Y156.775 E11.2505
G1 X133.005 Y158.852 E11.43207
G1 X131.621 Y161.032 E11.61913
G1 X130.329 Y163.202 E11.80208
G1 X129.095 Y165.413 E11.9855
G1 X127.932 Y167.643 E12.16769
G1 X126.815 Y169.94 E12.35272
G1 X125.781 Y172.231 E12.5348
G1 X124.571 Y175.149 E12.76363
G1 X124.27 Y175.913 E12.82312
G1 X123.9 Y176.743 E12.88895
G1 X123.459 Y177.537 E12.95474
G1 X122.95 Y178.29 E13.02058
G1 X122.376 Y178.995 E13.08644
G1 X121.743 Y179.647 E13.15227
G1 X121.055 Y180.24 E13.21807
G1 X120.317 Y180.771 E13.28393
G1 X119.535 Y181.235 E13.3498
G1 X118.716 Y181.629 E13.41563
G1 X117.865 Y181.948 E13.48147
G1 X116.99 Y182.192 E13.54727
G1 X116.096 Y182.358 E13.61314
G1 X114.87 Y182.457 E13.70224
G1 X114.171 Y182.469 E13.75289
G1 X110.593 Y182.468 E14.01208
G1 X109.895 Y182.459 E14.06265
G1 X108.987 Y182.407 E14.12853
G1 X108.088 Y182.276 E14.19434
G1 X107.204 Y182.066 E14.26016
G1 X106.341 Y181.78 E14.32602
G1 X105.507 Y181.418 E14.39188
G1 X104.709 Y180.985 E14.45765
G1 X103.951 Y180.483 E14.52351
G1 X103.24 Y179.917 E14.58935
G1 X102.582 Y179.29 E14.65519
G1 X101.981 Y178.608 E14.72104
G1 X101.443 Y177.875 E14.7869
G1 X100.971 Y177.099 E14.8527
G1 X100.57 Y176.283 E14.91856
G1 X100.241 Y175.436 E14.98439
G1 X99.989 Y174.563 E15.05021
G1 X99.814 Y173.671 E15.11606
G1 X99.701 Y172.383 E15.20972
G1 X99.689 Y171.76 E15.25486
G1 X99.694 Y153.266 E16.59457
G1 X99.713 Y151.838 E16.69803
G1 X99.763 Y150.297 E16.80972
G1 X99.785 Y149.885 E16.83961
G1 X99.894 Y148.404 E16.94718
G1 X100.014 Y147.144 E17.03887
G1 X100.194 Y145.713 E17.14335
G1 X100.368 Y144.522 E17.23054
G1 X100.626 Y143.053 E17.33858
G1 X100.861 Y141.867 E17.42617
G1 X101.208 Y140.357 E17.53841
G1 X101.498 Y139.207 E17.62432
G1 X101.902 Y137.789 E17.73113
G1 X102.253 Y136.646 E17.81774
G1 X102.727 Y135.246 E17.92482
G1 X103.15 Y134.082 E18.01453
G1 X103.703 Y132.686 E18.12331
G1 X104.145 Y131.637 E18.20577
G1 X104.77 Y130.267 E18.31485
G1 X105.312 Y129.142 E18.40531
G1 X106.004 Y127.808 E18.51417
G1 X106.565 Y126.783 E18.59882
G1 X107.334 Y125.469 E18.70911
G1 X107.947 Y124.473 E18.79383
G1 X108.772 Y123.214 E18.90287
G1 X109.466 Y122.204 E18.99164
G1 X109.518 Y122.133 E18.99802
G0 F1620 X110.321 Y121.032
G1 F2100 E13.99802
G1 F300 Z0.56
;MESH:aza-ptfe-guide.v2.stl
G0 F6000 X111.67 Y170.488 Z0.56
;TYPE:WALL-INNER
G1 F300 Z0.24
G1 F2100 E18.99802
G1 F1800 X113.05 Y170.488 E19.08163
G1 X113.071 Y169.646 E19.13266
G1 X113.244 Y167.063 E19.2895
G1 X113.541 Y164.415 E19.45094
G1 X113.551 Y164.341 E19.45547
G1 X113.965 Y161.735 E19.61533
G1 X114.487 Y159.178 E19.77345
G1 X115.135 Y156.599 E19.93456
G1 X115.903 Y154.033 E20.09684
G1 X116.678 Y151.815 E20.23919
G1 X116.769 Y151.556 E20.25582
G1 X117.771 Y149.05 E20.41934
G1 X117.801 Y148.98 E20.42395
G1 X118.9 Y146.569 E20.58448
G1 X120.109 Y144.195 E20.7459
G1 X121.39 Y141.938 E20.90313
G1 X121.426 Y141.877 E20.90742
G1 X122.804 Y139.688 E21.06414
G1 X123.225 Y139.077 E21.10909
G1 X124.317 Y137.5 E21.22531
G1 X125.297 Y136.21 E21.32346
G1 X125.975 Y135.323 E21.3911
G1 X127.632 Y133.336 E21.54785
G1 X127.682 Y133.279 E21.55245
G1 X129.43 Y131.367 E21.7094
G1 X129.735 Y131.06 E21.73562
G1 X131.363 Y129.436 E21.87494
G1 X133.329 Y127.638 E22.03636
G1 X135.312 Y125.981 E22.19292
G1 X137.493 Y124.322 E22.35895
G1 X139.624 Y122.846 E22.516
G1 X139.684 Y122.806 E22.52037
G1 X141.883 Y121.425 E22.67769
G1 X144.184 Y120.115 E22.83811
G1 X144.251 Y120.079 E22.84272
G1 X146.561 Y118.903 E22.99977
G1 X148.449 Y118.044 E23.12544
G1 X148.985 Y117.801 E23.1611
G1 X151.478 Y116.796 E23.32395
G1 X153.729 Y116.008 E23.46845
G1 X153.88 Y115.957 E23.4781
G1 X156.511 Y115.16 E23.64466
G1 X156.586 Y115.139 E23.64938
G1 X159.096 Y114.506 E23.80621
G1 X161.703 Y113.97 E23.96747
G1 X164.337 Y113.552 E24.12905
G1 X166.979 Y113.252 E24.29015
G1 X167.054 Y113.245 E24.29471
G1 X169.64 Y113.071 E24.45174
G1 X170.489 Y113.05 E24.5032
G1 X170.489 Y112.368 E24.54452
G1 X170.489 Y111.669 E24.58687
G1 X152.939 Y111.669 E25.65016
G1 X150.844 Y111.722 E25.77713
G1 X148.766 Y111.881 E25.9034
G1 X146.695 Y112.145 E26.02989
G1 X144.653 Y112.512 E26.15559
G1 X142.588 Y112.988 E26.28398
G1 X140.578 Y113.562 E26.41063
G1 X138.613 Y114.237 E26.53651
G1 X136.658 Y115.017 E26.66404
G1 X134.76 Y115.89 E26.79061
G1 X132.912 Y116.855 E26.91692
G1 X131.105 Y117.918 E27.04394
G1 X129.361 Y119.068 E27.17051
G1 X127.683 Y120.301 E27.29667
G1 X126.065 Y121.62 E27.42314
G1 X124.502 Y123.029 E27.55064
G1 X123.021 Y124.51 E27.67753
G1 X121.624 Y126.059 E27.80391
G1 X120.301 Y127.683 E27.93082
G1 X119.07 Y129.358 E28.05676
G1 X117.913 Y131.114 E28.18417
G1 X116.858 Y132.906 E28.31016
G1 X115.885 Y134.769 E28.4375
G1 X115.014 Y136.667 E28.56402
G1 X114.243 Y138.599 E28.69005
G1 X113.56 Y140.59 E28.81758
G1 X112.989 Y142.585 E28.9433
G1 X112.514 Y144.634 E29.07074
G1 X112.145 Y146.695 E29.19759
G1 X111.88 Y148.767 E29.32415
G1 X111.722 Y150.843 E29.45029
G1 X111.674 Y152.856 E29.57229
G1 X111.67 Y169.125 E30.55797
G0 F1620 X111.67 Y170.488
G0 F6000 X111.01 Y171.148
G1 F1800 X113.695 Y171.148 E30.72065
G1 X113.73 Y169.69 E30.80901
G1 X113.907 Y167.062 E30.96859
G1 X114.203 Y164.444 E31.12822
G1 X114.612 Y161.867 E31.2863
G1 X115.144 Y159.266 E31.44715
G1 X115.787 Y156.717 E31.60643
G1 X116.549 Y154.18 E31.76692
G1 X117.407 Y151.734 E31.92397
G1 X118.401 Y149.253 E32.0859
G1 X119.469 Y146.907 E32.24207
G1 X120.683 Y144.521 E32.40426
G1 X121.963 Y142.265 E32.56142
G1 X123.363 Y140.04 E32.72069
G1 X123.386 Y140.004 E32.72327
G1 X124.886 Y137.84 E32.8828
G1 X126.482 Y135.745 E33.04237
G1 X128.169 Y133.724 E33.20187
G1 X129.948 Y131.78 E33.36152
G1 X131.809 Y129.923 E33.5208
G1 X133.753 Y128.145 E33.68042
G1 X135.771 Y126.459 E33.83974
G1 X137.869 Y124.865 E33.99937
G1 X140.035 Y123.365 E34.159
G1 X142.261 Y121.968 E34.31823
G1 X144.55 Y120.667 E34.47774
G1 X146.9 Y119.472 E34.63747
G1 X149.297 Y118.385 E34.79694
G1 X151.767 Y117.393 E34.9582
G1 X154.071 Y116.589 E35.10605
G1 X156.747 Y115.779 E35.27544
G1 X159.301 Y115.136 E35.43501
G1 X161.88 Y114.609 E35.59449
G1 X164.44 Y114.204 E35.75152
G1 X167.098 Y113.904 E35.91359
G1 X169.727 Y113.728 E36.07322
G1 X171.149 Y113.695 E36.1594
G1 X171.149 Y112.368 E36.2398
G1 X171.149 Y111.009 E36.32214
G1 X152.922 Y111.009 E37.42645
G1 X150.81 Y111.063 E37.55445
G1 X148.699 Y111.225 E37.68273
G1 X146.595 Y111.492 E37.81122
G1 X144.52 Y111.866 E37.93897
G1 X142.423 Y112.349 E38.06934
G1 X140.38 Y112.932 E38.19806
G1 X138.383 Y113.618 E38.32599
G1 X136.398 Y114.411 E38.4555
G1 X135.203 Y114.959 E38.53515
G1 X134.469 Y115.297 E38.58411
G1 X132.591 Y116.278 E38.71248
G1 X130.756 Y117.358 E38.84148
G1 X128.984 Y118.526 E38.97007
G1 X127.279 Y119.779 E39.09826
G1 X125.635 Y121.118 E39.22672
G1 X124.048 Y122.55 E39.35623
G1 X122.542 Y124.056 E39.48527
G1 X121.122 Y125.629 E39.61366
G1 X119.779 Y127.279 E39.74256
G1 X118.528 Y128.98 E39.87049
G1 X117.352 Y130.764 E39.99994
G1 X116.502 Y132.211 E40.10162
G1 X116.28 Y132.586 E40.12802
G1 X115.292 Y134.479 E40.25739
G1 X114.407 Y136.407 E40.38592
G1 X113.624 Y138.37 E40.51397
G1 X112.93 Y140.392 E40.64349
G1 X112.35 Y142.42 E40.77128
G1 X111.868 Y144.501 E40.9007
G1 X111.492 Y146.595 E41.0296
G1 X111.408 Y147.264 E41.07045
G1 X111.224 Y148.7 E41.15816
G1 X111.063 Y150.81 E41.28637
G1 X111.014 Y152.856 E41.41037
G1 X111.01 Y169.785 E42.43604
G0 F1620 X111.01 Y171.148
G0 F6000 X110.35 Y171.808
;TYPE:WALL-OUTER
G1 F1800 X114.341 Y171.808 E42.67521
G1 X114.388 Y169.734 E42.79954
G1 X114.563 Y167.136 E42.95558
G1 X114.855 Y164.548 E43.11166
G1 X115.259 Y161.999 E43.26632
G1 X115.784 Y159.427 E43.42364
G1 X116.419 Y156.907 E43.57938
G1 X117.172 Y154.398 E43.73636
G1 X118.02 Y151.979 E43.88998
G1 X119.002 Y149.527 E44.04827
G1 X120.076 Y147.168 E44.2036
G1 X121.257 Y144.847 E44.35967
G1 X122.543 Y142.581 E44.51581
G1 X123.929 Y140.38 E44.67168
G1 X125.411 Y138.24 E44.82768
G1 X126.989 Y136.168 E44.98376
G1 X128.656 Y134.17 E45.1397
G1 X130.414 Y132.247 E45.29584
G1 X132.255 Y130.41 E45.4517
G1 X134.176 Y128.651 E45.60779
G1 X136.171 Y126.985 E45.76355
G1 X138.245 Y125.407 E45.91973
G1 X140.386 Y123.924 E46.07581
G1 X142.587 Y122.542 E46.23156
G1 X144.85 Y121.255 E46.38757
G1 X147.173 Y120.073 E46.54377
G1 X149.543 Y118.997 E46.69975
G1 X151.985 Y118.016 E46.85746
G1 X154.263 Y117.221 E47.00205
G1 X156.909 Y116.419 E47.16775
G1 X159.433 Y115.783 E47.32373
G1 X161.983 Y115.261 E47.47972
G1 X164.557 Y114.855 E47.63588
G1 X167.142 Y114.562 E47.79179
G1 X169.743 Y114.388 E47.94801
G1 X171.809 Y114.339 E48.07186
G1 X171.809 Y112.368 E48.18997
G1 X171.809 Y110.349 E48.31097
G1 X152.906 Y110.349 E49.44379
G1 X150.776 Y110.403 E49.57148
G1 X148.632 Y110.568 E49.70034
G1 X146.495 Y110.84 E49.82944
G1 X144.5 Y111.198 E49.95091
G1 X144.195 Y111.263 E49.9696
G1 X142.258 Y111.709 E50.08872
G1 X140.182 Y112.302 E50.2181
G1 X138.277 Y112.957 E50.33883
G1 X138.033 Y113.047 E50.35441
G1 X136.138 Y113.804 E50.4767
G1 X134.928 Y114.359 E50.55648
G1 X134.178 Y114.704 E50.60595
G1 X132.271 Y115.701 E50.73491
G1 X130.407 Y116.798 E50.86453
G1 X128.607 Y117.984 E50.99371
G1 X126.875 Y119.257 E51.12252
G1 X125.205 Y120.617 E51.25159
G1 X123.593 Y122.071 E51.38169
G1 X122.063 Y123.601 E51.51136
G1 X120.621 Y125.199 E51.64035
G1 X119.257 Y126.875 E51.76984
G1 X117.986 Y128.603 E51.8984
G1 X116.792 Y130.415 E52.02844
G1 X115.703 Y132.266 E52.15714
G1 X114.699 Y134.188 E52.28709
G1 X113.8 Y136.147 E52.41626
G1 X113.005 Y138.14 E52.54485
G1 X112.344 Y140.068 E52.66699
G1 X112.265 Y140.32 E52.68282
G1 X111.711 Y142.254 E52.80338
G1 X111.221 Y144.368 E52.93343
G1 X110.84 Y146.495 E53.06293
G1 X110.567 Y148.633 E53.19209
G1 X110.403 Y150.777 E53.32095
G1 X110.354 Y152.856 E53.44558
G1 X110.35 Y170.445 E54.49965
G0 F1620 X110.35 Y171.808
G0 F6000 X110.67 Y171.808
G1 F2100 E49.49965
G1 F300 Z0.56
G0 F6000 X112.368 Y169.79 Z0.56
;TYPE:SKIN
G1 F300 Z0.24
G1 F2100 E54.49965
G1 F1325.9 X112.37 Y169.686 E54.50812
G1 F1311.3 X112.378 Y169.444 E54.52804
G1 F1288.5 X112.386 Y169.201 E54.54839
G1 F1266.5 X112.394 Y168.958 E54.5691
G1 F1245.3 X112.402 Y168.715 E54.59016
G1 F1224.7 X112.41 Y168.472 E54.61157
G1 F1204.9 X112.418 Y168.229 E54.63334
G1 F1185.6 X112.426 Y167.986 E54.65546
G1 F1167 X112.434 Y167.743 E54.67794
G1 F1148.9 X112.442 Y167.5 E54.70076
G1 F1131.4 X112.45 Y167.257 E54.72394
G1 F1114.4 X112.458 Y167.014 E54.74748
G1 F1092.9 X112.473 Y166.755 E54.77308
G1 F2100 E49.77308
G1 F300 Z0.56
G0 F6000 X166.19 Y112.795 Z0.56
G1 F300 Z0.24
G1 F2100 E54.77308
G1 F1661.5 X166.472 Y112.633 E54.7942
G1 F1219.7 X166.755 Y112.47 E54.82308
G1 X166.456 Y112.341 E54.85188
G1 F1661.5 X166.157 Y112.212 E54.87302
G1 F2006.8 X165.911 Y112.218 E54.88625
G1 F1960.4 X165.665 Y112.225 E54.89979
G1 F1916.1 X165.419 Y112.232 E54.91364
G1 F1873.8 X165.173 Y112.239 E54.92781
G1 F1833.3 X164.927 Y112.246 E54.94229
G1 F1794.6 X164.681 Y112.253 E54.95708
G1 F1757.4 X164.435 Y112.26 E54.97219
G1 F1721.7 X164.189 Y112.267 E54.98761
G1 F1682.7 X163.947 Y112.276 E55.00313
G1 F1636.4 X163.702 Y112.286 E55.0193
G1 F1594.6 X163.457 Y112.295 E55.03588
G1 F1555 X163.212 Y112.305 E55.05289
G1 F1515.3 X162.967 Y112.315 E55.07035
G1 F1479.5 X162.723 Y112.324 E55.08815
G1 F1445.3 X162.478 Y112.334 E55.10645
G1 F1410.9 X162.233 Y112.344 E55.1252
G1 F1379.8 X161.988 Y112.353 E55.14436
G1 F1350 X161.743 Y112.363 E55.16396
G1 F1320 X161.498 Y112.372 E55.18399
G1 F1305.5 X161.468 Y112.375 E55.18648
G1 F1321.5 X161.226 Y112.364 E55.20626
G1 F1356.2 X160.983 Y112.353 E55.22561
G1 F1392.7 X160.74 Y112.341 E55.24445
G1 F1429.6 X160.497 Y112.33 E55.2628
G1 F1470.3 X160.254 Y112.319 E55.28065
G1 F1513.4 X160.012 Y112.307 E55.29792
G1 F1559.1 X159.769 Y112.296 E55.31475
G1 F1607.6 X159.526 Y112.285 E55.33107
G1 F1656.9 X159.283 Y112.273 E55.34691
G1 F1711.8 X159.04 Y112.262 E55.36224
G1 F1770.5 X158.797 Y112.251 E55.37706
G1 F1800 X152.932 Y112.249 E55.72854
G1 X150.932 Y112.3 E55.84844
G1 X148.89 Y112.454 E55.97116
G1 X146.856 Y112.71 E56.09401
G1 X144.91 Y113.057 E56.21247
G1 X144.541 Y113.138 E56.23511
G1 X142.755 Y113.546 E56.3449
G1 X140.84 Y114.091 E56.46422
G1 X138.902 Y114.751 E56.58691
G1 X136.886 Y115.551 E56.71689
G1 X135.016 Y116.411 E56.84024
G1 X133.194 Y117.363 E56.96343
G1 X131.413 Y118.411 E57.08727
G1 X129.695 Y119.543 E57.21057
G1 X128.128 Y120.694 E57.32709
G1 X126.443 Y122.06 E57.45708
G1 X124.903 Y123.45 E57.5814
