;FLAVOR:Marlin
;TIME:1455
;Filament used: 2.69059m
;Layer height: 0.32
;MINX:108.55
;MINY:102.565
;MINZ:0.24
;MAXX:190.95
;MAXY:197.932
;MAXZ:9.2
;Generated with Cura_SteamEngine 5.0.0
M140 S70
M105
M190 S70
M104 S245
M105
M109 S245
M82 ;absolute extrusion mode
; Ender 3 Max Custom Start G-code
G92 E0 ; Reset Extruder
G28 ; Home all axes
G1 Z2.0 F3000 ; Move Z Axis up little to prevent scratching of Heat Bed
G1 X0.1 Y20 Z0.3 F5000.0 ; Move to start position
G1 X0.1 Y200.0 Z0.3 F1500.0 E15 ; Draw the first line
G1 X0.4 Y200.0 Z0.3 F5000.0 ; Move to side a little
G1 X0.4 Y20 Z0.3 F1500.0 E30 ; Draw the second line
G92 E0 ; Reset Extruder
G1 Z2.0 F3000 ; Move Z Axis up little to prevent scratching of Heat Bed
G1 X5 Y20 Z0.3 F5000.0 ; Move over to prevent blob squish
G92 E0
G92 E0
G1 F2100 E-5
;LAYER_COUNT:28
;LAYER:0
M107
G1 F300 Z0.56
G0 F6000 X112.769 Y164.18 Z0.56
G1 F300 Z0.56
G0 F6000 X108.551 Y173.037
;TYPE:SKIRT
G1 F300 Z0.24
G1 F2100 E0
G1 F1800 X108.561 Y172.375 E0.04796
G1 X108.615 Y171.468 E0.11378
G1 X108.748 Y170.569 E0.17961
G1 X108.96 Y169.685 E0.24547
G1 X109.248 Y168.823 E0.3113
G1 X109.612 Y167.99 E0.37716
G1 X110.287 Y166.812 E0.47551
G1 X110.818 Y166.074 E0.54137
G1 X111.412 Y165.386 E0.60721
G1 X112.064 Y164.753 E0.67304
G1 X112.769 Y164.18 E0.73885
G1 X113.522 Y163.67 E0.80474
G1 X114.317 Y163.229 E0.87059
G1 X115.035 Y162.905 E0.92766
G1 X115.591 Y162.679 E0.97113
G1 X118.013 Y161.657 E1.16156
G1 X120.341 Y160.593 E1.34699
G1 X122.617 Y159.477 E1.53061
G1 X124.832 Y158.311 E1.71194
G1 X127.075 Y157.049 E1.89838
G1 X129.234 Y155.751 E2.08087
G1 X131.372 Y154.383 E2.26474
G1 X133.484 Y152.945 E2.44983
G1 X135.518 Y151.475 E2.63162
G1 X137.533 Y149.929 E2.81561
G1 X139.502 Y148.33 E2.99935
G1 X141.427 Y146.673 E3.18334
G1 X143.285 Y144.979 E3.36548
G1 X145.139 Y143.19 E3.55212
G1 X146.901 Y141.393 E3.73443
G1 X148.623 Y139.533 E3.91805
G1 X150.307 Y137.607 E4.10338
G1 X151.902 Y135.675 E4.28487
G1 X153.463 Y133.673 E4.46877
G1 X154.982 Y131.606 E4.65459
G1 X156.401 Y129.555 E4.83526
G1 X157.808 Y127.398 E5.02181
G1 X159.106 Y125.272 E5.20226
G1 X160.387 Y123.037 E5.38887
G1 X161.585 Y120.805 E5.57238
G1 X162.723 Y118.529 E5.75671
G1 X163.79 Y116.239 E5.93972
G1 X164.789 Y113.923 E6.12244
G1 X165.36 Y112.492 E6.23405
G1 X165.425 Y112.347 E6.24556
G1 X165.889 Y111.182 E6.3364
G1 X166.262 Y110.353 E6.40225
G1 X166.707 Y109.56 E6.46812
G1 X167.324 Y108.671 E6.54651
G1 X168.817 Y106.719 E6.72454
G1 X169.398 Y106.021 E6.79033
G1 X170.039 Y105.376 E6.8562
G1 X170.734 Y104.791 E6.92201
G1 X171.478 Y104.268 E6.98789
G1 X172.265 Y103.813 E7.05374
G1 X173.088 Y103.429 E7.11953
G1 X174.174 Y103.049 E7.20288
G1 X175.057 Y102.831 E7.26876
G1 X176.167 Y102.669 E7.35002
G1 X176.852 Y102.607 E7.39985
G1 X177.76 Y102.565 E7.46569
G1 X178.639 Y102.6 E7.52942
G1 X179.373 Y102.661 E7.58277
G1 X180.274 Y102.777 E7.64858
G1 X181.235 Y102.99 E7.71989
G1 X182.101 Y103.264 E7.78569
G1 X182.941 Y103.613 E7.85158
G1 X183.746 Y104.034 E7.91739
G1 X184.511 Y104.525 E7.98324
G1 X185.23 Y105.081 E8.04908
G1 X185.841 Y105.641 E8.10912
G1 X187.893 Y107.681 E8.31872
G1 X188.509 Y108.35 E8.3846
G1 X189.063 Y109.07 E8.45041
G1 X189.552 Y109.836 E8.51624
G1 X189.972 Y110.642 E8.58208
G1 X190.32 Y111.482 E8.64795
G1 X190.592 Y112.349 E8.71377
G1 X190.787 Y113.236 E8.77956
G1 X190.903 Y114.138 E8.84544
G1 X190.935 Y114.69 E8.88549
G1 X190.95 Y115.333 E8.93209
G1 X190.95 Y138.469 E10.60807
G1 X190.926 Y140.101 E10.72631
G1 X190.877 Y141.526 E10.8296
G1 X190.853 Y141.959 E10.86101
G1 X190.723 Y143.629 E10.98235
G1 X190.602 Y144.778 E11.06605
G1 X190.389 Y146.342 E11.18039
G1 X190.21 Y147.45 E11.26169
G1 X189.901 Y149.05 E11.37974
G1 X189.689 Y150.024 E11.45195
G1 X189.476 Y150.896 E11.51698
G1 X189.094 Y152.334 E11.62476
G1 X188.975 Y152.747 E11.65589
G1 X188.48 Y154.332 E11.77618
G1 X188.133 Y155.349 E11.85402
G1 X187.568 Y156.856 E11.97061
G1 X187.138 Y157.922 E12.05388
G1 X186.48 Y159.413 E12.17194
G1 X186.015 Y160.399 E12.25091
G1 X185.298 Y161.808 E12.36543
G1 X184.727 Y162.864 E12.4524
G1 X183.915 Y164.255 E12.56907
G1 X183.334 Y165.196 E12.64919
G1 X182.443 Y166.546 E12.76636
G1 X181.799 Y167.469 E12.84789
G1 X180.821 Y168.781 E12.96643
G1 X180.252 Y169.509 E13.03337
G1 X179.644 Y170.249 E13.10275
G1 X179.084 Y170.91 E13.1655
G1 X178.364 Y171.729 E13.2445
G1 X177.262 Y172.905 E13.36125
G1 X176.399 Y173.787 E13.45064
G1 X174.522 Y175.591 E13.63923
G1 X173.449 Y176.585 E13.74518
G1 X172.049 Y177.811 E13.87999
G1 X170.277 Y179.301 E14.0477
G1 X169.133 Y180.222 E14.15409
G1 X168.034 Y181.077 E14.25496
G1 X166.287 Y182.364 E14.41215
G1 X165.186 Y183.147 E14.51002
G1 X163.564 Y184.237 E14.65158
G1 X161.634 Y185.474 E14.81765
G1 X160.414 Y186.223 E14.92135
G1 X159.181 Y186.949 E15.025
G1 X157.326 Y187.977 E15.17863
G1 X156.059 Y188.654 E15.2827
G1 X154.094 Y189.636 E15.44183
G1 X152.89 Y190.212 E15.53851
G1 X150.91 Y191.099 E15.69568
G1 X149.624 Y191.648 E15.79697
G1 X147.883 Y192.337 E15.93261
G1 X145.732 Y193.138 E16.09888
G1 X144.268 Y193.648 E16.21119
G1 X143.014 Y194.062 E16.30685
G1 X140.891 Y194.701 E16.46746
G1 X139.913 Y194.979 E16.54111
G1 X139.038 Y195.212 E16.6067
G1 X137.202 Y195.673 E16.74383
G1 X135.923 Y195.972 E16.83898
G1 X133.738 Y196.423 E17.0006
G1 X132.45 Y196.666 E17.09555
G1 X130.229 Y197.026 E17.25854
G1 X128.623 Y197.25 E17.37601
G1 X126.88 Y197.458 E17.50317
G1 X125.696 Y197.582 E17.58941
G1 X123.235 Y197.773 E17.76822
G1 X121.881 Y197.851 E17.86647
G1 X119.748 Y197.92 E18.02106
G1 X119.112 Y197.932 E18.06714
G1 X118.203 Y197.909 E18.13301
G1 X117.3 Y197.807 E18.19884
G1 X116.41 Y197.625 E18.26465
G1 X115.539 Y197.366 E18.33047
G1 X114.694 Y197.031 E18.39632
G1 X113.881 Y196.624 E18.46218
G1 X113.108 Y196.146 E18.52802
G1 X112.38 Y195.602 E18.59386
G1 X111.702 Y194.997 E18.65968
G1 X111.08 Y194.334 E18.72554
G1 X110.558 Y193.673 E18.78655
G1 X110.054 Y192.916 E18.85243
G1 X109.619 Y192.118 E18.91827
G1 X109.256 Y191.285 E18.98409
G1 X108.968 Y190.423 E19.04993
G1 X108.756 Y189.539 E19.11578
G1 X108.623 Y188.64 E19.18161
G1 X108.57 Y187.772 E19.24461
G1 X108.55 Y186.621 E19.328
G1 X108.551 Y174.4 E20.2133
G0 F1620 X108.551 Y173.037
G1 F2100 E15.2133
G1 F300 Z0.56
;MESH:aza-ptfe-guide.v3.stl
G0 F6000 X120.531 Y182.78 Z0.56
;TYPE:WALL-INNER
G1 F300 Z0.24
G1 F2100 E20.2133
G1 F1800 X120.629 Y182.755 E20.21943
G1 X129.103 Y182.061 E20.73456
G1 X129.461 Y182.071 E20.75625
G1 X129.709 Y182.124 E20.77162
G1 X130.016 Y182.239 E20.79148
G1 X130.412 Y182.466 E20.81914
G1 X130.632 Y182.67 E20.83731
G1 X130.818 Y182.923 E20.85634
G1 X130.97 Y183.24 E20.87764
G1 X131.097 Y183.758 E20.90995
G1 X131.173 Y184.72 E20.96842
G1 X133.773 Y184.183 E21.12927
G1 X136.742 Y183.436 E21.31476
G1 X136.992 Y183.364 E21.33052
G1 X139.864 Y182.498 E21.51226
G1 X142.601 Y181.541 E21.68793
G1 X142.833 Y181.454 E21.70294
G1 X145.536 Y180.379 E21.87919
G1 X148.289 Y179.144 E22.062
G1 X151.009 Y177.784 E22.24624
G1 X153.655 Y176.314 E22.42963
G1 X156.232 Y174.733 E22.61281
G1 X158.751 Y173.038 E22.79676
G1 X161.179 Y171.246 E22.97959
G1 X163.547 Y169.335 E23.16395
G1 X163.631 Y169.261 E23.17073
G1 X162.82 Y168.45 E23.24022
G1 X162.557 Y168.107 E23.26641
G1 X162.421 Y167.804 E23.28653
G1 X162.299 Y167.368 E23.31396
G1 X162.286 Y166.963 E23.33851
G1 X162.384 Y166.532 E23.36529
G1 X162.524 Y166.237 E23.38507
G1 X162.655 Y166.026 E23.40012
G1 X162.82 Y165.835 E23.41541
G1 X168.833 Y159.822 E23.93062
G1 X169.054 Y159.637 E23.94808
G1 X169.262 Y159.514 E23.96272
G1 X169.649 Y159.367 E23.98781
G1 X169.894 Y159.306 E24.0031
G1 X170.188 Y159.283 E24.02097
G1 X170.464 Y159.308 E24.03776
G1 X170.812 Y159.412 E24.05977
G1 X171.045 Y159.527 E24.07551
G1 X171.447 Y159.823 E24.10575
G1 X172.087 Y160.462 E24.16055
G1 X172.197 Y160.315 E24.17167
G1 X173.331 Y158.617 E24.29538
G1 X174.38 Y156.84 E24.4204
G1 X175.326 Y155.006 E24.54543
G1 X176.171 Y153.118 E24.67075
G1 X176.904 Y151.199 E24.79521
G1 X177.534 Y149.223 E24.92087
G1 X178.056 Y147.205 E25.04716
G1 X178.426 Y145.319 E25.1636
G1 X178.466 Y145.088 E25.1778
G1 X178.739 Y143.16 E25.29578
G1 X178.912 Y141.116 E25.42006
G1 X178.971 Y138.977 E25.54971
G1 X178.971 Y116.861 E26.88964
G1 X178.97 Y116.652 E26.9023
G1 X178.29 Y116.583 E26.94371
G1 X178.012 Y116.473 E26.96183
G1 X177.782 Y116.393 E26.97658
G1 X177.547 Y116.505 E26.99235
G1 X177.088 Y116.613 E27.02092
G1 X177.064 Y117.555 E27.07801
G1 X176.87 Y120.346 E27.24752
G1 X176.863 Y120.423 E27.2522
G1 X176.532 Y123.205 E27.42194
G1 X176.084 Y125.899 E27.58741
G1 X175.499 Y128.619 E27.75597
G1 X174.788 Y131.3 E27.92402
G1 X173.993 Y133.838 E28.08515
G1 X173.968 Y133.911 E28.08983
G1 X173.034 Y136.462 E28.25442
G1 X172.526 Y137.677 E28.33421
G1 X171.951 Y139.043 E28.424
G1 X171.04 Y140.955 E28.55232
G1 X170.748 Y141.566 E28.59335
G1 X170.713 Y141.635 E28.59804
G1 X169.428 Y144.034 E28.76292
G1 X169.39 Y144.101 E28.76759
G1 X167.994 Y146.436 E28.93241
G1 X167.832 Y146.684 E28.95036
G1 X166.441 Y148.776 E29.10257
G1 X164.79 Y151.022 E29.27146
G1 X164.743 Y151.083 E29.27612
G1 X162.992 Y153.243 E29.44459
G1 X161.117 Y155.345 E29.61524
G1 X159.203 Y157.298 E29.78092
G1 X157.165 Y159.191 E29.94944
G1 X156.913 Y159.407 E29.96955
G1 X156.203 Y160.004 E30.02576
G1 X155.028 Y160.998 E30.119
G1 X154.968 Y161.046 E30.12366
G1 X152.788 Y162.72 E30.29018
G1 X150.492 Y164.313 E30.45949
G1 X148.132 Y165.793 E30.62827
G1 X145.7 Y167.164 E30.79742
G1 X143.208 Y168.417 E30.96641
G1 X143.14 Y168.449 E30.97096
G1 X140.619 Y169.57 E31.13812
G1 X137.974 Y170.598 E31.31005
G1 X135.32 Y171.487 E31.47963
G1 X132.69 Y172.234 E31.64527
G1 X129.982 Y172.869 E31.81379
G1 X129.905 Y172.885 E31.81856
G1 X127.931 Y173.249 E31.94017
G1 X127.155 Y173.392 E31.98798
G1 X124.408 Y173.765 E32.15594
G1 X121.672 Y174.006 E32.32234
G1 X121.595 Y174.011 E32.32702
G1 X120.531 Y174.055 E32.39154
G1 X120.531 Y181.417 E32.83758
G0 F1620 X120.531 Y182.78
G0 F6000 X119.871 Y183.937
G1 F1800 X120.254 Y183.542 E32.87091
G1 X120.683 Y183.413 E32.89805
G1 X129.157 Y182.719 E33.41318
G1 X129.475 Y182.744 E33.43251
G1 X129.771 Y182.852 E33.4516
G1 X130.009 Y182.988 E33.46821
G1 X130.252 Y183.262 E33.4904
G1 X130.363 Y183.498 E33.5062
G1 X130.439 Y183.809 E33.52559
G1 X130.572 Y185.502 E33.62848
G1 X130.946 Y185.441 E33.65144
G1 X133.92 Y184.826 E33.83544
G1 X135.859 Y184.339 E33.95657
G1 X136.912 Y184.074 E34.02235
G1 X137.183 Y183.996 E34.03944
G1 X140.069 Y183.126 E34.22206
G1 X142.95 Y182.118 E34.40699
G1 X145.793 Y180.987 E34.59237
G1 X148.572 Y179.741 E34.77689
G1 X151.317 Y178.368 E34.96284
G1 X153.988 Y176.884 E35.14797
G1 X156.589 Y175.289 E35.33282
G1 X159.132 Y173.577 E35.51856
G1 X161.583 Y171.768 E35.70312
G1 X163.982 Y169.832 E35.88989
G1 X164.596 Y169.292 E35.93943
G1 X163.287 Y167.983 E36.05159
G1 X163.129 Y167.777 E36.06732
G1 X162.99 Y167.425 E36.09025
G1 X162.94 Y167.154 E36.10695
G1 X162.963 Y166.894 E36.12276
G1 X163.052 Y166.652 E36.13838
G1 X163.188 Y166.416 E36.15489
G1 X163.467 Y166.121 E36.17949
G1 X169.299 Y160.289 E36.67919
G1 X169.557 Y160.104 E36.69842
G1 X169.857 Y159.993 E36.7178
G1 X170.108 Y159.944 E36.7333
G1 X170.556 Y160.02 E36.76083
G1 X170.981 Y160.289 E36.7913
G1 X172.158 Y161.466 E36.89215
G1 X172.746 Y160.682 E36.95152
G1 X173.89 Y158.969 E37.07632
G1 X174.958 Y157.159 E37.20365
G1 X175.921 Y155.293 E37.33088
G1 X176.781 Y153.371 E37.45845
G1 X177.528 Y151.417 E37.58519
G1 X178.169 Y149.406 E37.71307
G1 X178.7 Y147.352 E37.84161
G1 X179.101 Y145.314 E37.96745
G1 X179.395 Y143.234 E38.09472
G1 X179.572 Y141.153 E38.22126
G1 X179.629 Y139.087 E38.34648
G1 X179.631 Y138.977 E38.35314
G1 X179.631 Y116.861 E39.69308
G1 X179.63 Y115.992 E39.74573
G1 X178.761 Y115.992 E39.79838
G1 X178.478 Y115.951 E39.8157
G1 X178.15 Y115.803 E39.83751
G1 X177.792 Y115.473 E39.867
G1 X177.611 Y115.705 E39.88483
G1 X177.368 Y115.865 E39.90246
G1 X177.141 Y115.945 E39.91704
G1 X176.837 Y115.992 E39.93568
G1 X176.442 Y115.992 E39.95961
G1 X176.405 Y117.54 E40.05343
G1 X176.208 Y120.346 E40.22385
G1 X175.881 Y123.096 E40.39164
G1 X175.425 Y125.823 E40.55915
G1 X174.842 Y128.526 E40.72668
G1 X174.138 Y131.173 E40.89263
G1 X173.348 Y133.684 E41.05212
G1 X172.397 Y136.279 E41.21956
G1 X171.342 Y138.787 E41.38441
G1 X170.152 Y141.282 E41.55189
G1 X168.87 Y143.678 E41.71653
G1 X168.823 Y143.763 E41.72241
G1 X167.402 Y146.138 E41.89009
G1 X165.894 Y148.406 E42.05511
G1 X164.258 Y150.631 E42.22243
G1 X162.529 Y152.768 E42.38898
G1 X162.499 Y152.804 E42.39181
G1 X160.646 Y154.883 E42.56054
G1 X158.736 Y156.831 E42.72583
G1 X156.681 Y158.738 E42.89569
G1 X154.566 Y160.523 E43.06337
G1 X152.372 Y162.206 E43.2309
G1 X150.096 Y163.782 E43.39863
G1 X147.794 Y165.225 E43.56323
G1 X145.379 Y166.586 E43.73119
G1 X142.875 Y167.845 E43.90099
G1 X140.368 Y168.959 E44.0672
G1 X137.764 Y169.972 E44.23649
G1 X135.14 Y170.852 E44.40417
G1 X132.48 Y171.607 E44.5717
G1 X129.785 Y172.236 E44.73936
G1 X127.811 Y172.6 E44.86098
G1 X127.066 Y172.738 E44.90688
G1 X124.324 Y173.11 E45.07453
G1 X121.568 Y173.352 E45.24215
G1 X119.87 Y173.422 E45.34512
G1 X119.871 Y182.574 E45.89961
G0 F1620 X119.871 Y183.937
G1 F2100 E40.89961
G1 F300 Z0.56
G0 F6000 X120.99 Y187.359 Z0.56
;TYPE:WALL-OUTER
G1 F300 Z0.24
G1 F2100 E45.89961
G1 F3109.9 X121.289 Y187.342 E45.90999
G1 F3007.6 X121.589 Y187.325 E45.92077
G1 F2918.9 X121.888 Y187.308 E45.93184
G1 F2862.7 X122.652 Y187.249 E45.96071
G1 F2848.9 X123.417 Y187.19 E45.98977
G1 F2828.6 X124.182 Y187.131 E46.01903
G1 F2815.2 X124.946 Y187.072 E46.04839
G1 F2835.3 X125.201 Y187.047 E46.05814
G1 F2904.6 X125.458 Y187.022 E46.06773
G1 F2977.4 X125.715 Y186.996 E46.07708
G1 F3054 X125.972 Y186.971 E46.0862
G1 F3134.6 X126.228 Y186.945 E46.09506
G1 F3219.5 X126.485 Y186.92 E46.10371
G1 F3309.2 X126.742 Y186.894 E46.11213
G1 F3404 X126.999 Y186.869 E46.12031
G1 F3504.4 X127.256 Y186.843 E46.12827
G1 F2100 E41.12827
G1 F300 Z0.56
G0 F6000 X166.008 Y169.135 Z0.56
G1 F300 Z0.24
G1 F2100 E46.12827
G1 F3394.3 X166.066 Y169.095 E46.1305
G1 F3384.6 X166.248 Y168.924 E46.13846
G1 F3237.1 X166.43 Y168.753 E46.14679
G1 F3109.9 X166.612 Y168.582 E46.15545
G1 F2984.9 X166.795 Y168.41 E46.16452
G1 F2911.8 X166.967 Y168.242 E46.17343
G1 F2876.5 X167.139 Y168.073 E46.18247
G1 F2848.9 X167.311 Y167.904 E46.1916
G1 F2815.2 X167.483 Y167.736 E46.20082
G1 F2782.2 X167.655 Y167.567 E46.21017
G1 F2756.4 X167.827 Y167.398 E46.2196
G1 F2724.8 X167.999 Y167.23 E46.22912
G1 F2693.9 X168.172 Y167.061 E46.2388
G1 F2663.7 X168.344 Y166.892 E46.24857
G1 F2640 X168.516 Y166.723 E46.25842
G1 F2611 X168.688 Y166.555 E46.26836
G1 F2582.6 X168.86 Y166.386 E46.27843
G1 F2560.3 X169.032 Y166.217 E46.28859
G1 F2533 X169.204 Y166.049 E46.29883
G1 F2538.5 X169.388 Y165.86 E46.31003
G1 F2582.6 X169.574 Y165.668 E46.3212
G1 F2622.5 X169.76 Y165.477 E46.33217
G1 F2669.7 X169.946 Y165.285 E46.34297
G1 F2712.3 X170.132 Y165.094 E46.35357
G1 F2762.8 X170.319 Y164.902 E46.36403
G1 F2808.5 X170.505 Y164.711 E46.37427
G1 F2862.7 X170.691 Y164.519 E46.38435
G1 F2962.6 X170.857 Y164.339 E46.39326
G1 F3118.1 X171.024 Y164.157 E46.40181
G1 F3300 X171.192 Y163.975 E46.4099
G1 F3494.1 X171.359 Y163.793 E46.41753
G1 F2100 E41.41753
G1 F300 Z0.56
G0 F6000 X169.766 Y160.756 Z0.56
G1 F300 Z0.24
G1 F2100 E46.41753
G1 F1800 X170.066 Y160.619 E46.43729
G1 X170.324 Y160.64 E46.45281
G1 X170.514 Y160.756 E46.46615
G1 X172.199 Y162.439 E46.60887
G1 X172.223 Y162.479 E46.61166
G1 X173.272 Y161.082 E46.71636
G1 X174.449 Y159.32 E46.84334
G1 X175.447 Y157.627 E46.96112
G1 X175.613 Y157.328 E46.98161
G1 X176.516 Y155.579 E47.09957
G1 X177.391 Y153.624 E47.22793
G1 X178.151 Y151.635 E47.35553
G1 X178.803 Y149.589 E47.48422
G1 X179.344 Y147.498 E47.61366
G1 X179.752 Y145.424 E47.74033
G1 X180.051 Y143.308 E47.8684
G1 X180.231 Y141.19 E47.99578
G1 X180.291 Y138.977 E48.12845
G1 X180.291 Y116.861 E49.45382
G1 X180.29 Y115.332 E49.54545
G1 X178.761 Y115.332 E49.63708
G1 X178.45 Y115.215 E49.657
G1 F1736.8 X178.264 Y115.032 E49.6732
G1 F1616.3 X178.181 Y114.803 E49.68946
G1 F1559.1 X178.181 Y113.3 E49.79345
G1 X177.806 Y113.266 E49.8195
