;FLAVOR:Marlin
;TIME:1149
;Filament used: 2.2662m
;Layer height: 0.32
;MINX:107.67
;MINY:107.67
;MINZ:0.24
;MAXX:190.029
;MAXY:190.036
;MAXZ:8.88
;Generated with Cura_SteamEngine 5.0.0
M140 S70
M105
M190 S70
M104 S245
M105
M109 S245
M82 ;absolute extrusion mode
; Ender 3 Max Custom Start G-code
G92 E0 ; Reset Extruder
G28 ; Home all axes
G1 Z2.0 F3000 ; Move Z Axis up little to prevent scratching of Heat Bed
G1 X0.1 Y20 Z0.3 F5000.0 ; Move to start position
G1 X0.1 Y200.0 Z0.3 F1500.0 E15 ; Draw the first line
G1 X0.4 Y200.0 Z0.3 F5000.0 ; Move to side a little
G1 X0.4 Y20 Z0.3 F1500.0 E30 ; Draw the second line
G92 E0 ; Reset Extruder
G1 Z2.0 F3000 ; Move Z Axis up little to prevent scratching of Heat Bed
G1 X5 Y20 Z0.3 F5000.0 ; Move over to prevent blob squish
G92 E0
G92 E0
G1 F2100 E-5
;LAYER_COUNT:28
;LAYER:0
M107
G1 F300 Z0.56
G0 F6000 X168.47 Y111.063 Z0.56
;TYPE:SKIRT
G1 F300 Z0.24
G1 F2100 E0
G1 F1800 X168.956 Y110.592 E0.04903
G1 X169.636 Y109.989 E0.11486
G1 X170.366 Y109.448 E0.18068
G1 X171.141 Y108.973 E0.24653
G1 X171.955 Y108.568 E0.31239
G1 X172.801 Y108.236 E0.37823
G1 X173.673 Y107.98 E0.44406
G1 X174.564 Y107.802 E0.50988
G1 X175.467 Y107.702 E0.5757
G1 X175.96 Y107.682 E0.61144
G1 X176.703 Y107.67 E0.66527
G1 X179.009 Y107.67 E0.83232
G1 X179.849 Y107.681 E0.89317
G1 X180.756 Y107.734 E0.95899
G1 X181.655 Y107.867 E1.02482
G1 X182.539 Y108.078 E1.09066
G1 X183.401 Y108.366 E1.15649
G1 X184.234 Y108.729 E1.22232
G1 X185.033 Y109.163 E1.28819
G1 X185.79 Y109.666 E1.35403
G1 X186.499 Y110.234 E1.41984
G1 X187.156 Y110.862 E1.48567
G1 X187.756 Y111.545 E1.55153
G1 X188.293 Y112.278 E1.61735
G1 X188.763 Y113.056 E1.6832
G1 X189.164 Y113.872 E1.74906
G1 X189.491 Y114.72 E1.8149
G1 X189.742 Y115.593 E1.8807
G1 X189.916 Y116.485 E1.94654
G1 X190.01 Y117.389 E2.01238
G1 X190.029 Y118.034 E2.05912
G1 X190.025 Y119.098 E2.1362
G1 X190.008 Y119.799 E2.187
G1 X189.908 Y122.119 E2.35521
G1 X189.841 Y123.162 E2.43092
G1 X189.717 Y124.626 E2.53736
G1 X189.558 Y126.073 E2.64281
G1 X189.266 Y128.321 E2.80702
G1 X189.168 Y128.963 E2.85407
G1 X188.775 Y131.244 E3.02174
G1 X188.587 Y132.214 E3.09332
G1 X188.28 Y133.652 E3.19983
G1 X187.927 Y135.123 E3.30942
G1 X187.356 Y137.294 E3.47204
G1 X187.097 Y138.208 E3.54085
G1 X186.697 Y139.526 E3.64063
G1 X186.205 Y141.004 E3.75347
G1 X185.448 Y143.138 E3.9175
G1 X185.233 Y143.699 E3.96102
G1 X184.361 Y145.871 E4.13057
G1 X183.945 Y146.842 E4.20709
G1 X183.391 Y148.08 E4.30534
G1 X182.582 Y149.763 E4.44062
G1 X181.85 Y151.205 E4.55776
G1 X181.138 Y152.535 E4.66705
G1 X180.257 Y154.095 E4.79683
G1 X179.621 Y155.173 E4.8875
G1 X178.799 Y156.497 E5.00039
G1 X178.032 Y157.681 E5.10258
G1 X177.278 Y158.802 E5.20045
G1 X176.421 Y160.006 E5.30751
G1 X175.058 Y161.838 E5.47292
G1 X174.621 Y162.398 E5.52438
G1 X173.131 Y164.238 E5.69589
G1 X172.468 Y165.022 E5.77027
G1 X171.602 Y166.011 E5.8655
G1 X170.626 Y167.067 E5.96966
G1 X169.006 Y168.751 E6.13893
G1 X168.466 Y169.285 E6.19395
G1 X166.804 Y170.872 E6.36042
G1 X166.053 Y171.56 E6.4342
G1 X165.056 Y172.443 E6.53068
G1 X163.918 Y173.397 E6.63825
G1 X162.148 Y174.82 E6.80277
G1 X161.529 Y175.294 E6.85924
G1 X159.673 Y176.662 E7.02627
G1 X158.861 Y177.233 E7.09818
G1 X157.735 Y177.999 E7.19683
G1 X156.319 Y178.912 E7.31888
G1 X155.135 Y179.646 E7.41979
G1 X153.883 Y180.377 E7.52482
G1 X151.895 Y181.483 E7.68962
G1 X150.945 Y181.986 E7.76749
G1 X149.777 Y182.579 E7.86238
G1 X148.494 Y183.188 E7.96526
G1 X146.313 Y184.17 E8.13853
G1 X145.433 Y184.543 E8.20776
G1 X144.171 Y185.056 E8.30645
G1 X142.815 Y185.565 E8.41137
G1 X140.649 Y186.326 E8.57768
G1 X139.621 Y186.663 E8.65605
G1 X138.307 Y187.069 E8.75567
G1 X136.68 Y187.527 E8.87812
G1 X135.114 Y187.932 E8.99529
G1 X133.019 Y188.42 E9.15112
G1 X131.253 Y188.772 E9.28156
G1 X128.766 Y189.198 E9.46435
G1 X127.725 Y189.354 E9.5406
G1 X126.399 Y189.53 E9.6375
G1 X124.712 Y189.707 E9.76038
G1 X123.3 Y189.832 E9.86306
G1 X121.903 Y189.919 E9.96446
G1 X119.523 Y190.016 E10.13701
G1 X118.168 Y190.036 E10.23518
G1 X117.26 Y190.009 E10.30098
G1 X116.357 Y189.903 E10.36684
G1 X115.468 Y189.718 E10.43262
G1 X114.598 Y189.455 E10.49846
G1 X113.754 Y189.117 E10.56432
G1 X112.943 Y188.706 E10.63019
G1 X112.172 Y188.225 E10.69602
G1 X111.446 Y187.678 E10.76187
G1 X110.771 Y187.07 E10.82767
G1 X110.152 Y186.405 E10.89349
G1 X109.593 Y185.688 E10.95935
G1 X109.1 Y184.924 E11.02521
G1 X108.676 Y184.12 E11.09106
G1 X108.324 Y183.282 E11.1569
G1 X108.048 Y182.417 E11.22268
G1 X107.848 Y181.53 E11.28854
G1 X107.727 Y180.629 E11.3544
G1 X107.688 Y179.889 E11.40808
G1 X107.67 Y178.8 E11.48698
G1 X107.671 Y176.664 E11.64171
G1 X107.681 Y175.992 E11.6904
G1 X107.735 Y175.085 E11.75622
G1 X107.868 Y174.186 E11.82205
G1 X108.079 Y173.302 E11.88789
G1 X108.368 Y172.44 E11.95374
G1 X108.731 Y171.607 E12.01957
G1 X109.166 Y170.809 E12.08541
G1 X109.669 Y170.052 E12.15125
G1 X110.237 Y169.343 E12.21706
G1 X110.547 Y169.004 E12.25033
G1 X111.04 Y168.493 E12.30177
G1 X167.507 Y112.026 E18.08661
G0 F1620 X168.47 Y111.063
G1 F2100 E13.08661
G1 F300 Z0.56
;MESH:aza-ptfe-guide.stl
G0 F6000 X176.772 Y119.801 Z0.56
;TYPE:WALL-INNER
G1 F300 Z0.24
G1 F2100 E18.08661
G1 F1479.5 X177.103 Y120.174 E18.12337
G1 F1536.9 X177.271 Y120.505 E18.14971
G1 F1652.3 X177.308 Y120.799 E18.16927
G1 F1775.8 X177.346 Y121.094 E18.18754
G1 F1919.2 X177.384 Y121.388 E18.20438
G1 F1993.3 X177.381 Y121.408 E18.20549
G1 F1983.3 X177.329 Y122.129 E18.24524
G1 F1970.1 X177.276 Y122.851 E18.28531
G1 X177.24 Y123.272 E18.3087
G1 F1989.9 X177.204 Y123.693 E18.33186
G1 F2003.4 X177.197 Y123.765 E18.33579
G1 F2000 X177.129 Y124.343 E18.36753
G1 F1986.6 X177.061 Y124.921 E18.39948
G1 F1973.4 X176.993 Y125.499 E18.43164
G1 F1976.7 X176.934 Y125.947 E18.45657
G1 F1996.6 X176.875 Y126.395 E18.48125
G1 X176.795 Y126.889 E18.50858
G1 F1983.3 X176.714 Y127.384 E18.53616
G1 F1970.1 X176.633 Y127.878 E18.56387
G1 F1973.4 X176.55 Y128.353 E18.59052
G1 F1993.3 X176.467 Y128.829 E18.61696
G1 F2003.4 X176.455 Y128.896 E18.62066
G1 F1996.6 X176.355 Y129.382 E18.64776
G1 F1983.3 X176.255 Y129.868 E18.67505
G1 F1970.1 X176.155 Y130.354 E18.70251
G1 X176.07 Y130.742 E18.7245
G1 F1986.6 X175.986 Y131.13 E18.74629
G1 F2006.8 X175.901 Y131.518 E18.76788
G1 X175.811 Y131.868 E18.78752
G1 F1993.3 X175.721 Y132.219 E18.80734
G1 F1980 X175.631 Y132.57 E18.8273
G1 F1966.9 X175.541 Y132.921 E18.84739
G1 X175.438 Y133.311 E18.86976
G1 F1983.3 X175.335 Y133.702 E18.89199
G1 F2000 X175.232 Y134.093 E18.91404
G1 X175.116 Y134.478 E18.93596
G1 F1983.3 X175 Y134.864 E18.95813
G1 F1970.1 X174.883 Y135.25 E18.98045
G1 X174.738 Y135.712 E19.00726
G1 F1986.6 X174.593 Y136.175 E19.03389
G1 F2003.4 X174.447 Y136.638 E19.06032
G1 X174.312 Y137.021 E19.08242
G1 F1983.3 X174.177 Y137.404 E19.10475
G1 F1966.9 X174.042 Y137.787 E19.12727
G1 X173.879 Y138.239 E19.15391
G1 F1983.3 X173.716 Y138.691 E19.18033
G1 F2000 X173.554 Y139.143 E19.20651
G1 F1996.6 X173.377 Y139.583 E19.23242
G1 F1973.4 X173.2 Y140.022 E19.25858
G1 F1966.9 X172.975 Y140.568 E19.29132
G1 F1980 X172.749 Y141.114 E19.32387
G1 F1993.3 X172.523 Y141.66 E19.3562
G1 F1989.9 X172.365 Y142.009 E19.37719
G1 F1970.1 X172.206 Y142.358 E19.39842
G1 F1966.9 X171.95 Y142.906 E19.43196
G1 F1980 X171.694 Y143.454 E19.46527
G1 F1993.3 X171.438 Y144.003 E19.49841
G1 F2000 X171.407 Y144.067 E19.50229
G1 F1993.3 X171.237 Y144.402 E19.52284
G1 F1973.4 X171.066 Y144.737 E19.54363
G1 F1970.1 X170.784 Y145.28 E19.5775
G1 F1983.3 X170.501 Y145.823 E19.61117
G1 F1996.6 X170.218 Y146.366 E19.64461
G1 F1993.3 X170.036 Y146.69 E19.66495
G1 F1973.4 X169.853 Y147.014 E19.68551
G1 F1970.1 X169.529 Y147.574 E19.72132
G1 F1980 X169.205 Y148.134 E19.75696
G1 F1993.3 X168.881 Y148.694 E19.79235
G1 F1983.3 X168.597 Y149.151 E19.82194
G1 F1973.4 X168.219 Y149.743 E19.86076
G1 F1983.3 X167.841 Y150.336 E19.89942
G1 F1993.3 X167.462 Y150.929 E19.93793
G1 F1986.6 X167.219 Y151.286 E19.96163
G1 F1980 X166.578 Y152.198 E20.02303
G1 F1989.9 X165.936 Y153.11 E20.08416
G1 F1983.3 X165.752 Y153.357 E20.10109
G1 F1976.7 X165.031 Y154.292 E20.16623
G1 F1983.3 X164.309 Y155.227 E20.23119
G1 F1986.6 X162.594 Y157.268 E20.37753
G1 X162.546 Y157.32 E20.38142
G1 F1980 X160.851 Y159.156 E20.51905
G1 F1970.1 X160.604 Y159.397 E20.53815
G1 F1947.5 X160.493 Y159.489 E20.54622
G1 F1841.9 X160.248 Y159.636 E20.56314
G1 F1680.3 X160.002 Y159.783 E20.58174
G1 F1609.8 X159.79 Y159.823 E20.59635
G1 X159.743 Y160.044 E20.61166
G1 F1663.9 X159.582 Y160.281 E20.63044
G1 F1781.1 X159.42 Y160.518 E20.64802
G1 F1919.2 X159.258 Y160.756 E20.66438
G1 F1983.3 X159.061 Y160.939 E20.67916
G1 F1976.7 X158.242 Y161.696 E20.74069
G1 F1986.6 X157.423 Y162.453 E20.80192
G1 F1983.3 X157.204 Y162.645 E20.81793
G1 F1980 X156.293 Y163.415 E20.88363
G1 F1986.6 X155.382 Y164.186 E20.94914
G1 X155.263 Y164.281 E20.9575
G1 F1983.3 X153.281 Y165.814 E21.09528
G1 F1986.6 X153.223 Y165.854 E21.09915
G1 F1980 X151.186 Y167.289 E21.23639
G1 F1983.3 X151.04 Y167.389 E21.24612
G1 X149.06 Y168.658 E21.37544
G1 F1986.6 X148.799 Y168.82 E21.3923
G1 F1989.9 X147.838 Y169.378 E21.4532
G1 F1980 X146.876 Y169.936 E21.51446
G1 F1986.6 X146.487 Y170.154 E21.53893
G1 F1993.3 X145.872 Y170.475 E21.57689
G1 F1983.3 X145.257 Y170.796 E21.61504
G1 F1973.4 X144.641 Y171.117 E21.65342
G1 F1980 X144.139 Y171.374 E21.68448
G1 F1996.6 X144.122 Y171.38 E21.68547
G1 F1993.3 X143.534 Y171.655 E21.72098
G1 F1980 X142.946 Y171.93 E21.75674
G1 F1966.9 X142.358 Y172.206 E21.79275
G1 F1980 X141.706 Y172.501 E21.83217
G1 F1993.3 X141.148 Y172.733 E21.86523
G1 F1980 X140.589 Y172.965 E21.89857
G1 F1970.1 X140.03 Y173.197 E21.93207
G1 F1976.7 X139.622 Y173.361 E21.95633
G1 F1996.6 X139.214 Y173.525 E21.98035
G1 F2000 X138.689 Y173.715 E22.01079
G1 F1986.6 X138.163 Y173.906 E22.04151
G1 F1973.4 X137.638 Y174.097 E22.07238
G1 X137.193 Y174.253 E22.09844
G1 F1993.3 X136.747 Y174.409 E22.12429
G1 F1996.6 X136.248 Y174.567 E22.15288
G1 F1983.3 X135.748 Y174.725 E22.18172
G1 F1970.1 X135.248 Y174.883 E22.21074
G1 F1973.4 X134.722 Y175.043 E22.24113
G1 F1993.3 X134.195 Y175.203 E22.27126
G1 F1996.6 X133.746 Y175.322 E22.29663
G1 F1983.3 X133.297 Y175.442 E22.32218
G1 F1970.1 X132.848 Y175.562 E22.34791
G1 X132.437 Y175.666 E22.37138
G1 F1983.3 X132.026 Y175.771 E22.3947
G1 F2000 X131.615 Y175.875 E22.41782
G1 X131.19 Y175.969 E22.44156
G1 F1983.3 X130.766 Y176.063 E22.46544
G1 F1970.1 X130.342 Y176.157 E22.48948
G1 X129.895 Y176.25 E22.51475
G1 F1983.3 X129.447 Y176.343 E22.53991
G1 F2000 X128.999 Y176.436 E22.56486
G1 F1996.6 X128.438 Y176.534 E22.59596
G1 F1973.4 X127.878 Y176.632 E22.62738
G1 F1970.1 X127.393 Y176.711 E22.65458
G1 F1983.3 X126.907 Y176.791 E22.68166
G1 F1996.6 X126.421 Y176.871 E22.70857
G1 F1993.3 X125.894 Y176.94 E22.73765
G1 F1973.4 X125.367 Y177.009 E22.76702
G1 F1966.9 X124.811 Y177.074 E22.79806
G1 F1980 X124.255 Y177.139 E22.82889
G1 F1993.3 X123.699 Y177.204 E22.85952
G1 F1989.9 X123.28 Y177.239 E22.88256
G1 F1970.1 X122.86 Y177.275 E22.90589
G1 X122.123 Y177.329 E22.9468
G1 F1983.3 X121.386 Y177.383 E22.98743
G1 F1913 X121.092 Y177.345 E23.00433
G1 F1770.5 X120.797 Y177.307 E23.02265
G1 F1650 X120.502 Y177.269 E23.04231
G1 F1536.9 X120.257 Y177.166 E23.06117
G1 F1483.1 X119.833 Y176.835 E23.10072
G1 X119.811 Y176.762 E23.10633
G1 X119.721 Y176.879 E23.11718
G1 X119.72 Y177.958 E23.19652
G1 X120.129 Y177.95 E23.2266
G1 F1536.9 X120.353 Y177.972 E23.24257
G1 F1636.4 X120.621 Y177.973 E23.26043
G1 F1724.2 X120.889 Y177.975 E23.27738
G1 F1822.1 X121.157 Y177.977 E23.29343
G1 F1931.7 X121.425 Y177.979 E23.30856
G1 F1983.3 X122.168 Y177.929 E23.3495
G1 F1970.1 X122.914 Y177.878 E23.39089
G1 X123.375 Y177.832 E23.41654
G1 F1989.9 X123.837 Y177.786 E23.44198
G1 F1993.3 X124.373 Y177.727 E23.47149
G1 F1980 X124.91 Y177.668 E23.50124
G1 F1966.9 X125.447 Y177.608 E23.5312
G1 F1973.4 X125.95 Y177.536 E23.55928
G1 F1996.6 X126.454 Y177.463 E23.5871
G1 F2006.8 X126.541 Y177.451 E23.59187
G1 F2000 X127.022 Y177.377 E23.61841
G1 F1983.3 X127.503 Y177.302 E23.64517
G1 F1970.1 X127.985 Y177.227 E23.67218
G1 F1973.4 X128.544 Y177.123 E23.7036
G1 F1996.6 X129.103 Y177.018 E23.73466
G1 F2006.8 X129.186 Y177.003 E23.73925
G1 F1996.6 X129.615 Y176.918 E23.76314
G1 F1983.3 X130.045 Y176.833 E23.78724
G1 F1970.1 X130.474 Y176.747 E23.81146
G1 X130.924 Y176.644 E23.83701
G1 F1983.3 X131.374 Y176.54 E23.86241
G1 F1996.6 X131.825 Y176.436 E23.88769
G1 F1993.3 X132.416 Y176.291 E23.92098
G1 F1973.4 X133.006 Y176.146 E23.95456
G1 F1970.1 X133.471 Y176.017 E23.98127
G1 F1983.3 X133.937 Y175.888 E24.00785
G1 F2000 X134.403 Y175.758 E24.03423
G1 F1996.6 X134.917 Y175.609 E24.06347
G1 F1973.4 X135.432 Y175.459 E24.09311
G1 F1970.1 X135.956 Y175.289 E24.1236
G1 F1983.3 X136.48 Y175.119 E24.15389
G1 F1996.6 X137.004 Y174.948 E24.184
G1 F1993.3 X137.425 Y174.807 E24.20829
G1 F1973.4 X137.846 Y174.665 E24.23284
G1 X138.37 Y174.47 E24.26374
G1 F1986.6 X138.894 Y174.275 E24.29443
G1 F2000 X139.418 Y174.08 E24.32492
G1 F2006.8 X139.501 Y174.05 E24.32972
G1 F1993.3 X139.881 Y173.903 E24.35201
G1 F1973.4 X140.262 Y173.756 E24.37458
G1 F1970.1 X140.827 Y173.518 E24.40851
G1 F1980 X141.392 Y173.28 E24.44228
G1 F1989.9 X141.957 Y173.041 E24.4759
G1 F1976.7 X142.615 Y172.753 E24.51553
G1 F1966.9 X143.201 Y172.475 E24.55149
G1 F1980 X143.788 Y172.197 E24.58726
G1 F1993.3 X144.375 Y171.919 E24.6228
G1 F1983.3 X144.92 Y171.652 E24.65617
G1 F1973.4 X145.534 Y171.329 E24.69451
G1 F1983.3 X146.148 Y171.005 E24.73268
G1 F1993.3 X146.762 Y170.682 E24.77064
G1 F1986.6 X147.178 Y170.455 E24.79666
G1 F1980 X148.138 Y169.895 E24.85787
G1 F1989.9 X149.098 Y169.335 E24.91878
G1 F1986.6 X149.384 Y169.164 E24.93707
G1 F1983.3 X151.362 Y167.891 E25.06641
G1 X151.532 Y167.781 E25.07755
G1 F1980 X153.568 Y166.343 E25.21484
G1 F1986.6 X153.645 Y166.286 E25.2201
G1 F1983.3 X155.634 Y164.751 E25.35825
G1 F1986.6 X155.766 Y164.643 E25.36761
G1 X156.678 Y163.874 E25.4331
G1 F1980 X157.591 Y163.105 E25.49885
G1 F1983.3 X157.827 Y162.892 E25.51633
G1 F1986.6 X158.648 Y162.137 E25.57756
G1 F1976.7 X159.47 Y161.382 E25.63913
G1 F1983.3 X159.677 Y161.179 E25.65507
G1 F1938 X159.847 Y160.984 E25.66963
G1 F1830.5 X160.018 Y160.789 E25.68508
G1 F1736.8 X160.188 Y160.594 E25.70133
G1 F1650 X160.359 Y160.399 E25.71847
G1 F1680.3 X160.623 Y160.179 E25.74077
G1 F1841.9 X160.887 Y159.959 E25.76112
G1 F1963.6 X161.177 Y159.682 E25.78339
G1 F1986.6 X161.293 Y159.564 E25.79248
G1 F1980 X162.986 Y157.726 E25.93011
G1 F1986.6 X163.05 Y157.653 E25.93544
G1 F1983.3 X164.666 Y155.739 E26.07318
G1 X164.781 Y155.592 E26.08345
G1 X165.506 Y154.656 E26.14855
G1 F1976.7 X166.231 Y153.719 E26.21391
G1 F1983.3 X166.423 Y153.453 E26.23195
G1 F1989.9 X167.066 Y152.543 E26.29301
G1 F1980 X167.71 Y151.632 E26.35446
G1 F1986.6 X167.963 Y151.25 E26.37961
G1 F1993.3 X168.344 Y150.657 E26.41818
G1 F1983.3 X168.726 Y150.064 E26.45696
G1 F1973.4 X169.108 Y149.471 E26.49594
G1 F1980 X169.403 Y148.979 E26.52754
G1 F1989.9 X169.729 Y148.422 E26.56291
G1 F1980 X170.056 Y147.864 E26.59853
G1 F1970.1 X170.382 Y147.307 E26.63426
G1 F1973.4 X170.562 Y146.974 E26.65518
G1 F1993.3 X170.743 Y146.641 E26.67591
G1 F1996.6 X171.031 Y146.097 E26.70953
G1 F1983.3 X171.319 Y145.552 E26.74343
G1 F1970.1 X171.608 Y145.007 E26.77758
G1 F1973.4 X171.791 Y144.631 E26.80068
G1 F1993.3 X171.974 Y144.255 E26.82356
G1 X172.235 Y143.705 E26.85687
G1 F1980 X172.496 Y143.155 E26.8904
G1 F1966.9 X172.757 Y142.604 E26.92421
G1 F1970.1 X172.928 Y142.212 E26.94788
G1 F1989.9 X173.099 Y141.82 E26.97132
G1 F1993.3 X173.32 Y141.295 E27.00248
G1 F1980 X173.541 Y140.77 E27.03386
G1 F1966.9 X173.762 Y140.244 E27.06549
G1 F1973.4 X173.94 Y139.781 E27.0929
G1 F1993.3 X174.118 Y139.319 E27.11999
G1 F1996.6 X174.283 Y138.875 E27.14586
G1 F1980 X174.449 Y138.431 E27.17197
G1 F1966.9 X174.614 Y137.986 E27.19829
G1 X174.745 Y137.599 E27.22094
G1 F1983.3 X174.876 Y137.212 E27.24341
G1 F2003.4 X175.007 Y136.825 E27.26565
G1 F2010.2 X175.019 Y136.785 E27.26791
G1 F2000 X175.167 Y136.331 E27.29395
G1 F1983.3 X175.315 Y135.876 E27.32026
