;FLAVOR:Marlin
;TIME:2122
;Filament used: 2.74574m
;Layer height: 0.32
;MINX:129.389
;MINY:117.694
;MINZ:0.24
;MAXX:170.611
;MAXY:182.416
;MAXZ:40.24
;Generated with Cura_SteamEngine 5.0.0
M140 S70
M105
M190 S70
M104 S245
M105
M109 S245
M82 ;absolute extrusion mode
; Ender 3 Max Custom Start G-code
G92 E0 ; Reset Extruder
G28 ; Home all axes
G1 Z2.0 F3000 ; Move Z Axis up little to prevent scratching of Heat Bed
G1 X0.1 Y20 Z0.3 F5000.0 ; Move to start position
G1 X0.1 Y200.0 Z0.3 F1500.0 E15 ; Draw the first line
G1 X0.4 Y200.0 Z0.3 F5000.0 ; Move to side a little
G1 X0.4 Y20 Z0.3 F1500.0 E30 ; Draw the second line
G92 E0 ; Reset Extruder
G1 Z2.0 F3000 ; Move Z Axis up little to prevent scratching of Heat Bed
G1 X5 Y20 Z0.3 F5000.0 ; Move over to prevent blob squish
G92 E0
G92 E0
G1 F2100 E-5
;LAYER_COUNT:125
;LAYER:0
M107
G1 F300 Z0.56
G0 F6000 X133.81 Y123.042 Z0.56
G1 F300 Z0.56
G0 F6000 X129.391 Y134.861
;TYPE:SKIRT
G1 F300 Z0.24
G1 F2100 E0
G1 F1800 X129.401 Y134.135 E0.0526
G1 X129.419 Y133.637 E0.0887
G1 X129.456 Y133.012 E0.13405
G1 X129.596 Y131.801 E0.22236
G1 X129.697 Y131.213 E0.26558
G1 X129.902 Y130.266 E0.33577
G1 X130.116 Y129.499 E0.39345
G1 X130.219 Y129.167 E0.41863
G1 X130.573 Y128.19 E0.49391
G1 X130.803 Y127.639 E0.53716
G1 X131.331 Y126.547 E0.62503
G1 X131.639 Y125.991 E0.67107
G1 X132.128 Y125.191 E0.739
G1 X132.548 Y124.584 E0.79247
G1 X132.768 Y124.285 E0.81936
G1 X133.408 Y123.494 E0.89307
G1 X133.81 Y123.042 E0.93689
G1 X134.58 Y122.259 E1.01644
G1 X135.121 Y121.771 E1.06922
G1 X135.366 Y121.561 E1.09259
G1 X136.181 Y120.926 E1.16744
G1 X136.684 Y120.571 E1.21203
G1 X137.712 Y119.927 E1.29991
G1 X138.254 Y119.628 E1.34475
G1 X139.364 Y119.095 E1.43395
G1 X139.942 Y118.856 E1.47926
G1 X140.863 Y118.522 E1.55023
G1 X141.508 Y118.329 E1.599
G1 X141.864 Y118.232 E1.62573
G1 X142.913 Y118 E1.70355
G1 X143.49 Y117.902 E1.74595
G1 X144.387 Y117.788 E1.81145
G1 X145.165 Y117.73 E1.86797
G1 X145.816 Y117.706 E1.91516
G1 X146.761 Y117.694 E1.98362
G1 X153.446 Y117.696 E2.46789
G1 X154.146 Y117.706 E2.5186
G1 X154.606 Y117.722 E2.55194
G1 X155.264 Y117.759 E2.59968
G1 X156.541 Y117.906 E2.6928
G1 X157.164 Y118.015 E2.73862
G1 X158.329 Y118.285 E2.82525
G1 X158.919 Y118.456 E2.86975
G1 X159.857 Y118.775 E2.94152
G1 X160.399 Y118.993 E2.98384
G1 X160.77 Y119.152 E3.01308
G1 X161.769 Y119.641 E3.09365
G1 X162.312 Y119.942 E3.13862
G1 X163.173 Y120.472 E3.21186
G1 X163.725 Y120.856 E3.26058
G1 X163.994 Y121.053 E3.28473
G1 X164.822 Y121.724 E3.36193
G1 X165.281 Y122.134 E3.40652
G1 X166.147 Y122.998 E3.49513
G1 X166.567 Y123.467 E3.54074
G1 X167.332 Y124.424 E3.62949
G1 X167.698 Y124.938 E3.6752
G1 X168.261 Y125.813 E3.75057
G1 X168.564 Y126.349 E3.79518
G1 X168.737 Y126.671 E3.82166
G1 X169.218 Y127.688 E3.90315
G1 X169.463 Y128.283 E3.94977
G1 X169.869 Y129.452 E4.03941
G1 X170.039 Y130.048 E4.08431
G1 X170.305 Y131.219 E4.1713
G1 X170.402 Y131.789 E4.21318
G1 X170.516 Y132.67 E4.27753
G1 X170.574 Y133.456 E4.33463
G1 X170.599 Y134.123 E4.38298
G1 X170.611 Y135.052 E4.45028
G1 X170.609 Y153.239 E5.76776
G1 X170.59 Y154.234 E5.83985
G1 X170.57 Y154.7 E5.87364
G1 X170.497 Y157.26 E6.05916
G1 X170.497 Y159.801 E6.24323
G1 X170.547 Y161.83 E6.39026
G1 X170.608 Y163.53 E6.51349
G1 X170.589 Y164.686 E6.59724
G1 X170.525 Y165.607 E6.66412
G1 X170.419 Y166.545 E6.7325
G1 X170.309 Y167.187 E6.77968
G1 X170.203 Y167.72 E6.81905
G1 X170.051 Y168.378 E6.86797
G1 X169.869 Y169.03 E6.91701
G1 X169.76 Y169.384 E6.94384
G1 X169.524 Y170.072 E6.99653
G1 X169.202 Y170.915 E7.0619
G1 X168.828 Y171.779 E7.1301
G1 X168.494 Y172.444 E7.18401
G1 X168.248 Y172.898 E7.22142
G1 X167.842 Y173.591 E7.2796
G1 X167.365 Y174.317 E7.34253
G1 X166.926 Y174.92 E7.39656
G1 X166.36 Y175.645 E7.46319
G1 X165.809 Y176.297 E7.52503
G1 X165.23 Y176.908 E7.586
G1 X164.886 Y177.247 E7.62099
G1 X164.242 Y177.836 E7.68421
G1 X163.893 Y178.13 E7.71727
G1 X163.489 Y178.456 E7.75487
G1 X162.998 Y178.83 E7.79958
G1 X162.393 Y179.253 E7.85306
G1 X161.997 Y179.513 E7.88738
G1 X161.44 Y179.855 E7.93473
G1 X160.826 Y180.198 E7.98567
G1 X160.537 Y180.349 E8.00929
G1 X159.854 Y180.676 E8.06415
G1 X159.004 Y181.048 E8.13136
G1 X158.133 Y181.386 E8.19904
G1 X157.365 Y181.633 E8.25748
G1 X157.072 Y181.717 E8.27956
G1 X156.447 Y181.877 E8.3263
G1 X155.653 Y182.055 E8.38524
G1 X154.885 Y182.199 E8.44185
G1 X154.533 Y182.252 E8.46764
G1 X153.802 Y182.337 E8.52095
G1 X153.451 Y182.366 E8.54646
G1 X152.713 Y182.402 E8.59998
G1 X151.793 Y182.416 E8.66664
G1 X150.837 Y182.389 E8.73592
G1 X150.122 Y182.328 E8.7879
G1 X149.62 Y182.271 E8.8245
G1 X148.996 Y182.182 E8.87016
G1 X148.312 Y182.055 E8.92056
G1 X147.813 Y181.948 E8.95753
G1 X146.952 Y181.729 E9.02188
G1 X146.171 Y181.486 E9.08113
G1 X145.53 Y181.254 E9.13052
G1 X144.645 Y180.902 E9.19951
G1 X143.724 Y180.485 E9.27275
G1 X143.103 Y180.16 E9.32352
G1 X142.807 Y179.994 E9.34811
G1 X142.224 Y179.642 E9.39744
G1 X141.567 Y179.218 E9.45409
G1 X140.942 Y178.783 E9.50925
G1 X140.648 Y178.563 E9.53585
G1 X140.066 Y178.097 E9.58986
G1 X139.659 Y177.747 E9.62874
G1 X139.033 Y177.168 E9.69051
G1 X138.52 Y176.648 E9.74343
G1 X137.979 Y176.043 E9.80222
G1 X137.364 Y175.303 E9.87192
G1 X136.79 Y174.549 E9.94057
G1 X136.387 Y173.949 E9.99293
G1 X136.121 Y173.527 E10.02907
G1 X135.801 Y172.987 E10.07454
G1 X135.485 Y172.399 E10.12289
G1 X135.333 Y172.099 E10.14725
G1 X134.996 Y171.37 E10.20543
G1 X134.637 Y170.511 E10.27288
G1 X134.281 Y169.53 E10.34847
G1 X133.965 Y168.504 E10.42624
G1 X133.636 Y167.354 E10.51289
G1 X132.882 Y164.986 E10.69292
G1 X132.046 Y162.593 E10.87654
G1 X131.158 Y160.261 E11.05731
G1 X130.512 Y158.702 E11.17955
G1 X130.199 Y157.924 E11.2403
G1 X129.887 Y157.04 E11.30821
G1 X129.651 Y156.133 E11.3761
G1 X129.493 Y155.209 E11.44401
G1 X129.407 Y154.017 E11.53058
G1 X129.389 Y152.921 E11.60999
G1 X129.391 Y136.224 E12.81953
G0 F1620 X129.391 Y134.861
G0 F6000 X130.051 Y134.87
G1 F1800 X130.061 Y134.144 E12.87213
G1 X130.078 Y133.676 E12.90605
G1 X130.115 Y133.051 E12.9514
G1 X130.246 Y131.912 E13.03446
G1 X130.347 Y131.324 E13.07768
G1 X130.541 Y130.435 E13.14359
G1 X130.746 Y129.694 E13.19929
G1 X130.849 Y129.362 E13.22447
G1 X131.182 Y128.444 E13.29521
G1 X131.412 Y127.893 E13.33846
G1 X131.909 Y126.866 E13.42111
G1 X132.217 Y126.31 E13.46716
G1 X132.676 Y125.559 E13.53091
G1 X133.08 Y124.975 E13.58236
G1 X133.3 Y124.676 E13.60925
G1 X133.901 Y123.933 E13.67847
G1 X134.303 Y123.481 E13.72229
G1 X135.027 Y122.745 E13.79708
G1 X135.55 Y122.272 E13.84817
G1 X135.795 Y122.062 E13.87154
G1 X136.562 Y121.465 E13.94195
G1 X137.065 Y121.11 E13.98655
G1 X138.031 Y120.505 E14.06912
G1 X138.573 Y120.206 E14.11396
G1 X139.616 Y119.705 E14.19778
G1 X140.194 Y119.466 E14.24309
G1 X141.06 Y119.152 E14.30982
G1 X141.681 Y118.965 E14.3568
G1 X142.037 Y118.868 E14.38353
G1 X143.023 Y118.651 E14.45666
G1 X143.6 Y118.553 E14.49906
G1 X144.443 Y118.445 E14.56063
G1 X145.195 Y118.389 E14.61525
G1 X145.825 Y118.366 E14.66092
G1 X146.761 Y118.354 E14.72873
G1 X153.437 Y118.356 E15.21234
G1 X154.137 Y118.366 E15.26306
G1 X154.569 Y118.381 E15.29437
G1 X155.227 Y118.418 E15.34211
G1 X156.427 Y118.557 E15.42962
G1 X157.05 Y118.666 E15.47544
G1 X158.146 Y118.919 E15.55692
G1 X158.736 Y119.09 E15.60142
G1 X159.617 Y119.39 E15.66884
G1 X160.139 Y119.599 E15.70957
G1 X160.51 Y119.758 E15.73881
G1 X161.449 Y120.218 E15.81455
G1 X161.992 Y120.519 E15.85953
G1 X162.801 Y121.018 E15.92839
G1 X163.335 Y121.389 E15.97549
G1 X163.604 Y121.586 E15.99964
G1 X164.383 Y122.216 E16.07222
G1 X164.842 Y122.626 E16.1168
G1 X165.655 Y123.439 E16.20009
G1 X166.075 Y123.908 E16.2457
G1 X166.795 Y124.807 E16.32913
G1 X167.161 Y125.321 E16.37484
G1 X167.689 Y126.143 E16.44561
G1 X167.983 Y126.661 E16.48876
G1 X168.156 Y126.983 E16.51524
G1 X168.608 Y127.939 E16.59184
G1 X168.853 Y128.534 E16.63846
G1 X169.235 Y129.634 E16.72281
G1 X169.405 Y130.23 E16.76771
G1 X169.655 Y131.33 E16.84942
G1 X169.752 Y131.9 E16.89131
G1 X169.858 Y132.728 E16.95178
G1 X169.915 Y133.485 E17.00677
G1 X169.939 Y134.133 E17.05374
G1 X169.951 Y135.052 E17.12032
G1 X169.949 Y153.229 E18.43708
G1 X169.931 Y154.206 E18.50786
G1 X169.912 Y154.653 E18.54027
G1 X169.837 Y157.276 E18.73036
G1 X169.837 Y159.817 E18.91443
G1 X169.888 Y161.872 E19.06334
G1 X169.948 Y163.554 E19.18527
G1 X169.93 Y164.64 E19.26395
G1 X169.866 Y165.561 E19.33083
G1 X169.767 Y166.443 E19.39512
G1 X169.662 Y167.058 E19.44032
G1 X169.556 Y167.591 E19.47968
G1 X169.355 Y168.429 E19.54211
G1 X169.13 Y169.19 E19.5996
G1 X168.907 Y169.836 E19.6491
G1 X168.585 Y170.679 E19.71447
G1 X168.234 Y171.491 E19.77856
G1 X167.913 Y172.129 E19.83029
G1 X167.667 Y172.583 E19.8677
G1 X167.278 Y173.247 E19.92345
G1 X166.818 Y173.947 E19.98412
G1 X166.406 Y174.514 E20.03489
G1 X165.84 Y175.239 E20.10152
G1 X165.321 Y175.852 E20.15971
G1 X164.767 Y176.438 E20.21813
G1 X164.423 Y176.777 E20.25311
G1 X163.807 Y177.34 E20.31356
G1 X163.075 Y177.942 E20.38222
G1 X162.613 Y178.294 E20.4243
G1 X162.031 Y178.701 E20.47574
G1 X161.635 Y178.961 E20.51006
G1 X161.111 Y179.283 E20.55461
G1 X160.521 Y179.613 E20.60358
G1 X160.232 Y179.764 E20.6272
G1 X159.59 Y180.071 E20.67875
G1 X158.74 Y180.443 E20.74597
G1 X157.921 Y180.761 E20.80961
G1 X157.183 Y180.999 E20.86578
G1 X156.89 Y181.083 E20.88786
G1 X156.303 Y181.233 E20.93175
G1 X155.509 Y181.411 E20.9907
G1 X154.787 Y181.546 E21.04391
G1 X154.435 Y181.599 E21.06969
G1 X153.748 Y181.679 E21.1198
G1 X153.397 Y181.708 E21.14531
G1 X152.703 Y181.742 E21.19564
G1 X151.783 Y181.756 E21.2623
G1 X150.884 Y181.73 E21.32745
G1 X150.197 Y181.672 E21.37739
G1 X149.695 Y181.615 E21.41399
G1 X148.864 Y181.489 E21.47488
G1 X147.951 Y181.302 E21.54239
G1 X147.363 Y181.158 E21.58624
G1 X146.666 Y180.954 E21.63885
G1 X146.376 Y180.859 E21.66096
G1 X145.774 Y180.641 E21.70734
G1 X144.889 Y180.289 E21.77633
G1 X144.023 Y179.897 E21.84519
G1 X143.426 Y179.584 E21.89402
G1 X143.13 Y179.418 E21.91861
G1 X142.582 Y179.087 E21.96499
G1 X141.925 Y178.663 E22.02163
G1 X141.337 Y178.255 E22.07347
G1 X141.043 Y178.035 E22.10007
G1 X140.497 Y177.596 E22.15083
G1 X140.09 Y177.246 E22.18971
G1 X139.491 Y176.692 E22.24882
G1 X138.995 Y176.189 E22.29999
G1 X138.486 Y175.622 E22.35519
G1 X137.871 Y174.882 E22.42489
G1 X137.332 Y174.173 E22.48941
G1 X136.945 Y173.597 E22.53967
G1 X136.679 Y173.175 E22.57581
G1 X136.379 Y172.667 E22.61855
G1 X136.073 Y172.101 E22.66516
G1 X135.921 Y171.801 E22.68952
G1 X135.605 Y171.115 E22.74423
G1 X135.246 Y170.256 E22.81168
G1 X134.911 Y169.334 E22.88274
G1 X134.599 Y168.322 E22.95945
G1 X134.263 Y167.149 E23.04784
G1 X133.512 Y164.788 E23.22732
G1 X132.664 Y162.361 E23.41356
G1 X131.777 Y160.03 E23.59423
G1 X131.125 Y158.456 E23.71764
G1 X130.812 Y157.678 E23.77839
G1 X130.51 Y156.82 E23.84428
G1 X130.284 Y155.94 E23.9101
G1 X130.137 Y155.043 E23.97595
G1 X130.067 Y154.006 E24.05124
G1 X130.049 Y152.921 E24.12985
G1 X130.051 Y136.233 E25.33874
G0 F1620 X130.051 Y134.87
G1 F2100 E20.33874
G1 F300 Z0.56
;MESH:aza-ptfe-guide-mount.stl
G0 F6000 X142.042 Y137.165 Z0.56
;TYPE:WALL-INNER
G1 F300 Z0.24
G1 F2100 E25.33874
G1 F1757.4 X142.108 Y136.834 E25.35968
G1 F1786.5 X142.175 Y136.503 E25.3803
G1 F1800 X142.218 Y136.326 E25.39133
G1 X142.415 Y135.673 E25.43266
G1 X142.474 Y135.511 E25.4431
G1 X142.737 Y134.885 E25.48424
G1 X142.886 Y134.595 E25.50399
G1 X143.14 Y134.134 E25.53588
G1 X143.273 Y133.928 E25.55074
G1 X143.673 Y133.358 E25.59293
G1 X144.122 Y132.839 E25.63451
G1 X144.299 Y132.651 E25.65015
G1 X144.815 Y132.173 E25.69277
G1 X145.046 Y131.992 E25.71055
G1 X145.474 Y131.672 E25.74292
G1 X145.904 Y131.407 E25.77353
G1 X146.208 Y131.227 E25.79493
G1 X146.364 Y131.146 E25.80558
G1 X146.973 Y130.869 E25.84612
G1 X147.135 Y130.805 E25.85667
G1 X147.791 Y130.588 E25.89853
G1 X147.957 Y130.541 E25.90899
G1 F1760 X148.286 Y130.454 E25.93007
G1 F1682.7 X148.615 Y130.366 E25.95214
G1 X148.275 Y130.351 E25.9742
G1 F1760 X147.935 Y130.336 E25.99529
G1 F1800 X146.06 Y130.335 E26.10889
G1 X145.556 Y130.364 E26.13947
G1 X145.113 Y130.44 E26.16671
G1 X144.682 Y130.562 E26.19385
G1 X144.28 Y130.731 E26.22027
G1 X143.888 Y130.948 E26.24741
G1 X143.524 Y131.206 E26.27444
G1 X143.192 Y131.502 E26.30139
G1 X143.005 Y131.708 E26.31825
G1 X142.667 Y132.161 E26.35249
G1 X142.511 Y132.434 E26.37154
G1 X142.363 Y132.738 E26.39203
G1 X142.26 Y132.986 E26.4083
G1 X142.134 Y133.422 E26.43579
G1 X142.059 Y133.859 E26.46266
G1 X142.031 Y134.376 E26.49403
G1 X142.031 Y136.49 E26.62211
G1 F1786.5 X142.036 Y136.828 E26.64274
G1 F1757.4 X142.042 Y137.166 E26.66372
G1 F2100 E21.66372
G1 F300 Z0.56
G0 F6000 X142.052 Y139.911 Z0.56
G1 F300 Z0.24
G1 F2100 E26.66372
G1 F1714.3 X142.042 Y140.257 E26.68574
G1 F1770.5 X142.031 Y140.603 E26.70706
G1 F1800 X142.029 Y152.273 E27.41411
G1 X144.542 Y152.276 E27.56636
G1 X144.886 Y152.308 E27.5873
G1 X145.362 Y152.42 E27.61692
G1 X145.6 Y152.493 E27.63201
G1 X146.101 Y152.689 E27.6646
G1 X146.661 Y152.993 E27.70321
G1 X147.233 Y153.408 E27.74602
G1 X147.745 Y153.905 E27.78925
G1 X148.159 Y154.437 E27.83009
G1 X148.304 Y154.663 E27.84636
G1 X148.53 Y155.08 E27.8751
G1 X148.694 Y155.477 E27.90112
G1 X148.787 Y155.725 E27.91717
G1 X148.87 Y156.026 E27.93609
G1 X148.96 Y156.436 E27.96152
G1 X148.995 Y156.676 E27.97622
G1 X149.259 Y156.6 E27.99286
G1 X149.504 Y156.508 E28.00872
G1 X150.033 Y156.351 E28.04215
G1 X150.4 Y156.266 E28.06497
G1 X150.665 Y156.21 E28.08138
G1 X151.176 Y156.141 E28.11262
G1 X151.677 Y156.102 E28.14307
G1 X151.92 Y156.088 E28.15782
G1 X152.493 Y156.107 E28.19255
G1 X152.924 Y156.151 E28.2188
G1 X153.208 Y156.187 E28.23614
G1 X153.687 Y156.278 E28.26568
G1 X154.245 Y156.428 E28.30069
G1 X154.348 Y156.46 E28.30723
G1 X154.818 Y156.625 E28.33741
G1 X154.967 Y156.687 E28.34718
G1 X154.971 Y154.763 E28.46375
G1 X154.995 Y154.469 E28.48162
G1 X155.04 Y154.217 E28.49713
G1 X155.164 Y153.85 E28.5206
G1 X155.277 Y153.599 E28.53728
G1 X155.425 Y153.378 E28.5534
G1 X155.652 Y153.092 E28.57552
G1 X155.9 Y152.846 E28.59668
G1 X156.191 Y152.649 E28.61797
G1 X156.472 Y152.492 E28.63747
G1 X156.773 Y152.392 E28.65669
G1 X157.111 Y152.316 E28.67768
G1 X157.473 Y152.275 E28.69975
G1 X157.97 Y152.273 E28.72986
G1 X157.97 Y140.553 E29.43994
G1 F1765.2 X157.957 Y140.202 E29.46164
G1 F1697.1 X157.943 Y139.851 E29.48421
G1 F1650 X157.937 Y139.745 E29.49123
G1 X157.906 Y139.848 E29.49834
G1 F1697.1 X157.811 Y140.185 E29.52084
G1 F1765.2 X157.716 Y140.523 E29.54253
G1 F1800 X157.666 Y140.691 E29.55315
G1 X157.438 Y141.328 E29.59414
G1 X157.37 Y141.492 E29.6049
G1 X157.073 Y142.104 E29.64611
G1 X156.99 Y142.256 E29.6566
G1 X156.627 Y142.841 E29.69832
G1 X156.521 Y142.991 E29.70944
G1 X156.106 Y143.518 E29.75009
G1 X155.994 Y143.647 E29.76044
G1 X155.52 Y144.135 E29.80165
G1 X155.394 Y144.251 E29.81203
G1 X154.861 Y144.697 E29.85414
G1 X154.709 Y144.81 E29.86561
G1 X154.154 Y145.175 E29.90586
G1 X154.009 Y145.261 E29.91607
G1 X153.407 Y145.574 E29.95718
G1 X153.252 Y145.644 E29.96748
G1 X152.587 Y145.907 E30.01081
G1 X152.415 Y145.963 E30.02177
G1 X151.8 Y146.128 E30.06035
G1 X151.56 Y146.176 E30.07518
G1 X150.957 Y146.275 E30.1122
G1 X150.689 Y146.299 E30.1285
G1 X150.104 Y146.332 E30.164
G1 X149.83 Y146.328 E30.1806
G1 X149.163 Y146.291 E30.22108
G1 X148.516 Y146.191 E30.26074
G1 X148.255 Y146.14 E30.27686
G1 X147.73 Y146 E30.30977
G1 X147.496 Y145.934 E30.32451
G1 X147.044 Y145.762 E30.35381
G1 X146.764 Y145.653 E30.37201
G1 X146.603 Y145.58 E30.38272
G1 X146.012 Y145.273 E30.42307
G1 X145.865 Y145.186 E30.43342
G1 X145.295 Y144.811 E30.47476
G1 X145.151 Y144.704 E30.48563
G1 X144.627 Y144.271 E30.52681
G1 X144.499 Y144.153 E30.53736
G1 X144.024 Y143.667 E30.57853
G1 X143.907 Y143.534 E30.58926
G1 X143.488 Y143.001 E30.63034
G1 X143.389 Y142.859 E30.64083
G1 X143.028 Y142.285 E30.68191
G1 X142.942 Y142.13 E30.69265
G1 X142.644 Y141.52 E30.73378
G1 X142.574 Y141.357 E30.74453
G1 X142.347 Y140.728 E30.78505
G1 X142.298 Y140.569 E30.79513
G1 F1770.5 X142.204 Y140.237 E30.81638
G1 F1714.3 X142.11 Y139.904 E30.83839
G1 F1670.9 X142.057 Y139.788 E30.84672
