;FLAVOR:Marlin
;TIME:1367
;Filament used: 0.952544m
;Layer height: 0.32
;MINX:111.608
;MINY:135.11
;MINZ:0.24
;MAXX:177.301
;MAXY:164.89
;MAXZ:50.48
;Generated with Cura_SteamEngine 5.0.0
M140 S70
M105
M190 S70
M104 S245
M105
M109 S245
M82 ;absolute extrusion mode
; Ender 3 Max Custom Start G-code
G92 E0 ; Reset Extruder
G28 ; Home all axes
G1 Z2.0 F3000 ; Move Z Axis up little to prevent scratching of Heat Bed
G1 X0.1 Y20 Z0.3 F5000.0 ; Move to start position
G1 X0.1 Y200.0 Z0.3 F1500.0 E15 ; Draw the first line
G1 X0.4 Y200.0 Z0.3 F5000.0 ; Move to side a little
G1 X0.4 Y20 Z0.3 F1500.0 E30 ; Draw the second line
G92 E0 ; Reset Extruder
G1 Z2.0 F3000 ; Move Z Axis up little to prevent scratching of Heat Bed
G1 X5 Y20 Z0.3 F5000.0 ; Move over to prevent blob squish
G92 E0
G92 E0
G1 F2100 E-5
;LAYER_COUNT:158
;LAYER:0
M107
G1 F300 Z0.56
G0 F6000 X115.995 Y138.333 Z0.56
G1 F300 Z0.56
G0 F6000 X111.609 Y147.687
;TYPE:SKIRT
G1 F300 Z0.24
G1 F2100 E0
G1 F1800 X111.619 Y146.993 E0.05028
G1 X111.673 Y146.057 E0.1182
G1 X111.806 Y145.129 E0.18611
G1 X112.017 Y144.216 E0.25399
G1 X112.306 Y143.324 E0.32191
G1 X112.67 Y142.46 E0.38983
G1 X113.106 Y141.63 E0.45775
G1 X113.611 Y140.84 E0.52567
G1 X114.181 Y140.096 E0.59356
G1 X114.837 Y139.38 E0.66391
G1 X115.009 Y139.208 E0.68153
G1 X115.995 Y138.333 E0.77702
G1 X116.283 Y138.107 E0.80354
G1 X117.111 Y137.518 E0.87715
G1 X117.342 Y137.369 E0.89707
G1 X118.119 Y136.912 E0.96237
G1 X118.409 Y136.757 E0.98619
G1 X119.462 Y136.263 E1.07044
G1 X119.773 Y136.137 E1.09475
G1 X120.911 Y135.747 E1.18189
G1 X121.325 Y135.63 E1.21306
G1 X122.011 Y135.46 E1.26426
G1 X122.277 Y135.403 E1.28396
G1 X123.513 Y135.211 E1.37457
G1 X124.331 Y135.153 E1.43398
G1 X125.794 Y135.11 E1.54001
G1 X151.943 Y135.11 E3.43425
G1 X152.788 Y135.121 E3.49547
G1 X153.724 Y135.175 E3.56339
G1 X154.652 Y135.308 E3.6313
G1 X155.565 Y135.52 E3.6992
G1 X156.457 Y135.809 E3.76712
G1 X157.321 Y136.173 E3.83504
G1 X158.151 Y136.609 E3.90295
G1 X158.941 Y137.114 E3.97088
G1 X159.684 Y137.685 E4.03876
G1 X160.377 Y138.317 E4.1067
G1 X161.013 Y139.005 E4.17457
G1 X161.588 Y139.746 E4.24252
G1 X162.097 Y140.532 E4.31035
G1 X162.538 Y141.36 E4.37831
G1 X162.907 Y142.222 E4.44623
G1 X163.201 Y143.112 E4.51413
G1 X163.418 Y144.024 E4.58204
G1 X163.557 Y144.951 E4.64995
G1 X163.615 Y145.857 E4.71571
G1 X163.638 Y147.163 E4.81033
G1 X163.616 Y148.879 E4.93465
G1 X163.641 Y152.793 E5.21819
G1 X163.631 Y153.983 E5.3044
G1 X163.583 Y154.92 E5.37236
G1 X163.455 Y155.848 E5.44022
G1 X163.249 Y156.763 E5.50817
G1 X162.966 Y157.656 E5.57603
G1 X162.607 Y158.523 E5.644
G1 X162.176 Y159.355 E5.71188
G1 X161.676 Y160.148 E5.77979
G1 X161.11 Y160.895 E5.84768
G1 X160.482 Y161.591 E5.91559
G1 X159.797 Y162.232 E5.98355
G1 X159.061 Y162.811 E6.05139
G1 X158.277 Y163.326 E6.11934
G1 X157.453 Y163.772 E6.18721
G1 X156.593 Y164.146 E6.25515
G1 X155.705 Y164.445 E6.32302
G1 X154.794 Y164.668 E6.39097
G1 X153.868 Y164.812 E6.45885
G1 X152.95 Y164.877 E6.52552
G1 X152.321 Y164.89 E6.57109
G1 X125.704 Y164.888 E8.49925
G1 X124.645 Y164.869 E8.57597
G1 X123.288 Y164.761 E8.67458
G1 X122.847 Y164.698 E8.70686
G1 X121.836 Y164.505 E8.78142
G1 X121.536 Y164.433 E8.80376
G1 X120.472 Y164.12 E8.88411
G1 X120.169 Y164.014 E8.90736
G1 X119.372 Y163.699 E8.96944
G1 X119.097 Y163.578 E8.99121
G1 X118.28 Y163.178 E9.0571
G1 X118.07 Y163.064 E9.07441
G1 X117.267 Y162.582 E9.14226
G1 X116.971 Y162.387 E9.16793
G1 X116.2 Y161.83 E9.23684
G1 X115.961 Y161.641 E9.25891
G1 X115.176 Y160.958 E9.33429
G1 X115.01 Y160.799 E9.35094
G1 X114.361 Y160.122 E9.41887
G1 X113.773 Y159.392 E9.48678
G1 X113.248 Y158.615 E9.55471
G1 X112.792 Y157.796 E9.62261
G1 X112.407 Y156.942 E9.69047
G1 X112.097 Y156.057 E9.7584
G1 X111.863 Y155.149 E9.82633
G1 X111.707 Y154.225 E9.89421
G1 X111.624 Y153.047 E9.97976
G1 X111.608 Y152.031 E10.05336
G1 X111.609 Y149.05 E10.26931
G0 F1620 X111.609 Y147.687
G1 F2100 E5.26931
G1 F300 Z0.56
G0 F6000 X112.268 Y152.031 Z0.56
G1 F300 Z0.24
G1 F2100 E10.26931
G1 F1800 X112.269 Y147.696 E10.58334
G1 X112.279 Y147.002 E10.63362
G1 X112.332 Y146.095 E10.69943
G1 X112.465 Y145.196 E10.76527
G1 X112.676 Y144.312 E10.8311
G1 X112.964 Y143.45 E10.89694
G1 X113.326 Y142.616 E10.9628
G1 X113.761 Y141.818 E11.02864
G1 X114.264 Y141.061 E11.09448
G1 X114.832 Y140.351 E11.16035
G1 X115.304 Y139.847 E11.21037
G1 X115.476 Y139.675 E11.22799
G1 X116.403 Y138.852 E11.31779
G1 X116.691 Y138.626 E11.34431
G1 X117.469 Y138.072 E11.41349
G1 X117.7 Y137.923 E11.43341
G1 X118.43 Y137.494 E11.49474
G1 X118.72 Y137.339 E11.51856
G1 X119.71 Y136.875 E11.59777
G1 X120.021 Y136.749 E11.62207
G1 X121.091 Y136.382 E11.70402
G1 X121.505 Y136.265 E11.73518
G1 X122.15 Y136.105 E11.78332
G1 X122.416 Y136.048 E11.80303
G1 X123.577 Y135.868 E11.88814
G1 X124.353 Y135.813 E11.94449
G1 X125.794 Y135.77 E12.04893
G1 X151.943 Y135.77 E13.94317
G1 X152.779 Y135.781 E14.00374
G1 X153.686 Y135.834 E14.06956
G1 X154.585 Y135.967 E14.13539
G1 X155.469 Y136.178 E14.20123
G1 X156.331 Y136.467 E14.26708
G1 X157.164 Y136.829 E14.33288
G1 X157.963 Y137.264 E14.39878
G1 X158.719 Y137.767 E14.46456
G1 X159.429 Y138.335 E14.53043
G1 X160.086 Y138.963 E14.59627
G1 X160.686 Y139.646 E14.66212
G1 X161.223 Y140.379 E14.72795
G1 X161.693 Y141.157 E14.79379
G1 X162.093 Y141.973 E14.85962
G1 X162.42 Y142.821 E14.92546
G1 X162.672 Y143.694 E14.99128
G1 X162.845 Y144.586 E15.0571
G1 X162.955 Y145.872 E15.1506
G1 X162.978 Y147.154 E15.24349
G1 X162.956 Y148.891 E15.36933
G1 X162.981 Y152.788 E15.65163
G1 X162.971 Y153.978 E15.73784
G1 X162.923 Y154.885 E15.80364
G1 X162.796 Y155.785 E15.86948
G1 X162.59 Y156.671 E15.93537
G1 X162.307 Y157.534 E16.00116
G1 X161.95 Y158.37 E16.06702
G1 X161.52 Y159.171 E16.13287
G1 X161.021 Y159.931 E16.19873
G1 X160.458 Y160.644 E16.26455
G1 X159.834 Y161.305 E16.33039
G1 X159.155 Y161.908 E16.39618
G1 X158.425 Y162.45 E16.46204
G1 X157.65 Y162.925 E16.52789
G1 X156.837 Y163.33 E16.59369
G1 X155.991 Y163.663 E16.65955
G1 X155.119 Y163.919 E16.72538
G1 X154.228 Y164.098 E16.79122
G1 X152.931 Y164.217 E16.88557
G1 X152.321 Y164.23 E16.92976
G1 X125.716 Y164.228 E18.85705
G1 X124.657 Y164.209 E18.93377
G1 X123.381 Y164.107 E19.0265
G1 X122.94 Y164.044 E19.05877
G1 X121.99 Y163.863 E19.12883
G1 X121.69 Y163.791 E19.15118
G1 X120.69 Y163.497 E19.22668
G1 X120.387 Y163.391 E19.24994
G1 X119.638 Y163.095 E19.30828
G1 X119.363 Y162.974 E19.33004
G1 X118.595 Y162.598 E19.39199
G1 X118.385 Y162.484 E19.4093
G1 X117.63 Y162.031 E19.47308
G1 X117.334 Y161.836 E19.49876
G1 X116.609 Y161.313 E19.56352
G1 X116.37 Y161.124 E19.58559
G1 X115.633 Y160.481 E19.65644
G1 X115.467 Y160.322 E19.67309
G1 X114.839 Y159.665 E19.73893
G1 X114.271 Y158.955 E19.8048
G1 X113.767 Y158.199 E19.87062
G1 X113.332 Y157.401 E19.93645
G1 X112.969 Y156.567 E20.00234
G1 X112.681 Y155.706 E20.06811
G1 X112.47 Y154.822 E20.13395
G1 X112.337 Y153.923 E20.19978
G1 X112.304 Y153.393 E20.23825
G0 F1620 X112.283 Y153.036
G0 X112.268 Y152.031
G1 F2100 E15.23825
G1 F300 Z0.56
;MESH:PTFE-Bracket_extended_Version.stl
G0 F6000 X126.179 Y152.249 Z0.56
;TYPE:WALL-INNER
G1 F300 Z0.24
G1 F2100 E20.23825
G1 F1800 X125.965 Y151.886 E20.26378
G1 X125.759 Y151.424 E20.29443
G1 X125.609 Y150.913 E20.32669
G1 X125.528 Y150.445 E20.35547
G1 X125.506 Y149.916 E20.38755
G1 X125.545 Y149.434 E20.41685
G1 X125.653 Y148.909 E20.44932
G1 X125.823 Y148.414 E20.48103
G1 X126.061 Y147.939 E20.51322
G1 X126.177 Y147.751 E20.5266
G1 X125.36 Y147.752 E20.5761
G1 X124.943 Y147.76 E20.60137
G1 X124.702 Y147.794 E20.61612
G1 X124.464 Y147.866 E20.63118
G1 X124.249 Y147.987 E20.64613
G1 X124.248 Y148.504 E20.67745
G1 X124.249 Y149.641 E20.74634
G1 X124.249 Y151.816 E20.87812
G1 X124.277 Y152.055 E20.89269
G1 X124.653 Y152.19 E20.9169
G1 X124.818 Y152.221 E20.92707
G0 F1620 X124.894 Y152.235
G0 X125.167 Y152.25
G0 X126.179 Y152.249
G1 F2100 E15.92707
G1 F300 Z0.56
G0 F6000 X127.776 Y147.09 Z0.56
G1 F300 Z0.24
G1 F2100 E20.92707
G1 F1800 X125.352 Y147.092 E21.07393
G1 X124.937 Y147.098 E21.09908
G1 X124.637 Y147.136 E21.1174
G1 X124.313 Y147.22 E21.13768
G1 X124.027 Y147.333 E21.15631
G1 X123.771 Y147.469 E21.17387
G1 X123.589 Y147.594 E21.18725
G1 X123.589 Y151.816 E21.44305
G1 X123.589 Y152.405 E21.47873
G1 X123.96 Y152.634 E21.50515
G1 X124.21 Y152.743 E21.52167
G1 X124.468 Y152.824 E21.53806
G1 X124.741 Y152.879 E21.55493
G1 X125.1 Y152.907 E21.57674
G1 X125.498 Y152.909 E21.60086
G1 X126.092 Y152.91 E21.63685
G1 X127.036 Y152.909 E21.69404
G1 X127.774 Y152.909 E21.73875
G1 X127.571 Y152.774 E21.75352
G1 X127.312 Y152.565 E21.77369
G1 X126.99 Y152.239 E21.80145
G1 X126.755 Y151.928 E21.82507
G1 X126.537 Y151.557 E21.85114
G1 X126.369 Y151.172 E21.87659
G1 X126.247 Y150.744 E21.90355
G1 X126.181 Y150.347 E21.92793
G1 X126.166 Y149.906 E21.95467
G1 X126.201 Y149.506 E21.979
G1 X126.297 Y149.055 E22.00693
G1 X126.441 Y148.647 E22.03315
G1 X126.643 Y148.249 E22.06019
G1 X126.796 Y148.024 E22.07667
G0 F1620 X126.882 Y147.897
G0 X127.16 Y147.583
G0 X127.49 Y147.287
G0 X127.776 Y147.09
G1 F2100 E17.07667
G1 F300 Z0.56
G0 F6000 X144.824 Y147.203 Z0.56
G1 F300 Z0.24
G1 F2100 E22.07667
G1 F1343.9 X145.106 Y147.57 E22.11423
G1 X145.237 Y147.839 E22.13851
G1 F1485 X145.283 Y148.222 E22.16684
G1 F1719.2 X145.315 Y148.561 E22.18844
G1 F1819.3 X145.315 Y148.839 E22.2051
G1 F1847.6 X145.315 Y150.099 E22.27948
G1 F1841.9 X145.314 Y151.359 E22.35408
G1 F1747.1 X145.282 Y151.771 E22.37988
G1 F1525 X145.256 Y152.087 E22.40255
G1 F1375 X145.079 Y152.473 E22.43623
G1 F1343.9 X144.879 Y152.746 E22.46369
G1 X144.826 Y152.797 E22.46966
G1 X145.276 Y152.798 E22.50618
G1 X146.45 Y152.798 E22.60145
G1 X146.163 Y152.425 E22.63964
G1 X146.035 Y152.163 E22.6633
G1 F1481.3 X145.989 Y151.797 E22.69046
G1 F1724.2 X145.96 Y151.436 E22.71337
G1 F1827.7 X145.956 Y151.275 E22.72298
G1 F1850.5 X145.955 Y148.839 E22.86654
G1 F1819.3 X145.972 Y148.55 E22.8839
G1 F1719.2 X145.992 Y148.216 E22.90512
G1 F1519.2 X146.018 Y147.909 E22.92724
G1 F1373.4 X146.193 Y147.527 E22.9606
G1 F1343.9 X146.393 Y147.254 E22.98806
G1 X146.446 Y147.203 E22.99403
G1 X145.996 Y147.202 E23.03055
G1 X145.184 Y147.203 E23.09644
G0 F1620 X144.824 Y147.203
G0 F6000 X144.35 Y147.821
;TYPE:WALL-OUTER
G1 F1800 X144.543 Y148.178 E23.12076
G1 X144.661 Y148.67 E23.15108
G1 X144.665 Y148.709 E23.15343
G1 X144.663 Y151.302 E23.30883
G1 X144.605 Y151.655 E23.33027
G1 X144.393 Y152.117 E23.36073
G1 X144.073 Y152.459 E23.3888
G1 F1760 X143.866 Y152.587 E23.40371
G1 F1685.1 X143.658 Y152.716 E23.41938
G1 F1638.6 X143.216 Y152.81 E23.44913
G1 F1629.6 X141.702 Y152.81 E23.54935
G1 X140.188 Y152.81 E23.64956
G1 F1631.9 X138.674 Y152.81 E23.74964
G1 X137.16 Y152.81 E23.84972
G1 F1634.1 X135.646 Y152.811 E23.94966
G1 F1636.4 X134.132 Y152.811 E24.04947
G1 X132.618 Y152.811 E24.14927
G1 F1638.6 X131.104 Y152.811 E24.24894
G1 X129.59 Y152.812 E24.3486
G1 F1629.6 X129.288 Y152.8 E24.36861
G1 F1661.5 X128.935 Y152.718 E24.39214
G1 F1752.2 X128.585 Y152.586 E24.41517
G1 F1800 X128.289 Y152.451 E24.43466
G1 X128.017 Y152.283 E24.45382
G1 X127.727 Y152.051 E24.47608
G1 X127.466 Y151.783 E24.4985
G1 X127.294 Y151.546 E24.51605
G1 X127.109 Y151.228 E24.53809
G1 X126.979 Y150.92 E24.55813
G1 X126.885 Y150.576 E24.5795
G1 X126.834 Y150.249 E24.59933
G1 X126.826 Y149.895 E24.62055
G1 X126.857 Y149.578 E24.63964
G1 X126.941 Y149.201 E24.66279
G1 X127.059 Y148.879 E24.68334
G1 X127.226 Y148.559 E24.70497
G1 X127.421 Y148.278 E24.72547
G1 X127.646 Y148.03 E24.74554
G1 X127.924 Y147.784 E24.76778
G1 X128.217 Y147.591 E24.78881
G1 X128.517 Y147.441 E24.80891
G1 F1744.5 X128.881 Y147.295 E24.83316
G1 F1640.9 X129.168 Y147.212 E24.8528
G1 F1614.1 X129.56 Y147.189 E24.87904
G1 F1638.6 X136.356 Y147.189 E25.32642
G1 X143.152 Y147.189 E25.7738
G1 F1598.9 X143.581 Y147.237 E25.80293
G1 F1616.3 X143.791 Y147.364 E25.81931
G1 F1734.3 X144.001 Y147.491 E25.83457
G1 F1800 X144.35 Y147.821 E25.86335
G0 F6000 X144.502 Y148.103
G1 F2100 E20.86335
G1 F300 Z0.56
G0 F6000 X152.288 Y146.462 Z0.56
G1 F300 Z0.24
G1 F2100 E25.86335
G1 F1638.6 X148.116 Y146.463 E26.138
G1 F1603.2 X147.643 Y146.478 E26.16984
G1 F1623 X147.343 Y146.454 E26.18984
G1 F1736.8 X147.043 Y146.43 E26.20853
G1 F1800 X144.26 Y146.431 E26.37531
G1 F1724.2 X143.887 Y146.46 E26.39872
G1 F1605.4 X143.644 Y146.481 E26.41511
G1 F1594.6 X143.273 Y146.466 E26.44023
G1 F1634.1 X143.151 Y146.463 E26.44828
G1 F1638.6 X136.342 Y146.463 E26.89652
G1 X129.533 Y146.464 E27.34476
G1 F1616.3 X129.118 Y146.472 E27.37246
G1 F1640.9 X128.793 Y146.451 E27.39387
G1 F1744.5 X128.393 Y146.43 E27.41863
G1 F1800 X125.344 Y146.432 E27.60136
G1 X124.905 Y146.438 E27.62767
G1 X124.665 Y146.463 E27.64213
G1 X124.413 Y146.503 E27.65742
G1 X124.041 Y146.612 E27.68065
G1 X123.705 Y146.752 E27.70246
G1 X123.404 Y146.917 E27.72303
G1 X123.108 Y147.125 E27.74471
G1 X122.929 Y147.286 E27.75914
G1 X122.929 Y152.715 E28.08449
G1 X123.109 Y152.874 E28.09888
G1 X123.402 Y153.082 E28.12042
G1 X123.708 Y153.25 E28.14134
G1 X123.958 Y153.353 E28.15754
G1 X124.283 Y153.458 E28.17801
G1 X124.63 Y153.529 E28.19924
G1 X124.885 Y153.557 E28.21461
G1 X125.167 Y153.57 E28.23153
G1 X128.466 Y153.569 E28.42923
G1 F1770.5 X128.755 Y153.559 E28.44685
G1 F1670.9 X129.177 Y153.53 E28.47416
G1 F1623 X129.59 Y153.538 E28.50161
G1 F1638.6 X143.156 Y153.537 E29.39466
G1 F1603.2 X143.629 Y153.522 E29.4265
G1 F1623 X143.929 Y153.546 E29.44651
G1 F1736.8 X144.229 Y153.57 E29.4652
G1 F1800 X147.011 Y153.57 E29.63192
G1 F1724.2 X147.383 Y153.54 E29.65527
G1 F1605.4 X147.627 Y153.519 E29.67172
G1 F1594.6 X148.001 Y153.534 E29.69704
G1 F1634.1 X148.122 Y153.537 E29.70503
G1 F1640.9 X152.289 Y153.538 E29.97897
G1 F1638.6 X152.289 Y153.175 E30.00286
G1 X152.289 Y152.812 E30.02676
G1 F1640.9 X148.122 Y152.812 E30.3007
G1 F1601.1 X147.69 Y152.763 E30.32999
G1 F1616.3 X147.481 Y152.636 E30.34631
G1 F1734.3 X147.271 Y152.508 E30.36161
G1 F1800 X146.92 Y152.176 E30.39056
G1 X146.73 Y151.826 E30.41443
G1 X146.612 Y151.333 E30.44481
G1 X146.607 Y151.275 E30.44829
G1 X146.607 Y148.809 E30.59608
G1 X146.671 Y148.325 E30.62533
G1 X146.879 Y147.883 E30.65461
G1 X147.199 Y147.541 E30.68268
G1 F1760 X147.406 Y147.413 E30.69759
G1 F1685.1 X147.614 Y147.284 E30.71326
G1 F1638.6 X148.056 Y147.19 E30.74301
G1 F1629.6 X149.346 Y147.19 E30.8284
G1 F1634.1 X150.636 Y147.189 E30.91355
G1 F1638.6 X151.926 Y147.188 E30.99848
G1 X152.289 Y147.188 E31.02237
G1 X152.288 Y146.693 E31.05496
G0 F1620 X152.288 Y146.462
G0 F6000 X151.968 Y146.462
G1 F2100 E26.05496
G1 F300 Z0.56
G0 F6000 X124.993 Y148.511 Z0.56
;TYPE:SKIN
G1 F300 Z0.24
G1 F2100 E31.05496
G1 F1209.8 X124.988 Y148.545 E31.05802
G1 F1257.1 X124.955 Y148.816 E31.08145
G1 F1351.5 X124.921 Y149.088 E31.10333
G1 F1412.6 X124.917 Y149.135 E31.10693
G1 F1448.8 X124.901 Y149.384 E31.12551
G1 F1507.6 X124.884 Y149.633 E31.14336
G1 F1546.9 X124.88 Y150.259 E31.18702
G1 F1530.9 X124.892 Y150.543 E31.20705
G1 F1464.9 X124.915 Y150.866 E31.23089
G1 F1421.1 X124.919 Y150.896 E31.23319
G1 F1368.7 X124.949 Y151.144 E31.25288
G1 F1278.8 X124.98 Y151.393 E31.27404
G1 F1217.2 X124.995 Y151.491 E31.28283
G1 F2100 E26.28283
G1 F300 Z0.56
;MESH:NONMESH
G0 F6000 X125.587 Y148.098 Z0.56
;TIME_ELAPSED:29.674987
;LAYER:1
M106 S21.2
;TYPE:WALL-INNER
;MESH:PTFE-Bracket_extended_Version.stl
G1 F300 Z0.56
G1 F2100 E31.28283
G1 F1508.4 X125.163 Y148.099 E31.32404
G1 X124.919 Y148.112 E31.34778
G1 X124.595 Y148.197 E31.38033
G1 X124.596 Y148.506 E31.41036
G1 F1541.4 X124.578 Y148.759 E31.43449
G1 F1614.1 X124.56 Y149.078 E31.4635
G1 F1682.1 X124.549 Y149.354 E31.48758
G1 F1728.2 X124.542 Y149.598 E31.50828
G1 F1756.1 X124.537 Y149.883 E31.53207
G1 F1761.2 X124.539 Y150.24 E31.56179
G1 F1733.2 X124.547 Y150.624 E31.59427
G1 F1698.8 X124.552 Y150.718 E31.6024
G1 F1656.5 X124.567 Y150.997 E31.62712
G1 F1592.6 X124.583 Y151.276 E31.65284
G1 F1533.5 X124.597 Y151.62 E31.68575
G1 F1504.6 X124.597 Y151.803 E31.70358
G1 X124.911 Y151.883 E31.73515
G1 X125.154 Y151.9 E31.75889
G1 X125.464 Y151.901 E31.78909
G1 X125.586 Y151.901 E31.80097
