;FLAVOR:Marlin
;TIME:1973
;Filament used: 3.1554m
;Layer height: 0.32
;MINX:72.98
;MINY:114.631
;MINZ:0.24
;MAXX:129.56
;MAXY:171.211
;MAXZ:15.92
;Generated with Cura_SteamEngine 5.0.0
M140 S80
M105
M190 S80
M104 S250
M105
M109 S250
M82 ;absolute extrusion mode
; Ender 3 Max Custom Start G-code
G92 E0 ; Reset Extruder
G28 ; Home all axes
G1 Z2.0 F3000 ; Move Z Axis up little to prevent scratching of Heat Bed
G1 X0.1 Y20 Z0.3 F5000.0 ; Move to start position
G1 X0.1 Y200.0 Z0.3 F1500.0 E15 ; Draw the first line
G1 X0.4 Y200.0 Z0.3 F5000.0 ; Move to side a little
G1 X0.4 Y20 Z0.3 F1500.0 E30 ; Draw the second line
G92 E0 ; Reset Extruder
G1 Z2.0 F3000 ; Move Z Axis up little to prevent scratching of Heat Bed
G1 X5 Y20 Z0.3 F5000.0 ; Move over to prevent blob squish
G92 E0
G92 E0
G1 F1800 E-6
;LAYER_COUNT:50
;LAYER:0
M107
G1 F300 Z0.72
G0 F6000 X79.334 Y117.295 Z0.72
G1 F300 Z0.72
G0 F6000 X73.573 Y125.346
;TYPE:SKIRT
G1 F300 Z0.24
G1 F1800 E0
G1 X73.713 Y124.888 E0.03469
G1 X74.044 Y123.958 E0.1062
G1 X74.16 Y123.673 E0.12849
G1 X74.618 Y122.69 E0.20705
G1 X74.792 Y122.36 E0.23408
G1 X75.389 Y121.359 E0.31851
G1 X75.573 Y121.085 E0.34242
G1 X76.297 Y120.125 E0.42952
G1 X76.707 Y119.639 E0.47558
G1 X77.341 Y118.949 E0.54346
G1 X77.89 Y118.438 E0.59779
G1 X78.238 Y118.135 E0.63122
G1 X79.334 Y117.295 E0.73125
G1 X79.756 Y117.012 E0.76806
G1 X80.556 Y116.524 E0.83594
G1 X80.989 Y116.297 E0.87136
G1 X81.428 Y116.079 E0.90686
G1 X82.285 Y115.698 E0.9748
G1 X82.796 Y115.511 E1.01422
G1 X83.29 Y115.344 E1.052
G1 X84.19 Y115.082 E1.1199
G1 X84.69 Y114.971 E1.157
G1 X85.041 Y114.902 E1.18291
G1 X86.213 Y114.737 E1.26865
G1 X86.721 Y114.693 E1.30559
G1 X87.452 Y114.654 E1.35862
G1 X88.73 Y114.631 E1.45121
G1 X114.209 Y114.633 E3.29693
G1 X115.068 Y114.651 E3.35917
G1 X115.817 Y114.688 E3.41349
G1 X116.751 Y114.775 E3.48144
G1 X117.494 Y114.901 E3.53603
G1 X117.984 Y115.002 E3.57228
G1 X119.276 Y115.352 E3.66924
G1 X119.715 Y115.5 E3.7028
G1 X120.59 Y115.837 E3.77073
G1 X121.06 Y116.055 E3.80826
G1 X121.527 Y116.285 E3.84597
G1 X122.349 Y116.735 E3.91385
G1 X122.777 Y117.007 E3.95059
G1 X123.19 Y117.283 E3.98657
G1 X123.947 Y117.836 E4.05448
G1 X124.354 Y118.179 E4.09304
G1 X124.719 Y118.501 E4.1283
G1 X125.395 Y119.15 E4.19619
G1 X125.726 Y119.513 E4.23177
G1 X126.064 Y119.9 E4.26899
G1 X126.65 Y120.631 E4.33686
G1 X126.945 Y121.054 E4.37422
G1 X127.209 Y121.452 E4.40882
G1 X127.694 Y122.255 E4.47677
G1 X128.132 Y123.123 E4.5472
G1 X128.51 Y123.981 E4.61512
G1 X128.679 Y124.445 E4.6509
G1 X128.831 Y124.893 E4.68517
G1 X129.107 Y125.845 E4.75697
G1 X129.294 Y126.709 E4.82101
G1 X129.35 Y127.025 E4.84425
G1 X129.492 Y128.174 E4.92812
G1 X129.515 Y128.502 E4.95194
G1 X129.54 Y129.076 E4.99356
G1 X129.56 Y130.285 E5.08115
G1 X129.559 Y135.832 E5.48298
G1 X129.55 Y136.487 E5.53044
G1 X129.522 Y137.131 E5.57713
G1 X129.494 Y137.517 E5.60517
G1 X129.387 Y138.448 E5.67305
G1 X129.177 Y139.459 E5.74785
G1 X129.105 Y139.739 E5.7688
G1 X128.833 Y140.636 E5.8367
G1 X128.489 Y141.498 E5.90393
G1 X128.359 Y141.788 E5.92695
G1 X127.94 Y142.626 E5.99482
G1 X127.405 Y143.492 E6.06856
G1 X127.226 Y143.754 E6.09155
G1 X126.665 Y144.504 E6.1594
G1 X125.987 Y145.261 E6.23301
G1 X125.746 Y145.506 E6.25791
G1 X125.06 Y146.146 E6.32587
G1 X124.47 Y146.617 E6.38056
G1 X122.907 Y147.78 E6.52169
G1 X120.903 Y149.354 E6.70628
G1 X118.983 Y150.954 E6.88733
G1 X117.068 Y152.643 E7.0723
G1 X115.262 Y154.328 E7.25123
G1 X113.451 Y156.118 E7.43569
G1 X111.738 Y157.909 E7.61522
G1 X110.03 Y159.799 E7.79976
G1 X108.373 Y161.741 E7.98469
G1 X106.844 Y163.638 E8.16119
G1 X105.294 Y165.694 E8.34771
G1 X104.878 Y166.236 E8.3972
G1 X104.057 Y167.188 E8.48827
G1 X103.847 Y167.405 E8.51014
G1 X103.167 Y168.05 E8.57804
G1 X102.355 Y168.692 E8.65302
G1 X102.065 Y168.9 E8.67888
G1 X101.281 Y169.414 E8.74679
G1 X100.331 Y169.918 E8.82469
G1 X100.052 Y170.049 E8.84702
G1 X99.187 Y170.411 E8.91495
G1 X98.26 Y170.707 E8.98544
G1 X97.969 Y170.786 E9.00728
G1 X97.055 Y170.993 E9.07517
G1 X96.216 Y171.112 E9.13656
G1 X95.983 Y171.136 E9.15352
G1 X95.073 Y171.192 E9.21957
G1 X93.983 Y171.211 E9.29854
G1 X88.097 Y171.206 E9.72493
G1 X87.513 Y171.19 E9.76725
G1 X86.624 Y171.142 E9.83174
G1 X85.691 Y171.052 E9.89964
G1 X84.981 Y170.928 E9.95185
G1 X84.548 Y170.838 E9.98389
G1 X83.295 Y170.5 E10.0779
G1 X82.832 Y170.345 E10.11327
G1 X81.957 Y170.009 E10.18117
G1 X81.432 Y169.766 E10.22308
G1 X80.979 Y169.541 E10.25972
G1 X80.158 Y169.088 E10.32765
G1 X79.736 Y168.818 E10.36394
G1 X79.321 Y168.539 E10.40016
G1 X78.566 Y167.984 E10.46804
G1 X78.193 Y167.67 E10.50336
G1 X77.835 Y167.355 E10.53791
G1 X77.158 Y166.706 E10.60584
G1 X76.513 Y165.986 E10.67587
G1 X75.925 Y165.256 E10.74377
G1 X75.647 Y164.861 E10.77876
G1 X75.363 Y164.438 E10.81567
G1 X74.874 Y163.638 E10.88359
G1 X74.591 Y163.091 E10.9282
G1 X74.365 Y162.623 E10.96585
G1 X73.918 Y161.56 E11.04939
G1 X73.812 Y161.265 E11.0721
G1 X73.558 Y160.462 E11.13311
G1 X73.478 Y160.171 E11.15497
G1 X73.273 Y159.281 E11.22113
G1 X73.214 Y158.966 E11.24434
G1 X73.069 Y157.909 E11.32163
G1 X73.048 Y157.671 E11.33894
G1 X73.007 Y156.92 E11.39342
G1 X72.98 Y155.427 E11.50159
G1 X72.985 Y129.842 E13.35499
G1 X73 Y129.026 E13.41411
G1 X73.04 Y128.269 E13.46902
G1 X73.064 Y127.995 E13.48895
G1 X73.195 Y127.01 E13.56093
G1 X73.229 Y126.821 E13.57484
G0 F1620 X73.266 Y126.615
G0 X73.573 Y125.346
G1 F1800 E7.57484
G1 F300 Z0.72
G0 F6000 X73.645 Y129.854 Z0.72
G1 F300 Z0.24
G1 F1800 E13.57484
G1 X73.66 Y129.038 E13.63396
G1 X73.697 Y128.327 E13.68554
G1 X73.721 Y128.053 E13.70546
G1 X73.845 Y127.127 E13.77314
G1 X73.916 Y126.732 E13.80221
G1 X74.204 Y125.539 E13.89112
G1 X74.344 Y125.081 E13.92581
G1 X74.655 Y124.207 E13.99301
G1 X74.771 Y123.922 E14.0153
G1 X75.201 Y122.998 E14.08913
G1 X75.375 Y122.668 E14.11616
G1 X75.937 Y121.727 E14.19555
G1 X76.121 Y121.453 E14.21946
G1 X76.801 Y120.551 E14.30129
G1 X77.211 Y120.065 E14.34735
G1 X77.827 Y119.397 E14.41318
G1 X78.324 Y118.935 E14.46233
G1 X78.672 Y118.632 E14.49576
G1 X79.702 Y117.844 E14.5897
G1 X80.124 Y117.561 E14.62651
G1 X81.283 Y116.888 E14.7236
G1 X81.722 Y116.67 E14.75911
G1 X82.553 Y116.302 E14.82494
G1 X83.008 Y116.136 E14.86003
G1 X83.502 Y115.969 E14.8978
G1 X84.817 Y115.619 E14.99638
G1 X85.168 Y115.55 E15.02229
G1 X86.27 Y115.395 E15.10291
G1 X86.778 Y115.351 E15.13984
G1 X87.465 Y115.314 E15.18968
G1 X88.73 Y115.291 E15.28134
G1 X114.201 Y115.293 E17.12647
G1 X115.036 Y115.311 E17.18697
G1 X115.785 Y115.348 E17.2413
G1 X116.69 Y115.432 E17.30714
G1 X117.36 Y115.548 E17.35639
G1 X117.85 Y115.649 E17.39264
G1 X119.065 Y115.977 E17.4838
G1 X119.504 Y116.125 E17.51736
G1 X120.352 Y116.453 E17.58323
G1 X120.768 Y116.647 E17.61648
G1 X121.235 Y116.877 E17.65419
G1 X122.411 Y117.555 E17.75252
G1 X122.824 Y117.831 E17.78851
G1 X123.556 Y118.369 E17.85431
G1 X123.918 Y118.674 E17.8886
G1 X124.283 Y118.996 E17.92386
G1 X125.229 Y119.947 E18.02103
G1 X125.567 Y120.334 E18.05826
G1 X126.135 Y121.044 E18.12412
G1 X126.659 Y121.817 E18.19177
G1 X127.319 Y122.965 E18.2877
G1 X127.54 Y123.414 E18.32395
G1 X128.054 Y124.657 E18.42139
G1 X128.206 Y125.105 E18.45566
G1 X128.466 Y126 E18.52317
G1 X128.645 Y126.824 E18.58426
G1 X128.701 Y127.14 E18.6075
G1 X128.834 Y128.22 E18.68633
G1 X128.857 Y128.548 E18.71015
G1 X128.88 Y129.088 E18.7493
G1 X128.9 Y130.285 E18.83603
G1 X128.899 Y135.823 E19.2372
G1 X128.89 Y136.478 E19.28466
G1 X128.864 Y137.083 E19.32852
G1 X128.836 Y137.469 E19.35656
G1 X128.73 Y138.372 E19.42242
G1 X128.538 Y139.295 E19.49072
G1 X128.466 Y139.575 E19.51166
G1 X128.201 Y140.444 E19.57747
G1 X127.887 Y141.228 E19.63865
G1 X127.757 Y141.518 E19.66167
G1 X127.349 Y142.33 E19.7275
G1 X126.86 Y143.119 E19.79474
G1 X126.681 Y143.381 E19.81773
G1 X126.136 Y144.108 E19.88355
G1 X125.516 Y144.798 E19.95075
G1 X125.275 Y145.043 E19.97564
G1 X124.61 Y145.662 E20.04146
G1 X124.076 Y146.088 E20.09094
G1 X122.489 Y147.268 E20.2342
G1 X120.502 Y148.83 E20.41729
G1 X118.536 Y150.468 E20.60266
G1 X116.648 Y152.133 E20.78502
G1 X114.779 Y153.876 E20.97015
G1 X113.005 Y155.63 E21.15087
G1 X111.235 Y157.481 E21.33639
G1 X109.539 Y159.357 E21.51959
G1 X107.873 Y161.311 E21.70561
G1 X106.323 Y163.233 E21.88447
G1 X104.355 Y165.835 E22.1208
G1 X103.583 Y166.729 E22.20637
G1 X103.373 Y166.946 E22.22825
G1 X102.713 Y167.57 E22.29404
G1 X101.971 Y168.156 E22.36253
G1 X101.681 Y168.364 E22.38839
G1 X100.919 Y168.861 E22.45429
G1 X100.05 Y169.321 E22.52552
G1 X99.771 Y169.452 E22.54784
G1 X98.933 Y169.801 E22.6136
G1 X98.087 Y170.07 E22.67791
G1 X97.796 Y170.149 E22.69975
G1 X96.91 Y170.348 E22.76554
G1 X96.148 Y170.456 E22.82129
G1 X95.915 Y170.48 E22.83826
G1 X95.06 Y170.532 E22.90031
G1 X93.983 Y170.551 E22.97834
G1 X88.097 Y170.546 E23.40472
G1 X87.549 Y170.531 E23.44444
G1 X86.66 Y170.483 E23.50893
G1 X85.756 Y170.394 E23.57473
G1 X85.115 Y170.282 E23.62187
G1 X84.682 Y170.192 E23.65391
G1 X83.505 Y169.874 E23.74223
G1 X83.042 Y169.719 E23.7776
G1 X82.193 Y169.393 E23.84348
G1 X81.726 Y169.175 E23.88081
G1 X81.273 Y168.95 E23.91745
G1 X80.105 Y168.271 E24.01532
G1 X79.69 Y167.992 E24.05154
G1 X78.629 Y167.174 E24.14859
G1 X78.271 Y166.859 E24.18314
G1 X77.333 Y165.92 E24.27928
G1 X77.009 Y165.551 E24.31486
G1 X76.195 Y164.493 E24.41156
G1 X75.911 Y164.07 E24.44847
G1 X75.438 Y163.294 E24.5143
G1 X75.185 Y162.804 E24.55425
G1 X74.959 Y162.336 E24.5919
G1 X74.54 Y161.337 E24.67037
G1 X74.434 Y161.042 E24.69308
G1 X74.195 Y160.287 E24.75045
G1 X74.115 Y159.996 E24.77231
G1 X73.922 Y159.16 E24.83446
G1 X73.863 Y158.845 E24.85768
G1 X73.726 Y157.851 E24.93036
G1 X73.705 Y157.613 E24.94767
G1 X73.667 Y156.907 E24.99889
G1 X73.64 Y155.427 E25.10612
G1 X73.645 Y131.369 E26.84889
G0 F1620 X73.645 Y129.854
G1 F1800 E20.84889
G1 F300 Z0.72
;MESH:aza-hinge-bottom-m5-90deg.stl
G0 F6000 X95.19 Y137.152 Z0.72
;TYPE:WALL-OUTER
G1 F300 Z0.24
G1 F1800 E26.84889
G1 F1765.2 X95.201 Y137.137 E26.8502
G1 F1773.1 X95.461 Y136.876 E26.87594
G0 F6000 X96.226 Y136.135
G0 X96.871 Y135.206
G0 X96.712 Y134.417
G0 X96.445 Y133.837
G0 X96.065 Y133.323
G0 X95.585 Y132.898
G0 X95.026 Y132.578
G0 X94.435 Y132.385
G0 X93.803 Y132.312
G0 X93.16 Y132.372
G0 X92.539 Y132.567
G0 X91.99 Y132.873
G0 X91.516 Y133.279
G0 X91.117 Y133.804
G0 X90.847 Y134.367
G0 X90.692 Y134.983
G0 X90.668 Y135.632
G0 X90.713 Y135.95
G0 X94.92 Y148.071
;TYPE:WALL-INNER
G1 F1800 X94.92 Y141.207 E27.34831
G1 X94.634 Y140.995 E27.37281
G1 X94.362 Y140.743 E27.39832
G1 X94.123 Y140.465 E27.42355
G1 X93.915 Y140.164 E27.44873
G1 X93.788 Y139.944 E27.46621
G1 X93.613 Y139.526 E27.4974
G1 X93.519 Y139.218 E27.51956
G1 X93.472 Y138.951 E27.53822
G1 X93.228 Y138.923 E27.55512
G1 X92.807 Y138.835 E27.58472
G1 X92.543 Y138.747 E27.60387
G1 X92.145 Y138.574 E27.63374
G1 X91.883 Y138.422 E27.65458
G1 X91.562 Y138.194 E27.68168
G1 X91.318 Y137.982 E27.70392
G1 X91.079 Y137.729 E27.72787
G1 X90.886 Y137.481 E27.7495
G1 X90.678 Y137.154 E27.77617
G1 X90.526 Y136.851 E27.7995
G1 X90.388 Y136.485 E27.82642
G1 X90.307 Y136.187 E27.84767
G1 X90.242 Y135.77 E27.87671
G1 X90.223 Y135.516 E27.89424
G1 X90.246 Y135.037 E27.92724
G1 X90.3 Y134.698 E27.95087
G1 X90.4 Y134.321 E27.97771
G1 X90.519 Y134.011 E28.00056
G1 X90.69 Y133.667 E28.027
G1 X90.87 Y133.384 E28.05008
G1 X91.114 Y133.074 E28.07723
G1 X91.356 Y132.825 E28.10112
G1 X91.652 Y132.58 E28.12757
G1 X91.927 Y132.394 E28.15041
G1 X92.274 Y132.208 E28.17751
G1 X92.574 Y132.084 E28.19985
G1 X92.933 Y131.974 E28.22569
G1 X93.301 Y131.907 E28.25143
G1 X93.744 Y131.877 E28.28199
G1 X94.105 Y131.892 E28.30685
G1 X94.492 Y131.951 E28.33379
G1 X94.811 Y132.033 E28.35646
G1 X95.177 Y132.167 E28.38328
G1 X95.488 Y132.319 E28.4071
G1 X95.814 Y132.524 E28.4336
G1 X96.075 Y132.728 E28.4564
G1 X96.36 Y133 E28.48351
G1 X96.584 Y133.264 E28.50734
G1 X96.802 Y133.585 E28.53404
G1 X96.937 Y133.823 E28.55287
G1 X97.123 Y134.264 E28.58581
G1 X97.209 Y134.559 E28.60696
G1 X97.284 Y134.943 E28.63388
G1 X97.303 Y135.12 E28.64614
G1 X97.546 Y135.166 E28.66315
G1 X97.788 Y135.232 E28.68042
G1 X98.202 Y135.398 E28.71111
G1 X98.443 Y135.521 E28.72973
G1 X98.782 Y135.752 E28.75796
G1 X99.079 Y136.001 E28.78464
G1 X99.332 Y136.271 E28.8101
G1 X99.557 Y136.568 E28.83574
G1 X100.396 Y136.571 E28.89348
G1 X106.423 Y136.571 E29.30825
G1 X106.278 Y136.026 E29.34706
G1 X106.232 Y135.64 E29.37381
G1 X106.227 Y135.295 E29.39756
G1 X106.262 Y134.907 E29.42437
G1 X106.326 Y134.578 E29.44743
G1 X106.436 Y134.214 E29.4736
G1 X106.534 Y133.966 E29.49195
G1 X106.747 Y133.568 E29.52302
G1 X106.934 Y133.293 E29.54591
G1 X107.179 Y133.001 E29.57214
G1 X107.413 Y132.773 E29.59462
G1 X107.713 Y132.533 E29.62106
G1 X108.006 Y132.346 E29.64498
G1 X108.353 Y132.172 E29.67169
G1 X108.653 Y132.057 E29.69381
G1 X109.019 Y131.956 E29.71993
G1 X109.372 Y131.899 E29.74454
G1 X109.796 Y131.877 E29.77376
G1 X110.151 Y131.896 E29.79823
G1 X110.533 Y131.959 E29.82487
G1 X110.848 Y132.043 E29.84731
G1 X111.206 Y132.179 E29.87366
G1 X111.515 Y132.334 E29.89745
G1 X111.839 Y132.542 E29.92395
G1 X112.094 Y132.745 E29.94638
G1 X112.371 Y133.012 E29.97285
G1 X112.589 Y133.271 E29.99615
G1 X112.802 Y133.585 E30.02226
G1 X112.956 Y133.868 E30.04444
G1 X113.106 Y134.222 E30.07089
G1 X113.189 Y134.468 E30.08876
G1 X113.28 Y134.921 E30.12056
G1 X113.312 Y135.261 E30.14406
G1 X113.308 Y135.648 E30.17069
G1 X113.272 Y135.974 E30.19327
G1 X113.193 Y136.347 E30.2195
G1 X113.12 Y136.571 E30.23572
G1 X114.22 Y136.569 E30.31142
G1 X114.686 Y136.57 E30.34349
G1 X115.3 Y136.57 E30.38574
G1 X115.324 Y136.207 E30.41078
G1 X115.425 Y135.876 E30.43459
G1 X115.558 Y135.611 E30.455
G1 X115.76 Y135.349 E30.47777
G1 X116.013 Y135.089 E30.50273
G1 X116.538 Y134.772 E30.54494
G1 X116.92 Y134.729 E30.57139
G1 X116.92 Y129.56 E30.92711
G1 X116.908 Y129.292 E30.94558
G1 X116.871 Y129.014 E30.96488
G1 X116.8 Y128.745 E30.98402
G1 X116.691 Y128.478 E31.00387
G1 X116.555 Y128.242 E31.02261
G1 X116.39 Y128.024 E31.04143
G1 X116.185 Y127.817 E31.06148
G1 X115.97 Y127.651 E31.08017
G1 X115.726 Y127.507 E31.09967
G1 X115.463 Y127.397 E31.11929
G1 X115.2 Y127.325 E31.13805
G1 X114.914 Y127.286 E31.15792
G1 X114.639 Y127.272 E31.17687
G1 X87.838 Y127.272 E33.02127
G1 X87.492 Y127.295 E33.04514
G1 X87.222 Y127.347 E33.06406
G1 X86.946 Y127.44 E33.0841
G1 X86.713 Y127.556 E33.10201
G1 X86.471 Y127.716 E33.12198
G1 X86.258 Y127.9 E33.14135
G1 X86.077 Y128.107 E33.16027
G1 X85.909 Y128.355 E33.18089
G1 X85.795 Y128.585 E33.19855
G1 X85.69 Y128.894 E33.22101
G1 X85.637 Y129.234 E33.24469
G1 X85.623 Y129.488 E33.2622
G1 X85.621 Y152.302 E34.83223
G1 X85.62 Y156.351 E35.11087
G1 X85.646 Y156.714 E35.13592
G1 X85.717 Y157.042 E35.15901
G1 X85.805 Y157.268 E35.1757
G1 X85.91 Y157.486 E35.19236
G1 X86.073 Y157.73 E35.21255
G1 X86.252 Y157.935 E35.23128
G1 X86.457 Y158.114 E35.25001
G1 X86.703 Y158.281 E35.27047
G1 X86.945 Y158.401 E35.28906
G1 X87.208 Y158.49 E35.30817
G1 X87.483 Y158.545 E35.32747
G1 X87.834 Y158.571 E35.35169
G1 X94.699 Y158.57 E35.82413
G1 X94.893 Y158.49 E35.83857
G1 X94.92 Y158.33 E35.84973
G1 X94.92 Y154.769 E36.0948
G1 X94.435 Y154.904 E36.12944
G1 X94.075 Y154.953 E36.15445
G1 X93.753 Y154.966 E36.17662
G1 X93.291 Y154.936 E36.20848
G1 X93.046 Y154.891 E36.22563
G1 X92.675 Y154.793 E36.25203
G1 X92.372 Y154.68 E36.27429
G1 X92.063 Y154.529 E36.29796
G1 X91.79 Y154.361 E36.32002
G1 X91.487 Y154.131 E36.3462
G1 X91.253 Y153.915 E36.36811
G1 X90.965 Y153.591 E36.39794
G1 X90.796 Y153.349 E36.41826
G1 X90.604 Y153.014 E36.44483
G1 X90.467 Y152.707 E36.46797
G1 X90.348 Y152.344 E36.49426
G1 X90.278 Y152.026 E36.51666
G1 X90.232 Y151.64 E36.54342
G1 X90.227 Y151.295 E36.56716
G1 X90.262 Y150.907 E36.59397
G1 X90.326 Y150.578 E36.61704
G1 X90.436 Y150.214 E36.6432
G1 X90.564 Y149.906 E36.66616
G1 X90.747 Y149.568 E36.69261
G1 X90.935 Y149.293 E36.71553
G1 X91.179 Y149.001 E36.74172
G1 X91.412 Y148.773 E36.76416
G1 X91.713 Y148.533 E36.79065
G1 X92.005 Y148.345 E36.81455
G1 X92.354 Y148.172 E36.84136
G1 X92.652 Y148.057 E36.86334
G1 X93.019 Y147.956 E36.88953
G1 X93.372 Y147.899 E36.91414
