;FLAVOR:Marlin
;TIME:1716
;Filament used: 2.64033m
;Layer height: 0.32
;MINX:15.598
;MINY:90.656
;MINZ:0.24
;MAXX:72.178
;MAXY:147.236
;MAXZ:14.96
;Generated with Cura_SteamEngine 5.0.0
M140 S80
M105
M190 S80
M104 S245
M105
M109 S245
M82 ;absolute extrusion mode
; Ender 3 Max Custom Start G-code
G92 E0 ; Reset Extruder
G28 ; Home all axes
G1 Z2.0 F3000 ; Move Z Axis up little to prevent scratching of Heat Bed
G1 X0.1 Y20 Z0.3 F5000.0 ; Move to start position
G1 X0.1 Y200.0 Z0.3 F1500.0 E15 ; Draw the first line
G1 X0.4 Y200.0 Z0.3 F5000.0 ; Move to side a little
G1 X0.4 Y20 Z0.3 F1500.0 E30 ; Draw the second line
G92 E0 ; Reset Extruder
G1 Z2.0 F3000 ; Move Z Axis up little to prevent scratching of Heat Bed
G1 X5 Y20 Z0.3 F5000.0 ; Move over to prevent blob squish
G92 E0
G92 E0
G1 F2100 E-5
;LAYER_COUNT:47
;LAYER:0
M107
G1 F300 Z0.56
G0 F6000 X26.744 Y91.122 Z0.56
G1 F300 Z0.56
G0 F6000 X17.941 Y97.487
;TYPE:SKIRT
G1 F300 Z0.24
G1 F2100 E0
G1 F1800 X18.21 Y97.081 E0.04234
G1 X18.761 Y96.322 E0.12387
G1 X19.104 Y95.911 E0.1704
G1 X19.435 Y95.533 E0.21408
G1 X20.082 Y94.855 E0.29555
G1 X20.455 Y94.512 E0.3396
G1 X20.838 Y94.176 E0.38389
G1 X21.569 Y93.588 E0.46544
G1 X21.979 Y93.3 E0.50899
G1 X22.386 Y93.028 E0.55155
G1 X23.187 Y92.541 E0.63304
G1 X23.606 Y92.321 E0.67417
G1 X24.033 Y92.109 E0.71562
G1 X24.889 Y91.729 E0.79703
G1 X25.35 Y91.559 E0.83974
G1 X25.845 Y91.389 E0.88524
G1 X26.744 Y91.122 E0.96676
G1 X27.255 Y91.007 E1.01229
G1 X27.724 Y90.913 E1.05387
G1 X29.103 Y90.727 E1.17483
G1 X29.426 Y90.704 E1.20298
G1 X30.01 Y90.678 E1.2538
G1 X31.325 Y90.656 E1.36813
G1 X36.68 Y90.656 E1.83363
G1 X37.461 Y90.666 E1.90153
G1 X38.121 Y90.696 E1.95896
G1 X38.509 Y90.725 E1.99278
G1 X39.44 Y90.834 E2.07426
G1 X40.407 Y91.035 E2.16012
G1 X40.701 Y91.11 E2.1865
G1 X41.598 Y91.38 E2.26793
G1 X42.562 Y91.768 E2.35826
G1 X42.837 Y91.894 E2.38455
G1 X43.672 Y92.32 E2.46604
G1 X44.455 Y92.808 E2.54624
G1 X44.707 Y92.98 E2.57276
G1 X45.458 Y93.541 E2.65425
G1 X46.189 Y94.194 E2.73946
G1 X46.443 Y94.442 E2.77032
G1 X47.085 Y95.124 E2.85174
G1 X47.496 Y95.63 E2.90841
G1 X47.863 Y96.113 E2.96114
G1 X48.693 Y97.235 E3.08246
G1 X50.279 Y99.256 E3.30578
G1 X51.866 Y101.165 E3.52158
G1 X53.534 Y103.062 E3.74116
G1 X55.254 Y104.908 E3.9605
G1 X56.998 Y106.676 E4.17638
G1 X58.834 Y108.438 E4.39758
G1 X60.704 Y110.13 E4.61681
G1 X62.619 Y111.769 E4.83592
G1 X64.537 Y113.317 E5.05018
G1 X66.552 Y114.838 E5.26964
G1 X67.194 Y115.331 E5.34
G1 X68.16 Y116.166 E5.451
G1 X68.409 Y116.408 E5.48118
G1 X69.052 Y117.089 E5.5626
G1 X69.69 Y117.898 E5.65216
G1 X69.868 Y118.147 E5.67877
G1 X70.38 Y118.932 E5.76024
G1 X70.85 Y119.814 E5.84712
G1 X70.989 Y120.106 E5.87523
G1 X71.356 Y120.969 E5.95675
G1 X71.671 Y121.947 E6.04607
G1 X71.755 Y122.256 E6.07391
G1 X71.962 Y123.17 E6.15537
G1 X72.088 Y124.07 E6.23437
G1 X72.11 Y124.295 E6.25402
G1 X72.16 Y125.176 E6.33073
G1 X72.178 Y126.301 E6.42854
G1 X72.176 Y131.912 E6.91629
G1 X72.158 Y132.68 E6.98307
G1 X72.118 Y133.496 E7.05409
G1 X72.032 Y134.43 E7.13563
G1 X71.907 Y135.165 E7.20044
G1 X71.808 Y135.648 E7.2433
G1 X71.449 Y136.974 E7.36271
G1 X71.302 Y137.407 E7.40246
G1 X70.779 Y138.679 E7.52202
G1 X70.55 Y139.15 E7.56755
G1 X70.104 Y139.975 E7.64907
G1 X69.777 Y140.491 E7.70217
G1 X69.493 Y140.912 E7.74632
G1 X68.936 Y141.666 E7.82781
G1 X68.615 Y142.046 E7.87105
G1 X68.294 Y142.409 E7.91317
G1 X67.321 Y143.38 E8.03267
G1 X66.938 Y143.717 E8.07701
G1 X66.208 Y144.305 E8.1585
G1 X65.745 Y144.63 E8.20767
G1 X65.455 Y144.822 E8.23791
G1 X64.432 Y145.422 E8.341
G1 X63.861 Y145.717 E8.39687
G1 X63.011 Y146.111 E8.47831
G1 X62.405 Y146.341 E8.53466
G1 X62.075 Y146.455 E8.56501
G1 X60.86 Y146.798 E8.67475
G1 X60.227 Y146.938 E8.73111
G1 X59.304 Y147.101 E8.81258
G1 X58.58 Y147.173 E8.87583
G1 X57.73 Y147.216 E8.94982
G1 X56.512 Y147.236 E9.05571
G1 X30.948 Y147.234 E11.27795
G1 X30.068 Y147.214 E11.35447
G1 X29.31 Y147.175 E11.42045
G1 X28.377 Y147.087 E11.50191
G1 X27.689 Y146.97 E11.56258
G1 X27.216 Y146.874 E11.60454
G1 X25.892 Y146.518 E11.72372
G1 X25.444 Y146.367 E11.76481
G1 X24.569 Y146.03 E11.84632
G1 X24.097 Y145.812 E11.89152
G1 X23.622 Y145.578 E11.93755
G1 X22.8 Y145.128 E12.01901
G1 X22.327 Y144.826 E12.06779
G1 X21.914 Y144.547 E12.11112
G1 X20.809 Y143.693 E12.23252
G1 X20.461 Y143.387 E12.2728
G1 X19.784 Y142.739 E12.35427
G1 X19.461 Y142.387 E12.3958
G1 X19.114 Y141.992 E12.4415
G1 X18.526 Y141.262 E12.52298
G1 X18.218 Y140.822 E12.56967
G1 X18.012 Y140.512 E12.60203
G1 X17.413 Y139.496 E12.70455
G1 X17.135 Y138.961 E12.75696
G1 X16.739 Y138.112 E12.8384
G1 X16.497 Y137.477 E12.89747
G1 X16.347 Y137.042 E12.93747
G1 X16.08 Y136.143 E13.01899
G1 X15.968 Y135.651 E13.06286
G1 X15.864 Y135.14 E13.10819
G1 X15.673 Y133.758 E13.22947
G1 X15.645 Y133.379 E13.2625
G1 X15.617 Y132.751 E13.31715
G1 X15.598 Y131.54 E13.42243
G1 X15.602 Y105.951 E15.64685
G1 X15.624 Y104.943 E15.73449
G1 X15.654 Y104.377 E15.78376
G1 X15.744 Y103.444 E15.86525
G1 X15.858 Y102.767 E15.92492
G1 X16.004 Y102.07 E15.98683
G1 X16.332 Y100.9 E16.09246
G1 X16.488 Y100.442 E16.13452
G1 X16.828 Y99.568 E16.21604
G1 X17.043 Y99.107 E16.26026
G1 X17.255 Y98.679 E16.30178
G1 X17.261 Y98.668 E16.30286
G0 F1620 X17.941 Y97.487
G1 F2100 E11.30286
G1 F300 Z0.56
G0 F6000 X16.262 Y105.96 Z0.56
G1 F300 Z0.24
G1 F2100 E16.30286
G1 F1800 X16.283 Y104.978 E16.38825
G1 X16.313 Y104.412 E16.43752
G1 X16.468 Y103.099 E16.55245
G1 X16.582 Y102.516 E16.60409
G1 X16.649 Y102.213 E16.63106
G1 X16.957 Y101.112 E16.73045
G1 X17.113 Y100.654 E16.77251
G1 X17.634 Y99.4 E16.89055
G1 X17.846 Y98.972 E16.93207
G1 X18.492 Y97.851 E17.04454
G1 X18.761 Y97.445 E17.08687
G1 X19.295 Y96.711 E17.16578
G1 X19.6 Y96.346 E17.20713
G1 X19.931 Y95.968 E17.2508
G1 X20.891 Y95.008 E17.36882
G1 X21.274 Y94.672 E17.41311
G1 X22.346 Y93.848 E17.53065
G1 X22.753 Y93.576 E17.5732
G1 X23.899 Y92.913 E17.68829
G1 X24.326 Y92.701 E17.72973
G1 X25.565 Y92.183 E17.84647
G1 X26.06 Y92.013 E17.89197
G1 X26.931 Y91.756 E17.97091
G1 X27.385 Y91.654 E18.01136
G1 X27.854 Y91.56 E18.05294
G1 X29.15 Y91.385 E18.16662
G1 X29.473 Y91.362 E18.19477
G1 X30.022 Y91.338 E18.24254
G1 X31.325 Y91.316 E18.35583
G1 X36.68 Y91.316 E18.82133
G1 X37.451 Y91.326 E18.88836
G1 X38.072 Y91.354 E18.94239
G1 X38.46 Y91.383 E18.97622
G1 X39.362 Y91.49 E19.05518
G1 X40.243 Y91.675 E19.13343
G1 X40.537 Y91.75 E19.15981
G1 X41.407 Y92.013 E19.23881
G1 X42.287 Y92.368 E19.3213
G1 X42.562 Y92.494 E19.3476
G1 X43.371 Y92.908 E19.4266
G1 X44.082 Y93.353 E19.49951
G1 X44.334 Y93.525 E19.52603
G1 X45.062 Y94.07 E19.60508
G1 X45.728 Y94.666 E19.68278
G1 X45.982 Y94.914 E19.71363
G1 X46.603 Y95.577 E19.7926
G1 X46.971 Y96.031 E19.8434
G1 X47.333 Y96.506 E19.89532
G1 X48.176 Y97.645 E20.0185
G1 X49.754 Y99.656 E20.24071
G1 X51.364 Y101.594 E20.45973
G1 X53.057 Y103.518 E20.68251
G1 X54.751 Y105.337 E20.89858
G1 X56.575 Y107.185 E21.1243
G1 X58.365 Y108.903 E21.33997
G1 X60.261 Y110.619 E21.56227
G1 X62.205 Y112.282 E21.78465
G1 X64.143 Y113.848 E22.00125
G1 X66.15 Y115.361 E22.21974
G1 X66.792 Y115.854 E22.2901
G1 X67.7 Y116.639 E22.39444
G1 X67.949 Y116.881 E22.42462
G1 X68.572 Y117.543 E22.50365
G1 X69.153 Y118.282 E22.58536
G1 X69.331 Y118.531 E22.61197
G1 X69.826 Y119.293 E22.69096
G1 X70.254 Y120.098 E22.77021
G1 X70.393 Y120.39 E22.79832
G1 X70.747 Y121.227 E22.87732
G1 X71.034 Y122.12 E22.95886
G1 X71.118 Y122.429 E22.9867
G1 X71.318 Y123.316 E23.06574
G1 X71.431 Y124.134 E23.13752
G1 X71.453 Y124.359 E23.15717
G1 X71.5 Y125.187 E23.22927
G1 X71.518 Y126.301 E23.32612
G1 X71.516 Y131.902 E23.81301
G1 X71.499 Y132.648 E23.87787
G1 X71.459 Y133.464 E23.94889
G1 X71.374 Y134.369 E24.02791
G1 X71.261 Y135.032 E24.08637
G1 X71.162 Y135.515 E24.12923
G1 X70.824 Y136.762 E24.24154
G1 X70.677 Y137.195 E24.28129
G1 X70.185 Y138.391 E24.39371
G1 X69.956 Y138.862 E24.43924
G1 X69.523 Y139.661 E24.51824
G1 X69.23 Y140.122 E24.56572
G1 X68.946 Y140.543 E24.60987
G1 X68.12 Y141.609 E24.7271
G1 X67.799 Y141.972 E24.76922
G1 X66.885 Y142.884 E24.88146
G1 X66.502 Y143.221 E24.92581
G1 X65.794 Y143.791 E25.00482
G1 X65.091 Y144.271 E25.07882
G1 X64.129 Y144.836 E25.1758
G1 X63.558 Y145.131 E25.23167
G1 X62.733 Y145.512 E25.31066
G1 X62.19 Y145.717 E25.36112
G1 X61.86 Y145.831 E25.39147
G1 X60.718 Y146.153 E25.49461
G1 X60.085 Y146.293 E25.55097
G1 X59.19 Y146.45 E25.62995
G1 X58.537 Y146.514 E25.68699
G1 X57.718 Y146.556 E25.75828
G1 X56.512 Y146.576 E25.86313
G1 X30.957 Y146.574 E28.08459
G1 X30.102 Y146.555 E28.15893
G1 X29.344 Y146.516 E28.22491
G1 X28.439 Y146.43 E28.30394
G1 X27.82 Y146.324 E28.35853
G1 X27.347 Y146.228 E28.40049
G1 X26.103 Y145.893 E28.51248
G1 X25.655 Y145.742 E28.55357
G1 X24.807 Y145.414 E28.63261
G1 X24.389 Y145.22 E28.67267
G1 X23.914 Y144.986 E28.7187
G1 X23.117 Y144.548 E28.79776
G1 X22.696 Y144.279 E28.84119
G1 X22.283 Y144 E28.88451
G1 X21.245 Y143.198 E28.99854
G1 X20.897 Y142.892 E29.03882
G1 X19.957 Y141.952 E29.15438
G1 X19.61 Y141.557 E29.20009
G1 X19.041 Y140.848 E29.27911
G1 X18.561 Y140.146 E29.35304
G1 X17.999 Y139.192 E29.44929
G1 X17.721 Y138.657 E29.5017
G1 X17.337 Y137.833 E29.58072
G1 X17.121 Y137.261 E29.63387
G1 X16.971 Y136.826 E29.67387
G1 X16.615 Y135.519 E29.79163
G1 X16.511 Y135.008 E29.83696
G1 X16.331 Y133.709 E29.95096
G1 X16.303 Y133.33 E29.98399
G1 X16.276 Y132.74 E30.03534
G1 X16.258 Y131.54 E30.13966
G1 X16.262 Y107.323 E32.24481
G0 F1620 X16.262 Y105.96
G1 F2100 E27.24481
G1 F300 Z0.56
;MESH:aza-hinge-top.stl
G0 F6000 X37.538 Y107.098 Z0.56
;TYPE:WALL-INNER
G1 F300 Z0.24
G1 F2100 E32.24481
G1 F1800 X37.537 Y103.545 E32.50313
G1 X37.461 Y103.324 E32.52012
G1 X37.267 Y103.296 E32.53437
G1 X30.456 Y103.296 E33.02956
G1 X30.106 Y103.319 E33.05506
G1 X29.832 Y103.374 E33.07538
G1 X29.567 Y103.464 E33.09573
G1 X29.32 Y103.587 E33.11579
G1 X29.086 Y103.743 E33.13624
G1 X28.867 Y103.934 E33.15736
G1 X28.688 Y104.138 E33.17709
G1 X28.529 Y104.377 E33.19796
G1 X28.407 Y104.623 E33.21793
G1 X28.323 Y104.869 E33.23683
G1 X28.259 Y105.185 E33.26027
G1 X28.241 Y105.454 E33.27987
G1 X28.241 Y115.087 E33.98023
G1 X28.24 Y122.207 E34.49788
G1 X28.238 Y132.382 E35.23764
G1 X28.26 Y132.709 E35.26147
G1 X28.322 Y133.022 E35.28467
G1 X28.409 Y133.276 E35.30419
G1 X28.524 Y133.507 E35.32295
G1 X28.685 Y133.749 E35.34408
G1 X28.865 Y133.956 E35.36403
G1 X29.073 Y134.139 E35.38417
G1 X29.316 Y134.303 E35.40548
G1 X29.559 Y134.424 E35.42522
G1 X29.824 Y134.514 E35.44557
G1 X30.101 Y134.571 E35.46613
G1 X30.443 Y134.595 E35.49105
G1 X57.249 Y134.595 E37.43996
G1 X57.518 Y134.583 E37.45953
G1 X57.799 Y134.546 E37.48014
G1 X58.062 Y134.476 E37.49993
G1 X58.329 Y134.368 E37.52087
G1 X58.569 Y134.231 E37.54096
G1 X58.785 Y134.067 E37.56067
G1 X58.991 Y133.862 E37.5818
G1 X59.153 Y133.651 E37.60114
G1 X59.304 Y133.397 E37.62263
G1 X59.409 Y133.146 E37.64241
G1 X59.483 Y132.876 E37.66276
G1 X59.522 Y132.591 E37.68368
G1 X59.537 Y132.309 E37.70421
G1 X59.537 Y125.529 E38.19714
G1 X59.461 Y125.324 E38.21304
G1 X59.301 Y125.297 E38.22483
G1 X55.738 Y125.297 E38.48388
G1 X55.887 Y125.871 E38.52699
G1 X55.925 Y126.209 E38.55172
G1 X55.929 Y126.595 E38.57979
G1 X55.912 Y126.853 E38.59859
G1 X55.828 Y127.299 E38.63158
G1 X55.732 Y127.623 E38.65615
G1 X55.584 Y127.979 E38.68418
G1 X55.428 Y128.269 E38.70812
G1 X55.216 Y128.584 E38.73573
G1 X54.997 Y128.846 E38.76055
G1 X54.719 Y129.116 E38.78873
G1 X54.464 Y129.319 E38.81243
G1 X54.14 Y129.528 E38.84046
G1 X53.825 Y129.687 E38.86611
G1 X53.433 Y129.834 E38.89655
G1 X53.138 Y129.914 E38.91877
G1 X52.761 Y129.972 E38.9465
G1 X52.509 Y129.991 E38.96488
G1 X52.054 Y129.976 E38.99798
G1 X51.719 Y129.928 E39.02258
G1 X51.353 Y129.837 E39.05
G1 X51.047 Y129.727 E39.07364
G1 X50.701 Y129.564 E39.10145
G1 X50.41 Y129.388 E39.12617
G1 X50.105 Y129.157 E39.15399
G1 X49.87 Y128.94 E39.17725
G1 X49.613 Y128.652 E39.20531
G1 X49.412 Y128.373 E39.23031
G1 X49.221 Y128.039 E39.25828
G1 X49.085 Y127.732 E39.2827
G1 X48.966 Y127.368 E39.31054
G1 X48.896 Y127.05 E39.33421
G1 X48.851 Y126.673 E39.36182
G1 X48.845 Y126.335 E39.38639
G1 X48.879 Y125.941 E39.41515
G1 X48.943 Y125.606 E39.43994
G1 X49.037 Y125.296 E39.46349
G1 X42.174 Y125.296 E39.96246
G1 X41.963 Y125.581 E39.98824
G1 X41.711 Y125.853 E40.0152
G1 X41.439 Y126.089 E40.04138
G1 X41.105 Y126.319 E40.07087
G1 X40.831 Y126.463 E40.09337
G1 X40.491 Y126.604 E40.12013
G1 X40.149 Y126.703 E40.14602
G1 X39.921 Y126.743 E40.16285
G1 X39.868 Y127.12 E40.19053
G1 X39.79 Y127.44 E40.21447
G1 X39.635 Y127.877 E40.24818
G1 X39.52 Y128.107 E40.26688
G1 X39.321 Y128.438 E40.29496
G1 X39.106 Y128.72 E40.32074
G1 X38.818 Y129.025 E40.35124
G1 X38.56 Y129.248 E40.37603
G1 X38.242 Y129.468 E40.40414
G1 X37.938 Y129.635 E40.42936
G1 X37.584 Y129.783 E40.45726
G1 X37.271 Y129.879 E40.48106
G1 X36.852 Y129.962 E40.51212
G1 X36.554 Y129.986 E40.53385
G1 X36.169 Y129.983 E40.56184
G1 X35.838 Y129.948 E40.58604
G1 X35.467 Y129.869 E40.61362
G1 X35.154 Y129.769 E40.63751
G1 X34.801 Y129.616 E40.66548
G1 X34.508 Y129.451 E40.68993
G1 X34.191 Y129.228 E40.71811
G1 X33.938 Y129.008 E40.74248
G1 X33.674 Y128.727 E40.77052
G1 X33.468 Y128.457 E40.79521
G1 X33.271 Y128.134 E40.82271
G1 X33.129 Y127.84 E40.84645
G1 X32.989 Y127.456 E40.87617
G1 X32.914 Y127.176 E40.89724
G1 X32.855 Y126.758 E40.92793
G1 X32.843 Y126.442 E40.95092
G1 X32.864 Y126.059 E40.97881
G1 X32.918 Y125.721 E41.0037
G1 X33.018 Y125.348 E41.03177
G1 X33.133 Y125.043 E41.05547
G1 X33.305 Y124.696 E41.08363
G1 X33.488 Y124.407 E41.1085
G1 X33.723 Y124.109 E41.13609
G1 X33.952 Y123.871 E41.1601
G1 X34.245 Y123.623 E41.18801
G1 X34.518 Y123.436 E41.21207
G1 X34.916 Y123.219 E41.24503
G1 X35.162 Y123.12 E41.26431
G1 X35.528 Y123.007 E41.29216
G1 X35.837 Y122.943 E41.3151
G1 X36.085 Y122.919 E41.33321
G1 X36.134 Y122.67 E41.35166
G1 X36.223 Y122.366 E41.37469
G1 X36.362 Y122.02 E41.4018
G1 X36.482 Y121.782 E41.42118
G1 X36.72 Y121.431 E41.45201
G1 X36.968 Y121.137 E41.47998
G1 X37.238 Y120.884 E41.50688
G1 X37.538 Y120.66 E41.5341
G1 X37.538 Y113.794 E42.03329
G1 X37.105 Y113.92 E42.06607
G1 X36.761 Y113.972 E42.09137
G1 X36.445 Y113.99 E42.11438
G1 X36.054 Y113.975 E42.14283
G1 X35.719 Y113.928 E42.16742
G1 X35.353 Y113.837 E42.19484
G1 X35.047 Y113.728 E42.21846
G1 X34.702 Y113.564 E42.24623
G1 X34.41 Y113.388 E42.27102
G1 X34.105 Y113.157 E42.29883
G1 X33.87 Y112.94 E42.32209
G1 X33.613 Y112.652 E42.35015
G1 X33.412 Y112.373 E42.37515
G1 X33.221 Y112.039 E42.40313
G1 X33.085 Y111.732 E42.42754
G1 X32.966 Y111.368 E42.45538
G1 X32.896 Y111.051 E42.47898
G1 X32.851 Y110.673 E42.50666
G1 X32.845 Y110.335 E42.53124
G1 X32.879 Y109.94 E42.56006
G1 X32.944 Y109.606 E42.5848
G1 X33.053 Y109.241 E42.6125
G1 X33.18 Y108.937 E42.63645
G1 X33.361 Y108.598 E42.66439
G1 X33.551 Y108.318 E42.68899
G1 X33.796 Y108.026 E42.7167
G1 X34.033 Y107.795 E42.74076
G1 X34.336 Y107.554 E42.76891
G1 X34.622 Y107.371 E42.7936
G1 X34.966 Y107.198 E42.82159
G1 X35.273 Y107.081 E42.84548
G1 X35.643 Y106.98 E42.87336
G1 X35.905 Y106.93 E42.89276
G1 X36.196 Y106.91 E42.91396
G0 F1620 X36.359 Y106.9
G0 X36.694 Y106.913
G0 X37.076 Y106.968
G0 X37.407 Y107.051
G0 X37.538 Y107.098
G1 F2100 E37.91396
G1 F300 Z0.56
G0 F6000 X38.726 Y110.128 Z0.56
;TYPE:WALL-OUTER
G1 F300 Z0.24
G1 F2100 E42.91396
G1 F1295.5 X38.733 Y110.607 E42.96183
G1 F1302.6 X38.731 Y110.691 E42.97018
G1 F2100 E37.97018
G1 F300 Z0.56
G0 F6000 X50.145 Y124.637 Z0.56
;TYPE:WALL-INNER
G1 F300 Z0.24
G1 F2100 E42.97018
G1 F1800 X41.805 Y124.637 E43.57653
G1 X41.607 Y124.959 E43.60401
G1 X41.227 Y125.404 E43.64656
G1 X41.017 Y125.578 E43.66638
G1 X40.723 Y125.78 E43.69232
G1 X40.392 Y125.93 E43.71874
G1 X40.103 Y126.038 E43.74117
G1 X39.8 Y126.094 E43.76357
G1 X39.548 Y126.131 E43.78209
G1 X39.253 Y126.123 E43.80354
G1 X39.274 Y126.439 E43.82657
G1 X39.235 Y126.882 E43.8589
G1 X39.184 Y127.169 E43.88009
G1 X39.101 Y127.411 E43.8987
G1 X39.008 Y127.663 E43.91822
G1 X38.755 Y128.098 E43.95481
G1 X38.338 Y128.572 E44.00071
G1 X37.866 Y128.926 E44.04361
G1 X37.329 Y129.174 E44.08661
G1 X36.762 Y129.307 E44.12895
