;FLAVOR:Marlin
;TIME:3535
;Filament used: 5.15033m
;Layer height: 0.32
;MINX:11.837
;MINY:69.023
;MINZ:0.24
;MAXX:72.603
;MAXY:162.88
;MAXZ:15.28
;Generated with Cura_SteamEngine 5.0.0
M140 S80
M105
M190 S80
M104 S245
M105
M109 S245
M82 ;absolute extrusion mode
; Ender 3 Max Custom Start G-code
G92 E0 ; Reset Extruder
G28 ; Home all axes
G1 Z2.0 F3000 ; Move Z Axis up little to prevent scratching of Heat Bed
G1 X0.1 Y20 Z0.3 F5000.0 ; Move to start position
G1 X0.1 Y200.0 Z0.3 F1500.0 E15 ; Draw the first line
G1 X0.4 Y200.0 Z0.3 F5000.0 ; Move to side a little
G1 X0.4 Y20 Z0.3 F1500.0 E30 ; Draw the second line
G92 E0 ; Reset Extruder
G1 Z2.0 F3000 ; Move Z Axis up little to prevent scratching of Heat Bed
G1 X5 Y20 Z0.3 F5000.0 ; Move over to prevent blob squish
G92 E0
G92 E0
G1 F2100 E-5
;LAYER_COUNT:47
;LAYER:0
M107
G1 F300 Z0.56
G0 F6000 X21.544 Y69.754 Z0.56
G1 F300 Z0.56
G0 F6000 X14.101 Y75.513
;TYPE:SKIRT
G1 F300 Z0.24
G1 F2100 E0
G1 F1800 X14.381 Y75.094 E0.04381
G1 X14.919 Y74.362 E0.12278
G1 X15.225 Y73.999 E0.16405
G1 X15.548 Y73.633 E0.20648
G1 X16.179 Y72.978 E0.28554
G1 X16.9 Y72.339 E0.36929
G1 X17.612 Y71.773 E0.44836
G1 X17.99 Y71.512 E0.48829
G1 X18.412 Y71.234 E0.53222
G1 X19.572 Y70.573 E0.64828
G1 X19.997 Y70.366 E0.68937
G1 X21.181 Y69.878 E0.80069
G1 X21.544 Y69.754 E0.83404
G1 X22.653 Y69.443 E0.93416
G1 X23.259 Y69.309 E0.98811
G1 X24.154 Y69.152 E1.0671
G1 X24.737 Y69.092 E1.11805
G1 X25.066 Y69.068 E1.14673
G1 X25.637 Y69.043 E1.19641
G1 X26.843 Y69.023 E1.30126
G1 X52.247 Y69.023 E3.5096
G1 X52.912 Y69.031 E3.56741
G1 X53.33 Y69.045 E3.60376
G1 X54.036 Y69.083 E3.66522
G1 X54.941 Y69.172 E3.74427
G1 X55.507 Y69.269 E3.79419
G1 X55.977 Y69.363 E3.83586
G1 X56.859 Y69.58 E3.91482
G1 X57.299 Y69.72 E3.95495
G1 X57.766 Y69.88 E3.99787
G1 X58.969 Y70.378 E4.11105
G1 X59.401 Y70.59 E4.15288
G1 X60.58 Y71.269 E4.27115
G1 X60.991 Y71.543 E4.31409
G1 X62.052 Y72.354 E4.43018
G1 X62.428 Y72.682 E4.47355
G1 X63.371 Y73.618 E4.58905
G1 X63.696 Y73.985 E4.63167
G1 X64.509 Y75.032 E4.7469
G1 X64.79 Y75.446 E4.79039
G1 X65.267 Y76.219 E4.86935
G1 X65.519 Y76.701 E4.91663
G1 X65.74 Y77.152 E4.96029
G1 X66.104 Y77.985 E5.03931
G1 X66.258 Y78.414 E5.07894
G1 X66.43 Y78.927 E5.12597
G1 X66.769 Y80.202 E5.24066
G1 X66.836 Y80.54 E5.27061
G1 X66.996 Y81.672 E5.36999
G1 X67.042 Y82.212 E5.4171
G1 X67.077 Y82.898 E5.47681
G1 X67.097 Y84.06 E5.57784
G1 X67.097 Y88.347 E5.9505
G1 X67.134 Y90.949 E6.17671
G1 X67.242 Y93.506 E6.39919
G1 X67.42 Y96.005 E6.61697
G1 X67.674 Y98.575 E6.84147
G1 X67.989 Y101.033 E7.05689
G1 X68.389 Y103.581 E7.28109
G1 X68.851 Y106.063 E7.50056
G1 X69.373 Y108.498 E7.71704
G1 X69.991 Y111.014 E7.94225
G1 X70.656 Y113.431 E8.16017
G1 X71.417 Y115.915 E8.386
G1 X71.669 Y116.675 E8.45561
G1 X71.977 Y117.641 E8.54374
G1 X72.262 Y118.741 E8.64252
G1 X72.359 Y119.223 E8.68526
G1 X72.538 Y120.56 E8.80252
G1 X72.561 Y120.898 E8.83197
G1 X72.583 Y121.418 E8.87722
G1 X72.603 Y122.626 E8.98224
G1 X72.602 Y128.17 E9.46417
G1 X72.593 Y128.811 E9.5199
G1 X72.565 Y129.442 E9.57481
G1 X72.535 Y129.84 E9.6095
G1 X72.427 Y130.743 E9.68856
G1 X72.243 Y131.619 E9.76637
G1 X72.183 Y131.854 E9.78745
G1 X71.92 Y132.724 E9.86646
G1 X71.591 Y133.544 E9.94327
G1 X71.426 Y133.91 E9.97816
G1 X71.017 Y134.722 E10.0572
G1 X70.453 Y135.616 E10.14909
G1 X70.305 Y135.826 E10.17142
G1 X69.749 Y136.545 E10.25043
G1 X69.238 Y137.106 E10.31639
G1 X68.991 Y137.358 E10.34707
G1 X68.327 Y137.978 E10.42604
G1 X67.773 Y138.42 E10.48765
G1 X66.239 Y139.559 E10.65374
G1 X64.259 Y141.115 E10.87264
G1 X62.31 Y142.734 E11.0929
G1 X60.368 Y144.447 E11.318
G1 X58.559 Y146.132 E11.53291
G1 X56.744 Y147.923 E11.75456
G1 X54.96 Y149.786 E11.97879
G1 X53.288 Y151.635 E12.19549
G1 X51.63 Y153.575 E12.41733
G1 X50.055 Y155.525 E12.63523
G1 X48.91 Y157.049 E12.80093
G1 X48.073 Y158.143 E12.92067
G1 X47.286 Y159.056 E13.02545
G1 X47.065 Y159.284 E13.05306
G1 X46.405 Y159.908 E13.13201
G1 X45.68 Y160.48 E13.21229
G1 X45.395 Y160.685 E13.24281
G1 X44.635 Y161.183 E13.32179
G1 X43.763 Y161.645 E13.40758
G1 X43.506 Y161.766 E13.43227
G1 X42.668 Y162.117 E13.51125
G1 X41.872 Y162.373 E13.58393
G1 X41.541 Y162.465 E13.6138
G1 X40.656 Y162.669 E13.69275
G1 X39.739 Y162.797 E13.77323
G1 X39.515 Y162.818 E13.79279
G1 X38.732 Y162.861 E13.86096
G1 X37.579 Y162.88 E13.9612
G1 X32.041 Y162.879 E14.44261
G1 X31.198 Y162.86 E14.51591
G1 X30.444 Y162.822 E14.58154
G1 X29.539 Y162.736 E14.66056
G1 X28.898 Y162.626 E14.7171
G1 X28.413 Y162.527 E14.76013
G1 X27.16 Y162.188 E14.87297
G1 X26.709 Y162.035 E14.91437
G1 X25.465 Y161.521 E15.03137
G1 X25.006 Y161.295 E15.07585
G1 X23.829 Y160.615 E15.19401
G1 X23.437 Y160.353 E15.235
G1 X22.372 Y159.537 E15.35163
G1 X21.986 Y159.199 E15.39623
G1 X21.329 Y158.57 E15.47529
G1 X21.012 Y158.223 E15.51615
G1 X20.687 Y157.851 E15.55909
G1 X19.891 Y156.814 E15.67273
G1 X19.619 Y156.409 E15.71514
G1 X18.955 Y155.27 E15.82975
G1 X18.77 Y154.9 E15.86571
G1 X18.389 Y154.044 E15.94716
G1 X18.272 Y153.745 E15.97507
G1 X17.94 Y152.751 E16.06617
G1 X17.815 Y152.302 E16.10668
G1 X17.589 Y151.296 E16.19631
G1 X17.554 Y151.094 E16.21413
G1 X17.437 Y150.176 E16.29458
G1 X17.395 Y149.665 E16.33915
G1 X17.362 Y148.995 E16.39746
G1 X17.343 Y147.822 E16.49944
G1 X17.348 Y123.247 E18.63572
G1 X17.312 Y120.651 E18.8614
G1 X17.203 Y118.083 E19.08484
G1 X17.028 Y115.603 E19.30096
G1 X16.773 Y113.024 E19.52624
G1 X16.457 Y110.555 E19.74262
G1 X16.062 Y108.03 E19.96478
G1 X15.595 Y105.52 E20.18672
G1 X15.074 Y103.097 E20.40216
G1 X14.46 Y100.589 E20.62661
G1 X13.794 Y98.168 E20.84489
G1 X13.035 Y95.686 E21.07051
G1 X12.482 Y94.019 E21.22318
G1 X12.314 Y93.462 E21.27376
G1 X12.238 Y93.181 E21.29906
G1 X12.04 Y92.294 E21.37806
G1 X11.933 Y91.529 E21.44521
G1 X11.903 Y91.234 E21.47099
G1 X11.851 Y90.354 E21.54762
G1 X11.837 Y89.371 E21.63308
G1 X11.839 Y83.711 E22.1251
G1 X11.857 Y82.904 E22.19526
G1 X11.895 Y82.133 E22.26237
G1 X11.979 Y81.229 E22.34129
G1 X12.089 Y80.584 E22.39817
G1 X12.188 Y80.097 E22.44137
G1 X12.545 Y78.79 E22.55915
G1 X12.698 Y78.346 E22.59997
G1 X13.2 Y77.14 E22.71353
G1 X13.42 Y76.694 E22.75676
G0 F1620 X13.426 Y76.682
G0 X14.101 Y75.513
G1 F2100 E17.75676
G1 F300 Z0.56
;MESH:aza-hinge-top.stl
G0 F6000 X30.393 Y91.466 Z0.56
;TYPE:WALL-OUTER
G1 F300 Z0.24
G1 F2100 E22.75676
G1 F1262.5 X30.781 Y91.498 E22.79667
G1 F1299.8 X31.252 Y91.493 E22.84358
G1 F1284.3 X31.348 Y91.486 E22.85328
G1 F2100 E17.85328
G1 F300 Z0.56
G0 F6000 X45.081 Y90.412 Z0.56
G1 F300 Z0.24
G1 F2100 E22.85328
G1 F1714.3 X45.404 Y90.731 E22.88756
G1 F2100 E17.88756
G1 F300 Z0.56
G0 F6000 X44.629 Y104.847 Z0.56
G1 F300 Z0.24
G1 F2100 E22.88756
G1 F1295.5 X44.624 Y104.938 E22.89667
G1 F1299.8 X44.626 Y105.42 E22.94467
G1 F2100 E17.94467
G1 F300 Z0.56
G0 F6000 X45.818 Y108.504 Z0.56
;TYPE:WALL-INNER
G1 F300 Z0.24
G1 F2100 E22.94467
G1 F1800 X45.818 Y112.055 E23.20284
G1 X45.895 Y112.276 E23.21986
G1 X46.085 Y112.303 E23.23381
G1 X52.9 Y112.303 E23.72929
G1 X53.238 Y112.28 E23.75392
G1 X53.514 Y112.225 E23.77438
G1 X53.782 Y112.137 E23.79489
G1 X54.034 Y112.013 E23.81531
G1 X54.269 Y111.856 E23.83586
G1 X54.475 Y111.676 E23.85574
G1 X54.659 Y111.467 E23.87599
G1 X54.824 Y111.224 E23.89734
G1 X54.945 Y110.98 E23.91715
G1 X55.037 Y110.714 E23.93761
G1 X55.091 Y110.445 E23.95756
G1 X55.115 Y110.138 E23.97994
G1 X55.116 Y83.22 E25.93699
G1 X55.095 Y82.884 E25.96147
G1 X55.045 Y82.627 E25.9805
G1 X54.944 Y82.326 E26.00358
G1 X54.823 Y82.08 E26.02352
G1 X54.667 Y81.847 E26.0439
G1 X54.482 Y81.636 E26.0643
G1 X54.272 Y81.452 E26.0846
G1 X54.033 Y81.292 E26.10551
G1 X53.792 Y81.173 E26.12506
G1 X53.522 Y81.081 E26.14579
G1 X53.248 Y81.026 E26.16611
G1 X52.899 Y81.004 E26.19154
G1 X26.034 Y81.003 E28.14473
G1 X25.698 Y81.025 E28.16921
G1 X25.425 Y81.079 E28.18944
G1 X25.149 Y81.172 E28.21062
G1 X24.899 Y81.294 E28.23084
G1 X24.664 Y81.451 E28.25139
G1 X24.457 Y81.63 E28.27129
G1 X24.273 Y81.84 E28.29159
G1 X24.113 Y82.078 E28.31244
G1 X23.987 Y82.33 E28.33292
G1 X23.899 Y82.587 E28.35267
G1 X23.842 Y82.865 E28.3733
G1 X23.818 Y83.208 E28.3983
G1 X23.819 Y90.092 E28.8988
G1 X23.896 Y90.275 E28.91323
G1 X24.051 Y90.303 E28.92468
G1 X27.615 Y90.302 E29.1838
G1 X27.53 Y90.026 E29.20479
G1 X27.456 Y89.652 E29.23251
G1 X27.426 Y89.314 E29.25718
G1 X27.43 Y88.926 E29.28539
G1 X27.465 Y88.6 E29.30923
G1 X27.544 Y88.228 E29.33688
G1 X27.647 Y87.908 E29.36132
G1 X27.801 Y87.556 E29.38926
G1 X27.964 Y87.268 E29.41332
G1 X28.185 Y86.955 E29.44117
G1 X28.405 Y86.702 E29.46555
G1 X28.689 Y86.436 E29.49384
G1 X28.957 Y86.233 E29.51828
G1 X29.281 Y86.034 E29.54593
G1 X29.578 Y85.891 E29.56989
G1 X29.962 Y85.752 E29.59958
G1 X30.239 Y85.678 E29.62043
G1 X30.666 Y85.62 E29.65176
G1 X30.97 Y85.608 E29.67388
G1 X31.321 Y85.626 E29.69943
G1 X31.629 Y85.671 E29.72206
G1 X31.996 Y85.761 E29.74953
G1 X32.311 Y85.872 E29.77382
G1 X32.655 Y86.035 E29.80149
G1 X32.944 Y86.211 E29.82609
G1 X33.248 Y86.44 E29.85376
G1 X33.486 Y86.66 E29.87733
G1 X33.743 Y86.949 E29.90545
G1 X33.941 Y87.225 E29.93014
G1 X34.133 Y87.56 E29.95821
G1 X34.273 Y87.876 E29.98334
G1 X34.401 Y88.275 E30.01381
G1 X34.471 Y88.607 E30.03848
G1 X34.507 Y88.949 E30.06348
G1 X34.51 Y89.264 E30.08638
G1 X34.476 Y89.658 E30.11513
G1 X34.414 Y89.985 E30.13933
G1 X34.319 Y90.303 E30.16346
G1 X41.181 Y90.302 E30.66235
G1 X41.394 Y90.016 E30.68828
G1 X41.647 Y89.743 E30.71534
G1 X41.899 Y89.523 E30.73966
G1 X42.223 Y89.294 E30.76851
G1 X42.444 Y89.174 E30.78679
G1 X42.781 Y89.025 E30.81358
G1 X43.083 Y88.924 E30.83673
G1 X43.435 Y88.852 E30.86285
G1 X43.485 Y88.484 E30.88986
G1 X43.558 Y88.174 E30.91301
G1 X43.695 Y87.788 E30.94279
G1 X43.837 Y87.488 E30.96692
G1 X44.033 Y87.163 E30.99451
G1 X44.233 Y86.897 E31.01871
G1 X44.495 Y86.614 E31.04675
G1 X44.743 Y86.394 E31.07085
G1 X45.054 Y86.169 E31.09876
G1 X45.341 Y86.004 E31.12283
G1 X45.694 Y85.845 E31.15098
G1 X46.012 Y85.739 E31.17535
G1 X46.459 Y85.641 E31.20862
G1 X46.74 Y85.617 E31.22912
G1 X47.173 Y85.616 E31.2606
G1 X47.517 Y85.651 E31.28574
G1 X47.888 Y85.73 E31.31332
G1 X48.205 Y85.832 E31.33753
G1 X48.563 Y85.988 E31.36592
G1 X48.855 Y86.153 E31.39031
G1 X49.166 Y86.373 E31.418
G1 X49.415 Y86.59 E31.44202
G1 X49.68 Y86.872 E31.47015
G1 X49.885 Y87.141 E31.49474
G1 X50.082 Y87.463 E31.52218
G1 X50.224 Y87.757 E31.54592
G1 X50.365 Y88.142 E31.57573
G1 X50.45 Y88.485 E31.60142
G1 X50.5 Y88.842 E31.62763
G1 X50.512 Y89.166 E31.6512
G1 X50.489 Y89.552 E31.67932
G1 X50.437 Y89.877 E31.70325
G1 X50.339 Y90.247 E31.73107
G1 X50.222 Y90.557 E31.75516
G1 X50.052 Y90.9 E31.783
G1 X49.87 Y91.188 E31.80777
G1 X49.633 Y91.489 E31.83562
G1 X49.405 Y91.726 E31.85953
G1 X49.112 Y91.975 E31.88748
G1 X48.833 Y92.167 E31.91211
G1 X48.44 Y92.379 E31.94457
G1 X48.197 Y92.477 E31.96362
G1 X47.831 Y92.591 E31.99149
G1 X47.511 Y92.657 E32.01525
G1 X47.264 Y92.683 E32.03331
G1 X47.223 Y92.922 E32.05094
G1 X47.132 Y93.236 E32.0747
G1 X46.987 Y93.587 E32.10231
G1 X46.87 Y93.82 E32.12127
G1 X46.619 Y94.191 E32.15384
G1 X46.381 Y94.469 E32.18044
G1 X46.114 Y94.719 E32.20704
G1 X45.817 Y94.939 E32.23391
G1 X45.818 Y101.805 E32.73309
G1 X46.307 Y101.668 E32.77002
G1 X46.667 Y101.62 E32.79642
G1 X46.97 Y101.607 E32.81847
G1 X47.321 Y101.626 E32.84403
G1 X47.628 Y101.671 E32.86659
G1 X47.997 Y101.761 E32.8942
G1 X48.311 Y101.872 E32.91841
G1 X48.655 Y102.035 E32.94609
G1 X48.944 Y102.21 E32.97065
G1 X49.248 Y102.44 E32.99837
G1 X49.486 Y102.66 E33.02193
G1 X49.743 Y102.949 E33.05005
G1 X49.941 Y103.225 E33.07474
G1 X50.133 Y103.56 E33.10282
G1 X50.273 Y103.876 E33.12795
G1 X50.401 Y104.275 E33.15841
G1 X50.47 Y104.607 E33.18306
G1 X50.506 Y104.949 E33.20807
G1 X50.51 Y105.264 E33.23097
G1 X50.476 Y105.658 E33.25972
G1 X50.414 Y105.985 E33.28392
G1 X50.301 Y106.363 E33.3126
G1 X50.154 Y106.71 E33.34
G1 X49.95 Y107.069 E33.37002
G1 X49.775 Y107.319 E33.39221
G1 X49.498 Y107.634 E33.42271
G1 X49.262 Y107.854 E33.44616
G1 X48.958 Y108.086 E33.47397
G1 X48.668 Y108.263 E33.49867
G1 X48.324 Y108.428 E33.52641
G1 X48.015 Y108.54 E33.5503
G1 X47.638 Y108.635 E33.57857
G1 X47.3 Y108.683 E33.60339
G1 X47.161 Y108.689 E33.6135
G0 F1620 X46.921 Y108.698
G0 X46.587 Y108.678
G0 X46.204 Y108.615
G0 X45.885 Y108.53
G0 X45.818 Y108.504
G1 F2100 E28.6135
G1 F300 Z0.56
G0 F6000 X33.209 Y90.963 Z0.56
G1 F300 Z0.24
G1 F2100 E33.6135
G1 F1800 X41.549 Y90.961 E34.21985
G1 X41.748 Y90.638 E34.24744
G1 X42.13 Y90.193 E34.29008
G1 X42.396 Y89.98 E34.31485
G1 X42.601 Y89.837 E34.33302
G1 X43.014 Y89.644 E34.36617
G1 X43.256 Y89.562 E34.38474
G1 X43.612 Y89.49 E34.41115
G1 X44.103 Y89.476 E34.44686
G1 X44.081 Y89.16 E34.46989
G1 X44.131 Y88.629 E34.50867
G1 X44.183 Y88.387 E34.52667
G1 X44.317 Y88.009 E34.55582
G1 X44.599 Y87.504 E34.59788
G1 X44.98 Y87.061 E34.64036
G1 X45.44 Y86.705 E34.68265
G1 X45.965 Y86.447 E34.72518
G1 X46.528 Y86.3 E34.76748
G1 X47.17 Y86.276 E34.81419
G1 X47.751 Y86.376 E34.85705
G1 X48.298 Y86.593 E34.89984
G1 X48.784 Y86.912 E34.9421
G1 X49.199 Y87.324 E34.98462
G1 X49.519 Y87.808 E35.0268
G1 X49.745 Y88.369 E35.07077
G1 X49.846 Y88.932 E35.11236
G1 X49.83 Y89.513 E35.15462
G1 X49.701 Y90.078 E35.19675
G1 X49.461 Y90.607 E35.23898
G1 X49.114 Y91.081 E35.28169
G1 X48.685 Y91.472 E35.32389
G1 X48.179 Y91.771 E35.36663
G1 X47.65 Y91.956 E35.40737
G1 X47.414 Y92.003 E35.42487
G1 X47.064 Y92.039 E35.45045
G1 X46.644 Y92.015 E35.48103
G1 X46.653 Y92.27 E35.49958
G1 X46.577 Y92.787 E35.53757
G1 X46.378 Y93.334 E35.57989
G1 X46.079 Y93.813 E35.62095
G1 X45.663 Y94.236 E35.66408
G1 X45.168 Y94.554 E35.70686
G1 X45.157 Y94.944 E35.73522
G1 X45.158 Y102.905 E36.31402
G1 X45.625 Y102.597 E36.35469
G1 X46.187 Y102.373 E36.39868
G1 X46.754 Y102.274 E36.44052
G1 X47.287 Y102.285 E36.47928
G1 X47.84 Y102.402 E36.52038
G1 X48.193 Y102.547 E36.54812
G1 X48.546 Y102.737 E36.57727
G1 X48.85 Y102.967 E36.60498
G1 X49.249 Y103.388 E36.64715
G1 X49.56 Y103.888 E36.68997
G1 X49.772 Y104.477 E36.73548
G1 X49.85 Y105.018 E36.77522
G1 X49.818 Y105.602 E36.81774
G1 X49.669 Y106.176 E36.86085
G1 X49.376 Y106.743 E36.90726
G1 X49.003 Y107.198 E36.95003
G1 X48.557 Y107.562 E36.99189
G1 X48.039 Y107.833 E37.03439
G1 X47.476 Y107.995 E37.07698
G1 X46.895 Y108.039 E37.11934
G1 X46.311 Y107.964 E37.16215
G1 X45.762 Y107.776 E37.20434
G1 X45.256 Y107.479 E37.247
G1 X45.158 Y107.4 E37.25615
G1 X45.157 Y112.071 E37.59575
G1 X45.193 Y112.361 E37.617
G1 X45.301 Y112.597 E37.63587
G1 X45.516 Y112.816 E37.65818
G1 X45.76 Y112.928 E37.6777
G1 X46.015 Y112.963 E37.69641
G1 X52.921 Y112.963 E38.19851
G1 X53.323 Y112.936 E38.2278
G1 X53.683 Y112.865 E38.25448
G1 X54.033 Y112.749 E38.28128
G1 X54.363 Y112.586 E38.30804
G1 X54.67 Y112.382 E38.33484
G1 X54.942 Y112.145 E38.36107
G1 X55.182 Y111.872 E38.3875
G1 X55.395 Y111.557 E38.41515
G1 X55.555 Y111.236 E38.44122
G1 X55.676 Y110.887 E38.46808
G1 X55.746 Y110.535 E38.49417
G1 X55.775 Y110.163 E38.5213
G1 X55.776 Y83.198 E40.48176
G1 X55.751 Y82.799 E40.51083
G1 X55.685 Y82.459 E40.53601
G1 X55.556 Y82.074 E40.56553
G1 X55.396 Y81.749 E40.59187
G1 X55.192 Y81.444 E40.61854
G1 X54.95 Y81.168 E40.64523
G1 X54.675 Y80.928 E40.67177
G1 X54.364 Y80.719 E40.69901
G1 X54.046 Y80.562 E40.72479
G1 X53.694 Y80.442 E40.75183
G1 X53.334 Y80.37 E40.77852
G1 X52.921 Y80.344 E40.80861
G1 X26.013 Y80.343 E42.76493
G1 X25.612 Y80.369 E42.79414
G1 X25.255 Y80.44 E42.82061
G1 X24.899 Y80.56 E42.84792
G1 X24.57 Y80.72 E42.87452
G1 X24.263 Y80.924 E42.90132
G1 X23.991 Y81.161 E42.92755
G1 X23.749 Y81.436 E42.95418
G1 X23.542 Y81.744 E42.98116
G1 X23.377 Y82.074 E43.00799
G1 X23.26 Y82.413 E43.03406
G1 X23.186 Y82.777 E43.06106
G1 X23.158 Y83.186 E43.09087
G1 X23.158 Y90.111 E43.59434
G1 X23.191 Y90.357 E43.61239
G1 X23.303 Y90.599 E43.63178
G1 X23.516 Y90.816 E43.65388
G1 X23.76 Y90.929 E43.67343
G1 X24.013 Y90.963 E43.69199
G1 X28.719 Y90.962 E44.03414
G1 X28.482 Y90.62 E44.06439
G1 X28.237 Y90.091 E44.10678
G1 X28.104 Y89.524 E44.14912
G1 X28.09 Y88.932 E44.19217
G1 X28.19 Y88.365 E44.23403
G1 X28.406 Y87.822 E44.27652
G1 X28.725 Y87.336 E44.31878
G1 X29.141 Y86.918 E44.36166
