;FLAVOR:Marlin
;TIME:1882
;Filament used: 3.21116m
;Layer height: 0.32
;MINX:22.44
;MINY:114.79
;MINZ:0.24
;MAXX:79.02
;MAXY:171.37
;MAXZ:15.92
;Generated with Cura_SteamEngine 5.0.0
M140 S80
M105
M190 S80
M104 S250
M105
M109 S250
M82 ;absolute extrusion mode
; Ender 3 Max Custom Start G-code
G92 E0 ; Reset Extruder
G28 ; Home all axes
G1 Z2.0 F3000 ; Move Z Axis up little to prevent scratching of Heat Bed
G1 X0.1 Y20 Z0.3 F5000.0 ; Move to start position
G1 X0.1 Y200.0 Z0.3 F1500.0 E15 ; Draw the first line
G1 X0.4 Y200.0 Z0.3 F5000.0 ; Move to side a little
G1 X0.4 Y20 Z0.3 F1500.0 E30 ; Draw the second line
G92 E0 ; Reset Extruder
G1 Z2.0 F3000 ; Move Z Axis up little to prevent scratching of Heat Bed
G1 X5 Y20 Z0.3 F5000.0 ; Move over to prevent blob squish
G92 E0
G92 E0
G1 F1800 E-6
;LAYER_COUNT:50
;LAYER:0
M107
G1 F300 Z0.72
G0 F6000 X32.595 Y115.554 Z0.72
G1 F300 Z0.72
G0 F6000 X23.183 Y125.01
;TYPE:SKIRT
G1 F300 Z0.24
G1 F1800 E0
G1 X23.344 Y124.542 E0.03585
G1 X23.686 Y123.669 E0.10377
G1 X23.898 Y123.22 E0.13974
G1 X24.122 Y122.77 E0.17616
G1 X24.575 Y121.949 E0.24408
G1 X24.861 Y121.504 E0.2824
G1 X25.136 Y121.098 E0.31792
G1 X25.992 Y119.992 E0.41924
G1 X26.313 Y119.628 E0.45439
G1 X26.963 Y118.952 E0.52233
G1 X27.331 Y118.616 E0.55843
G1 X27.723 Y118.274 E0.59611
G1 X28.455 Y117.688 E0.66404
G1 X29.155 Y117.209 E0.72548
G1 X30.19 Y116.601 E0.81244
G1 X30.749 Y116.312 E0.85802
G1 X31.599 Y115.917 E0.92592
G1 X32.249 Y115.672 E0.97624
G1 X32.595 Y115.554 E1.00272
G1 X33.782 Y115.222 E1.09201
G1 X34.405 Y115.085 E1.13822
G1 X35.328 Y114.923 E1.2061
G1 X36.036 Y114.853 E1.25764
G1 X36.888 Y114.81 E1.31944
G1 X38.106 Y114.79 E1.40768
G1 X63.519 Y114.79 E3.24862
G1 X64.492 Y114.809 E3.31911
G1 X65.285 Y114.848 E3.37663
G1 X66.218 Y114.934 E3.4445
G1 X66.944 Y115.057 E3.49784
G1 X67.419 Y115.154 E3.53296
G1 X68.329 Y115.381 E3.6009
G1 X68.793 Y115.529 E3.63619
G1 X69.273 Y115.694 E3.67295
G1 X70.145 Y116.036 E3.74081
G1 X70.624 Y116.262 E3.77917
G1 X71.063 Y116.482 E3.81474
G1 X71.882 Y116.937 E3.88261
G1 X72.283 Y117.195 E3.91716
G1 X72.682 Y117.464 E3.95202
G1 X73.773 Y118.304 E4.05176
G1 X74.148 Y118.632 E4.08785
G1 X74.827 Y119.279 E4.15579
G1 X75.201 Y119.687 E4.19589
G1 X75.531 Y120.066 E4.23229
G1 X76.378 Y121.173 E4.33326
G1 X76.588 Y121.487 E4.36063
G1 X77.219 Y122.557 E4.45061
G1 X77.508 Y123.117 E4.49626
G1 X77.902 Y123.968 E4.5642
G1 X78.156 Y124.645 E4.61658
G1 X78.27 Y124.983 E4.64242
G1 X78.591 Y126.143 E4.72961
G1 X78.724 Y126.75 E4.77462
G1 X78.886 Y127.673 E4.84251
G1 X78.95 Y128.305 E4.88852
G1 X78.997 Y129.171 E4.95135
G1 X79.02 Y130.498 E5.04749
G1 X79.016 Y156.099 E6.90204
G1 X78.998 Y156.946 E6.96341
G1 X78.972 Y157.5 E7.00359
G1 X78.825 Y158.848 E7.10182
G1 X78.734 Y159.377 E7.1407
G1 X78.451 Y160.601 E7.23171
G1 X78.19 Y161.422 E7.29411
G1 X78.122 Y161.612 E7.30873
G1 X77.744 Y162.534 E7.38092
G1 X77.519 Y163.019 E7.41965
G1 X77.089 Y163.852 E7.48756
G1 X76.841 Y164.263 E7.52233
G1 X76.546 Y164.73 E7.56235
G1 X76.012 Y165.501 E7.63028
G1 X75.439 Y166.196 E7.69554
G1 X75.024 Y166.659 E7.74058
G1 X74.086 Y167.587 E7.83616
G1 X73.883 Y167.765 E7.85572
G1 X72.914 Y168.523 E7.94484
G1 X72.388 Y168.889 E7.99126
G1 X71.596 Y169.391 E8.05919
G1 X70.969 Y169.726 E8.11068
G1 X70.549 Y169.933 E8.1446
G1 X69.692 Y170.311 E8.21246
G1 X69.205 Y170.488 E8.24999
G1 X68.716 Y170.653 E8.28738
G1 X67.384 Y171.011 E8.38729
G1 X66.92 Y171.105 E8.42159
G1 X65.559 Y171.293 E8.52112
G1 X65.212 Y171.319 E8.54632
G1 X64.589 Y171.348 E8.5915
G1 X63.279 Y171.37 E8.68641
G1 X57.779 Y171.369 E9.08484
G1 X57.157 Y171.36 E9.1299
G1 X56.497 Y171.33 E9.17776
G1 X56.109 Y171.301 E9.20594
G1 X55.178 Y171.192 E9.27385
G1 X54.177 Y170.982 E9.34794
G1 X53.883 Y170.906 E9.36994
G1 X52.987 Y170.633 E9.43779
G1 X52.086 Y170.271 E9.50813
G1 X51.811 Y170.146 E9.53001
G1 X50.975 Y169.722 E9.59792
G1 X50.163 Y169.218 E9.66715
G1 X49.911 Y169.046 E9.68925
G1 X49.16 Y168.485 E9.75715
G1 X48.412 Y167.815 E9.8299
G1 X48.152 Y167.56 E9.85628
G1 X47.511 Y166.876 E9.92419
G1 X47.114 Y166.386 E9.96987
G1 X46.751 Y165.908 E10.01335
G1 X45.928 Y164.795 E10.11362
G1 X44.353 Y162.788 E10.29844
G1 X42.75 Y160.859 E10.48013
G1 X41.071 Y158.951 E10.66424
G1 X39.379 Y157.135 E10.84404
G1 X37.61 Y155.339 E11.02666
G1 X35.782 Y153.587 E11.21008
G1 X33.91 Y151.892 E11.39301
G1 X32.023 Y150.277 E11.57294
G1 X30.066 Y148.695 E11.75523
G1 X28.046 Y147.173 E11.93845
G1 X27.419 Y146.691 E11.99574
G1 X26.458 Y145.86 E12.08777
G1 X26.21 Y145.619 E12.11282
G1 X25.566 Y144.937 E12.18077
G1 X24.928 Y144.128 E12.25541
G1 X24.75 Y143.879 E12.27758
G1 X24.238 Y143.094 E12.34547
G1 X23.776 Y142.229 E12.41651
G1 X23.634 Y141.932 E12.44036
G1 X23.266 Y141.069 E12.50832
G1 X22.934 Y140.039 E12.58672
G1 X22.857 Y139.752 E12.60824
G1 X22.653 Y138.837 E12.67615
G1 X22.541 Y138.04 E12.73446
G1 X22.512 Y137.761 E12.75478
G1 X22.454 Y136.792 E12.8251
G1 X22.44 Y135.767 E12.89935
G1 X22.442 Y130.129 E13.30777
G1 X22.46 Y129.3 E13.36784
G1 X22.498 Y128.528 E13.42383
G1 X22.584 Y127.594 E13.49178
G1 X22.713 Y126.84 E13.54719
G1 X22.789 Y126.473 E13.57434
G0 F1620 X22.813 Y126.357
G0 X23.183 Y125.01
G1 F1800 E7.57434
G1 F300 Z0.72
G0 F6000 X23.102 Y130.138 Z0.72
G1 F300 Z0.24
G1 F1800 E13.57434
G1 X23.119 Y129.332 E13.63274
G1 X23.157 Y128.56 E13.68874
G1 X23.242 Y127.655 E13.75458
G1 X23.36 Y126.974 E13.80465
G1 X23.46 Y126.491 E13.84038
G1 X23.807 Y125.225 E13.93547
G1 X23.968 Y124.757 E13.97132
G1 X24.488 Y123.514 E14.06893
G1 X24.712 Y123.064 E14.10534
G1 X25.153 Y122.269 E14.1712
G1 X25.407 Y121.874 E14.20522
G1 X25.682 Y121.468 E14.24074
G1 X26.487 Y120.429 E14.33596
G1 X26.808 Y120.065 E14.37111
G1 X27.765 Y119.113 E14.4689
G1 X28.157 Y118.771 E14.50658
G1 X29.232 Y117.951 E14.60453
G1 X29.521 Y117.759 E14.62966
G1 X30.493 Y117.187 E14.71136
G1 X31.052 Y116.898 E14.75695
G1 X31.877 Y116.516 E14.82281
G1 X32.462 Y116.297 E14.86806
G1 X32.808 Y116.179 E14.89454
G1 X33.923 Y115.867 E14.97841
G1 X34.546 Y115.73 E15.02462
G1 X35.442 Y115.574 E15.0905
G1 X36.08 Y115.512 E15.13694
G1 X36.9 Y115.47 E15.19642
G1 X38.106 Y115.45 E15.28379
G1 X63.519 Y115.45 E17.12472
G1 X64.459 Y115.468 E17.19283
G1 X65.252 Y115.507 E17.25035
G1 X66.157 Y115.592 E17.31619
G1 X66.812 Y115.704 E17.36433
G1 X67.287 Y115.801 E17.39945
G1 X68.578 Y116.153 E17.49639
G1 X69.058 Y116.318 E17.53315
G1 X69.904 Y116.651 E17.59901
G1 X70.328 Y116.852 E17.63301
G1 X70.767 Y117.072 E17.66858
G1 X71.914 Y117.742 E17.7648
G1 X72.313 Y118.011 E17.79966
G1 X73.339 Y118.801 E17.89347
G1 X73.714 Y119.129 E17.92956
G1 X74.371 Y119.756 E17.99535
G1 X74.704 Y120.121 E18.03114
G1 X75.034 Y120.5 E18.06754
G1 X75.83 Y121.54 E18.16241
G1 X76.04 Y121.854 E18.18978
G1 X76.633 Y122.86 E18.27437
G1 X76.922 Y123.42 E18.32002
G1 X77.303 Y124.245 E18.38585
G1 X77.53 Y124.856 E18.43307
G1 X77.644 Y125.194 E18.45891
G1 X77.947 Y126.284 E18.54086
G1 X78.08 Y126.891 E18.58588
G1 X78.235 Y127.787 E18.65175
G1 X78.292 Y128.353 E18.69296
G1 X78.337 Y129.183 E18.75317
G1 X78.36 Y130.498 E18.84844
G1 X78.356 Y156.09 E20.70234
G1 X78.339 Y156.915 E20.76212
G1 X78.313 Y157.469 E20.8023
G1 X78.174 Y158.736 E20.89463
G1 X78.083 Y159.265 E20.93351
G1 X77.817 Y160.416 E21.01909
G1 X77.569 Y161.2 E21.07866
G1 X77.501 Y161.39 E21.09328
G1 X77.146 Y162.256 E21.16108
G1 X76.921 Y162.741 E21.19981
G1 X76.283 Y163.911 E21.29634
G1 X75.988 Y164.378 E21.33636
G1 X75.47 Y165.124 E21.40215
G1 X74.947 Y165.756 E21.46157
G1 X74.532 Y166.219 E21.50661
G1 X73.65 Y167.091 E21.59646
G1 X73.447 Y167.269 E21.61602
G1 X72.537 Y167.981 E21.69972
G1 X72.011 Y168.347 E21.74614
G1 X71.243 Y168.833 E21.81198
G1 X70.678 Y169.134 E21.85835
G1 X70.258 Y169.341 E21.89227
G1 X69.426 Y169.706 E21.95809
G1 X68.994 Y169.863 E21.99139
G1 X68.505 Y170.028 E22.02877
G1 X67.253 Y170.364 E22.12268
G1 X66.789 Y170.458 E22.15697
G1 X65.51 Y170.635 E22.25051
G1 X65.163 Y170.661 E22.27571
G1 X64.577 Y170.688 E22.31821
G1 X63.279 Y170.71 E22.41225
G1 X57.789 Y170.709 E22.80995
G1 X57.167 Y170.7 E22.85501
G1 X56.546 Y170.672 E22.90004
G1 X56.158 Y170.643 E22.92823
G1 X55.256 Y170.536 E22.99403
G1 X54.343 Y170.343 E23.06163
G1 X54.049 Y170.267 E23.08363
G1 X53.18 Y170.001 E23.14946
G1 X52.359 Y169.67 E23.21358
G1 X52.084 Y169.545 E23.23547
G1 X51.274 Y169.133 E23.3013
G1 X50.536 Y168.673 E23.36429
G1 X50.284 Y168.501 E23.3864
G1 X49.556 Y167.956 E23.45227
G1 X48.874 Y167.344 E23.51865
G1 X48.614 Y167.089 E23.54503
G1 X47.994 Y166.425 E23.61084
G1 X47.639 Y165.985 E23.6518
G1 X47.282 Y165.516 E23.6945
G1 X46.45 Y164.39 E23.79592
G1 X44.878 Y162.388 E23.98031
G1 X43.251 Y160.431 E24.16467
G1 X41.564 Y158.513 E24.34971
G1 X39.831 Y156.653 E24.53387
G1 X38.07 Y154.866 E24.71561
G1 X36.252 Y153.122 E24.89811
G1 X34.353 Y151.403 E25.08366
G1 X32.417 Y149.746 E25.26826
G1 X30.491 Y148.19 E25.44762
G1 X28.448 Y146.65 E25.63296
G1 X27.821 Y146.168 E25.69025
G1 X26.918 Y145.386 E25.77678
G1 X26.67 Y145.145 E25.80183
G1 X26.047 Y144.484 E25.86763
G1 X25.465 Y143.744 E25.93583
G1 X25.287 Y143.495 E25.958
G1 X24.792 Y142.733 E26.02383
G1 X24.371 Y141.944 E26.08861
G1 X24.229 Y141.647 E26.11246
G1 X23.874 Y140.81 E26.17832
G1 X23.572 Y139.868 E26.24998
G1 X23.495 Y139.581 E26.2715
G1 X23.298 Y138.693 E26.3374
G1 X23.197 Y137.972 E26.39013
G1 X23.168 Y137.693 E26.41045
G1 X23.114 Y136.782 E26.47656
G1 X23.1 Y135.767 E26.5501
G1 X23.102 Y131.653 E26.84812
G0 F1620 X23.102 Y130.138
G1 F1800 E20.84812
G1 F300 Z0.72
;MESH:aza-hinge-top-m5-90deg.stl
G0 F6000 X41.656 Y137.893 Z0.72
;TYPE:WALL-OUTER
G1 F300 Z0.24
G1 F1800 E26.84812
G1 F1263.8 X42.118 Y137.928 E26.89353
G1 F1296.9 X42.579 Y137.917 E26.93757
G1 F1800 E20.93757
G0 F6000 X43.54 Y137.75
G0 X57.36 Y132.596
G0 X57.989 Y132.48
G0 X58.613 Y132.495
G0 X59.23 Y132.64
G0 X59.797 Y132.896
G0 X60.297 Y133.259
G0 X60.734 Y133.741
G0 X61.048 Y134.269
G0 X61.253 Y134.855
G0 X61.338 Y135.494
G0 X61.305 Y136.037
G0 X56.061 Y150.259
G1 F1800 E26.93757
G0 F6000 X55.892 Y151.274
G1 F1295.5 X55.887 Y151.365 E26.94629
G1 F1299.8 X55.889 Y151.847 E26.99223
G0 F6000 X56.064 Y152.9
G0 X57.08 Y154.929
;TYPE:WALL-INNER
G1 F1800 X57.081 Y158.481 E27.23667
G1 X57.157 Y158.702 E27.25275
G1 X57.351 Y158.73 E27.26624
G1 X62.022 Y158.729 E27.58769
G1 X64.143 Y158.73 E27.73366
G1 X64.508 Y158.706 E27.75883
G1 X64.776 Y158.653 E27.77763
G1 X65.054 Y158.559 E27.79783
G1 X65.301 Y158.438 E27.81675
G1 X65.527 Y158.288 E27.83542
G1 X65.742 Y158.102 E27.85499
G1 X65.946 Y157.866 E27.87645
G1 X66.094 Y157.64 E27.89504
G1 X66.217 Y157.39 E27.91422
G1 X66.298 Y157.152 E27.93152
G1 X66.359 Y156.838 E27.95353
G1 X66.377 Y156.588 E27.97078
G1 X66.379 Y129.646 E29.82489
G1 X66.357 Y129.302 E29.84861
G1 X66.304 Y129.032 E29.86755
G1 X66.217 Y128.77 E29.88655
G1 X66.094 Y128.519 E29.90578
G1 X65.936 Y128.279 E29.92556
G1 X65.756 Y128.072 E29.94444
G1 X65.547 Y127.888 E29.9636
G1 X65.297 Y127.72 E29.98433
G1 X65.062 Y127.603 E30.00239
G1 X64.789 Y127.509 E30.02226
G1 X64.517 Y127.454 E30.04136
G1 X64.168 Y127.431 E30.06543
G1 X37.297 Y127.43 E31.91465
G1 X36.961 Y127.452 E31.93783
G1 X36.684 Y127.507 E31.95726
G1 X36.414 Y127.597 E31.97685
G1 X36.158 Y127.722 E31.99645
G1 X35.934 Y127.87 E32.01493
G1 X35.719 Y128.059 E32.03463
G1 X35.539 Y128.264 E32.0534
G1 X35.374 Y128.509 E32.07373
G1 X35.251 Y128.756 E32.09272
G1 X35.161 Y129.017 E32.11172
G1 X35.105 Y129.292 E32.13103
G1 X35.081 Y129.635 E32.1547
G1 X35.081 Y136.493 E32.62665
G1 X35.157 Y136.702 E32.64196
G1 X35.317 Y136.73 E32.65314
G1 X38.878 Y136.729 E32.8982
G1 X38.793 Y136.453 E32.91807
G1 X38.719 Y136.079 E32.94431
G1 X38.689 Y135.741 E32.96766
G1 X38.693 Y135.353 E32.99437
G1 X38.728 Y135.027 E33.01693
G1 X38.807 Y134.655 E33.0431
G1 X38.911 Y134.333 E33.06639
G1 X39.065 Y133.983 E33.0927
G1 X39.226 Y133.697 E33.11529
G1 X39.45 Y133.379 E33.14206
G1 X39.67 Y133.127 E33.16508
G1 X39.948 Y132.865 E33.19137
G1 X40.221 Y132.658 E33.21494
G1 X40.547 Y132.46 E33.24119
G1 X40.838 Y132.32 E33.26342
G1 X41.222 Y132.18 E33.29154
G1 X41.502 Y132.105 E33.31149
G1 X41.929 Y132.047 E33.34115
G1 X42.228 Y132.034 E33.36174
G1 X42.58 Y132.051 E33.386
G1 X42.894 Y132.097 E33.40784
G1 X43.26 Y132.187 E33.43377
G1 X43.573 Y132.298 E33.45663
G1 X43.919 Y132.462 E33.48298
G1 X44.207 Y132.637 E33.50617
G1 X44.51 Y132.866 E33.53231
G1 X44.748 Y133.086 E33.55461
G1 X45.006 Y133.375 E33.58127
G1 X45.204 Y133.651 E33.60465
G1 X45.396 Y133.986 E33.63122
G1 X45.536 Y134.303 E33.65507
G1 X45.664 Y134.701 E33.68384
G1 X45.734 Y135.033 E33.70719
G1 X45.77 Y135.376 E33.73093
G1 X45.773 Y135.691 E33.75261
G1 X45.739 Y136.085 E33.77982
G1 X45.677 Y136.413 E33.80279
G1 X45.583 Y136.729 E33.82548
G1 X52.444 Y136.729 E34.29765
G1 X52.655 Y136.445 E34.32199
G1 X52.908 Y136.172 E34.34761
G1 X53.178 Y135.937 E34.37224
G1 X53.513 Y135.706 E34.40025
G1 X53.787 Y135.562 E34.42155
G1 X54.127 Y135.422 E34.44685
G1 X54.358 Y135.345 E34.46361
G1 X54.698 Y135.282 E34.48741
G1 X54.748 Y134.911 E34.51317
G1 X54.799 Y134.674 E34.52985
G1 X54.892 Y134.401 E34.5497
G1 X54.985 Y134.144 E34.56851
G1 X55.1 Y133.915 E34.58614
G1 X55.299 Y133.585 E34.61266
G1 X55.506 Y133.312 E34.63624
G1 X55.767 Y133.031 E34.66263
G1 X56.005 Y132.821 E34.68448
G1 X56.311 Y132.599 E34.71049
G1 X56.606 Y132.428 E34.73396
G1 X56.961 Y132.27 E34.7607
G1 X57.274 Y132.165 E34.78342
G1 X57.644 Y132.082 E34.80951
G1 X58.002 Y132.043 E34.8343
G1 X58.436 Y132.042 E34.86416
G1 X58.784 Y132.078 E34.88824
G1 X59.155 Y132.158 E34.91436
G1 X59.464 Y132.257 E34.93669
G1 X59.817 Y132.41 E34.96317
G1 X60.112 Y132.576 E34.98646
G1 X60.428 Y132.799 E35.01308
G1 X60.679 Y133.017 E35.03596
G1 X60.943 Y133.299 E35.06254
G1 X61.148 Y133.567 E35.08576
G1 X61.345 Y133.889 E35.11174
G1 X61.487 Y134.183 E35.13421
G1 X61.628 Y134.568 E35.16242
G1 X61.713 Y134.911 E35.18674
G1 X61.763 Y135.268 E35.21155
G1 X61.775 Y135.584 E35.23331
G1 X61.754 Y135.967 E35.25971
G1 X61.7 Y136.305 E35.28327
G1 X61.6 Y136.678 E35.30984
G1 X61.486 Y136.981 E35.33212
G1 X61.316 Y137.326 E35.35859
G1 X61.133 Y137.615 E35.38213
G1 X60.896 Y137.916 E35.40849
G1 X60.666 Y138.155 E35.43132
G1 X60.373 Y138.403 E35.45774
G1 X60.1 Y138.59 E35.48051
G1 X59.702 Y138.807 E35.51171
G1 X59.46 Y138.904 E35.52965
G1 X59.091 Y139.019 E35.55625
G1 X58.774 Y139.084 E35.57852
G1 X58.527 Y139.11 E35.59561
G1 X58.486 Y139.349 E35.6123
G1 X58.396 Y139.66 E35.63458
G1 X58.25 Y140.014 E35.66093
G1 X58.132 Y140.247 E35.6789
G1 X57.884 Y140.617 E35.70956
G1 X57.644 Y140.896 E35.73488
G1 X57.377 Y141.146 E35.76006
G1 X57.081 Y141.366 E35.78544
G1 X57.08 Y144.359 E35.99141
G1 X57.081 Y146.831 E36.16153
G1 X57.08 Y148.232 E36.25794
G1 X57.57 Y148.095 E36.29296
G1 X57.93 Y148.047 E36.31795
G1 X58.228 Y148.034 E36.33848
G1 X58.58 Y148.051 E36.36273
G1 X58.895 Y148.097 E36.38464
G1 X59.261 Y148.187 E36.41058
G1 X59.573 Y148.298 E36.43337
G1 X59.919 Y148.462 E36.45972
G1 X60.207 Y148.637 E36.48291
G1 X60.51 Y148.866 E36.50905
G1 X60.749 Y149.086 E36.5314
G1 X61.006 Y149.375 E36.55802
G1 X61.204 Y149.651 E36.58139
G1 X61.396 Y149.986 E36.60797
G1 X61.536 Y150.302 E36.63175
G1 X61.664 Y150.701 E36.66059
G1 X61.734 Y151.033 E36.68394
G1 X61.77 Y151.376 E36.70767
G1 X61.772 Y151.691 E36.72935
G1 X61.738 Y152.085 E36.75657
G1 X61.676 Y152.414 E36.77961
G1 X61.565 Y152.791 E36.80665
G1 X61.418 Y153.134 E36.83233
G1 X61.214 Y153.494 E36.86081
G1 X61.038 Y153.746 E36.88196
G1 X60.76 Y154.062 E36.91093
G1 X60.522 Y154.283 E36.93328
G1 X60.22 Y154.513 E36.9594
G1 X59.938 Y154.687 E36.98221
G1 X59.592 Y154.854 E37.00865
G1 X59.272 Y154.969 E37.03205
G1 X58.897 Y155.062 E37.05864
G1 X58.573 Y155.108 E37.08116
G0 F1620 X58.565 Y155.109
G0 X58.183 Y155.124
G0 X57.85 Y155.104
G0 X57.467 Y155.041
G0 X57.154 Y154.957
G0 X57.08 Y154.929
G1 F1800 E31.08116
G0 F6000 X59.294 Y154.223
G0 X59.798 Y153.957
G0 X60.24 Y153.599
G0 X60.606 Y153.151
G0 X60.874 Y152.642
G0 X61.035 Y152.077
G0 X61.077 Y151.501
G0 X61.07 Y135.357
G0 X60.963 Y134.78
G0 X60.749 Y134.252
G0 X60.435 Y133.775
G0 X60.02 Y133.366
G0 X59.535 Y133.048
G0 X59.013 Y132.842
G0 X58.437 Y132.739
G0 X57.862 Y132.753
