;FLAVOR:Marlin
;TIME:1470
;Filament used: 2.08963m
;Layer height: 0.32
;MINX:8.139
;MINY:106.864
;MINZ:0.24
;MAXX:64.719
;MAXY:163.444
;MAXZ:15.28
;Generated with Cura_SteamEngine 5.0.0
M140 S80
M105
M190 S80
M104 S245
M105
M109 S245
M82 ;absolute extrusion mode
; Ender 3 Max Custom Start G-code
G92 E0 ; Reset Extruder
G28 ; Home all axes
G1 Z2.0 F3000 ; Move Z Axis up little to prevent scratching of Heat Bed
G1 X0.1 Y20 Z0.3 F5000.0 ; Move to start position
G1 X0.1 Y200.0 Z0.3 F1500.0 E15 ; Draw the first line
G1 X0.4 Y200.0 Z0.3 F5000.0 ; Move to side a little
G1 X0.4 Y20 Z0.3 F1500.0 E30 ; Draw the second line
G92 E0 ; Reset Extruder
G1 Z2.0 F3000 ; Move Z Axis up little to prevent scratching of Heat Bed
G1 X5 Y20 Z0.3 F5000.0 ; Move over to prevent blob squish
G92 E0
G92 E0
G1 F2100 E-5
;LAYER_COUNT:47
;LAYER:0
M107
G1 F300 Z0.56
G0 F6000 X38.469 Y107.679 Z0.56
G1 F300 Z0.56
G0 F6000 X31.968 Y112.954
;TYPE:SKIRT
G1 F300 Z0.24
G1 F2100 E0
G1 F1800 X32.805 Y111.86 E0.11974
G1 X33.642 Y110.889 E0.23118
G1 X33.863 Y110.661 E0.25878
G1 X34.543 Y110.016 E0.34026
G1 X35.343 Y109.384 E0.42888
G1 X35.634 Y109.175 E0.46003
G1 X36.418 Y108.661 E0.54152
G1 X37.344 Y108.167 E0.63275
G1 X37.606 Y108.043 E0.65795
G1 X38.469 Y107.679 E0.73937
G1 X39.387 Y107.382 E0.82324
G1 X39.67 Y107.304 E0.84876
G1 X40.583 Y107.094 E0.9302
G1 X41.484 Y106.965 E1.00932
G1 X41.82 Y106.931 E1.03868
G1 X42.76 Y106.876 E1.12053
G1 X43.658 Y106.864 E1.1986
G1 X49.393 Y106.866 E1.69714
G1 X50.266 Y106.886 E1.77304
G1 X51.006 Y106.924 E1.83746
G1 X51.939 Y107.012 E1.91892
G1 X52.632 Y107.13 E1.98003
G1 X53.104 Y107.226 E2.0219
G1 X54.014 Y107.452 E2.10341
G1 X54.468 Y107.596 E2.14481
G1 X54.945 Y107.759 E2.18863
G1 X55.818 Y108.1 E2.2701
G1 X56.288 Y108.32 E2.31521
G1 X56.736 Y108.543 E2.35872
G1 X57.557 Y108.997 E2.44027
G1 X57.992 Y109.276 E2.48519
G1 X58.399 Y109.551 E2.52789
G1 X59.504 Y110.405 E2.64929
G1 X59.861 Y110.719 E2.69062
G1 X60.851 Y111.708 E2.81227
G1 X61.168 Y112.068 E2.85396
G1 X61.757 Y112.797 E2.93543
G1 X62.297 Y113.58 E3.01812
G1 X62.929 Y114.64 E3.1254
G1 X63.085 Y114.939 E3.15471
G1 X63.484 Y115.793 E3.23665
G1 X63.806 Y116.615 E3.31339
G1 X63.98 Y117.114 E3.35933
G1 X64.251 Y118.012 E3.44087
G1 X64.393 Y118.646 E3.49735
G1 X64.464 Y119.013 E3.52985
G1 X64.627 Y120.198 E3.63383
G1 X64.663 Y120.635 E3.67194
G1 X64.698 Y121.335 E3.73287
G1 X64.719 Y122.571 E3.84033
G1 X64.713 Y148.217 E6.0697
G1 X64.695 Y149.018 E6.13935
G1 X64.667 Y149.601 E6.19009
G1 X64.511 Y150.996 E6.31211
G1 X64.414 Y151.542 E6.36031
G1 X64.21 Y152.457 E6.44181
G1 X64.039 Y153.035 E6.4942
G1 X63.904 Y153.448 E6.53198
G1 X63.501 Y154.496 E6.62958
G1 X63.385 Y154.757 E6.65441
G1 X63.025 Y155.496 E6.72587
G1 X62.472 Y156.451 E6.8218
G1 X62.151 Y156.946 E6.87308
G1 X61.608 Y157.71 E6.95456
G1 X61.199 Y158.205 E7.01038
G1 X60.883 Y158.566 E7.05208
G1 X59.909 Y159.547 E7.17225
G1 X59.536 Y159.878 E7.2156
G1 X58.808 Y160.47 E7.29717
G1 X58.342 Y160.799 E7.34676
G1 X57.936 Y161.07 E7.38919
G1 X57.135 Y161.556 E7.47064
G1 X56.715 Y161.776 E7.51185
G1 X56.263 Y162 E7.5557
G1 X55.406 Y162.38 E7.6372
G1 X54.955 Y162.546 E7.67897
G1 X54.504 Y162.701 E7.72043
G1 X53.605 Y162.968 E7.80195
G1 X53.138 Y163.074 E7.84358
G1 X52.65 Y163.174 E7.88688
G1 X51.294 Y163.365 E8.00592
G1 X50.959 Y163.391 E8.03513
G1 X50.306 Y163.422 E8.09196
G1 X48.995 Y163.444 E8.20594
G1 X23.489 Y163.442 E10.42314
G1 X22.632 Y163.424 E10.49766
G1 X21.882 Y163.387 E10.56293
G1 X20.949 Y163.301 E10.64438
G1 X20.239 Y163.181 E10.70697
G1 X19.756 Y163.083 E10.74982
G1 X18.846 Y162.857 E10.83132
G1 X18.373 Y162.707 E10.87446
G1 X17.901 Y162.545 E10.91784
G1 X17.028 Y162.203 E10.99934
G1 X16.563 Y161.984 E11.04402
G1 X16.118 Y161.762 E11.08725
G1 X14.912 Y161.062 E11.20847
G1 X14.501 Y160.787 E11.25146
G1 X13.745 Y160.233 E11.33293
G1 X13.357 Y159.907 E11.37699
G1 X12.993 Y159.587 E11.41912
G1 X12.316 Y158.939 E11.50058
G1 X11.972 Y158.562 E11.54495
G1 X11.634 Y158.175 E11.58961
G1 X11.048 Y157.444 E11.67105
G1 X10.743 Y157.007 E11.71738
G1 X10.544 Y156.706 E11.74875
G1 X9.953 Y155.699 E11.85025
G1 X9.663 Y155.139 E11.90507
G1 X9.268 Y154.289 E11.98654
G1 X9.013 Y153.611 E12.04951
G1 X8.866 Y153.177 E12.08934
G1 X8.571 Y152.142 E12.1829
G1 X8.417 Y151.427 E12.24648
G1 X8.359 Y151.11 E12.27449
G1 X8.205 Y149.878 E12.38242
G1 X8.182 Y149.54 E12.41187
G1 X8.159 Y148.988 E12.4599
G1 X8.139 Y147.773 E12.56553
G1 X8.14 Y142.181 E13.05164
G1 X8.148 Y141.609 E13.10136
G1 X8.182 Y140.881 E13.16472
G1 X8.218 Y140.434 E13.2037
G1 X8.334 Y139.503 E13.28526
G1 X8.541 Y138.534 E13.37139
G1 X8.597 Y138.32 E13.39062
G1 X8.873 Y137.424 E13.47212
G1 X9.234 Y136.532 E13.55577
G1 X9.405 Y136.158 E13.59152
G1 X9.831 Y135.323 E13.673
G1 X10.414 Y134.401 E13.76783
G1 X10.552 Y134.205 E13.78867
G1 X11.124 Y133.462 E13.87018
G1 X11.691 Y132.838 E13.94347
G1 X11.943 Y132.581 E13.97476
G1 X12.627 Y131.94 E14.05625
G1 X13.238 Y131.451 E14.12428
G1 X14.776 Y130.309 E14.2908
G1 X16.747 Y128.761 E14.50866
G1 X18.655 Y127.174 E14.7244
G1 X20.583 Y125.475 E14.94778
G1 X22.396 Y123.786 E15.16318
G1 X24.184 Y122.021 E15.38158
G1 X25.942 Y120.185 E15.60255
G1 X27.624 Y118.327 E15.82041
G1 X29.275 Y116.394 E16.04139
G1 X30.824 Y114.477 E16.25564
G1 X31.15 Y114.044 E16.30275
G0 F1620 X31.968 Y112.954
G1 F2100 E11.30275
G1 F300 Z0.56
G0 F6000 X29.772 Y116.829 Z0.56
G1 F300 Z0.24
G1 F2100 E16.30275
G1 F1800 X31.347 Y114.879 E16.52065
G1 X32.492 Y113.355 E16.68635
G1 X33.329 Y112.261 E16.8061
G1 X34.116 Y111.348 E16.91088
G1 X34.337 Y111.12 E16.93848
G1 X34.997 Y110.496 E17.01744
G1 X35.728 Y109.92 E17.09834
G1 X36.019 Y109.711 E17.12948
G1 X36.78 Y109.214 E17.20849
G1 X37.626 Y108.764 E17.29179
G1 X37.888 Y108.64 E17.31699
G1 X38.726 Y108.288 E17.396
G1 X39.562 Y108.018 E17.47237
G1 X39.845 Y107.94 E17.49789
G1 X40.731 Y107.738 E17.57688
G1 X41.55 Y107.621 E17.6488
G1 X41.886 Y107.587 E17.67816
G1 X42.77 Y107.536 E17.75513
G1 X43.658 Y107.524 E17.83233
G1 X49.383 Y107.526 E18.33
G1 X50.232 Y107.546 E18.40382
G1 X50.972 Y107.584 E18.46823
G1 X51.876 Y107.67 E18.54717
G1 X52.501 Y107.777 E18.60229
G1 X52.973 Y107.873 E18.64416
G1 X54.254 Y108.221 E18.75955
G1 X54.731 Y108.384 E18.80337
G1 X55.578 Y108.715 E18.88242
G1 X55.994 Y108.911 E18.9224
G1 X56.442 Y109.134 E18.9659
G1 X57.237 Y109.575 E19.04493
G1 X57.622 Y109.823 E19.08474
G1 X58.029 Y110.098 E19.12744
G1 X59.068 Y110.9 E19.24153
G1 X59.425 Y111.214 E19.28286
G1 X60.356 Y112.144 E19.39725
G1 X60.673 Y112.504 E19.43895
G1 X61.485 Y113.556 E19.55447
G1 X61.75 Y113.949 E19.59568
G1 X62.343 Y114.946 E19.69652
G1 X62.499 Y115.245 E19.72583
G1 X62.875 Y116.047 E19.80283
G1 X63.183 Y116.833 E19.87622
G1 X63.357 Y117.332 E19.92216
G1 X63.618 Y118.202 E20.00111
G1 X63.745 Y118.771 E20.05179
G1 X63.816 Y119.138 E20.08429
G1 X63.969 Y120.252 E20.18204
G1 X64.005 Y120.689 E20.22015
G1 X64.038 Y121.347 E20.27742
G1 X64.059 Y122.571 E20.38384
G1 X64.053 Y148.208 E22.61243
G1 X64.036 Y148.987 E22.68016
G1 X64.008 Y149.57 E22.7309
G1 X63.861 Y150.881 E22.84558
G1 X63.764 Y151.427 E22.89379
G1 X63.566 Y152.314 E22.97279
G1 X63.412 Y152.83 E23.0196
G1 X63.277 Y153.243 E23.05737
G1 X62.898 Y154.228 E23.14911
G1 X62.782 Y154.489 E23.17394
G1 X62.438 Y155.194 E23.24213
G1 X61.918 Y156.091 E23.33226
G1 X61.597 Y156.586 E23.38355
G1 X61.07 Y157.327 E23.46259
G1 X60.703 Y157.77 E23.5126
G1 X60.387 Y158.131 E23.55431
G1 X59.47 Y159.053 E23.66735
G1 X59.097 Y159.384 E23.7107
G1 X58.392 Y159.957 E23.78967
G1 X57.976 Y160.25 E23.8339
G1 X57.57 Y160.521 E23.87633
G1 X56.422 Y161.185 E23.99162
G1 X55.97 Y161.409 E24.03547
G1 X54.74 Y161.922 E24.15132
G1 X54.289 Y162.077 E24.19278
G1 X53.006 Y162.428 E24.3084
G1 X52.518 Y162.528 E24.35171
G1 X51.243 Y162.707 E24.46363
G1 X50.908 Y162.733 E24.49284
G1 X50.294 Y162.762 E24.54627
G1 X48.995 Y162.784 E24.65921
G1 X23.498 Y162.782 E26.87563
G1 X22.665 Y162.764 E26.94806
G1 X21.915 Y162.727 E27.01333
G1 X21.01 Y162.643 E27.09234
G1 X20.37 Y162.534 E27.14878
G1 X19.887 Y162.436 E27.19162
G1 X18.588 Y162.083 E27.30863
G1 X18.116 Y161.921 E27.35201
G1 X17.27 Y161.588 E27.43105
G1 X16.858 Y161.394 E27.47063
G1 X16.413 Y161.172 E27.51386
G1 X15.279 Y160.513 E27.62788
G1 X14.868 Y160.238 E27.67086
G1 X13.793 Y159.411 E27.78877
G1 X13.429 Y159.091 E27.8309
G1 X12.469 Y158.128 E27.9491
G1 X12.131 Y157.741 E27.99377
G1 X11.563 Y157.031 E28.0728
G1 X11.095 Y156.342 E28.14521
G1 X10.539 Y155.395 E28.24067
G1 X10.249 Y154.835 E28.29549
G1 X9.867 Y154.011 E28.37444
G1 X9.638 Y153.399 E28.43125
G1 X9.491 Y152.965 E28.47108
G1 X9.214 Y151.992 E28.55902
G1 X9.067 Y151.308 E28.61984
G1 X9.009 Y150.991 E28.64785
G1 X8.864 Y149.833 E28.7493
G1 X8.841 Y149.495 E28.77875
G1 X8.819 Y148.976 E28.82391
G1 X8.799 Y147.773 E28.9285
G1 X8.8 Y142.191 E29.41373
G1 X8.808 Y141.619 E29.46346
G1 X8.84 Y140.934 E29.52307
G1 X8.876 Y140.487 E29.56205
G1 X8.989 Y139.585 E29.64108
G1 X9.18 Y138.701 E29.7197
G1 X9.236 Y138.487 E29.73892
G1 X9.504 Y137.619 E29.81789
G1 X9.834 Y136.807 E29.89409
G1 X10.005 Y136.433 E29.92983
G1 X10.419 Y135.623 E30.00891
G1 X10.954 Y134.781 E30.09563
G1 X11.092 Y134.585 E30.11647
G1 X11.647 Y133.866 E30.19542
G1 X12.162 Y133.3 E30.26194
G1 X12.414 Y133.043 E30.29323
G1 X13.078 Y132.422 E30.37226
G1 X13.632 Y131.981 E30.43382
G1 X15.17 Y130.839 E30.60034
G1 X17.147 Y129.286 E30.81888
G1 X19.104 Y127.659 E31.04011
G1 X21.02 Y125.97 E31.26214
G1 X22.843 Y124.272 E31.47871
G1 X24.658 Y122.481 E31.70037
G1 X26.442 Y120.618 E31.92459
G1 X28.114 Y118.769 E32.14129
G1 X28.887 Y117.865 E32.24469
G0 F1620 X29.772 Y116.829
G1 F2100 E27.24469
G1 F300 Z0.56
;MESH:aza-hinge-bottom.stl
G0 F6000 X41.59 Y126.347 Z0.56
;TYPE:WALL-OUTER
G1 F300 Z0.24
G1 F2100 E32.24469
G1 F1295.5 X41.585 Y126.439 E32.2539
G1 F1301.2 X41.586 Y126.911 E32.30085
G1 F2100 E27.30085
G1 F300 Z0.56
G0 F6000 X42.78 Y130.005 Z0.56
;TYPE:WALL-INNER
G1 F300 Z0.24
G1 F2100 E32.30085
G1 F1800 X42.779 Y136.868 E32.79982
G1 X43.063 Y137.079 E32.82554
G1 X43.336 Y137.332 E32.8526
G1 X43.571 Y137.602 E32.87863
G1 X43.801 Y137.936 E32.90811
G1 X43.924 Y138.16 E32.92669
G1 X44.085 Y138.544 E32.95696
G1 X44.186 Y138.89 E32.98317
G1 X44.228 Y139.125 E33.00052
G1 X44.779 Y139.212 E33.04108
G1 X45.064 Y139.292 E33.0626
G1 X45.46 Y139.456 E33.09376
G1 X45.755 Y139.615 E33.11813
G1 X46.077 Y139.834 E33.14644
G1 X46.334 Y140.051 E33.17089
G1 X46.605 Y140.331 E33.19923
G1 X46.809 Y140.588 E33.22308
G1 X47.018 Y140.914 E33.25124
G1 X47.173 Y141.223 E33.27637
G1 X47.31 Y141.587 E33.30465
G1 X47.397 Y141.916 E33.32939
G1 X47.456 Y142.304 E33.35792
G1 X47.477 Y142.558 E33.37645
G1 X47.453 Y143.034 E33.4111
G1 X47.399 Y143.377 E33.43635
G1 X47.299 Y143.754 E33.4647
G1 X47.181 Y144.064 E33.48882
G1 X47.008 Y144.408 E33.51681
G1 X46.829 Y144.691 E33.54116
G1 X46.585 Y145.001 E33.56984
G1 X46.343 Y145.25 E33.59509
G1 X46.047 Y145.495 E33.62302
G1 X45.772 Y145.681 E33.64716
G1 X45.425 Y145.867 E33.67578
G1 X45.124 Y145.992 E33.69948
G1 X44.764 Y146.101 E33.72683
G1 X44.416 Y146.167 E33.75258
G1 X44.014 Y146.198 E33.78189
G1 X43.671 Y146.19 E33.80684
G1 X43.284 Y146.141 E33.8352
G1 X42.956 Y146.063 E33.85971
G1 X42.592 Y145.937 E33.88771
G1 X42.293 Y145.799 E33.91166
G1 X41.954 Y145.599 E33.94027
G1 X41.673 Y145.39 E33.96573
G1 X41.385 Y145.124 E33.99424
G1 X41.161 Y144.869 E34.01891
G1 X40.935 Y144.552 E34.04722
G1 X40.796 Y144.319 E34.06694
G1 X40.613 Y143.91 E34.09952
G1 X40.517 Y143.63 E34.12104
G1 X40.417 Y143.161 E34.15591
G1 X40.398 Y142.952 E34.17116
G1 X40.123 Y142.903 E34.19147
G1 X39.861 Y142.827 E34.21131
G1 X39.491 Y142.675 E34.24039
G1 X39.269 Y142.562 E34.2585
G1 X38.917 Y142.323 E34.28943
G1 X38.62 Y142.074 E34.31761
G1 X38.366 Y141.805 E34.34451
G1 X38.143 Y141.505 E34.37169
G1 X33.256 Y141.504 E34.72699
G1 X32.327 Y141.505 E34.79453
G1 X31.276 Y141.505 E34.87094
G1 X31.363 Y141.776 E34.89164
G1 X31.432 Y142.107 E34.91622
G1 X31.47 Y142.457 E34.94181
G1 X31.472 Y142.78 E34.9653
G1 X31.437 Y143.167 E34.99355
G1 X31.375 Y143.488 E35.01732
G1 X31.263 Y143.865 E35.04591
G1 X31.165 Y144.118 E35.06564
G1 X30.912 Y144.57 E35.1033
G1 X30.715 Y144.846 E35.12795
G1 X30.46 Y145.135 E35.15597
G1 X30.224 Y145.355 E35.17943
G1 X29.92 Y145.587 E35.20723
G1 X29.63 Y145.764 E35.23193
G1 X29.286 Y145.929 E35.25967
G1 X28.977 Y146.041 E35.28357
G1 X28.6 Y146.136 E35.31183
G1 X28.262 Y146.184 E35.33666
G1 X27.817 Y146.2 E35.36903
G1 X27.548 Y146.179 E35.38865
G1 X27.166 Y146.116 E35.41679
G1 X26.851 Y146.032 E35.4405
G1 X26.493 Y145.896 E35.46834
G1 X26.184 Y145.741 E35.49347
G1 X25.86 Y145.533 E35.52147
G1 X25.606 Y145.332 E35.54501
G1 X25.33 Y145.067 E35.57283
G1 X25.111 Y144.807 E35.59755
G1 X24.896 Y144.491 E35.62534
G1 X24.738 Y144.2 E35.64941
G1 X24.59 Y143.843 E35.67751
G1 X24.493 Y143.531 E35.70126
G1 X24.419 Y143.157 E35.72898
G1 X24.387 Y142.814 E35.75403
G1 X24.391 Y142.427 E35.78216
G1 X24.427 Y142.096 E35.80637
G1 X24.507 Y141.725 E35.83396
G1 X24.578 Y141.505 E35.85077
G1 X22.402 Y141.504 E36.00898
G1 X22.339 Y141.983 E36.0441
G1 X22.24 Y142.26 E36.06549
G1 X22.125 Y142.513 E36.08569
G1 X21.907 Y142.814 E36.11271
G1 X21.663 Y143.032 E36.1365
G1 X21.632 Y143.055 E36.13931
G1 X20.978 Y143.327 E36.19081
G1 X20.78 Y143.363 E36.20544
G1 X20.779 Y148.588 E36.58532
G1 X20.802 Y148.923 E36.60973
G1 X20.856 Y149.202 E36.63039
G1 X20.944 Y149.466 E36.65062
G1 X21.07 Y149.722 E36.67137
G1 X21.225 Y149.957 E36.69183
G1 X21.405 Y150.163 E36.71172
G1 X21.615 Y150.348 E36.73207
G1 X21.854 Y150.508 E36.75298
G1 X22.102 Y150.633 E36.77317
G1 X22.364 Y150.723 E36.79331
G1 X22.641 Y150.779 E36.81386
G1 X22.984 Y150.803 E36.83886
G1 X28.353 Y150.803 E37.2292
G1 X28.885 Y150.804 E37.26788
G1 X29.178 Y150.802 E37.28919
G1 X33.403 Y150.803 E37.59636
G1 X49.861 Y150.804 E38.79292
G1 X50.211 Y150.78 E38.81843
G1 X50.487 Y150.725 E38.83889
G1 X50.748 Y150.637 E38.85892
G1 X50.998 Y150.513 E38.8792
G1 X51.236 Y150.354 E38.90001
G1 X51.444 Y150.172 E38.92011
G1 X51.622 Y149.968 E38.93979
G1 X51.784 Y149.725 E38.96103
G1 X51.943 Y149.387 E38.98818
G1 X52.032 Y149.058 E39.01296
G1 X52.065 Y148.802 E39.03173
G1 X52.074 Y148.518 E39.05239
G1 X52.078 Y121.793 E40.9954
G1 X52.058 Y121.407 E41.0235
G1 X51.987 Y121.057 E41.04947
G1 X51.897 Y120.801 E41.0692
G1 X51.73 Y120.5 E41.09422
G1 X51.541 Y120.248 E41.11712
G1 X51.343 Y120.049 E41.13753
G1 X51.134 Y119.888 E41.15671
G1 X50.878 Y119.737 E41.17832
G1 X50.633 Y119.635 E41.19762
G1 X50.357 Y119.559 E41.21843
G1 X50.069 Y119.519 E41.23957
G1 X49.797 Y119.505 E41.25937
G1 X49.05 Y119.506 E41.31368
G1 X43.007 Y119.505 E41.75303
G1 X42.808 Y119.582 E41.76855
G1 X42.78 Y119.742 E41.78036
G1 X42.779 Y123.306 E42.03947
G1 X43.264 Y123.17 E42.07609
G1 X43.624 Y123.121 E42.10251
G1 X43.946 Y123.109 E42.12594
G1 X44.33 Y123.132 E42.1539
G1 X44.654 Y123.184 E42.17776
G1 X45.024 Y123.282 E42.20559
G1 X45.324 Y123.394 E42.22887
G1 X45.634 Y123.545 E42.25394
G1 X45.906 Y123.712 E42.27715
G1 X46.21 Y123.941 E42.30482
G1 X46.448 Y124.161 E42.32838
G1 X46.734 Y124.484 E42.35975
G1 X46.903 Y124.726 E42.38121
G1 X47.095 Y125.061 E42.40928
G1 X47.235 Y125.377 E42.43441
G1 X47.363 Y125.776 E42.46487
G1 X47.433 Y126.107 E42.48947
G1 X47.469 Y126.457 E42.51505
G1 X47.472 Y126.78 E42.53854
G1 X47.437 Y127.167 E42.56679
G1 X47.376 Y127.489 E42.59061
G1 X47.263 Y127.865 E42.61916
G1 X47.116 Y128.211 E42.64649
G1 X46.912 Y128.57 E42.67651
G1 X46.715 Y128.846 E42.70116
G1 X46.46 Y129.135 E42.72919
G1 X46.223 Y129.355 E42.7527
G1 X45.92 Y129.587 E42.78044
G1 X45.63 Y129.764 E42.80514
G1 X45.286 Y129.929 E42.83288
G1 X44.977 Y130.041 E42.85678
G1 X44.6 Y130.135 E42.88502
G1 X44.262 Y130.184 E42.90986
G1 X44.123 Y130.19 E42.91997
G0 F1620 X43.883 Y130.199
G0 X43.549 Y130.179
G0 X43.166 Y130.116
G0 X42.851 Y130.032
G0 X42.78 Y130.005
G1 F2100 E37.91997
G1 F300 Z0.56
G0 F6000 X42.464 Y140.972 Z0.56
;TYPE:WALL-OUTER
G1 F300 Z0.24
G1 F2100 E42.91997
G1 F1773.1 X42.207 Y141.23 E42.94656
G1 F2100 E37.94656
G1 F300 Z0.56
G0 F6000 X28.352 Y140.325 Z0.56
G1 F300 Z0.24
G1 F2100 E42.94656
G1 F1273.3 X28.259 Y140.317 E42.95604
