;FLAVOR:Marlin
;TIME:3971
;Filament used: 6.33295m
;Layer height: 0.32
;MINX:23.1
;MINY:115.291
;MINZ:0.24
;MAXX:128.9
;MAXY:170.709
;MAXZ:16.4
;Generated with Cura_SteamEngine 5.0.0
M140 S80
M105
M190 S80
M104 S250
M105
M109 S250
M82 ;absolute extrusion mode
; Ender 3 Max Custom Start G-code
G92 E0 ; Reset Extruder
G28 ; Home all axes
G1 Z2.0 F3000 ; Move Z Axis up little to prevent scratching of Heat Bed
G1 X0.1 Y20 Z0.3 F5000.0 ; Move to start position
G1 X0.1 Y200.0 Z0.3 F1500.0 E15 ; Draw the first line
G1 X0.4 Y200.0 Z0.3 F5000.0 ; Move to side a little
G1 X0.4 Y20 Z0.3 F1500.0 E30 ; Draw the second line
G92 E0 ; Reset Extruder
G1 Z2.0 F3000 ; Move Z Axis up little to prevent scratching of Heat Bed
G1 X5 Y20 Z0.3 F5000.0 ; Move over to prevent blob squish
G92 E0
G92 E0
G1 F1800 E-6
;LAYER_COUNT:50
;LAYER:0
M107
G1 F300 Z0.72
G0 F6000 X32.808 Y116.179 Z0.72
G1 F300 Z0.72
G0 F6000 X24.488 Y123.514
;TYPE:SKIRT
G1 F300 Z0.24
G1 F1800 E0
G1 X24.712 Y123.064 E0.03641
G1 X25.153 Y122.269 E0.10227
G1 X25.404 Y121.879 E0.13587
G1 X25.68 Y121.471 E0.17155
G1 X26.507 Y120.405 E0.26929
G1 X26.828 Y120.043 E0.30434
G1 X27.746 Y119.13 E0.39813
G1 X28.128 Y118.795 E0.43493
G1 X29.202 Y117.971 E0.53299
G1 X29.5 Y117.772 E0.55895
G1 X30.493 Y117.187 E0.64244
G1 X31.052 Y116.898 E0.68802
G1 X31.877 Y116.516 E0.75388
G1 X32.462 Y116.297 E0.79913
G1 X32.808 Y116.179 E0.82562
G1 X33.923 Y115.867 E0.90949
G1 X34.546 Y115.73 E0.9557
G1 X35.442 Y115.574 E1.02158
G1 X36.08 Y115.512 E1.06802
G1 X36.9 Y115.47 E1.1275
G1 X38.106 Y115.45 E1.21487
G1 X63.662 Y115.451 E3.06616
G1 X64.453 Y115.468 E3.12348
G1 X65.554 Y115.527 E3.20335
G1 X66.148 Y115.577 E3.24653
G1 X68.015 Y115.756 E3.3824
G1 X70.519 Y115.925 E3.5642
G1 X73.075 Y116.026 E3.7495
G1 X75.6 Y116.052 E3.93242
G1 X78.129 Y116.009 E4.11565
G1 X80.653 Y115.893 E4.29869
G1 X83.178 Y115.706 E4.4821
G1 X85.658 Y115.448 E4.66272
G1 X86.77 Y115.351 E4.74358
G1 X87.464 Y115.314 E4.79393
G1 X88.73 Y115.291 E4.88565
G1 X114.201 Y115.293 E6.73079
G1 X115.036 Y115.311 E6.79129
G1 X115.785 Y115.348 E6.84561
G1 X116.69 Y115.432 E6.91145
G1 X117.36 Y115.548 E6.96071
G1 X117.85 Y115.649 E6.99695
G1 X119.065 Y115.977 E7.08812
G1 X119.504 Y116.125 E7.12168
G1 X120.352 Y116.453 E7.18754
G1 X120.768 Y116.647 E7.22079
G1 X121.235 Y116.877 E7.2585
G1 X122.032 Y117.314 E7.32435
G1 X122.429 Y117.568 E7.35849
G1 X122.846 Y117.848 E7.39488
G1 X123.578 Y118.387 E7.46073
G1 X123.928 Y118.683 E7.49393
G1 X124.289 Y119.002 E7.52883
G1 X125.221 Y119.938 E7.62452
G1 X125.559 Y120.324 E7.66168
G1 X126.127 Y121.033 E7.72749
G1 X126.659 Y121.817 E7.79613
G1 X127.319 Y122.965 E7.89205
G1 X127.54 Y123.414 E7.9283
G1 X128.054 Y124.657 E8.02574
G1 X128.206 Y125.105 E8.06001
G1 X128.466 Y126 E8.12753
G1 X128.645 Y126.824 E8.18861
G1 X128.701 Y127.14 E8.21186
G1 X128.834 Y128.22 E8.29069
G1 X128.857 Y128.548 E8.3145
G1 X128.88 Y129.09 E8.3538
G1 X128.9 Y130.297 E8.44125
G1 X128.899 Y135.823 E8.84156
G1 X128.89 Y136.478 E8.88901
G1 X128.864 Y137.083 E8.93288
G1 X128.836 Y137.469 E8.96091
G1 X128.73 Y138.372 E9.02678
G1 X128.538 Y139.295 E9.09507
G1 X128.466 Y139.575 E9.11601
G1 X128.201 Y140.444 E9.18183
G1 X127.887 Y141.228 E9.243
G1 X127.757 Y141.518 E9.26603
G1 X127.349 Y142.33 E9.33186
G1 X126.86 Y143.119 E9.3991
G1 X126.681 Y143.381 E9.42209
G1 X126.136 Y144.108 E9.4879
G1 X125.516 Y144.798 E9.5551
G1 X125.275 Y145.043 E9.58
G1 X124.61 Y145.662 E9.64581
G1 X124.076 Y146.088 E9.6953
G1 X122.489 Y147.268 E9.83856
G1 X120.502 Y148.83 E10.02165
G1 X118.536 Y150.468 E10.20702
G1 X116.648 Y152.133 E10.38937
G1 X114.779 Y153.876 E10.5745
G1 X112.995 Y155.641 E10.7563
G1 X111.235 Y157.481 E10.94074
G1 X109.539 Y159.357 E11.12395
G1 X107.873 Y161.311 E11.30996
G1 X106.312 Y163.247 E11.49011
G1 X104.773 Y165.289 E11.67535
G1 X104.353 Y165.836 E11.7253
G1 X103.583 Y166.729 E11.81072
G1 X103.373 Y166.946 E11.8326
G1 X102.713 Y167.57 E11.89839
G1 X101.971 Y168.156 E11.96688
G1 X101.681 Y168.364 E11.99274
G1 X100.919 Y168.861 E12.05864
G1 X100.05 Y169.321 E12.12987
G1 X99.771 Y169.452 E12.1522
G1 X98.933 Y169.801 E12.21795
G1 X98.087 Y170.07 E12.28226
G1 X97.796 Y170.149 E12.30411
G1 X96.91 Y170.348 E12.36989
G1 X96.148 Y170.456 E12.42564
G1 X95.915 Y170.48 E12.44261
G1 X95.06 Y170.532 E12.50466
G1 X93.983 Y170.551 E12.58269
G1 X88.097 Y170.546 E13.00907
G1 X87.602 Y170.534 E13.04494
G1 X86.358 Y170.466 E13.13519
G1 X85.612 Y170.403 E13.18943
G1 X84.176 Y170.262 E13.29395
G1 X81.646 Y170.085 E13.47767
G1 X79.131 Y169.982 E13.66001
G1 X76.602 Y169.949 E13.84323
G1 X74.035 Y169.989 E14.02921
G1 X71.512 Y170.099 E14.21215
G1 X69.027 Y170.278 E14.39263
G1 X66.857 Y170.506 E14.55069
G1 X65.563 Y170.632 E14.64487
G1 X64.938 Y170.676 E14.69026
G1 X63.465 Y170.708 E14.79699
G1 X57.789 Y170.709 E15.20816
G1 X57.167 Y170.7 E15.25323
G1 X56.546 Y170.672 E15.29826
G1 X56.158 Y170.643 E15.32644
G1 X55.256 Y170.536 E15.39224
G1 X54.343 Y170.343 E15.45984
G1 X54.049 Y170.267 E15.48184
G1 X53.18 Y170.001 E15.54768
G1 X52.359 Y169.67 E15.6118
G1 X52.084 Y169.545 E15.63368
G1 X51.274 Y169.133 E15.69951
G1 X50.537 Y168.674 E15.76241
G1 X50.282 Y168.5 E15.78477
G1 X49.554 Y167.955 E15.85065
G1 X48.858 Y167.329 E15.91846
G1 X48.603 Y167.078 E15.94438
G1 X47.984 Y166.412 E16.01025
G1 X47.643 Y165.991 E16.0495
G1 X47.283 Y165.518 E16.09255
G1 X46.437 Y164.375 E16.19557
G1 X44.864 Y162.37 E16.38018
G1 X43.254 Y160.432 E16.56269
G1 X41.577 Y158.526 E16.7466
G1 X39.849 Y156.671 E16.93025
G1 X38.043 Y154.84 E17.11655
G1 X36.252 Y153.122 E17.29633
G1 X34.337 Y151.388 E17.48347
G1 X32.433 Y149.76 E17.66495
G1 X30.475 Y148.178 E17.8473
G1 X28.45 Y146.651 E18.03102
G1 X27.824 Y146.17 E18.08821
G1 X26.918 Y145.387 E18.17495
G1 X26.669 Y145.145 E18.20011
G1 X26.046 Y144.483 E18.26596
G1 X25.465 Y143.744 E18.33406
G1 X25.287 Y143.495 E18.35623
G1 X24.792 Y142.733 E18.42205
G1 X24.371 Y141.944 E18.48684
G1 X24.229 Y141.647 E18.51068
G1 X23.874 Y140.81 E18.57654
G1 X23.572 Y139.868 E18.6482
G1 X23.495 Y139.581 E18.66973
G1 X23.298 Y138.693 E18.73562
G1 X23.197 Y137.972 E18.78836
G1 X23.168 Y137.693 E18.80868
G1 X23.114 Y136.778 E18.87508
G1 X23.1 Y135.744 E18.94999
G1 X23.102 Y130.14 E19.35595
G1 X23.12 Y129.322 E19.41522
G1 X23.158 Y128.557 E19.4707
G1 X23.243 Y127.652 E19.53655
G1 X23.359 Y126.979 E19.58602
G1 X23.459 Y126.495 E19.62182
G1 X23.807 Y125.225 E19.71721
G1 X23.914 Y124.916 E19.7409
G0 F1620 X23.968 Y124.757
G0 X24.488 Y123.514
G1 F1800 E13.7409
G1 F300 Z0.72
;MESH:aza-hinge-top-m5-90deg.stl
G0 F6000 X41.656 Y137.893 Z0.72
;TYPE:WALL-OUTER
G1 F300 Z0.24
G1 F1800 E19.7409
G1 F1263.8 X42.118 Y137.928 E19.78631
G1 F1296.9 X42.579 Y137.917 E19.83036
G1 F1800 E13.83036
G0 F6000 X43.54 Y137.75
G0 X57.36 Y132.596
G0 X57.989 Y132.48
G0 X58.613 Y132.495
G0 X59.23 Y132.64
G0 X59.797 Y132.896
G0 X60.297 Y133.259
G0 X60.734 Y133.741
G0 X61.048 Y134.269
G0 X61.253 Y134.855
G0 X61.338 Y135.494
G0 X61.305 Y136.037
G0 X56.061 Y150.259
G1 F1800 E19.83036
G0 F6000 X55.892 Y151.274
G1 F1295.5 X55.887 Y151.365 E19.83907
G1 F1299.8 X55.889 Y151.847 E19.88501
G0 F6000 X56.064 Y152.9
G0 X57.08 Y154.929
;TYPE:WALL-INNER
G1 F1800 X57.081 Y158.481 E20.12945
G1 X57.157 Y158.702 E20.14554
G1 X57.351 Y158.73 E20.15902
G1 X62.022 Y158.729 E20.48048
G1 X64.143 Y158.73 E20.62644
G1 X64.508 Y158.706 E20.65161
G1 X64.776 Y158.653 E20.67041
G1 X65.054 Y158.559 E20.69061
G1 X65.301 Y158.438 E20.70954
G1 X65.527 Y158.288 E20.7282
G1 X65.742 Y158.102 E20.74777
G1 X65.946 Y157.866 E20.76924
G1 X66.094 Y157.64 E20.78783
G1 X66.217 Y157.39 E20.807
G1 X66.298 Y157.152 E20.8243
G1 X66.359 Y156.838 E20.84632
G1 X66.377 Y156.588 E20.86357
G1 X66.379 Y129.72 E22.71258
G1 X66.367 Y129.445 E22.73153
G1 X66.33 Y129.167 E22.75083
G1 X66.262 Y128.905 E22.76945
G1 X66.155 Y128.643 E22.78893
G1 X66.019 Y128.404 E22.80785
G1 X65.848 Y128.178 E22.82736
G1 X65.651 Y127.979 E22.84663
G1 X65.437 Y127.814 E22.86522
G1 X65.181 Y127.662 E22.88571
G1 X64.936 Y127.56 E22.90398
G1 X64.655 Y127.482 E22.92405
G1 X64.377 Y127.445 E22.94335
G1 X64.09 Y127.431 E22.96312
G1 X37.297 Y127.43 E24.80698
G1 X36.961 Y127.452 E24.83015
G1 X36.684 Y127.507 E24.84958
G1 X36.414 Y127.597 E24.86917
G1 X36.158 Y127.722 E24.88877
G1 X35.934 Y127.87 E24.90725
G1 X35.719 Y128.059 E24.92695
G1 X35.539 Y128.264 E24.94573
G1 X35.374 Y128.509 E24.96605
G1 X35.251 Y128.756 E24.98504
G1 X35.161 Y129.017 E25.00404
G1 X35.105 Y129.292 E25.02336
G1 X35.081 Y129.635 E25.04702
G1 X35.082 Y136.519 E25.52076
G1 X35.164 Y136.705 E25.53475
G1 X35.317 Y136.73 E25.54542
G1 X38.878 Y136.729 E25.79049
G1 X38.793 Y136.453 E25.81036
G1 X38.719 Y136.079 E25.8366
G1 X38.689 Y135.741 E25.85995
G1 X38.693 Y135.353 E25.88665
G1 X38.728 Y135.027 E25.90922
G1 X38.807 Y134.655 E25.93539
G1 X38.911 Y134.333 E25.95867
G1 X39.065 Y133.983 E25.98499
G1 X39.226 Y133.697 E26.00758
G1 X39.45 Y133.379 E26.03434
G1 X39.67 Y133.127 E26.05736
G1 X39.948 Y132.865 E26.08365
G1 X40.221 Y132.658 E26.10723
G1 X40.547 Y132.46 E26.13348
G1 X40.838 Y132.32 E26.1557
G1 X41.222 Y132.18 E26.18383
G1 X41.502 Y132.105 E26.20378
G1 X41.929 Y132.047 E26.23344
G1 X42.228 Y132.034 E26.25403
G1 X42.58 Y132.051 E26.27828
G1 X42.894 Y132.097 E26.30012
G1 X43.26 Y132.187 E26.32606
G1 X43.573 Y132.298 E26.34892
G1 X43.919 Y132.462 E26.37527
G1 X44.207 Y132.637 E26.39846
G1 X44.51 Y132.866 E26.4246
G1 X44.748 Y133.086 E26.4469
G1 X45.006 Y133.375 E26.47356
G1 X45.204 Y133.651 E26.49694
G1 X45.396 Y133.986 E26.52351
G1 X45.536 Y134.303 E26.54736
G1 X45.664 Y134.701 E26.57613
G1 X45.734 Y135.033 E26.59948
G1 X45.77 Y135.376 E26.62321
G1 X45.773 Y135.691 E26.64489
G1 X45.739 Y136.085 E26.67211
G1 X45.677 Y136.413 E26.69508
G1 X45.583 Y136.729 E26.71777
G1 X52.444 Y136.729 E27.18993
G1 X52.655 Y136.445 E27.21428
G1 X52.908 Y136.172 E27.2399
G1 X53.178 Y135.937 E27.26453
G1 X53.513 Y135.706 E27.29253
G1 X53.787 Y135.562 E27.31383
G1 X54.127 Y135.422 E27.33914
G1 X54.358 Y135.345 E27.3559
G1 X54.698 Y135.282 E27.37969
G1 X54.748 Y134.911 E27.40545
G1 X54.799 Y134.674 E27.42214
G1 X54.892 Y134.401 E27.44199
G1 X54.985 Y134.144 E27.46079
G1 X55.1 Y133.915 E27.47843
G1 X55.299 Y133.585 E27.50495
G1 X55.506 Y133.312 E27.52853
G1 X55.767 Y133.031 E27.55492
G1 X56.005 Y132.821 E27.57676
G1 X56.311 Y132.599 E27.60278
G1 X56.606 Y132.428 E27.62624
G1 X56.961 Y132.27 E27.65299
G1 X57.274 Y132.165 E27.67571
G1 X57.644 Y132.082 E27.7018
G1 X58.002 Y132.043 E27.72658
G1 X58.436 Y132.042 E27.75645
G1 X58.784 Y132.078 E27.78053
G1 X59.155 Y132.158 E27.80665
G1 X59.464 Y132.257 E27.82898
G1 X59.817 Y132.41 E27.85545
G1 X60.112 Y132.576 E27.87875
G1 X60.428 Y132.799 E27.90536
G1 X60.679 Y133.017 E27.92824
G1 X60.943 Y133.299 E27.95483
G1 X61.148 Y133.567 E27.97805
G1 X61.345 Y133.889 E28.00403
G1 X61.487 Y134.183 E28.02649
G1 X61.628 Y134.568 E28.05471
G1 X61.713 Y134.911 E28.07903
G1 X61.763 Y135.268 E28.10384
G1 X61.775 Y135.584 E28.1256
G1 X61.754 Y135.967 E28.152
G1 X61.7 Y136.305 E28.17555
G1 X61.6 Y136.678 E28.20213
G1 X61.486 Y136.981 E28.22441
G1 X61.316 Y137.326 E28.25088
G1 X61.133 Y137.615 E28.27442
G1 X60.896 Y137.916 E28.30078
G1 X60.666 Y138.155 E28.32361
G1 X60.373 Y138.403 E28.35002
G1 X60.1 Y138.59 E28.3728
G1 X59.702 Y138.807 E28.40399
G1 X59.46 Y138.904 E28.42194
G1 X59.091 Y139.019 E28.44853
G1 X58.774 Y139.084 E28.4708
G1 X58.527 Y139.11 E28.4879
G1 X58.486 Y139.349 E28.50458
G1 X58.396 Y139.66 E28.52686
G1 X58.25 Y140.014 E28.55322
G1 X58.132 Y140.247 E28.57119
G1 X57.884 Y140.617 E28.60184
G1 X57.644 Y140.896 E28.62717
G1 X57.377 Y141.146 E28.65234
G1 X57.081 Y141.366 E28.67772
G1 X57.08 Y144.359 E28.8837
G1 X57.081 Y146.831 E29.05382
G1 X57.08 Y148.232 E29.15023
G1 X57.57 Y148.095 E29.18525
G1 X57.93 Y148.047 E29.21024
G1 X58.228 Y148.034 E29.23077
G1 X58.58 Y148.051 E29.25502
G1 X58.895 Y148.097 E29.27693
G1 X59.261 Y148.187 E29.30287
G1 X59.573 Y148.298 E29.32566
G1 X59.919 Y148.462 E29.35201
G1 X60.207 Y148.637 E29.3752
G1 X60.51 Y148.866 E29.40134
G1 X60.749 Y149.086 E29.42369
G1 X61.006 Y149.375 E29.45031
G1 X61.204 Y149.651 E29.47368
G1 X61.396 Y149.986 E29.50025
G1 X61.536 Y150.302 E29.52404
G1 X61.664 Y150.701 E29.55288
G1 X61.734 Y151.033 E29.57623
G1 X61.77 Y151.376 E29.59996
G1 X61.772 Y151.691 E29.62164
G1 X61.738 Y152.085 E29.64885
G1 X61.676 Y152.414 E29.67189
G1 X61.565 Y152.791 E29.69894
G1 X61.418 Y153.134 E29.72462
G1 X61.214 Y153.494 E29.7531
G1 X61.038 Y153.746 E29.77425
G1 X60.76 Y154.062 E29.80321
G1 X60.522 Y154.283 E29.82557
G1 X60.22 Y154.513 E29.85169
G1 X59.938 Y154.687 E29.87449
G1 X59.592 Y154.854 E29.90093
G1 X59.272 Y154.969 E29.92433
G1 X58.897 Y155.062 E29.95092
G1 X58.573 Y155.108 E29.97344
G0 F1620 X58.565 Y155.109
G0 X58.183 Y155.124
G0 X57.85 Y155.104
G0 X57.467 Y155.041
G0 X57.154 Y154.957
G0 X57.08 Y154.929
G1 F1800 E23.97344
G0 F6000 X59.294 Y154.223
G0 X59.798 Y153.957
G0 X60.24 Y153.599
G0 X60.606 Y153.151
G0 X60.874 Y152.642
G0 X61.035 Y152.077
G0 X61.077 Y151.501
G0 X61.07 Y135.357
G0 X60.963 Y134.78
G0 X60.749 Y134.252
G0 X60.435 Y133.775
G0 X60.02 Y133.366
G0 X59.535 Y133.048
G0 X59.013 Y132.842
G0 X58.437 Y132.739
G0 X57.862 Y132.753
G0 X57.545 Y132.828
G0 X44.473 Y137.37
G1 F1800 E29.97344
G0 F6000 X44.473 Y137.39
G1 F1800 X52.813 Y137.388 E30.54739
G1 X53.011 Y137.065 E30.57346
G1 X53.392 Y136.62 E30.61378
G1 X53.607 Y136.443 E30.63294
G1 X53.895 Y136.245 E30.65699
G1 X54.216 Y136.099 E30.68126
G1 X54.517 Y135.986 E30.70339
G1 X54.824 Y135.93 E30.72486
G1 X55.07 Y135.894 E30.74197
G1 X55.366 Y135.903 E30.76235
G1 X55.344 Y135.587 E30.78415
G1 X55.383 Y135.141 E30.81496
G1 X55.433 Y134.858 E30.83474
G1 X55.514 Y134.622 E30.85191
G1 X55.597 Y134.394 E30.86861
G1 X55.865 Y133.926 E30.90572
G1 X56.25 Y133.481 E30.94622
G1 X56.699 Y133.133 E30.98531
G1 X57.231 Y132.872 E31.02609
G1 X57.789 Y132.726 E31.06579
G1 X58.433 Y132.702 E31.11014
G1 X59.016 Y132.804 E31.15087
G1 X59.554 Y133.016 E31.19066
G1 X60.047 Y133.339 E31.23122
G1 X60.462 Y133.751 E31.27147
G1 X60.782 Y134.234 E31.31134
G1 X61.008 Y134.795 E31.35296
G1 X61.109 Y135.358 E31.39232
G1 X61.095 Y135.931 E31.43177
G1 X60.963 Y136.507 E31.47244
G1 X60.724 Y137.033 E31.5122
G1 X60.377 Y137.508 E31.55268
G1 X59.946 Y137.899 E31.59273
G1 X59.444 Y138.197 E31.6329
G1 X58.919 Y138.381 E31.67119
G1 X58.677 Y138.43 E31.68818
G1 X58.327 Y138.466 E31.71239
G1 X57.907 Y138.442 E31.74134
G1 X57.916 Y138.697 E31.7589
G1 X57.84 Y139.214 E31.79486
G1 X57.644 Y139.754 E31.8344
G1 X57.338 Y140.246 E31.87427
G1 X56.926 Y140.663 E31.91461
G1 X56.432 Y140.98 E31.95501
G1 X56.421 Y141.369 E31.98179
G1 X56.42 Y144.359 E32.18756
G1 X56.421 Y146.831 E32.35768
G1 X56.421 Y149.331 E32.52972
G1 X56.889 Y149.024 E32.56824
G1 X57.448 Y148.8 E32.60968
G1 X58.017 Y148.701 E32.64943
G1 X58.548 Y148.71 E32.68598
G1 X59.103 Y148.828 E32.72503
G1 X59.455 Y148.973 E32.75122
G1 X59.809 Y149.164 E32.77891
G1 X60.112 Y149.393 E32.80504
G1 X60.512 Y149.814 E32.84501
G1 X60.824 Y150.314 E32.88557
G1 X61.035 Y150.903 E32.92862
G1 X61.113 Y151.445 E32.96631
G1 X61.081 Y152.029 E33.00656
G1 X60.932 Y152.603 E33.04737
G1 X60.64 Y153.169 E33.0912
G1 X60.265 Y153.626 E33.13188
G1 X59.82 Y153.988 E33.17136
G1 X59.305 Y154.259 E33.21141
G1 X58.738 Y154.421 E33.25199
G1 X58.157 Y154.465 E33.29209
G1 X57.574 Y154.39 E33.33254
G1 X57.027 Y154.204 E33.3723
G1 X56.52 Y153.905 E33.41281
G1 X56.42 Y153.826 E33.42158
G1 X56.422 Y154.34 E33.45695
G1 X56.42 Y155.008 E33.50292
G1 X56.42 Y158.497 E33.74303
G1 X56.456 Y158.787 E33.76314
G1 X56.566 Y159.028 E33.78137
G1 X56.778 Y159.243 E33.80215
G1 X57.022 Y159.355 E33.82062
G1 X57.278 Y159.39 E33.83841
G1 X62.022 Y159.389 E34.16488
G1 X64.164 Y159.39 E34.31229
G1 X64.594 Y159.362 E34.34195
G1 X64.946 Y159.292 E34.36664
G1 X65.306 Y159.171 E34.39278
G1 X65.631 Y159.012 E34.41768
G1 X65.927 Y158.814 E34.44219
G1 X66.209 Y158.571 E34.46781
G1 X66.474 Y158.265 E34.49566
G1 X66.669 Y157.968 E34.52011
G1 X66.828 Y157.644 E34.54495
G1 X66.937 Y157.323 E34.56828
G1 X67.015 Y156.924 E34.59626
G1 X67.037 Y156.61 E34.61792
G1 X67.039 Y129.72 E36.46845
G1 X67.026 Y129.402 E36.49035
