;FLAVOR:Marlin
;TIME:3986
;Filament used: 6.27545m
;Layer height: 0.32
;MINX:21.709
;MINY:102.37
;MINZ:0.24
;MAXX:128.411
;MAXY:157.63
;MAXZ:16.4
;Generated with Cura_SteamEngine 5.0.0
M140 S80
M105
M190 S80
M104 S250
M105
M109 S250
M82 ;absolute extrusion mode
; Ender 3 Max Custom Start G-code
G92 E0 ; Reset Extruder
G28 ; Home all axes
G1 Z2.0 F3000 ; Move Z Axis up little to prevent scratching of Heat Bed
G1 X0.1 Y20 Z0.3 F5000.0 ; Move to start position
G1 X0.1 Y200.0 Z0.3 F1500.0 E15 ; Draw the first line
G1 X0.4 Y200.0 Z0.3 F5000.0 ; Move to side a little
G1 X0.4 Y20 Z0.3 F1500.0 E30 ; Draw the second line
G92 E0 ; Reset Extruder
G1 Z2.0 F3000 ; Move Z Axis up little to prevent scratching of Heat Bed
G1 X5 Y20 Z0.3 F5000.0 ; Move over to prevent blob squish
G92 E0
G92 E0
G1 F1800 E-6
;LAYER_COUNT:50
;LAYER:0
M107
G1 F300 Z0.72
G0 F6000 X50.544 Y103.606 Z0.72
G1 F300 Z0.72
G0 F6000 X45.708 Y107.798
;TYPE:SKIRT
G1 F300 Z0.24
G1 F1800 E0
G1 X46.249 Y107.094 E0.06432
G1 X47.032 Y106.188 E0.15106
G1 X47.274 Y105.939 E0.17622
G1 X47.936 Y105.316 E0.24207
G1 X48.69 Y104.725 E0.31147
G1 X48.954 Y104.537 E0.33494
G1 X49.717 Y104.042 E0.40083
G1 X50.544 Y103.606 E0.46855
G1 X50.82 Y103.476 E0.49065
G1 X51.659 Y103.125 E0.55654
G1 X52.422 Y102.878 E0.61463
G1 X52.667 Y102.809 E0.63307
G1 X53.551 Y102.601 E0.69886
G1 X54.423 Y102.475 E0.76268
G1 X54.856 Y102.431 E0.79421
G1 X55.757 Y102.379 E0.85959
G1 X56.478 Y102.37 E0.91182
G1 X62.128 Y102.37 E1.32111
G1 X62.766 Y102.378 E1.36733
G1 X63.838 Y102.425 E1.44506
G1 X64.443 Y102.472 E1.48902
G1 X65.375 Y102.573 E1.55693
G1 X67.966 Y102.816 E1.74545
G1 X70.483 Y102.98 E1.92817
G1 X73.017 Y103.074 E2.11186
G1 X75.574 Y103.097 E2.2971
G1 X78.106 Y103.047 E2.48055
G1 X80.628 Y102.926 E2.66346
G1 X83.141 Y102.735 E2.84602
G1 X84.928 Y102.543 E2.97622
G1 X85.927 Y102.447 E3.04892
G1 X86.723 Y102.398 E3.10669
G1 X87.994 Y102.371 E3.19879
G1 X93.722 Y102.371 E3.61373
G1 X94.344 Y102.38 E3.65879
G1 X94.965 Y102.408 E3.70382
G1 X95.353 Y102.437 E3.73201
G1 X96.255 Y102.544 E3.79781
G1 X97.168 Y102.737 E3.86541
G1 X97.462 Y102.813 E3.8874
G1 X98.331 Y103.079 E3.95324
G1 X99.162 Y103.414 E4.01814
G1 X99.445 Y103.543 E4.04067
G1 X100.254 Y103.956 E4.10647
G1 X100.989 Y104.415 E4.16925
G1 X101.226 Y104.577 E4.19004
G1 X101.953 Y105.122 E4.25586
G1 X102.601 Y105.702 E4.31886
G1 X102.862 Y105.956 E4.34524
G1 X103.485 Y106.618 E4.41109
G1 X103.851 Y107.068 E4.45311
G1 X104.227 Y107.56 E4.49797
G1 X105.032 Y108.65 E4.59613
G1 X106.608 Y110.663 E4.78133
G1 X108.193 Y112.574 E4.96118
G1 X109.895 Y114.509 E5.14786
G1 X111.622 Y116.368 E5.33167
G1 X113.382 Y118.155 E5.51337
G1 X115.22 Y119.92 E5.69796
G1 X117.099 Y121.626 E5.88181
G1 X119.047 Y123.294 E6.06759
G1 X120.974 Y124.854 E6.24719
G1 X123.033 Y126.407 E6.43401
G1 X123.696 Y126.916 E6.49456
G1 X124.586 Y127.684 E6.57972
G1 X124.798 Y127.889 E6.60109
G1 X125.423 Y128.549 E6.66693
G1 X126.014 Y129.298 E6.73605
G1 X126.234 Y129.605 E6.76341
G1 X126.73 Y130.366 E6.82921
G1 X127.196 Y131.25 E6.9016
G1 X127.317 Y131.509 E6.92231
G1 X127.665 Y132.348 E6.98811
G1 X127.923 Y133.158 E7.04969
G1 X128.008 Y133.469 E7.07304
G1 X128.208 Y134.355 E7.13884
G1 X128.327 Y135.217 E7.20188
G1 X128.349 Y135.449 E7.21876
G1 X128.393 Y136.246 E7.27658
G1 X128.411 Y137.355 E7.35693
G1 X128.409 Y142.942 E7.76165
G1 X128.392 Y143.739 E7.8194
G1 X128.355 Y144.504 E7.87488
G1 X128.271 Y145.409 E7.94072
G1 X128.154 Y146.09 E7.99078
G1 X128.053 Y146.58 E8.02702
G1 X127.709 Y147.84 E8.12164
G1 X127.556 Y148.287 E8.15586
G1 X127.055 Y149.495 E8.2506
G1 X126.835 Y149.943 E8.28675
G1 X126.399 Y150.741 E8.35263
G1 X126.146 Y151.138 E8.38673
G1 X125.858 Y151.568 E8.42422
G1 X125.319 Y152.301 E8.49013
G1 X125.017 Y152.659 E8.52406
G1 X124.699 Y153.019 E8.55885
G1 X123.767 Y153.948 E8.65418
G1 X123.386 Y154.282 E8.69088
G1 X122.311 Y155.106 E8.789
G1 X121.92 Y155.367 E8.82306
G1 X121.009 Y155.91 E8.89988
G1 X120.404 Y156.217 E8.94903
G1 X120.117 Y156.352 E8.97201
G1 X119.062 Y156.779 E9.05445
G1 X118.711 Y156.899 E9.08133
G1 X117.588 Y157.213 E9.1658
G1 X116.965 Y157.35 E9.212
G1 X116.069 Y157.506 E9.27789
G1 X115.431 Y157.568 E9.32432
G1 X114.611 Y157.61 E9.3838
G1 X113.405 Y157.63 E9.47118
G1 X87.841 Y157.629 E11.32305
G1 X87.006 Y157.61 E11.38355
G1 X86.26 Y157.573 E11.43766
G1 X85.656 Y157.526 E11.48155
G1 X84.766 Y157.429 E11.5464
G1 X82.241 Y157.191 E11.73012
G1 X79.686 Y157.022 E11.91561
G1 X77.161 Y156.928 E12.09865
G1 X74.597 Y156.903 E12.2844
G1 X72.102 Y156.951 E12.46517
G1 X69.519 Y157.072 E12.65249
G1 X67.057 Y157.259 E12.83135
G1 X65.637 Y157.411 E12.93481
G1 X64.17 Y157.554 E13.04158
G1 X63.388 Y157.601 E13.09833
G1 X61.901 Y157.63 E13.20607
G1 X36.408 Y157.628 E15.0528
G1 X35.575 Y157.61 E15.11315
G1 X34.825 Y157.573 E15.16755
G1 X33.92 Y157.489 E15.23339
G1 X33.249 Y157.373 E15.28272
G1 X32.759 Y157.272 E15.31896
G1 X31.544 Y156.944 E15.41013
G1 X31.105 Y156.796 E15.44369
G1 X30.257 Y156.468 E15.50955
G1 X29.817 Y156.262 E15.54475
G1 X29.349 Y156.03 E15.58259
G1 X28.553 Y155.591 E15.64844
G1 X28.165 Y155.342 E15.68183
G1 X27.742 Y155.057 E15.71878
G1 X26.67 Y154.228 E15.81695
G1 X26.315 Y153.914 E15.85128
G1 X25.396 Y152.991 E15.94564
G1 X25.065 Y152.614 E15.98198
G1 X24.496 Y151.906 E16.04778
G1 X24.217 Y151.505 E16.08317
G1 X23.948 Y151.099 E16.11845
G1 X23.291 Y149.955 E16.21401
G1 X23.07 Y149.506 E16.25026
G1 X22.565 Y148.292 E16.34551
G1 X22.441 Y147.93 E16.37323
G1 X22.126 Y146.803 E16.458
G1 X21.993 Y146.199 E16.5028
G1 X21.836 Y145.304 E16.56863
G1 X21.777 Y144.714 E16.61158
G1 X21.753 Y144.378 E16.63598
G1 X21.729 Y143.821 E16.67637
G1 X21.709 Y142.604 E16.76454
G1 X21.71 Y137.04 E17.1676
G1 X21.719 Y136.444 E17.21078
G1 X21.748 Y135.815 E17.25639
G1 X21.78 Y135.395 E17.28691
G1 X21.889 Y134.493 E17.35272
G1 X22.094 Y133.537 E17.42355
G1 X22.166 Y133.265 E17.44393
G1 X22.437 Y132.397 E17.50981
G1 X22.742 Y131.646 E17.56852
G1 X22.872 Y131.359 E17.59135
G1 X23.283 Y130.548 E17.65721
G1 X23.734 Y129.822 E17.71912
G1 X23.888 Y129.595 E17.739
G1 X24.43 Y128.866 E17.8048
G1 X25.068 Y128.154 E17.87406
G1 X25.351 Y127.866 E17.90331
G1 X26.016 Y127.246 E17.96917
G1 X26.454 Y126.893 E18.00992
G1 X27.098 Y126.403 E18.06854
G1 X27.952 Y125.774 E18.14537
G1 X29.967 Y124.198 E18.33068
G1 X31.899 Y122.596 E18.5125
G1 X33.811 Y120.918 E18.69678
G1 X35.68 Y119.182 E18.88156
G1 X37.472 Y117.42 E19.06362
G1 X39.25 Y115.571 E19.24944
G1 X40.917 Y113.735 E19.42908
G1 X42.608 Y111.764 E19.61721
G1 X44.175 Y109.829 E19.79758
G1 X44.796 Y109.007 E19.87221
G0 F1620 X45.708 Y107.798
G1 F1800 E13.87221
G1 F300 Z0.72
;MESH:aza-m5-hinge-90deg-right-top.stl
G0 F6000 X54.501 Y121.194 Z0.72
;TYPE:WALL-OUTER
G1 F300 Z0.24
G1 F1800 E19.87221
G1 F1295.5 X54.496 Y121.285 E19.88083
G1 F1299.8 X54.498 Y121.767 E19.92628
G0 F6000 X54.673 Y122.82
G0 X55.689 Y124.85
;TYPE:WALL-INNER
G1 F1800 X55.689 Y131.714 E20.39368
G1 X55.974 Y131.925 E20.41783
G1 X56.247 Y132.178 E20.44317
G1 X56.484 Y132.451 E20.46779
G1 X56.739 Y132.826 E20.49867
G1 X56.854 Y133.053 E20.516
G1 X57.015 Y133.44 E20.54454
G1 X57.096 Y133.736 E20.56544
G1 X57.137 Y133.971 E20.58168
G1 X57.548 Y134.021 E20.60988
G1 X58.043 Y134.164 E20.64496
G1 X58.309 Y134.269 E20.66443
G1 X58.745 Y134.513 E20.69846
G1 X59.022 Y134.709 E20.72156
G1 X59.31 Y134.961 E20.74762
G1 X59.53 Y135.195 E20.76949
G1 X59.763 Y135.497 E20.79546
G1 X59.944 Y135.789 E20.81886
G1 X60.109 Y136.134 E20.8449
G1 X60.22 Y136.437 E20.86687
G1 X60.316 Y136.809 E20.89303
G1 X60.367 Y137.149 E20.91644
G1 X60.384 Y137.532 E20.94255
G1 X60.365 Y137.868 E20.96547
G1 X60.3 Y138.272 E20.99333
G1 X60.218 Y138.568 E21.01424
G1 X60.082 Y138.929 E21.04051
G1 X59.93 Y139.235 E21.06378
G1 X59.724 Y139.558 E21.08987
G1 X59.523 Y139.813 E21.11198
G1 X59.256 Y140.092 E21.13827
G1 X59.006 Y140.305 E21.16064
G1 X58.693 Y140.522 E21.18657
G1 X58.393 Y140.686 E21.20985
G1 X58.039 Y140.835 E21.23601
G1 X57.722 Y140.933 E21.2586
G1 X57.303 Y141.016 E21.28769
G1 X57.005 Y141.04 E21.30804
G1 X56.62 Y141.037 E21.33426
G1 X56.289 Y141.002 E21.35693
G1 X55.918 Y140.923 E21.38275
G1 X55.601 Y140.82 E21.40545
G1 X55.244 Y140.665 E21.43195
G1 X54.952 Y140.5 E21.45479
G1 X54.641 Y140.28 E21.48073
G1 X54.393 Y140.065 E21.50308
G1 X54.128 Y139.784 E21.52938
G1 X53.921 Y139.513 E21.5526
G1 X53.724 Y139.191 E21.57831
G1 X53.606 Y138.959 E21.59603
G1 X53.441 Y138.512 E21.62848
G1 X53.356 Y138.168 E21.65261
G1 X53.305 Y137.796 E21.67817
G1 X52.966 Y137.732 E21.70167
G1 X52.536 Y137.574 E21.73286
G1 X52.302 Y137.474 E21.75019
G1 X51.808 Y137.158 E21.79012
G1 X51.523 Y136.915 E21.81562
G1 X51.272 Y136.646 E21.84068
G1 X51.052 Y136.353 E21.86563
G1 X50.227 Y136.351 E21.9218
G1 X44.186 Y136.351 E22.33316
G1 X44.273 Y136.622 E22.35254
G1 X44.342 Y136.953 E22.37557
G1 X44.38 Y137.303 E22.39954
G1 X44.382 Y137.626 E22.42153
G1 X44.347 Y138.013 E22.44799
G1 X44.285 Y138.336 E22.47039
G1 X44.173 Y138.711 E22.49704
G1 X44.075 Y138.963 E22.51545
G1 X43.823 Y139.414 E22.55063
G1 X43.625 Y139.692 E22.57387
G1 X43.37 Y139.981 E22.60012
G1 X43.136 Y140.2 E22.62194
G1 X42.833 Y140.432 E22.64793
G1 X42.543 Y140.61 E22.6711
G1 X42.197 Y140.775 E22.6972
G1 X41.881 Y140.889 E22.72007
G1 X41.506 Y140.982 E22.74638
G1 X41.178 Y141.029 E22.76895
G1 X40.797 Y141.045 E22.79491
G1 X40.458 Y141.025 E22.81804
G1 X40.076 Y140.962 E22.8444
G1 X39.759 Y140.877 E22.86675
G1 X39.4 Y140.741 E22.89289
G1 X39.093 Y140.586 E22.91631
G1 X38.772 Y140.38 E22.94228
G1 X38.516 Y140.177 E22.96453
G1 X38.238 Y139.908 E22.99087
G1 X38.021 Y139.651 E23.01377
G1 X37.808 Y139.338 E23.03955
G1 X37.653 Y139.053 E23.06164
G1 X37.502 Y138.695 E23.0881
G1 X37.402 Y138.373 E23.11106
G1 X37.322 Y137.963 E23.13951
G1 X37.298 Y137.661 E23.16014
G1 X37.302 Y137.273 E23.18656
G1 X37.337 Y136.947 E23.20888
G1 X37.416 Y136.574 E23.23485
G1 X37.489 Y136.35 E23.25089
G1 X33.941 Y136.351 E23.49249
G1 X33.721 Y136.425 E23.50829
G1 X33.689 Y136.622 E23.52188
G1 X33.689 Y143.434 E23.98574
G1 X33.712 Y143.771 E24.00874
G1 X33.766 Y144.044 E24.02769
G1 X33.857 Y144.315 E24.04716
G1 X33.98 Y144.568 E24.06631
G1 X34.133 Y144.799 E24.08518
G1 X34.318 Y145.011 E24.10434
G1 X34.523 Y145.191 E24.12292
G1 X34.769 Y145.357 E24.14313
G1 X35.012 Y145.478 E24.16161
G1 X35.275 Y145.569 E24.18056
G1 X35.551 Y145.625 E24.19974
G1 X35.894 Y145.649 E24.22315
G1 X62.771 Y145.65 E26.05332
G1 X63.116 Y145.627 E26.07686
G1 X63.391 Y145.573 E26.09595
G1 X63.662 Y145.482 E26.11541
G1 X63.901 Y145.364 E26.13356
G1 X64.135 Y145.208 E26.15271
G1 X64.354 Y145.017 E26.1725
G1 X64.537 Y144.809 E26.19136
G1 X64.692 Y144.578 E26.21031
G1 X64.828 Y144.303 E26.2312
G1 X64.913 Y144.046 E26.24963
G1 X64.967 Y143.776 E26.26838
G1 X64.989 Y143.436 E26.29158
G1 X64.989 Y116.634 E28.11664
G1 X64.978 Y116.387 E28.13347
G1 X64.941 Y116.099 E28.15325
G1 X64.854 Y115.782 E28.17563
G1 X64.74 Y115.519 E28.19515
G1 X64.61 Y115.299 E28.21255
G1 X64.439 Y115.079 E28.23152
G1 X64.246 Y114.885 E28.25016
G1 X64.028 Y114.72 E28.26878
G1 X63.798 Y114.587 E28.28687
G1 X63.529 Y114.474 E28.30674
G1 X63.269 Y114.404 E28.32507
G1 X62.972 Y114.364 E28.34548
G1 X62.705 Y114.35 E28.36368
G1 X55.907 Y114.351 E28.82659
G1 X55.715 Y114.431 E28.84075
G1 X55.689 Y114.587 E28.85152
G1 X55.69 Y118.152 E29.09428
G1 X56.179 Y118.015 E29.12886
G1 X56.539 Y117.967 E29.15359
G1 X56.839 Y117.954 E29.17403
G1 X57.182 Y117.971 E29.19742
G1 X57.487 Y118.016 E29.21841
G1 X57.86 Y118.105 E29.24452
G1 X58.173 Y118.216 E29.26714
G1 X58.523 Y118.38 E29.29346
G1 X58.816 Y118.558 E29.3168
G1 X59.12 Y118.788 E29.34276
G1 X59.358 Y119.007 E29.36478
G1 X59.644 Y119.33 E29.39416
G1 X59.813 Y119.572 E29.41426
G1 X60.005 Y119.907 E29.44055
G1 X60.144 Y120.224 E29.46412
G1 X60.273 Y120.622 E29.49261
G1 X60.342 Y120.953 E29.51564
G1 X60.38 Y121.303 E29.53961
G1 X60.381 Y121.626 E29.5616
G1 X60.347 Y122.013 E29.58806
G1 X60.285 Y122.336 E29.61045
G1 X60.172 Y122.711 E29.63712
G1 X60.027 Y123.054 E29.66248
G1 X59.823 Y123.414 E29.69066
G1 X59.625 Y123.692 E29.7139
G1 X59.369 Y123.981 E29.74019
G1 X59.135 Y124.2 E29.76201
G1 X58.833 Y124.432 E29.78794
G1 X58.543 Y124.609 E29.81108
G1 X58.197 Y124.775 E29.83721
G1 X57.881 Y124.889 E29.86008
G1 X57.506 Y124.982 E29.88639
G1 X57.182 Y125.029 E29.90869
G0 F1620 X57.178 Y125.029
G0 X56.797 Y125.045
G0 X56.459 Y125.025
G0 X56.076 Y124.962
G0 X55.759 Y124.877
G0 X55.689 Y124.85
G1 F1800 E23.90869
G0 F6000 X56.502 Y134.654
G1 F1800 E29.90869
G0 F6000 X55.532 Y135.664
;TYPE:WALL-OUTER
G1 F1747.1 X55.229 Y135.968 E29.9388
G0 F6000 X54.388 Y136.787
G0 X53.774 Y137.405
G0 X43.081 Y135.71
G0 X43.081 Y135.69
;TYPE:WALL-INNER
G1 F1800 X43.241 Y135.9 E29.95678
G1 X43.433 Y136.235 E29.98307
G1 X43.645 Y136.824 E30.0257
G1 X43.723 Y137.372 E30.06339
G1 X43.69 Y137.954 E30.10308
G1 X43.54 Y138.523 E30.14315
G1 X43.249 Y139.089 E30.18649
G1 X42.875 Y139.545 E30.22665
G1 X42.431 Y139.908 E30.2657
G1 X41.912 Y140.18 E30.3056
G1 X41.347 Y140.341 E30.3456
G1 X40.769 Y140.386 E30.38508
G1 X40.183 Y140.31 E30.42532
G1 X39.634 Y140.123 E30.46481
G1 X39.129 Y139.825 E30.50474
G1 X38.697 Y139.434 E30.54442
G1 X38.354 Y138.966 E30.58393
G1 X38.11 Y138.438 E30.62353
G1 X37.976 Y137.871 E30.66321
G1 X37.962 Y137.279 E30.70353
G1 X38.062 Y136.712 E30.74274
G1 X38.278 Y136.169 E30.78253
G1 X38.591 Y135.691 E30.82143
G1 X33.925 Y135.69 E31.13916
G1 X33.63 Y135.724 E31.15938
G1 X33.395 Y135.834 E31.17705
G1 X33.187 Y136.036 E31.19679
G1 X33.064 Y136.291 E31.21607
G1 X33.03 Y136.549 E31.23379
G1 X33.029 Y138.278 E31.35153
G1 X33.029 Y143.456 E31.70412
G1 X33.056 Y143.856 E31.73142
G1 X33.127 Y144.213 E31.75621
G1 X33.244 Y144.565 E31.78146
G1 X33.406 Y144.897 E31.80662
G1 X33.607 Y145.2 E31.83138
G1 X33.85 Y145.479 E31.85657
G1 X34.119 Y145.715 E31.88094
G1 X34.435 Y145.928 E31.90689
G1 X34.756 Y146.088 E31.93131
G1 X35.101 Y146.207 E31.95616
G1 X35.463 Y146.281 E31.98132
G1 X35.872 Y146.309 E32.00924
G1 X62.792 Y146.31 E33.84233
G1 X63.202 Y146.283 E33.87031
G1 X63.561 Y146.212 E33.89523
G1 X63.914 Y146.093 E33.9206
G1 X64.231 Y145.937 E33.94466
G1 X64.535 Y145.735 E33.96951
G1 X64.821 Y145.486 E33.99533
G1 X65.062 Y145.213 E34.02013
G1 X65.265 Y144.909 E34.04502
G1 X65.44 Y144.555 E34.07191
G1 X65.553 Y144.214 E34.09637
G1 X65.623 Y143.861 E34.12088
G1 X65.649 Y143.456 E34.14851
G1 X65.649 Y116.634 E35.97493
G1 X65.636 Y116.346 E35.99456
G1 X65.588 Y115.97 E36.02037
G1 X65.475 Y115.56 E36.04933
G1 X65.327 Y115.217 E36.07477
G1 X65.156 Y114.928 E36.09764
G1 X64.935 Y114.642 E36.12225
G1 X64.68 Y114.388 E36.14676
G1 X64.392 Y114.169 E36.1714
G1 X64.092 Y113.996 E36.19498
G1 X63.742 Y113.849 E36.22083
G1 X63.401 Y113.757 E36.24488
G1 X63.016 Y113.705 E36.27133
G1 X62.705 Y113.69 E36.29253
G1 X55.888 Y113.69 E36.75673
G1 X55.634 Y113.724 E36.77418
G1 X55.393 Y113.835 E36.79225
G1 X55.177 Y114.048 E36.81291
G1 X55.064 Y114.292 E36.83122
G1 X55.029 Y114.548 E36.84881
G1 X55.029 Y119.252 E37.16912
G1 X55.496 Y118.946 E37.20714
G1 X56.056 Y118.72 E37.24826
G1 X56.626 Y118.621 E37.28766
G1 X57.149 Y118.63 E37.32328
G1 X57.704 Y118.747 E37.3619
G1 X58.242 Y118.977 E37.40174
G1 X58.722 Y119.314 E37.44168
G1 X59.121 Y119.735 E37.48118
G1 X59.432 Y120.235 E37.52127
G1 X59.644 Y120.824 E37.5639
G1 X59.723 Y121.373 E37.60167
G1 X59.69 Y121.954 E37.64129
G1 X59.54 Y122.523 E37.68136
G1 X59.249 Y123.089 E37.7247
G1 X58.875 Y123.545 E37.76486
G1 X58.431 Y123.908 E37.80391
G1 X58.043 Y124.117 E37.83392
G1 X57.722 Y124.248 E37.85753
G1 X57.347 Y124.342 E37.88385
G1 X56.769 Y124.386 E37.92333
G1 X56.183 Y124.311 E37.96355
G1 X55.634 Y124.123 E38.00307
G1 X55.129 Y123.825 E38.043
G1 X55.029 Y123.746 E38.05168
G1 X55.031 Y124.26 E38.08668
G1 X55.029 Y124.925 E38.13196
G1 X55.031 Y132.083 E38.61938
G1 X55.353 Y132.281 E38.64512
G1 X55.799 Y132.662 E38.68506
G1 X55.969 Y132.868 E38.70325
G1 X56.176 Y133.17 E38.72818
G1 X56.385 Y133.643 E38.76339
G1 X56.51 Y134.215 E38.80326
G1 X56.516 Y134.638 E38.83207
G1 X56.943 Y134.616 E38.86118
G1 X57.305 Y134.651 E38.88595
G1 X57.573 Y134.712 E38.90466
G1 X57.873 Y134.803 E38.92601
