;FLAVOR:Marlin
;TIME:2208
;Filament used: 2.87043m
;Layer height: 0.32
;MINX:122.83
;MINY:126.831
;MINZ:0.24
;MAXX:177.17
;MAXY:173.163
;MAXZ:40.24
;Generated with Cura_SteamEngine 5.0.0
M140 S70
M105
M190 S70
M104 S245
M105
M109 S245
M82 ;absolute extrusion mode
; Ender 3 Max Custom Start G-code
G92 E0 ; Reset Extruder
G28 ; Home all axes
G1 Z2.0 F3000 ; Move Z Axis up little to prevent scratching of Heat Bed
G1 X0.1 Y20 Z0.3 F5000.0 ; Move to start position
G1 X0.1 Y200.0 Z0.3 F1500.0 E15 ; Draw the first line
G1 X0.4 Y200.0 Z0.3 F5000.0 ; Move to side a little
G1 X0.4 Y20 Z0.3 F1500.0 E30 ; Draw the second line
G92 E0 ; Reset Extruder
G1 Z2.0 F3000 ; Move Z Axis up little to prevent scratching of Heat Bed
G1 X5 Y20 Z0.3 F5000.0 ; Move over to prevent blob squish
G92 E0
G92 E0
G1 F2100 E-5
;LAYER_COUNT:125
;LAYER:0
M107
G1 F300 Z0.56
G0 F6000 X126.617 Y130.202 Z0.56
G1 F300 Z0.56
G0 F6000 X122.83 Y139.041
;TYPE:SKIRT
G1 F300 Z0.24
G1 F2100 E0
G1 F1800 X122.87 Y138.054 E0.07156
G1 X122.99 Y137.073 E0.14315
G1 X123.188 Y136.105 E0.21473
G1 X123.465 Y135.156 E0.28634
G1 X123.817 Y134.233 E0.3579
G1 X124.242 Y133.341 E0.42948
G1 X124.738 Y132.487 E0.50102
G1 X125.302 Y131.675 E0.57264
G1 X125.93 Y130.912 E0.64422
G1 X126.617 Y130.202 E0.71579
G1 X127.359 Y129.549 E0.78739
G1 X128.152 Y128.959 E0.85899
G1 X128.99 Y128.436 E0.93055
G1 X129.867 Y127.981 E1.00212
G1 X130.778 Y127.599 E1.07368
G1 X131.717 Y127.292 E1.14525
G1 X132.678 Y127.062 E1.21683
G1 X133.655 Y126.91 E1.28846
G1 X135.04 Y126.831 E1.38895
G1 X164.96 Y126.831 E3.55637
G1 X165.947 Y126.871 E3.62793
G1 X166.928 Y126.991 E3.69952
G1 X167.896 Y127.189 E3.7711
G1 X168.845 Y127.466 E3.84271
G1 X169.768 Y127.818 E3.91427
G1 X170.66 Y128.243 E3.98585
G1 X171.514 Y128.739 E4.05739
G1 X172.326 Y129.303 E4.12901
G1 X173.089 Y129.931 E4.2006
G1 X173.799 Y130.618 E4.27216
G1 X174.452 Y131.36 E4.34377
G1 X175.042 Y132.153 E4.41537
G1 X175.565 Y132.991 E4.48692
G1 X176.02 Y133.868 E4.5585
G1 X176.402 Y134.779 E4.63006
G1 X176.709 Y135.718 E4.70162
G1 X176.939 Y136.679 E4.7732
G1 X177.091 Y137.656 E4.84483
G1 X177.17 Y139.041 E4.94532
G1 X177.17 Y150.961 E5.80881
G1 X177.13 Y151.948 E5.88037
G1 X177.01 Y152.929 E5.95196
G1 X176.812 Y153.897 E6.02354
G1 X176.535 Y154.846 E6.09515
G1 X176.183 Y155.769 E6.16671
G1 X175.758 Y156.661 E6.23829
G1 X175.262 Y157.515 E6.30983
G1 X174.698 Y158.327 E6.38145
G1 X174.07 Y159.09 E6.45304
G1 X173.383 Y159.8 E6.52461
G1 X172.641 Y160.453 E6.59621
G1 X171.848 Y161.043 E6.66781
G1 X171.01 Y161.566 E6.73937
G1 X170.133 Y162.021 E6.81094
G1 X169.222 Y162.403 E6.8825
G1 X168.283 Y162.71 E6.95406
G1 X167.322 Y162.94 E7.02564
G1 X166.345 Y163.092 E7.09727
G1 X165.609 Y163.134 E7.15067
G1 X165.01 Y164.324 E7.24718
G1 X164.722 Y164.824 E7.28898
G1 X163.923 Y166.039 E7.39432
G1 X163.58 Y166.498 E7.43583
G1 X162.705 Y167.542 E7.53451
G1 X162.312 Y167.961 E7.57612
G1 X161.25 Y168.966 E7.68204
G1 X160.805 Y169.339 E7.7241
G1 X159.665 Y170.186 E7.82699
G1 X159.184 Y170.502 E7.86868
G1 X157.924 Y171.226 E7.97395
G1 X157.408 Y171.483 E8.01571
G1 X156.167 Y172.018 E8.1136
G1 X155.627 Y172.216 E8.15527
G1 X154.231 Y172.635 E8.26085
G1 X153.668 Y172.768 E8.30276
G1 X152.288 Y173.011 E8.40426
G1 X151.71 Y173.079 E8.44642
G1 X150.283 Y173.163 E8.54997
G1 X149.715 Y173.163 E8.59112
G1 X148.288 Y173.079 E8.69467
G1 X147.71 Y173.011 E8.73683
G1 X146.33 Y172.768 E8.83834
G1 X145.767 Y172.635 E8.88024
G1 X144.369 Y172.215 E8.98599
G1 X143.832 Y172.018 E9.02742
G1 X142.56 Y171.468 E9.12781
G1 X142.038 Y171.206 E9.17012
G1 X140.811 Y170.498 E9.27274
G1 X140.333 Y170.184 E9.31417
G1 X139.193 Y169.337 E9.41705
G1 X138.748 Y168.964 E9.45912
G1 X137.686 Y167.959 E9.56503
G1 X137.293 Y167.54 E9.60665
G1 X136.418 Y166.496 E9.70533
G1 X136.075 Y166.037 E9.74684
G1 X135.276 Y164.822 E9.85218
G1 X134.988 Y164.322 E9.89398
G1 X134.398 Y163.145 E9.98935
G1 X134.053 Y163.131 E10.01436
G1 X133.072 Y163.011 E10.08596
G1 X132.104 Y162.813 E10.15753
G1 X131.155 Y162.536 E10.22915
G1 X130.232 Y162.184 E10.30071
G1 X129.34 Y161.759 E10.37228
G1 X128.486 Y161.263 E10.44382
G1 X127.674 Y160.699 E10.51544
G1 X126.911 Y160.071 E10.58703
G1 X126.201 Y159.384 E10.6586
G1 X125.548 Y158.642 E10.7302
G1 X124.958 Y157.849 E10.8018
G1 X124.435 Y157.011 E10.87336
G1 X123.98 Y156.134 E10.94493
G1 X123.598 Y155.223 E11.01649
G1 X123.291 Y154.284 E11.08806
G1 X123.061 Y153.323 E11.15964
G1 X122.909 Y152.346 E11.23126
G1 X122.83 Y150.961 E11.33176
G1 X122.83 Y140.404 E12.09651
G0 F1620 X122.83 Y139.041
G0 F6000 X123.49 Y139.041
G1 F1800 X123.53 Y138.081 E12.16611
G1 X123.65 Y137.127 E12.23577
G1 X123.848 Y136.187 E12.30536
G1 X124.124 Y135.266 E12.375
G1 X124.476 Y134.372 E12.44461
G1 X124.901 Y133.51 E12.51423
G1 X125.395 Y132.686 E12.58382
G1 X125.957 Y131.906 E12.65347
G1 X126.582 Y131.176 E12.72308
G1 X127.265 Y130.5 E12.79269
G1 X128.002 Y129.883 E12.86232
G1 X128.788 Y129.33 E12.93194
G1 X129.617 Y128.844 E13.00155
G1 X130.483 Y128.428 E13.07115
G1 X131.381 Y128.086 E13.14076
G1 X132.305 Y127.82 E13.21041
G1 X133.247 Y127.631 E13.28001
G1 X134.202 Y127.521 E13.34965
G1 X135.04 Y127.491 E13.41039
G1 X164.96 Y127.491 E15.57782
G1 X165.92 Y127.531 E15.64742
G1 X166.874 Y127.651 E15.71707
G1 X167.814 Y127.849 E15.78666
G1 X168.735 Y128.125 E15.85631
G1 X169.629 Y128.477 E15.92591
G1 X170.491 Y128.902 E15.99553
G1 X171.315 Y129.396 E16.06513
G1 X172.095 Y129.958 E16.13477
G1 X172.825 Y130.583 E16.20439
G1 X173.501 Y131.266 E16.274
G1 X174.118 Y132.003 E16.34363
G1 X174.671 Y132.789 E16.41325
G1 X175.157 Y133.618 E16.48286
G1 X175.573 Y134.484 E16.55245
G1 X175.915 Y135.382 E16.62206
G1 X176.181 Y136.306 E16.69172
G1 X176.37 Y137.248 E16.76132
G1 X176.48 Y138.203 E16.83095
G1 X176.51 Y139.041 E16.8917
G1 X176.51 Y150.961 E17.75519
G1 X176.47 Y151.921 E17.82479
G1 X176.35 Y152.875 E17.89445
G1 X176.152 Y153.815 E17.96403
G1 X175.876 Y154.736 E18.03368
G1 X175.524 Y155.63 E18.10328
G1 X175.099 Y156.492 E18.17291
G1 X174.605 Y157.316 E18.2425
G1 X174.043 Y158.096 E18.31214
G1 X173.418 Y158.826 E18.38176
G1 X172.735 Y159.502 E18.45137
G1 X171.998 Y160.119 E18.521
G1 X171.212 Y160.672 E18.59062
G1 X170.383 Y161.158 E18.66023
G1 X169.517 Y161.574 E18.72983
G1 X168.619 Y161.916 E18.79944
G1 X167.695 Y162.182 E18.86909
G1 X166.753 Y162.371 E18.93869
G1 X165.798 Y162.481 E19.00833
G1 X165.166 Y162.504 E19.05414
G1 X165.024 Y162.83 E19.0799
G1 X164.438 Y163.995 E19.17437
G1 X164.15 Y164.495 E19.21617
G1 X163.394 Y165.644 E19.3158
G1 X163.051 Y166.103 E19.35731
G1 X162.223 Y167.091 E19.45069
G1 X161.83 Y167.51 E19.49231
G1 X160.826 Y168.46 E19.59244
G1 X160.381 Y168.833 E19.6345
G1 X159.303 Y169.634 E19.73179
G1 X158.822 Y169.95 E19.77348
G1 X157.629 Y170.636 E19.87317
G1 X157.113 Y170.893 E19.91493
G1 X155.94 Y171.398 E20.00744
G1 X155.4 Y171.596 E20.0491
G1 X154.079 Y171.993 E20.14903
G1 X153.516 Y172.126 E20.19093
G1 X152.211 Y172.356 E20.28693
G1 X151.633 Y172.424 E20.32908
G1 X150.283 Y172.503 E20.42705
G1 X149.715 Y172.503 E20.46819
G1 X148.365 Y172.424 E20.56616
G1 X147.787 Y172.356 E20.60831
G1 X146.482 Y172.126 E20.70431
G1 X145.919 Y171.993 E20.74621
G1 X144.596 Y171.595 E20.8463
G1 X144.059 Y171.398 E20.88773
G1 X142.856 Y170.878 E20.98267
G1 X142.334 Y170.616 E21.02498
G1 X141.174 Y169.946 E21.12202
G1 X140.696 Y169.632 E21.16345
G1 X139.617 Y168.831 E21.2608
G1 X139.172 Y168.458 E21.30286
G1 X138.168 Y167.508 E21.40299
G1 X137.775 Y167.089 E21.4446
G1 X136.947 Y166.101 E21.53798
G1 X136.604 Y165.642 E21.57949
G1 X135.848 Y164.493 E21.67913
G1 X135.56 Y163.993 E21.72093
G1 X134.959 Y162.795 E21.81802
G1 X134.833 Y162.502 E21.84112
G1 X134.08 Y162.471 E21.89572
G1 X133.126 Y162.351 E21.96537
G1 X132.186 Y162.153 E22.03496
G1 X131.265 Y161.877 E22.10461
G1 X130.371 Y161.525 E22.17421
G1 X129.509 Y161.1 E22.24383
G1 X128.685 Y160.606 E22.31343
G1 X127.905 Y160.044 E22.38307
G1 X127.175 Y159.419 E22.45268
G1 X126.499 Y158.736 E22.5223
G1 X125.882 Y157.999 E22.59192
G1 X125.329 Y157.213 E22.66154
G1 X124.843 Y156.384 E22.73116
G1 X124.427 Y155.518 E22.80075
G1 X124.085 Y154.62 E22.87036
G1 X123.819 Y153.696 E22.94001
G1 X123.63 Y152.754 E23.00961
G1 X123.52 Y151.799 E23.07925
G1 X123.49 Y150.961 E23.14
G1 X123.49 Y140.404 E23.90475
G0 F1620 X123.49 Y139.041
G0 F6000 X124.15 Y139.041
G1 F1800 X124.19 Y138.109 E23.97233
G1 X124.31 Y137.183 E24.03997
G1 X124.508 Y136.271 E24.10757
G1 X124.784 Y135.38 E24.17514
G1 X125.135 Y134.515 E24.24277
G1 X125.559 Y133.684 E24.31035
G1 X126.052 Y132.892 E24.37793
G1 X126.612 Y132.145 E24.44556
G1 X127.233 Y131.449 E24.51313
G1 X127.912 Y130.808 E24.58077
G1 X128.643 Y130.228 E24.64837
G1 X129.421 Y129.713 E24.71596
G1 X130.24 Y129.266 E24.78355
G1 X131.094 Y128.891 E24.85111
G1 X131.978 Y128.59 E24.91876
G1 X132.884 Y128.367 E24.98635
G1 X133.805 Y128.221 E25.0539
G1 X135.04 Y128.151 E25.14351
G1 X164.96 Y128.151 E27.31093
G1 X165.892 Y128.191 E27.37851
G1 X166.818 Y128.311 E27.44615
G1 X167.73 Y128.509 E27.51375
G1 X168.621 Y128.785 E27.58133
G1 X169.486 Y129.136 E27.64895
G1 X170.317 Y129.56 E27.71653
G1 X171.109 Y130.053 E27.78411
G1 X171.856 Y130.613 E27.85174
G1 X172.552 Y131.234 E27.91931
G1 X173.193 Y131.913 E27.98695
G1 X173.773 Y132.644 E28.05455
G1 X174.288 Y133.422 E28.12214
G1 X174.735 Y134.241 E28.18973
G1 X175.11 Y135.095 E28.25729
G1 X175.411 Y135.979 E28.32494
G1 X175.634 Y136.885 E28.39253
G1 X175.78 Y137.806 E28.46008
G1 X175.85 Y139.041 E28.54969
G1 X175.85 Y150.961 E29.41318
G1 X175.81 Y151.893 E29.48076
G1 X175.69 Y152.819 E29.5484
G1 X175.492 Y153.731 E29.61601
G1 X175.216 Y154.622 E29.68358
G1 X174.865 Y155.487 E29.7512
G1 X174.441 Y156.318 E29.81878
G1 X173.948 Y157.11 E29.88636
G1 X173.388 Y157.857 E29.95399
G1 X172.767 Y158.553 E30.02156
G1 X172.088 Y159.194 E30.0892
G1 X171.357 Y159.774 E30.1568
G1 X170.579 Y160.289 E30.22439
G1 X169.76 Y160.736 E30.29198
G1 X168.906 Y161.111 E30.35955
G1 X168.022 Y161.412 E30.42719
G1 X167.116 Y161.635 E30.49478
G1 X166.195 Y161.781 E30.56233
G1 X164.963 Y161.851 E30.65172
G1 X164.717 Y161.851 E30.66955
G1 X164.65 Y162.035 E30.68373
G1 X164.419 Y162.567 E30.72575
G1 X163.867 Y163.665 E30.81477
G1 X163.579 Y164.165 E30.85657
G1 X162.865 Y165.249 E30.9506
G1 X162.522 Y165.708 E30.99211
G1 X161.742 Y166.639 E31.08009
G1 X161.349 Y167.058 E31.12171
G1 X160.402 Y167.954 E31.21615
G1 X159.957 Y168.327 E31.25821
G1 X158.94 Y169.083 E31.35001
G1 X158.459 Y169.399 E31.3917
G1 X157.335 Y170.045 E31.48561
G1 X156.819 Y170.302 E31.52737
G1 X155.713 Y170.778 E31.61459
G1 X155.173 Y170.976 E31.65626
G1 X153.928 Y171.35 E31.75043
G1 X153.365 Y171.483 E31.79233
G1 X152.133 Y171.7 E31.88296
G1 X151.555 Y171.768 E31.92511
G1 X150.283 Y171.843 E32.01742
G1 X149.715 Y171.843 E32.05857
G1 X148.443 Y171.768 E32.15087
G1 X147.865 Y171.7 E32.19303
G1 X146.633 Y171.483 E32.28365
G1 X146.07 Y171.35 E32.32556
G1 X144.823 Y170.976 E32.41987
G1 X144.286 Y170.779 E32.4613
G1 X143.152 Y170.288 E32.55082
G1 X142.63 Y170.026 E32.59313
G1 X141.536 Y169.395 E32.68462
G1 X141.058 Y169.081 E32.72604
G1 X140.041 Y168.325 E32.81784
G1 X139.596 Y167.952 E32.8599
G1 X138.649 Y167.056 E32.95435
G1 X138.256 Y166.637 E32.99596
G1 X137.476 Y165.706 E33.08394
G1 X137.133 Y165.247 E33.12545
G1 X136.419 Y164.163 E33.21948
G1 X136.131 Y163.663 E33.26128
G1 X135.565 Y162.534 E33.35277
G1 X135.336 Y162.002 E33.39472
G1 X135.281 Y161.851 E33.40637
G1 X135.04 Y161.851 E33.42382
G1 X134.108 Y161.811 E33.4914
G1 X133.182 Y161.691 E33.55904
G1 X132.27 Y161.493 E33.62665
G1 X131.379 Y161.217 E33.69422
G1 X130.514 Y160.866 E33.76184
G1 X129.683 Y160.442 E33.82942
G1 X128.891 Y159.949 E33.897
G1 X128.144 Y159.389 E33.96463
G1 X127.448 Y158.768 E34.0322
G1 X126.807 Y158.089 E34.09985
G1 X126.227 Y157.358 E34.16744
G1 X125.712 Y156.58 E34.23503
G1 X125.265 Y155.761 E34.30262
G1 X124.89 Y154.907 E34.37019
G1 X124.589 Y154.023 E34.43784
G1 X124.366 Y153.117 E34.50543
G1 X124.22 Y152.196 E34.57298
G1 X124.15 Y150.961 E34.66258
G1 X124.15 Y140.404 E35.42734
G0 F1620 X124.15 Y139.041
G0 F6000 X124.81 Y139.041
G1 F1800 X124.85 Y138.137 E35.49289
G1 X124.97 Y137.241 E35.55838
G1 X125.168 Y136.359 E35.62386
G1 X125.443 Y135.497 E35.6894
G1 X125.794 Y134.663 E35.75495
G1 X126.217 Y133.864 E35.82044
G1 X126.709 Y133.105 E35.88596
G1 X127.265 Y132.392 E35.95146
G1 X127.883 Y131.731 E36.01701
G1 X128.557 Y131.128 E36.08253
G1 X129.281 Y130.586 E36.14804
G1 X130.05 Y130.11 E36.21356
G1 X130.858 Y129.705 E36.27903
G1 X131.699 Y129.372 E36.34456
G1 X132.566 Y129.115 E36.41006
G1 X133.453 Y128.935 E36.47563
G1 X134.352 Y128.834 E36.54116
G1 X135.04 Y128.811 E36.59103
G1 X164.96 Y128.811 E38.75845
G1 X165.864 Y128.851 E38.824
G1 X166.76 Y128.971 E38.88949
G1 X167.642 Y129.169 E38.95497
G1 X168.504 Y129.444 E39.02051
G1 X169.338 Y129.795 E39.08606
G1 X170.137 Y130.218 E39.15155
G1 X170.896 Y130.71 E39.21708
G1 X171.609 Y131.266 E39.28257
G1 X172.27 Y131.884 E39.34813
G1 X172.873 Y132.558 E39.41364
G1 X173.415 Y133.282 E39.47915
G1 X173.891 Y134.051 E39.54467
G1 X174.296 Y134.859 E39.61014
G1 X174.629 Y135.7 E39.67567
G1 X174.886 Y136.567 E39.74117
G1 X175.066 Y137.454 E39.80674
G1 X175.167 Y138.353 E39.87227
G1 X175.19 Y139.041 E39.92214
G1 X175.19 Y150.961 E40.78563
G1 X175.15 Y151.865 E40.85118
G1 X175.03 Y152.761 E40.91667
G1 X174.832 Y153.643 E40.98215
G1 X174.557 Y154.505 E41.04769
G1 X174.206 Y155.339 E41.11324
G1 X173.783 Y156.138 E41.17873
G1 X173.291 Y156.897 E41.24426
G1 X172.735 Y157.61 E41.30975
G1 X172.117 Y158.271 E41.37531
G1 X171.443 Y158.874 E41.44082
G1 X170.719 Y159.416 E41.50633
G1 X169.95 Y159.892 E41.57185
G1 X169.142 Y160.297 E41.63732
G1 X168.301 Y160.63 E41.70285
G1 X167.434 Y160.887 E41.76835
G1 X166.547 Y161.067 E41.83392
G1 X165.648 Y161.168 E41.89945
G1 X164.963 Y161.191 E41.9491
G1 X164.256 Y161.191 E42.00032
G1 X164.045 Y161.772 E42.0451
G1 X163.814 Y162.304 E42.08711
G1 X163.295 Y163.336 E42.17079
G1 X163.007 Y163.836 E42.21259
G1 X162.337 Y164.854 E42.30087
G1 X161.994 Y165.313 E42.34238
G1 X161.26 Y166.187 E42.42506
G1 X160.867 Y166.606 E42.46667
G1 X159.978 Y167.448 E42.55537
G1 X159.533 Y167.821 E42.59744
G1 X158.578 Y168.531 E42.68364
G1 X158.097 Y168.847 E42.72533
G1 X157.041 Y169.454 E42.81357
G1 X156.525 Y169.711 E42.85533
G1 X155.486 Y170.159 E42.93729
G1 X154.946 Y170.357 E42.97896
G1 X153.776 Y170.708 E43.06744
G1 X153.213 Y170.841 E43.10935
G1 X152.056 Y171.045 E43.19446
G1 X151.478 Y171.113 E43.23661
G1 X150.283 Y171.183 E43.32333
G1 X149.715 Y171.183 E43.36448
G1 X148.52 Y171.113 E43.45119
G1 X147.942 Y171.045 E43.49335
G1 X146.785 Y170.841 E43.57846
G1 X146.222 Y170.708 E43.62036
G1 X145.051 Y170.356 E43.70894
G1 X144.514 Y170.159 E43.75038
G1 X143.448 Y169.698 E43.83451
G1 X142.926 Y169.436 E43.87682
G1 X141.898 Y168.843 E43.96279
G1 X141.42 Y168.529 E44.00422
G1 X140.465 Y167.819 E44.09042
G1 X140.02 Y167.446 E44.13249
G1 X139.131 Y166.604 E44.22119
G1 X138.738 Y166.185 E44.2628
G1 X138.004 Y165.311 E44.34548
G1 X137.661 Y164.852 E44.38699
G1 X136.991 Y163.834 E44.47527
G1 X136.703 Y163.334 E44.51707
G1 X136.172 Y162.273 E44.60302
G1 X135.943 Y161.741 E44.64498
G1 X135.744 Y161.191 E44.68735
G1 X135.04 Y161.191 E44.73834
G1 X134.136 Y161.151 E44.80389
G1 X133.24 Y161.031 E44.86938
G1 X132.358 Y160.833 E44.93486
G1 X131.496 Y160.558 E45.00041
G1 X130.662 Y160.207 E45.06596
G1 X129.863 Y159.784 E45.13145
G1 X129.104 Y159.292 E45.19697
G1 X128.391 Y158.736 E45.26247
G1 X127.73 Y158.118 E45.32802
G1 X127.127 Y157.444 E45.39353
G1 X126.585 Y156.72 E45.45905
G1 X126.109 Y155.951 E45.52456
G1 X125.704 Y155.143 E45.59004
G1 X125.371 Y154.302 E45.65556
G1 X125.114 Y153.435 E45.72107
G1 X124.934 Y152.548 E45.78663
G1 X124.833 Y151.649 E45.85217
G1 X124.81 Y150.961 E45.90203
G1 X124.81 Y140.404 E46.66679
G0 F1620 X124.81 Y139.041
G0 F6000 X125.47 Y139.041
G1 F1800 X125.51 Y138.167 E46.73017
G1 X125.63 Y137.301 E46.7935
G1 X125.828 Y136.449 E46.85687
G1 X126.103 Y135.618 E46.92027
G1 X126.453 Y134.817 E46.9836
G1 X126.874 Y134.05 E47.04698
G1 X127.364 Y133.325 E47.11037
G1 X127.918 Y132.648 E47.17374
