;Project bed-insulation
;Created by Estlcam version 11 build 11.245
;Machining time about 00:13:55 hours

G90
M03 S10000
G00 X0.0000 Y0.0000 Z0.0000 F1500
G00 Z8.0000 F480


;No. 1: Hole 4
G00 X50.0580 Y49.9538 F1500
G00 Z0.5000 F480
G01 Z0.0000 F120 S10000
G02 X50.5650 Y52.3389 Z-2.5535 I0.9420 J1.0462 F120
G02 X51.0733 Y52.4059 Z-3.0000 I0.4350 J-1.3389 F120
G03 X50.5650 Y52.3389 Z-3.4465 I-0.0733 J-1.4059 F120
G03 X50.0580 Y49.9538 Z-6.0000 I0.4350 J-1.3389 F120
G02 X50.5650 Y52.3389 I0.9420 J1.0462 F900
G02 X52.3771 Y50.7073 I0.4350 J-1.3389 F900
G02 X50.0580 Y49.9538 I-1.3771 J0.2927 F900
G02 X50.5650 Y52.3389 Z-8.5535 I0.9420 J1.0462 F120
G02 X51.0733 Y52.4059 Z-9.0000 I0.4350 J-1.3389 F120
G03 X50.5650 Y52.3389 Z-9.4465 I-0.0733 J-1.4059 F120
G03 X50.0580 Y49.9538 Z-12.0000 I0.4350 J-1.3389 F120
G02 X50.5650 Y52.3389 I0.9420 J1.0462 F900
G02 X52.3771 Y50.7073 I0.4350 J-1.3389 F900
G02 X50.0580 Y49.9538 I-1.3771 J0.2927 F900
G02 X49.7855 Y50.2881 Z-12.3750 I0.9420 J1.0462 F120
G03 X50.0580 Y49.9538 Z-12.7500 I1.2145 J0.7119 F120
G02 X50.5650 Y52.3389 I0.9420 J1.0462 F900
G02 X52.3771 Y50.7073 I0.4350 J-1.3389 F900
G02 X50.0580 Y49.9538 I-1.3771 J0.2927 F900
G00 Z8.0000 F480


;No. 2: Hole 5
G00 X144.4100 Y127.5900 Z8.0000 F1500
G00 Z0.5000 F480
G01 Z0.0000 F120
G01 X140.9459 Z-3.0000 F120
G01 X144.4100 Z-6.0000 F120
G01 X127.5900 F900
G01 Y144.4100 F900
G01 X144.4100 F900
G01 Y127.5900 F900
G01 X140.9459 Z-9.0000 F120
G01 X144.4100 Z-12.0000 F120
G01 X127.5900 F900
G01 Y144.4100 F900
G01 X144.4100 F900
G01 Y127.5900 F900
G01 X143.9770 Z-12.3750 F120
G01 X144.4100 Z-12.7500 F120
G01 X127.5900 F900
G01 Y144.4100 F900
G01 X144.4100 F900
G01 Y127.5900 F900
G00 Z8.0000 F480


;No. 3: Hole 6
G00 X78.4100 Y207.5900 Z8.0000 F1500
G00 Z0.5000 F480
G01 Z0.0000 F120
G01 X74.9459 Z-3.0000 F120
G01 X78.4100 Z-6.0000 F120
G01 X61.5900 F900
G01 Y264.4100 F900
G01 X78.4100 F900
G01 Y207.5900 F900
G01 X74.9459 Z-9.0000 F120
G01 X78.4100 Z-12.0000 F120
G01 X61.5900 F900
G01 Y264.4100 F900
G01 X78.4100 F900
G01 Y207.5900 F900
G01 X77.9770 Z-12.3750 F120
G01 X78.4100 Z-12.7500 F120
G01 X61.5900 F900
G01 Y264.4100 F900
G01 X78.4100 F900
G01 Y207.5900 F900
G00 Z8.0000 F480


;No. 4: Hole 1
G00 X50.7073 Y219.6229 Z8.0000 F1500
G00 Z0.5000 F480
G01 Z0.0000 F120
G02 X49.9538 Y221.9420 Z-2.5535 I0.2927 J1.3771 F120
G02 X50.3605 Y222.2542 Z-3.0000 I1.0462 J-0.9420 F120
G03 X49.9538 Y221.9420 Z-3.4465 I0.6395 J-1.2542 F120
G03 X50.7073 Y219.6229 Z-6.0000 I1.0462 J-0.9420 F120
G02 X49.9538 Y221.9420 I0.2927 J1.3771 F900
G02 X52.3389 Y221.4350 I1.0462 J-0.9420 F900
G02 X50.7073 Y219.6229 I-1.3389 J-0.4350 F900
G02 X49.9538 Y221.9420 Z-8.5535 I0.2927 J1.3771 F120
G02 X50.3605 Y222.2542 Z-9.0000 I1.0462 J-0.9420 F120
G03 X49.9538 Y221.9420 Z-9.4465 I0.6395 J-1.2542 F120
G03 X50.7073 Y219.6229 Z-12.0000 I1.0462 J-0.9420 F120
G02 X49.9538 Y221.9420 I0.2927 J1.3771 F900
G02 X52.3389 Y221.4350 I1.0462 J-0.9420 F900
G02 X50.7073 Y219.6229 I-1.3389 J-0.4350 F900
G02 X50.3041 Y219.7762 Z-12.3750 I0.2927 J1.3771 F120
G03 X50.7073 Y219.6229 Z-12.7500 I0.6959 J1.2238 F120
G02 X49.9538 Y221.9420 I0.2927 J1.3771 F900
G02 X52.3389 Y221.4350 I1.0462 J-0.9420 F900
G02 X50.7073 Y219.6229 I-1.3389 J-0.4350 F900
G00 Z8.0000 F480


;No. 5: Hole 7
G00 X151.9100 Y237.5900 Z8.0000 F1500
G00 Z0.5000 F480
G01 Z0.0000 F120
G01 X148.4459 Z-3.0000 F120
G01 X151.9100 Z-6.0000 F120
G01 X120.0900 F900
G01 Y264.4100 F900
G01 X151.9100 F900
G01 Y237.5900 F900
G01 X148.4459 Z-9.0000 F120
G01 X151.9100 Z-12.0000 F120
G01 X120.0900 F900
G01 Y264.4100 F900
G01 X151.9100 F900
G01 Y237.5900 F900
G01 X151.4770 Z-12.3750 F120
G01 X151.9100 Z-12.7500 F120
G01 X120.0900 F900
G01 Y264.4100 F900
G01 X151.9100 F900
G01 Y237.5900 F900
G00 Z8.0000 F480


;No. 6: Hole 8
G00 X205.4100 Y252.5900 Z8.0000 F1500
G00 Z0.5000 F480
G01 Z0.0000 F120
G01 X201.9459 Z-3.0000 F120
G01 X205.4100 Z-6.0000 F120
G01 X193.5900 F900
G01 Y264.4100 F900
G01 X205.4100 F900
G01 Y252.5900 F900
G01 X201.9459 Z-9.0000 F120
G01 X205.4100 Z-12.0000 F120
G01 X193.5900 F900
G01 Y264.4100 F900
G01 X205.4100 F900
G01 Y252.5900 F900
G01 X204.9770 Z-12.3750 F120
G01 X205.4100 Z-12.7500 F120
G01 X193.5900 F900
G01 Y264.4100 F900
G01 X205.4100 F900
G01 Y252.5900 F900
G00 Z8.0000 F480


;No. 7: Hole 2
G00 X219.9538 Y220.0580 Z8.0000 F1500
G00 Z0.5000 F480
G01 Z0.0000 F120
G02 X220.7073 Y222.3771 Z-2.5535 I1.0462 J0.9420 F120
G02 X221.2198 Y222.3906 Z-3.0000 I0.2927 J-1.3771 F120
G03 X220.7073 Y222.3771 Z-3.4465 I-0.2198 J-1.3906 F120
G03 X219.9538 Y220.0580 Z-6.0000 I0.2927 J-1.3771 F120
G02 X220.7073 Y222.3771 I1.0462 J0.9420 F900
G02 X222.3389 Y220.5650 I0.2927 J-1.3771 F900
G02 X219.9538 Y220.0580 I-1.3389 J0.4350 F900
G02 X220.7073 Y222.3771 Z-8.5535 I1.0462 J0.9420 F120
G02 X221.2198 Y222.3906 Z-9.0000 I0.2927 J-1.3771 F120
G03 X220.7073 Y222.3771 Z-9.4465 I-0.2198 J-1.3906 F120
G03 X219.9538 Y220.0580 Z-12.0000 I0.2927 J-1.3771 F120
G02 X220.7073 Y222.3771 I1.0462 J0.9420 F900
G02 X222.3389 Y220.5650 I0.2927 J-1.3771 F900
G02 X219.9538 Y220.0580 I-1.3389 J0.4350 F900
G02 X219.7177 Y220.4189 Z-12.3750 I1.0462 J0.9420 F120
G03 X219.9538 Y220.0580 Z-12.7500 I1.2823 J0.5811 F120
G02 X220.7073 Y222.3771 I1.0462 J0.9420 F900
G02 X222.3389 Y220.5650 I0.2927 J-1.3771 F900
G02 X219.9538 Y220.0580 I-1.3389 J0.4350 F900
G00 Z8.0000 F480


;No. 8: Hole 3
G00 X219.6229 Y50.7073 Z8.0000 F1500
G00 Z0.5000 F480
G01 Z0.0000 F120
G02 X221.4350 Y52.3389 Z-2.5535 I1.3771 J0.2927 F120
G02 X221.8856 Y52.0943 Z-3.0000 I-0.4350 J-1.3389 F120
G03 X221.4350 Y52.3389 Z-3.4465 I-0.8856 J-1.0943 F120
G03 X219.6229 Y50.7073 Z-6.0000 I-0.4350 J-1.3389 F120
G02 X221.4350 Y52.3389 I1.3771 J0.2927 F900
G02 X221.9420 Y49.9538 I-0.4350 J-1.3389 F900
G02 X219.6229 Y50.7073 I-0.9420 J1.0462 F900
G02 X221.4350 Y52.3389 Z-8.5535 I1.3771 J0.2927 F120
G02 X221.8856 Y52.0943 Z-9.0000 I-0.4350 J-1.3389 F120
G03 X221.4350 Y52.3389 Z-9.4465 I-0.8856 J-1.0943 F120
G03 X219.6229 Y50.7073 Z-12.0000 I-0.4350 J-1.3389 F120
G02 X221.4350 Y52.3389 I1.3771 J0.2927 F900
G02 X221.9420 Y49.9538 I-0.4350 J-1.3389 F900
G02 X219.6229 Y50.7073 I-0.9420 J1.0462 F900
G02 X219.5990 Y51.1379 Z-12.3750 I1.3771 J0.2927 F120
G03 X219.6229 Y50.7073 Z-12.7500 I1.4010 J-0.1379 F120
G02 X221.4350 Y52.3389 I1.3771 J0.2927 F900
G02 X221.9420 Y49.9538 I-0.4350 J-1.3389 F900
G02 X219.6229 Y50.7073 I-0.9420 J1.0462 F900
G00 Z8.0000 F480


;No. 9: Hole 9
G00 X264.2600 Y7.7400 Z8.0000 F1500
G00 Z0.5000 F480
G01 Z0.0000 F120
G01 X260.7959 Z-3.0000 F120
G01 X264.2600 Z-6.0000 F120
G01 X7.7400 F900
G01 Y264.2600 F900
G01 X264.2600 F900
G01 Y7.7400 F900
G01 X263.9713 Z-6.2500 F120
G01 X264.2600 Z-6.5000 F120
G01 X7.7400 F900
G01 Y264.2600 F900
G01 X264.2600 F900
G01 Y7.7400 F900
G00 Z8.0000 F480


;No. 10: Hole 9
G00 X264.2600 Y7.7400 Z8.0000 F1500
G00 Z0.5000 F480
G01 Z-6.0000 F120
G01 X264.4100 Y7.5900 F900
G01 X7.5900 F900
G01 Y264.4100 F900
G01 X264.4100 F900
G01 Y7.5900 F900
G01 X264.2600 Y7.7400 F900
G00 Z0.0000 F480
G01 Z-6.5000 F120
G01 X264.4100 Y7.5900 F900
G01 X7.5900 F900
G01 Y264.4100 F900
G01 X264.4100 F900
G01 Y7.5900 F900
G01 X264.2600 Y7.7400 F900
G00 Z0.0000 F480
G00 Z8.0000 F480
G00 X0.0000 Y0.0000 F1500

M05
