;Project 250x250-poly-hole-2020-corner
;Created by Estlcam version 11 build 11.245
;Machining time about 00:00:33 hours

G90
M03 S10000
G00 X0.0000 Y0.0000 Z0.0000 F1500
G00 Z5.0000 F480


;No. 1: Hole 24
G00 X0.1150 Y0.6850 F1500
G00 X0.8979 Y0.5469 Z0.5107 F480
G01 X0.8621 Y0.4131 Z0.5223 F180 S10000
G01 X0.8035 Y0.2875 Z0.5447 F180
G01 X0.7240 Y0.1740 Z0.5670 F180
G01 X0.6260 Y0.0760 Z0.5786 F180
G01 X0.5125 Y-0.0035 Z0.5717 F180
G01 X0.3869 Y-0.0621 Z0.5433 F180
G01 X0.2531 Y-0.0979 Z0.4963 F180
G01 X0.1150 Y-0.1100 Z0.4387 F180
G01 X-0.0231 Y-0.0979 Z0.3810 F180
G01 X-0.1569 Y-0.0621 Z0.3341 F180
G01 X-0.2825 Y-0.0035 Z0.3057 F180
G01 X-0.3960 Y0.0760 Z0.2987 F180
G01 X-0.4940 Y0.1740 Z0.3103 F180
G01 X-0.5735 Y0.2875 Z0.3327 F180
G01 X-0.6321 Y0.4131 Z0.3550 F180
G01 X-0.6679 Y0.5469 Z0.3666 F180
G01 X-0.6800 Y0.6850 Z0.3597 F180
G01 X-0.6679 Y0.8231 Z0.3313 F180
G01 X-0.6321 Y0.9569 Z0.2843 F180
G01 X-0.5735 Y1.0825 Z0.2267 F180
G01 X-0.4940 Y1.1960 Z0.1690 F180
G01 X-0.3960 Y1.2940 Z0.1221 F180
G01 X-0.2825 Y1.3735 Z0.0937 F180
G01 X-0.1569 Y1.4321 Z0.0867 F180
G01 X-0.0231 Y1.4679 Z0.0983 F180
G01 X0.1150 Y1.4800 Z0.1207 F180
G01 X0.2531 Y1.4679 Z0.1430 F180
G01 X0.3869 Y1.4321 Z0.1546 F180
G01 X0.4259 Y1.4167 Z0.1547 F180
G01 X0.5349 Y1.3516 Z0.1474 F180
G01 X0.6307 Y1.2662 Z0.1190 F180
G01 X0.7100 Y1.1632 Z0.0739 F180
G01 X0.7701 Y1.0457 Z0.0211 F180
G01 X0.8086 Y0.9172 Z-0.0282 F180
G01 X0.8240 Y0.7816 Z-0.0641 F180
G01 X0.8154 Y0.6431 Z-0.0800 F180
G01 X0.7827 Y0.5059 Z-0.0746 F180
G01 X0.7265 Y0.3741 Z-0.0527 F180
G01 X0.6481 Y0.2518 Z-0.0231 F180
G01 X0.5493 Y0.1426 Z0.0032 F180
G01 X0.4330 Y0.0499 Z0.0159 F180
G01 X0.3021 Y-0.0235 Z0.0087 F180
G01 X0.1602 Y-0.0753 Z-0.0198 F180
G01 X0.0113 Y-0.1041 Z-0.0649 F180
G01 X-0.1405 Y-0.1089 Z-0.1176 F180
G01 X-0.2911 Y-0.0896 Z-0.1670 F180
G01 X-0.3240 Y-0.0820 Z-0.1765 F180
G01 X-0.4540 Y-0.0207 Z-0.2083 F180
G01 X-0.5737 Y0.0624 Z-0.2193 F180
G01 X-0.6795 Y0.1653 Z-0.2097 F180
G01 X-0.7681 Y0.2852 Z-0.1852 F180
G01 X-0.8369 Y0.4188 Z-0.1553 F180
G01 X-0.8838 Y0.5626 Z-0.1313 F180
G01 X-0.9073 Y0.7125 Z-0.1226 F180
G01 X-0.9067 Y0.8645 Z-0.1347 F180
G01 X-0.8820 Y1.0142 Z-0.1674 F180
G01 X-0.8341 Y1.1576 Z-0.2151 F180
G01 X-0.7643 Y1.2906 Z-0.2681 F180
G01 X-0.6748 Y1.4098 Z-0.3153 F180
G01 X-0.5682 Y1.5118 Z-0.3471 F180
G01 X-0.4479 Y1.5939 Z-0.3581 F180
G01 X-0.3175 Y1.6541 Z-0.3485 F180
G01 X-0.1809 Y1.6909 Z-0.3240 F180
G01 X-0.0424 Y1.7037 Z-0.2941 F180
G01 X0.0940 Y1.6924 Z-0.2701 F180
G01 X0.2240 Y1.6578 Z-0.2614 F180
G01 X0.3437 Y1.6014 Z-0.2735 F180
G01 X0.4495 Y1.5252 Z-0.3062 F180
G01 X0.5381 Y1.4320 Z-0.3539 F180
G01 X0.6069 Y1.3251 Z-0.4069 F180
G01 X0.6538 Y1.2080 Z-0.4540 F180
G01 X0.6773 Y1.0848 Z-0.4859 F180
G01 X0.6767 Y0.9596 Z-0.4969 F180
G01 X0.6520 Y0.8366 Z-0.4873 F180
G01 X0.6041 Y0.7199 Z-0.4627 F180
G01 X0.5343 Y0.6135 Z-0.4329 F180
G01 X0.4448 Y0.5211 Z-0.4089 F180
G01 X0.3382 Y0.4458 Z-0.4002 F180
G01 X0.2179 Y0.3904 Z-0.4123 F180
G01 X0.0875 Y0.3569 Z-0.4450 F180
G01 X-0.0491 Y0.3468 Z-0.4927 F180
G01 X-0.1876 Y0.3607 Z-0.5457 F180
G01 X-0.3240 Y0.3987 Z-0.5928 F180
G01 X-0.4540 Y0.4600 Z-0.6246 F180
G01 X-0.5737 Y0.5432 Z-0.6357 F180
G01 X-0.6795 Y0.6461 Z-0.6261 F180
G01 X-0.7681 Y0.7660 Z-0.6015 F180
G01 X-0.8369 Y0.8996 Z-0.5717 F180
G01 X-0.8838 Y1.0434 Z-0.5477 F180
G01 X-0.9073 Y1.1933 Z-0.5390 F180
G01 X-0.9067 Y1.3452 Z-0.5511 F180
G01 X-0.8820 Y1.4950 Z-0.5838 F180
G01 X-0.8341 Y1.6383 Z-0.6315 F180
G01 X-0.7643 Y1.7714 Z-0.6845 F180
G01 X-0.6748 Y1.8905 Z-0.7316 F180
G01 X-0.5682 Y1.9925 Z-0.7634 F180
G01 X-0.4479 Y2.0747 Z-0.7745 F180
G01 X-0.3175 Y2.1349 Z-0.7649 F180
G01 X-0.1809 Y2.1717 Z-0.7403 F180
G01 X-0.0424 Y2.1845 Z-0.7105 F180
G01 X0.0940 Y2.1732 Z-0.6864 F180
G01 X0.2240 Y2.1386 Z-0.6778 F180
G01 X0.3437 Y2.0822 Z-0.6899 F180
G01 X0.4495 Y2.0060 Z-0.7226 F180
G01 X0.5381 Y1.9128 Z-0.7703 F180
G01 X0.6069 Y1.8059 Z-0.8232 F180
G01 X0.6538 Y1.6888 Z-0.8704 F180
G01 X0.6773 Y1.5656 Z-0.9022 F180
G01 X0.6767 Y1.4404 Z-0.9133 F180
G01 X0.6520 Y1.3173 Z-0.9037 F180
G01 X0.6041 Y1.2007 Z-0.8791 F180
G01 X0.5343 Y1.0943 Z-0.8493 F180
G01 X0.4448 Y1.0019 Z-0.8252 F180
G01 X0.3382 Y0.9266 Z-0.8165 F180
G01 X0.2179 Y0.8712 Z-0.8286 F180
G01 X0.0875 Y0.8377 Z-0.8614 F180
G01 X-0.0491 Y0.8276 Z-0.9091 F180
G01 X-0.1876 Y0.8415 Z-0.9620 F180
G01 X-0.3240 Y0.8795 Z-1.0092 F180
G01 X-0.4540 Y0.9408 Z-1.0410 F180
G01 X-0.5737 Y1.0240 Z-1.0520 F180
G01 X-0.6795 Y1.1268 Z-1.0424 F180
G01 X-0.7681 Y1.2467 Z-1.0179 F180
G01 X-0.8369 Y1.3804 Z-0.9880 F180
G01 X-0.8838 Y1.5242 Z-0.9640 F180
G01 X-0.9073 Y1.6741 Z-0.9553 F180
G01 X-0.9067 Y1.8260 Z-0.9674 F180
G01 X-0.8820 Y1.9757 Z-1.0001 F180
G01 X-0.8341 Y2.1191 Z-1.0478 F180
G01 X-0.7643 Y2.2522 Z-1.1008 F180
G01 X-0.6748 Y2.3713 Z-1.1480 F180
G01 X-0.5682 Y2.4733 Z-1.1798 F180
G01 X-0.4479 Y2.5554 Z-1.1908 F180
G01 X-0.3175 Y2.6156 Z-1.1812 F180
G01 X-0.1809 Y2.6525 Z-1.1567 F180
G01 X-0.0424 Y2.6652 Z-1.1268 F180
G01 X0.0940 Y2.6540 Z-1.1028 F180
G01 X0.2240 Y2.6194 Z-1.0941 F180
G01 X0.3437 Y2.5629 Z-1.1062 F180
G01 X0.4495 Y2.4868 Z-1.1389 F180
G01 X0.5381 Y2.3936 Z-1.1866 F180
G01 X0.6069 Y2.2866 Z-1.2396 F180
G01 X0.6538 Y2.1696 Z-1.2868 F180
G01 X0.6773 Y2.0463 Z-1.3186 F180
G01 X0.6767 Y1.9211 Z-1.3296 F180
G01 X0.6520 Y1.7981 Z-1.3200 F180
G01 X0.6041 Y1.6814 Z-1.2955 F180
G01 X0.5808 Y1.6409 Z-1.2845 F180
G01 X0.5035 Y1.5125 Z-1.2555 F180
G01 X0.4074 Y1.3994 Z-1.2362 F180
G01 X0.2953 Y1.3044 Z-1.2348 F180
G01 X0.1709 Y1.2302 Z-1.2548 F180
G01 X0.0377 Y1.1784 Z-1.2940 F180
G01 X-0.1001 Y1.1504 Z-1.3449 F180
G01 X-0.2383 Y1.1465 Z-1.3970 F180
G01 X-0.3728 Y1.1665 Z-1.4394 F180
G01 X-0.4995 Y1.2094 Z-1.4640 F180
G01 X-0.6145 Y1.2734 Z-1.4671 F180
G01 X-0.7143 Y1.3561 Z-1.4511 F180
G01 X-0.7959 Y1.4548 Z-1.4233 F180
G01 X-0.8568 Y1.5659 Z-1.3943 F180
G01 X-0.8952 Y1.6857 Z-1.3750 F180
G01 X-0.9099 Y1.8102 Z-1.3736 F180
G01 X-0.9004 Y1.9351 Z-1.3936 F180
G01 X-0.8670 Y2.0562 Z-1.4328 F180
G01 X-0.8108 Y2.1695 Z-1.4837 F180
G01 X-0.7335 Y2.2712 Z-1.5358 F180
G01 X-0.6374 Y2.3576 Z-1.5782 F180
G01 X-0.5253 Y2.4259 Z-1.6027 F180
G01 X-0.4009 Y2.4734 Z-1.6059 F180
G01 X-0.2677 Y2.4984 Z-1.5898 F180
G01 X-0.1299 Y2.4997 Z-1.5621 F180
G01 X0.0083 Y2.4769 Z-1.5331 F180
G01 X0.1428 Y2.4302 Z-1.5138 F180
G01 X0.2695 Y2.3606 Z-1.5124 F180
G01 X0.3845 Y2.2699 Z-1.5324 F180
G01 X0.4843 Y2.1605 Z-1.5716 F180
G01 X0.5659 Y2.0351 Z-1.6225 F180
G01 X0.6268 Y1.8973 Z-1.6746 F180
G01 X0.6652 Y1.7508 Z-1.7170 F180
G01 X0.6799 Y1.5996 Z-1.7415 F180
G01 X0.6704 Y1.4480 Z-1.7447 F180
G01 X0.6370 Y1.3001 Z-1.7286 F180
G01 X0.5808 Y1.1601 Z-1.7009 F180
G01 X0.5035 Y1.0318 Z-1.6719 F180
G01 X0.4074 Y0.9186 Z-1.6526 F180
G01 X0.2953 Y0.8236 Z-1.6512 F180
G01 X0.1709 Y0.7494 Z-1.6712 F180
G01 X0.0377 Y0.6977 Z-1.7104 F180
G01 X-0.1001 Y0.6696 Z-1.7613 F180
G01 X-0.2383 Y0.6658 Z-1.8134 F180
G01 X-0.3728 Y0.6858 Z-1.8558 F180
G01 X-0.4995 Y0.7286 Z-1.8803 F180
G01 X-0.6145 Y0.7926 Z-1.8834 F180
G01 X-0.7143 Y0.8754 Z-1.8674 F180
G01 X-0.7959 Y0.9740 Z-1.8396 F180
G01 X-0.8568 Y1.0851 Z-1.8107 F180
G01 X-0.8952 Y1.2049 Z-1.7914 F180
G01 X-0.9099 Y1.3294 Z-1.7900 F180
G01 X-0.9004 Y1.4543 Z-1.8100 F180
G01 X-0.8670 Y1.5754 Z-1.8491 F180
G01 X-0.8108 Y1.6888 Z-1.9000 F180
G01 X-0.7335 Y1.7904 Z-1.9521 F180
G01 X-0.6374 Y1.8768 Z-1.9946 F180
G01 X-0.5253 Y1.9451 Z-2.0191 F180
G01 X-0.4009 Y1.9926 Z-2.0222 F180
G01 X-0.2677 Y2.0177 Z-2.0062 F180
G01 X-0.1299 Y2.0190 Z-1.9784 F180
G01 X0.0083 Y1.9961 Z-1.9495 F180
G01 X0.1428 Y1.9494 Z-1.9301 F180
G01 X0.2695 Y1.8799 Z-1.9288 F180
G01 X0.3845 Y1.7892 Z-1.9488 F180
G01 X0.4843 Y1.6797 Z-1.9879 F180
G01 X0.5659 Y1.5543 Z-2.0388 F180
G01 X0.6268 Y1.4165 Z-2.0909 F180
G01 X0.6652 Y1.2700 Z-2.1334 F180
G01 X0.6799 Y1.1188 Z-2.1579 F180
G01 X0.6704 Y0.9672 Z-2.1610 F180
G01 X0.6370 Y0.8194 Z-2.1450 F180
G01 X0.5808 Y0.6793 Z-2.1172 F180
G01 X0.5035 Y0.5510 Z-2.0882 F180
G01 X0.4074 Y0.4378 Z-2.0689 F180
G01 X0.2953 Y0.3429 Z-2.0675 F180
G01 X0.1709 Y0.2686 Z-2.0876 F180
G01 X0.0377 Y0.2169 Z-2.1267 F180
G01 X-0.1001 Y0.1889 Z-2.1776 F180
G01 X-0.2383 Y0.1850 Z-2.2297 F180
G01 X-0.3728 Y0.2050 Z-2.2722 F180
G01 X-0.4995 Y0.2478 Z-2.2967 F180
G01 X-0.6145 Y0.3118 Z-2.2998 F180
G01 X-0.7143 Y0.3946 Z-2.2838 F180
G01 X-0.7959 Y0.4932 Z-2.2560 F180
G01 X-0.8568 Y0.6044 Z-2.2270 F180
G01 X-0.8952 Y0.7242 Z-2.2077 F180
G01 X-0.9099 Y0.8486 Z-2.2063 F180
G01 X-0.9004 Y0.9735 Z-2.2263 F180
G01 X-0.8670 Y1.0947 Z-2.2655 F180
G01 X-0.8108 Y1.2080 Z-2.3164 F180
G01 X-0.7335 Y1.3096 Z-2.3685 F180
G01 X-0.6374 Y1.3961 Z-2.4110 F180
G01 X-0.5253 Y1.4643 Z-2.4355 F180
G01 X-0.4009 Y1.5119 Z-2.4386 F180
G01 X-0.2677 Y1.5369 Z-2.4226 F180
G01 X-0.1299 Y1.5382 Z-2.3948 F180
G01 X0.0083 Y1.5154 Z-2.3658 F180
G01 X0.1428 Y1.4687 Z-2.3465 F180
G01 X0.2695 Y1.3991 Z-2.3451 F180
G01 X0.3845 Y1.3084 Z-2.3651 F180
G01 X0.4232 Y1.2701 Z-2.3776 F180
G01 X0.5300 Y1.1678 Z-2.4222 F180
G01 X0.6176 Y1.0508 Z-2.4748 F180
G01 X0.6837 Y0.9226 Z-2.5246 F180
G01 X0.7268 Y0.7873 Z-2.5612 F180
G01 X0.7460 Y0.6488 Z-2.5779 F180
G01 X0.7410 Y0.5115 Z-2.5734 F180
G01 X0.7124 Y0.3794 Z-2.5520 F180
G01 X0.6615 Y0.2566 Z-2.5224 F180
G01 X0.5903 Y0.1468 Z-2.4958 F180
G01 X0.5013 Y0.0534 Z-2.4824 F180
G01 X0.3977 Y-0.0209 Z-2.4888 F180
G01 X0.2829 Y-0.0737 Z-2.5164 F180
G01 X0.1609 Y-0.1034 Z-2.5610 F180
G01 X0.0358 Y-0.1092 Z-2.6136 F180
G01 X-0.0882 Y-0.0908 Z-2.6634 F180
G01 X-0.2069 Y-0.0489 Z-2.6999 F180
G01 X-0.3164 Y0.0153 Z-2.7167 F180
G01 X-0.3391 Y0.0324 Z-2.7175 F180
G01 X-0.4632 Y0.1212 Z-2.6971 F1200
G01 X-0.5702 Y0.2271 Z-2.6614 F1200
G01 X-0.6575 Y0.3469 Z-2.6200 F1200
G01 X-0.7230 Y0.4770 Z-2.5839 F1200
G01 X-0.7651 Y0.6134 Z-2.5629 F1200
G01 X-0.7832 Y0.7520 Z-2.5625 F1200
G01 X-0.7772 Y0.8885 Z-2.5829 F1200
G01 X-0.7478 Y1.0189 Z-2.6186 F1200
G01 X-0.6966 Y1.1391 Z-2.6600 F1200
G01 X-0.6255 Y1.2455 Z-2.6961 F1200
G01 X-0.5372 Y1.3349 Z-2.7171 F1200
G01 X-0.4351 Y1.4045 Z-2.7175 F1200
G01 X-0.3227 Y1.4523 Z-2.6971 F1200
G01 X-0.3205 Y1.4530 Z-2.6965 F1200
G01 X-0.1840 Y1.4947 Z-2.6606 F1200
G01 X-0.0454 Y1.5123 Z-2.6192 F1200
G01 X0.0910 Y1.5058 Z-2.5834 F1200
G01 X0.2212 Y1.4761 Z-2.5627 F1200
G01 X0.3412 Y1.4244 F1200
G01 X0.4473 Y1.3530 Z-2.5835 F1200
G01 X0.5364 Y1.2644 Z-2.6194 F1200
G01 X0.6056 Y1.1621 Z-2.6608 F1200
G01 X0.6530 Y1.0495 Z-2.6966 F1200
G01 X0.6770 Y0.9307 Z-2.7173 F1200
G01 Y0.8098 F1200
G01 X0.6528 Y0.6910 Z-2.6965 F1200
G01 X0.6054 Y0.5784 Z-2.6606 F1200
G01 X0.5361 Y0.4761 Z-2.6192 F1200
G01 X0.4470 Y0.3877 Z-2.5834 F1200
G01 X0.3408 Y0.3163 Z-2.5627 F1200
G01 X0.2207 Y0.2647 F1200
G01 X0.0905 Y0.2350 Z-2.5835 F1200
G01 X-0.0460 Y0.2287 Z-2.6194 F1200
G01 X-0.1846 Y0.2464 Z-2.6608 F1200
G01 X-0.3210 Y0.2882 Z-2.6966 F1200
G01 X-0.4512 Y0.3533 Z-2.7173 F1200
G01 X-0.5712 Y0.4403 F1200
G01 X-0.6773 Y0.5470 Z-2.6965 F1200
G01 X-0.7664 Y0.6709 Z-2.6606 F1200
G01 X-0.8356 Y0.8086 Z-2.6192 F1200
G01 X-0.8830 Y0.9565 Z-2.5834 F1200
G01 X-0.9070 Y1.1107 Z-2.5627 F1200
G01 Y1.2669 F1200
G01 X-0.8828 Y1.4210 Z-2.5835 F1200
G01 X-0.8354 Y1.5689 Z-2.6194 F1200
G01 X-0.7661 Y1.7066 Z-2.6608 F1200
G01 X-0.6770 Y1.8303 Z-2.6966 F1200
G01 X-0.5708 Y1.9371 Z-2.7173 F1200
G01 X-0.4507 Y2.0240 F1200
G01 X-0.3205 Y2.0890 Z-2.6965 F1200
G01 X-0.1840 Y2.1307 Z-2.6606 F1200
G01 X-0.0454 Y2.1483 Z-2.6192 F1200
G01 X0.0910 Y2.1418 Z-2.5834 F1200
G01 X0.2212 Y2.1121 Z-2.5627 F1200
G01 X0.3412 Y2.0604 F1200
G01 X0.4473 Y1.9890 Z-2.5835 F1200
G01 X0.5364 Y1.9004 Z-2.6194 F1200
G01 X0.6056 Y1.7981 Z-2.6608 F1200
G01 X0.6530 Y1.6855 Z-2.6966 F1200
G01 X0.6770 Y1.5667 Z-2.7173 F1200
G01 Y1.4458 F1200
G01 X0.6528 Y1.3270 Z-2.6965 F1200
G01 X0.6054 Y1.2144 Z-2.6606 F1200
G01 X0.5361 Y1.1121 Z-2.6192 F1200
G01 X0.4470 Y1.0237 Z-2.5834 F1200
G01 X0.3408 Y0.9523 Z-2.5627 F1200
G01 X0.2207 Y0.9007 F1200
G01 X0.0905 Y0.8710 Z-2.5835 F1200
G01 X-0.0460 Y0.8647 Z-2.6194 F1200
G01 X-0.1846 Y0.8824 Z-2.6608 F1200
G01 X-0.3210 Y0.9242 Z-2.6966 F1200
G01 X-0.4512 Y0.9893 Z-2.7173 F1200
G01 X-0.5712 Y1.0763 F1200
G01 X-0.6773 Y1.1830 Z-2.6965 F1200
G01 X-0.7664 Y1.3069 Z-2.6606 F1200
G01 X-0.8356 Y1.4446 Z-2.6192 F1200
G01 X-0.8830 Y1.5925 Z-2.5834 F1200
G01 X-0.9070 Y1.7467 Z-2.5627 F1200
G01 Y1.9029 F1200
G01 X-0.8828 Y2.0570 Z-2.5835 F1200
G01 X-0.8354 Y2.2049 Z-2.6194 F1200
G01 X-0.7661 Y2.3426 Z-2.6608 F1200
G01 X-0.6770 Y2.4663 Z-2.6966 F1200
G01 X-0.5708 Y2.5731 Z-2.7173 F1200
G01 X-0.4507 Y2.6600 F1200
G01 X-0.3205 Y2.7250 Z-2.6965 F1200
G01 X-0.1840 Y2.7667 Z-2.6606 F1200
G01 X-0.0454 Y2.7843 Z-2.6192 F1200
G01 X0.0910 Y2.7778 Z-2.5834 F1200
G01 X0.2212 Y2.7481 Z-2.5627 F1200
G01 X0.3412 Y2.6964 F1200
G01 X0.4473 Y2.6250 Z-2.5835 F1200
G01 X0.5364 Y2.5364 Z-2.6194 F1200
G01 X0.6056 Y2.4341 Z-2.6608 F1200
G01 X0.6530 Y2.3215 Z-2.6966 F1200
G01 X0.6770 Y2.2027 Z-2.7173 F1200
G01 Y2.0818 F1200
G01 X0.6528 Y1.9630 Z-2.6965 F1200
G01 X0.6054 Y1.8504 Z-2.6606 F1200
G01 X0.5361 Y1.7481 Z-2.6192 F1200
G01 X0.4470 Y1.6597 Z-2.5834 F1200
G01 X0.3408 Y1.5883 Z-2.5627 F1200
G01 X0.2207 Y1.5367 F1200
G01 X0.0905 Y1.5070 Z-2.5835 F1200
G01 X-0.0460 Y1.5007 Z-2.6194 F1200
G01 X-0.1846 Y1.5184 Z-2.6608 F1200
G01 X-0.3210 Y1.5602 Z-2.6966 F1200
G01 X-0.4512 Y1.6253 Z-2.7173 F1200
G01 X-0.5712 Y1.7123 F1200
G01 X-0.6773 Y1.8190 Z-2.6965 F1200
G01 X-0.7664 Y1.9429 Z-2.6606 F1200
G01 X-0.8356 Y2.0806 Z-2.6192 F1200
G01 X-0.8830 Y2.2285 Z-2.5834 F1200
G01 X-0.9070 Y2.3827 Z-2.5627 F1200
G01 Y2.5389 F1200
G01 X-0.8828 Y2.6930 Z-2.5835 F1200
G01 X-0.8354 Y2.8409 Z-2.6194 F1200
G01 X-0.7661 Y2.9786 Z-2.6608 F1200
G01 X-0.6770 Y3.1023 Z-2.6966 F1200
G01 X-0.5708 Y3.2091 Z-2.7173 F1200
G01 X-0.4507 Y3.2960 F1200
G01 X-0.3205 Y3.3610 Z-2.6965 F1200
G01 X-0.1840 Y3.4027 Z-2.6606 F1200
G01 X-0.0454 Y3.4203 Z-2.6192 F1200
G01 X0.0910 Y3.4138 Z-2.5834 F1200
G01 X0.2212 Y3.3841 Z-2.5627 F1200
G01 X0.3412 Y3.3324 F1200
G01 X0.4473 Y3.2610 Z-2.5835 F1200
G01 X0.5364 Y3.1724 Z-2.6194 F1200
G01 X0.6056 Y3.0701 Z-2.6608 F1200
G01 X0.6530 Y2.9575 Z-2.6966 F1200
G01 X0.6770 Y2.8387 Z-2.7173 F1200
G01 Y2.7178 F1200
G01 X0.6528 Y2.5990 Z-2.6965 F1200
G01 X0.6054 Y2.4864 Z-2.6606 F1200
G01 X0.5361 Y2.3841 Z-2.6192 F1200
G01 X0.4470 Y2.2957 Z-2.5834 F1200
G01 X0.3408 Y2.2243 Z-2.5627 F1200
G01 X0.2207 Y2.1727 F1200
G01 X0.0905 Y2.1430 Z-2.5835 F1200
G01 X-0.0460 Y2.1367 Z-2.6194 F1200
G01 X-0.1846 Y2.1544 Z-2.6608 F1200
G01 X-0.3210 Y2.1962 Z-2.6966 F1200
G01 X-0.4512 Y2.2613 Z-2.7173 F1200
G01 X-0.5712 Y2.3483 F1200
G01 X-0.6773 Y2.4550 Z-2.6965 F1200
G01 X-0.7664 Y2.5789 Z-2.6606 F1200
G01 X-0.8356 Y2.7166 Z-2.6192 F1200
G01 X-0.8830 Y2.8645 Z-2.5834 F1200
G01 X-0.9070 Y3.0187 Z-2.5627 F1200
G01 Y3.1749 F1200
G01 X-0.8828 Y3.3290 Z-2.5835 F1200
G01 X-0.8354 Y3.4769 Z-2.6194 F1200
G01 X-0.7661 Y3.6146 Z-2.6608 F1200
G01 X-0.6770 Y3.7383 Z-2.6966 F1200
G01 X-0.5708 Y3.8451 Z-2.7173 F1200
G01 X-0.4507 Y3.9320 F1200
G01 X-0.3205 Y3.9970 Z-2.6965 F1200
G01 X-0.1840 Y4.0387 Z-2.6606 F1200
G01 X-0.0454 Y4.0563 Z-2.6192 F1200
G01 X0.0910 Y4.0498 Z-2.5834 F1200
G01 X0.2212 Y4.0201 Z-2.5627 F1200
G01 X0.3412 Y3.9684 F1200
G01 X0.4473 Y3.8970 Z-2.5835 F1200
G01 X0.5364 Y3.8084 Z-2.6194 F1200
G01 X0.6056 Y3.7061 Z-2.6608 F1200
G01 X0.6530 Y3.5935 Z-2.6966 F1200
G01 X0.6770 Y3.4747 Z-2.7173 F1200
G01 Y3.3538 F1200
G01 X0.6528 Y3.2350 Z-2.6965 F1200
G01 X0.6054 Y3.1224 Z-2.6606 F1200
G01 X0.5361 Y3.0201 Z-2.6192 F1200
G01 X0.4470 Y2.9317 Z-2.5834 F1200
G01 X0.3408 Y2.8603 Z-2.5627 F1200
G01 X0.2207 Y2.8087 F1200
G01 X0.0905 Y2.7790 Z-2.5835 F1200
G01 X-0.0460 Y2.7727 Z-2.6194 F1200
G01 X-0.1846 Y2.7904 Z-2.6608 F1200
G01 X-0.3210 Y2.8322 Z-2.6966 F1200
G01 X-0.4512 Y2.8973 Z-2.7173 F1200
G01 X-0.5712 Y2.9843 F1200
G01 X-0.6773 Y3.0910 Z-2.6965 F1200
G01 X-0.7664 Y3.2149 Z-2.6606 F1200
G01 X-0.8356 Y3.3526 Z-2.6192 F1200
G01 X-0.8830 Y3.5005 Z-2.5834 F1200
G01 X-0.9070 Y3.6547 Z-2.5627 F1200
G01 Y3.8109 F1200
G01 X-0.8828 Y3.9650 Z-2.5835 F1200
G01 X-0.8354 Y4.1129 Z-2.6194 F1200
G01 X-0.7661 Y4.2506 Z-2.6608 F1200
G01 X-0.6770 Y4.3743 Z-2.6966 F1200
G01 X-0.5708 Y4.4811 Z-2.7173 F1200
G01 X-0.4507 Y4.5680 F1200
G01 X-0.3205 Y4.6330 Z-2.6965 F1200
G01 X-0.1840 Y4.6747 Z-2.6606 F1200
G01 X-0.0454 Y4.6923 Z-2.6192 F1200
G01 X0.0910 Y4.6858 Z-2.5834 F1200
G01 X0.2212 Y4.6561 Z-2.5627 F1200
G01 X0.3412 Y4.6044 F1200
G01 X0.4473 Y4.5330 Z-2.5835 F1200
G01 X0.5364 Y4.4444 Z-2.6194 F1200
G01 X0.6056 Y4.3421 Z-2.6608 F1200
G01 X0.6530 Y4.2295 Z-2.6966 F1200
G01 X0.6770 Y4.1107 Z-2.7173 F1200
G01 Y3.9898 F1200
G01 X0.6528 Y3.8710 Z-2.6965 F1200
G01 X0.6054 Y3.7584 Z-2.6606 F1200
G01 X0.5361 Y3.6561 Z-2.6192 F1200
G01 X0.4470 Y3.5677 Z-2.5834 F1200
G01 X0.3408 Y3.4963 Z-2.5627 F1200
G01 X0.2207 Y3.4447 F1200
G01 X0.0905 Y3.4150 Z-2.5835 F1200
G01 X-0.0460 Y3.4087 Z-2.6194 F1200
G01 X-0.1846 Y3.4264 Z-2.6608 F1200
G01 X-0.3210 Y3.4682 Z-2.6966 F1200
G01 X-0.4512 Y3.5333 Z-2.7173 F1200
G01 X-0.5712 Y3.6203 F1200
G01 X-0.6773 Y3.7270 Z-2.6965 F1200
G01 X-0.7664 Y3.8509 Z-2.6606 F1200
G01 X-0.8356 Y3.9886 Z-2.6192 F1200
G01 X-0.8830 Y4.1365 Z-2.5834 F1200
G01 X-0.9070 Y4.2907 Z-2.5627 F1200
G01 Y4.4469 F1200
G01 X-0.8828 Y4.6010 Z-2.5835 F1200
G01 X-0.8354 Y4.7489 Z-2.6194 F1200
G01 X-0.7661 Y4.8866 Z-2.6608 F1200
G01 X-0.6770 Y5.0103 Z-2.6966 F1200
G01 X-0.5708 Y5.1171 Z-2.7173 F1200
G01 X-0.4507 Y5.2040 F1200
G01 X-0.3205 Y5.2690 Z-2.6965 F1200
G01 X-0.1840 Y5.3107 Z-2.6606 F1200
G01 X-0.0454 Y5.3283 Z-2.6192 F1200
G01 X0.0910 Y5.3218 Z-2.5834 F1200
G01 X0.2212 Y5.2921 Z-2.5627 F1200
G01 X0.3412 Y5.2404 F1200
G01 X0.4473 Y5.1690 Z-2.5835 F1200
G01 X0.5364 Y5.0804 Z-2.6194 F1200
G01 X0.6056 Y4.9781 Z-2.6608 F1200
G01 X0.6530 Y4.8655 Z-2.6966 F1200
G01 X0.6770 Y4.7467 Z-2.7173 F1200
G01 Y4.6258 F1200
G01 X0.6528 Y4.5070 Z-2.6965 F1200
G01 X0.6054 Y4.3944 Z-2.6606 F1200
G01 X0.5361 Y4.2921 Z-2.6192 F1200
G01 X0.4470 Y4.2037 Z-2.5834 F1200
G01 X0.3408 Y4.1323 Z-2.5627 F1200
G01 X0.2207 Y4.0807 F1200
G01 X0.0905 Y4.0510 Z-2.5835 F1200
G01 X-0.0460 Y4.0447 Z-2.6194 F1200
G01 X-0.1846 Y4.0624 Z-2.6608 F1200
G01 X-0.3210 Y4.1042 Z-2.6966 F1200
G01 X-0.4512 Y4.1693 Z-2.7173 F1200
G01 X-0.5712 Y4.2563 F1200
G01 X-0.6773 Y4.3630 Z-2.6965 F1200
G01 X-0.7664 Y4.4869 Z-2.6606 F1200
G01 X-0.8356 Y4.6246 Z-2.6192 F1200
G01 X-0.8830 Y4.7725 Z-2.5834 F1200
G01 X-0.9070 Y4.9267 Z-2.5627 F1200
G01 Y5.0829 F1200
G01 X-0.8828 Y5.2370 Z-2.5835 F1200
G01 X-0.8354 Y5.3849 Z-2.6194 F1200
G01 X-0.7661 Y5.5226 Z-2.6608 F1200
G01 X-0.6770 Y5.6463 Z-2.6966 F1200
G01 X-0.5708 Y5.7531 Z-2.7173 F1200
G01 X-0.4507 Y5.8400 F1200
G01 X-0.3205 Y5.9050 Z-2.6965 F1200
G01 X-0.1840 Y5.9467 Z-2.6606 F1200
G01 X-0.0454 Y5.9643 Z-2.6192 F1200
G01 X0.0910 Y5.9578 Z-2.5834 F1200
G01 X0.2212 Y5.9281 Z-2.5627 F1200
G01 X0.3412 Y5.8764 F1200
G01 X0.4473 Y5.8050 Z-2.5835 F1200
G01 X0.5364 Y5.7164 Z-2.6194 F1200
G01 X0.6056 Y5.6141 Z-2.6608 F1200
G01 X0.6530 Y5.5015 Z-2.6966 F1200
G01 X0.6770 Y5.3827 Z-2.7173 F1200
G01 Y5.2618 F1200
G01 X0.6528 Y5.1430 Z-2.6965 F1200
G01 X0.6054 Y5.0304 Z-2.6606 F1200
G01 X0.5361 Y4.9281 Z-2.6192 F1200
G01 X0.4470 Y4.8397 Z-2.5834 F1200
G01 X0.3408 Y4.7683 Z-2.5627 F1200
G01 X0.2207 Y4.7167 F1200
G01 X0.0905 Y4.6870 Z-2.5835 F1200
G01 X-0.0460 Y4.6807 Z-2.6194 F1200
G01 X-0.1846 Y4.6984 Z-2.6608 F1200
G01 X-0.3210 Y4.7402 Z-2.6966 F1200
G01 X-0.4512 Y4.8053 Z-2.7173 F1200
G01 X-0.5712 Y4.8923 F1200
G01 X-0.6773 Y4.9990 Z-2.6965 F1200
G01 X-0.7664 Y5.1229 Z-2.6606 F1200
G01 X-0.8356 Y5.2606 Z-2.6192 F1200
G01 X-0.8830 Y5.4085 Z-2.5834 F1200
G01 X-0.9070 Y5.5627 Z-2.5627 F1200
G01 Y5.7189 F1200
G01 X-0.8828 Y5.8730 Z-2.5835 F1200
G01 X-0.8354 Y6.0209 Z-2.6194 F1200
G01 X-0.7661 Y6.1586 Z-2.6608 F1200
G01 X-0.6770 Y6.2823 Z-2.6966 F1200
G01 X-0.5708 Y6.3891 Z-2.7173 F1200
G01 X-0.4507 Y6.4760 F1200
G01 X-0.3205 Y6.5410 Z-2.6965 F1200
G01 X-0.1840 Y6.5827 Z-2.6606 F1200
G01 X-0.0454 Y6.6003 Z-2.6192 F1200
G01 X0.0910 Y6.5938 Z-2.5834 F1200
G01 X0.2212 Y6.5641 Z-2.5627 F1200
G01 X0.3412 Y6.5124 F1200
G01 X0.4473 Y6.4410 Z-2.5835 F1200
G01 X0.5364 Y6.3524 Z-2.6194 F1200
G01 X0.6056 Y6.2501 Z-2.6608 F1200
G01 X0.6530 Y6.1375 Z-2.6966 F1200
G01 X0.6770 Y6.0187 Z-2.7173 F1200
G01 Y5.8978 F1200
G01 X0.6528 Y5.7790 Z-2.6965 F1200
G01 X0.6054 Y5.6664 Z-2.6606 F1200
G01 X0.5361 Y5.5641 Z-2.6192 F1200
G01 X0.4470 Y5.4757 Z-2.5834 F1200
G01 X0.3408 Y5.4043 Z-2.5627 F1200
G01 X0.2207 Y5.3527 F1200
G01 X0.0905 Y5.3230 Z-2.5835 F1200
G01 X-0.0460 Y5.3167 Z-2.6194 F1200
G01 X-0.1846 Y5.3344 Z-2.6608 F1200
G01 X-0.3210 Y5.3762 Z-2.6966 F1200
G01 X-0.4512 Y5.4413 Z-2.7173 F1200
G01 X-0.5712 Y5.5283 F1200
G01 X-0.6773 Y5.6350 Z-2.6965 F1200
G01 X-0.7664 Y5.7589 Z-2.6606 F1200
G01 X-0.8356 Y5.8966 Z-2.6192 F1200
G01 X-0.8830 Y6.0445 Z-2.5834 F1200
G01 X-0.9070 Y6.1987 Z-2.5627 F1200
G01 Y6.3549 F1200
G01 X-0.8828 Y6.5090 Z-2.5835 F1200
G01 X-0.8354 Y6.6569 Z-2.6194 F1200
G01 X-0.7661 Y6.7946 Z-2.6608 F1200
G01 X-0.6770 Y6.9183 Z-2.6966 F1200
G01 X-0.5708 Y7.0251 Z-2.7173 F1200
G01 X-0.4507 Y7.1120 F1200
G01 X-0.3205 Y7.1770 Z-2.6965 F1200
G01 X-0.1840 Y7.2187 Z-2.6606 F1200
G01 X-0.0454 Y7.2363 Z-2.6192 F1200
G01 X0.0910 Y7.2298 Z-2.5834 F1200
G01 X0.2212 Y7.2001 Z-2.5627 F1200
G01 X0.3412 Y7.1484 F1200
G01 X0.4473 Y7.0770 Z-2.5835 F1200
G01 X0.5364 Y6.9884 Z-2.6194 F1200
G01 X0.6056 Y6.8861 Z-2.6608 F1200
G01 X0.6530 Y6.7735 Z-2.6966 F1200
G01 X0.6770 Y6.6547 Z-2.7173 F1200
G01 Y6.5338 F1200
G01 X0.6528 Y6.4150 Z-2.6965 F1200
G01 X0.6054 Y6.3024 Z-2.6606 F1200
G01 X0.5361 Y6.2001 Z-2.6192 F1200
G01 X0.4470 Y6.1117 Z-2.5834 F1200
G01 X0.3408 Y6.0403 Z-2.5627 F1200
G01 X0.2207 Y5.9887 F1200
G01 X0.0905 Y5.9590 Z-2.5835 F1200
G01 X-0.0460 Y5.9527 Z-2.6194 F1200
G01 X-0.1846 Y5.9704 Z-2.6608 F1200
G01 X-0.3210 Y6.0122 Z-2.6966 F1200
G01 X-0.4512 Y6.0773 Z-2.7173 F1200
G01 X-0.5712 Y6.1643 F1200
G01 X-0.6773 Y6.2710 Z-2.6965 F1200
G01 X-0.7664 Y6.3949 Z-2.6606 F1200
G01 X-0.8356 Y6.5326 Z-2.6192 F1200
G01 X-0.8830 Y6.6805 Z-2.5834 F1200
G01 X-0.9070 Y6.8347 Z-2.5627 F1200
G01 Y6.9909 F1200
G01 X-0.8828 Y7.1450 Z-2.5835 F1200
G01 X-0.8354 Y7.2929 Z-2.6194 F1200
G01 X-0.7661 Y7.4306 Z-2.6608 F1200
G01 X-0.6770 Y7.5543 Z-2.6966 F1200
G01 X-0.5708 Y7.6611 Z-2.7173 F1200
G01 X-0.4507 Y7.7480 F1200
G01 X-0.3205 Y7.8130 Z-2.6965 F1200
G01 X-0.1840 Y7.8547 Z-2.6606 F1200
G01 X-0.0454 Y7.8723 Z-2.6192 F1200
G01 X0.0910 Y7.8658 Z-2.5834 F1200
G01 X0.2212 Y7.8361 Z-2.5627 F1200
G01 X0.3412 Y7.7844 F1200
G01 X0.4473 Y7.7130 Z-2.5835 F1200
G01 X0.5364 Y7.6244 Z-2.6194 F1200
G01 X0.6056 Y7.5221 Z-2.6608 F1200
G01 X0.6530 Y7.4095 Z-2.6966 F1200
G01 X0.6770 Y7.2907 Z-2.7173 F1200
G01 Y7.1698 F1200
G01 X0.6528 Y7.0510 Z-2.6965 F1200
G01 X0.6054 Y6.9384 Z-2.6606 F1200
G01 X0.5361 Y6.8361 Z-2.6192 F1200
G01 X0.4470 Y6.7477 Z-2.5834 F1200
G01 X0.3408 Y6.6763 Z-2.5627 F1200
G01 X0.2207 Y6.6247 F1200
G01 X0.0905 Y6.5950 Z-2.5835 F1200
G01 X-0.0460 Y6.5887 Z-2.6194 F1200
G01 X-0.1846 Y6.6064 Z-2.6608 F1200
G01 X-0.3210 Y6.6482 Z-2.6966 F1200
G01 X-0.4512 Y6.7133 Z-2.7173 F1200
G01 X-0.5712 Y6.8003 F1200
G01 X-0.6773 Y6.9070 Z-2.6965 F1200
G01 X-0.7664 Y7.0309 Z-2.6606 F1200
G01 X-0.8356 Y7.1686 Z-2.6192 F1200
G01 X-0.8830 Y7.3165 Z-2.5834 F1200
G01 X-0.9070 Y7.4707 Z-2.5627 F1200
G01 Y7.6269 F1200
G01 X-0.8828 Y7.7810 Z-2.5835 F1200
G01 X-0.8354 Y7.9289 Z-2.6194 F1200
G01 X-0.7661 Y8.0666 Z-2.6608 F1200
G01 X-0.6770 Y8.1903 Z-2.6966 F1200
G01 X-0.5708 Y8.2971 Z-2.7173 F1200
G01 X-0.4507 Y8.3840 F1200
G01 X-0.3205 Y8.4490 Z-2.6965 F1200
G01 X-0.1840 Y8.4907 Z-2.6606 F1200
G01 X-0.0454 Y8.5083 Z-2.6192 F1200
G01 X0.0910 Y8.5018 Z-2.5834 F1200
G01 X0.2212 Y8.4721 Z-2.5627 F1200
G01 X0.3412 Y8.4204 F1200
G01 X0.4473 Y8.3490 Z-2.5835 F1200
G01 X0.5364 Y8.2604 Z-2.6194 F1200
G01 X0.6056 Y8.1581 Z-2.6608 F1200
G01 X0.6530 Y8.0455 Z-2.6966 F1200
G01 X0.6770 Y7.9267 Z-2.7173 F1200
G01 Y7.8058 F1200
G01 X0.6528 Y7.6870 Z-2.6965 F1200
G01 X0.6054 Y7.5744 Z-2.6606 F1200
G01 X0.5361 Y7.4721 Z-2.6192 F1200
G01 X0.4470 Y7.3837 Z-2.5834 F1200
G01 X0.3408 Y7.3123 Z-2.5627 F1200
G01 X0.2207 Y7.2607 F1200
G01 X0.0905 Y7.2310 Z-2.5835 F1200
G01 X-0.0460 Y7.2247 Z-2.6194 F1200
G01 X-0.1846 Y7.2424 Z-2.6608 F1200
G01 X-0.2298 Y7.2535 Z-2.6737 F1200
G01 X-0.3651 Y7.3030 Z-2.7055 F1200
G01 X-0.4929 Y7.3755 Z-2.7197 F1200
G01 X-0.6093 Y7.4692 Z-2.7126 F1200
G01 X-0.7107 Y7.5819 Z-2.6860 F1200
G01 X-0.7940 Y7.7107 Z-2.6471 F1200
G01 X-0.8568 Y7.8521 Z-2.6063 F1200
G01 X-0.8931 Y7.9821 Z-2.5779 F1200
G01 X-0.9139 Y8.1370 Z-2.5610 F1200
G01 X-0.9105 Y8.2931 Z-2.5653 F1200
G01 X-0.8832 Y8.4462 Z-2.5896 F1200
G01 X-0.8327 Y8.5924 Z-2.6274 F1200
G01 X-0.7608 Y8.7275 Z-2.6685 F1200
G01 X-0.6695 Y8.8482 Z-2.7021 F1200
G01 X-0.5769 Y8.9386 Z-2.7179 F1200
G01 X-0.4584 Y9.0241 Z-2.7165 F1200
G01 X-0.3300 Y9.0875 Z-2.6946 F1200
G01 X-0.1955 Y9.1276 Z-2.6581 F1200
G01 X-0.0592 Y9.1436 Z-2.6167 F1200
G01 X0.0747 Y9.1355 Z-2.5816 F1200
G01 X0.2021 Y9.1042 Z-2.5621 F1200
G01 X0.3043 Y9.0593 Z-2.5620 F1200
G01 X0.4083 Y8.9889 Z-2.5814 F1200
G01 X0.4955 Y8.9012 Z-2.6165 F1200
G01 X0.5631 Y8.7995 Z-2.6579 F1200
G01 X0.6090 Y8.6872 Z-2.6945 F1200
G01 X0.6315 Y8.5684 Z-2.7165 F1200
G01 X0.6301 Y8.4472 Z-2.7180 F1200
G01 X0.6093 Y8.3435 Z-2.7022 F1200
G01 X0.5625 Y8.2289 Z-2.6688 F1200
G01 X0.4935 Y8.1237 Z-2.6276 F1200
G01 X0.4042 Y8.0317 Z-2.5897 F1200
G01 X0.2973 Y7.9561 Z-2.5653 F1200
G01 X0.1758 Y7.8998 Z-2.5610 F1200
G01 X0.0433 Y7.8651 Z-2.5778 F1200
G01 X-0.0774 Y7.8536 Z-2.6061 F1200
G01 X-0.2206 Y7.8625 Z-2.6469 F1200
G01 X-0.3631 Y7.8955 Z-2.6858 F1200
G01 X-0.5007 Y7.9522 Z-2.7125 F1200
G01 X-0.6294 Y8.0313 Z-2.7197 F1200
G01 X-0.7455 Y8.1310 Z-2.7056 F1200
G01 X-0.8455 Y8.2488 Z-2.6739 F1200
G01 X-0.9169 Y8.3631 Z-2.6387 F1200
G01 X-0.9805 Y8.5057 Z-2.5989 F1200
G01 X-1.0213 Y8.6565 Z-2.5701 F1200
G01 X-1.0383 Y8.8113 Z-2.5600 F1200
G01 X-1.0312 Y8.9660 Z-2.5714 F1200
G01 X-1.0003 Y9.1164 Z-2.6011 F1200
G01 X-0.9467 Y9.2584 Z-2.6413 F1200
G01 X-0.8833 Y9.3718 Z-2.6763 F1200
G01 X-0.7936 Y9.4879 Z-2.7071 F1200
G01 X-0.6880 Y9.5858 Z-2.7199 F1200
G01 X-0.5700 Y9.6630 Z-2.7113 F1200
G01 X-0.4434 Y9.7177 Z-2.6836 F1200
G01 X-0.3121 Y9.7486 Z-2.6443 F1200
G01 X-0.1803 Y9.7554 Z-2.6037 F1200
G01 X-0.0690 Y9.7420 Z-2.5761 F1200
G01 X0.0515 Y9.7047 Z-2.5606 F1200
G01 X0.1609 Y9.6460 Z-2.5663 F1200
G01 X0.2555 Y9.5682 Z-2.5918 F1200
G01 X0.3322 Y9.4741 Z-2.6302 F1200
G01 X0.3885 Y9.3671 Z-2.6712 F1200
G01 X0.4225 Y9.2509 Z-2.7039 F1200
G01 X0.4329 Y9.1458 Z-2.7185 F1200
G01 X0.4216 Y9.0230 Z-2.7157 F1200
G01 X0.3863 Y8.9028 Z-2.6925 F1200
G01 X0.3278 Y8.7894 Z-2.6553 F1200
G01 X0.2476 Y8.6867 Z-2.6140 F1200
G01 X0.1480 Y8.5983 Z-2.5797 F1200
G01 X0.0317 Y8.5274 Z-2.5615 F1200
G01 X-0.0801 Y8.4821 Z-2.5627 F1200
G01 X-0.2192 Y8.4499 Z-2.5834 F1200
G01 X-0.3645 Y8.4411 Z-2.6193 F1200
G01 X-0.5120 Y8.4564 Z-2.6607 F1200
G01 X-0.6574 Y8.4957 Z-2.6965 F1200
G01 X-0.7965 Y8.5583 Z-2.7173 F1200
G01 X-0.9254 Y8.6428 F1200
G01 X-1.0261 Y8.7322 Z-2.7004 F1200
G01 X-1.1272 Y8.8511 Z-2.6661 F1200
G01 X-1.2090 Y8.9842 Z-2.6248 F1200
G01 X-1.2690 Y9.1281 Z-2.5875 F1200
G01 X-1.3059 Y9.2788 Z-2.5644 F1200
G01 X-1.3188 Y9.4322 Z-2.5615 F1200
G01 X-1.3076 Y9.5840 Z-2.5796 F1200
G01 X-1.2788 Y9.7111 Z-2.6087 F1200
G01 X-1.2255 Y9.8485 Z-2.6497 F1200
G01 X-1.1519 Y9.9730 Z-2.6881 F1200
G01 X-1.0603 Y10.0812 Z-2.7136 F1200
G01 X-0.9541 Y10.1704 Z-2.7194 F1200
G01 X-0.8365 Y10.2381 Z-2.7039 F1200
G01 X-0.7117 Y10.2828 Z-2.6713 F1200
G01 X-0.6007 Y10.3022 Z-2.6358 F1200
G01 X-0.4740 Y10.3015 Z-2.5964 F1200
G01 X-0.3518 Y10.2771 Z-2.5687 F1200
G01 X-0.2383 Y10.2301 Z-2.5601 F1200
G01 X-0.1373 Y10.1624 Z-2.5729 F1200
G01 X-0.0521 Y10.0765 Z-2.6037 F1200
G01 X0.0144 Y9.9754 Z-2.6442 F1200
G01 X0.0550 Y9.8782 Z-2.6788 F1200
G01 X0.0799 Y9.7577 Z-2.7086 F1200
G01 X0.0810 Y9.6330 Z-2.7200 F1200
G01 X0.0580 Y9.5080 Z-2.7100 F1200
G01 X0.0112 Y9.3872 Z-2.6812 F1200
G01 X-0.0584 Y9.2745 Z-2.6414 F1200
G01 X-0.1489 Y9.1737 Z-2.6012 F1200
G01 X-0.2426 Y9.0987 Z-2.5745 F1200
G01 X-0.3661 Y9.0286 Z-2.5603 F1200
G01 X-0.5023 Y8.9790 Z-2.5675 F1200
G01 X-0.6475 Y8.9519 Z-2.5941 F1200
G01 X-0.7975 Y8.9484 Z-2.6330 F1200
G01 X-0.9482 Y8.9691 Z-2.6738 F1200
G01 X-1.0954 Y9.0136 Z-2.7055 F1200
G01 X-1.2170 Y9.0709 Z-2.7190 F1200
G01 X-1.3453 Y9.1583 Z-2.7147 F1200
G01 X-1.4591 Y9.2651 Z-2.6903 F1200
G01 X-1.5551 Y9.3883 Z-2.6525 F1200
G01 X-1.6251 Y9.5121 Z-2.6148 F1200
G01 X-1.6798 Y9.6578 Z-2.5802 F1200
G01 X-1.7111 Y9.8094 Z-2.5616 F1200
G01 X-1.7184 Y9.9625 Z-2.5641 F1200
G01 X-1.7040 Y10.1000 Z-2.5841 F1200
G01 X-1.6651 Y10.2452 Z-2.6202 F1200
G01 X-1.6044 Y10.3801 Z-2.6616 F1200
G01 X-1.5239 Y10.5011 Z-2.6972 F1200
G01 X-1.4357 Y10.5965 Z-2.7165 F1200
G01 X-1.3246 Y10.6829 Z-2.7179 F1200
G01 X-1.2030 Y10.7475 Z-2.6985 F1200
G01 X-1.0749 Y10.7889 Z-2.6634 F1200
G01 X-0.9560 Y10.8056 Z-2.6257 F1200
G01 X-0.8260 Y10.8014 Z-2.5882 F1200
G01 X-0.7017 Y10.7738 Z-2.5647 F1200
G01 X-0.5870 Y10.7239 Z-2.5613 F1200
G01 X-0.4940 Y10.6609 Z-2.5767 F1200
G01 X-0.4066 Y10.5752 Z-2.6096 F1200
G01 X-0.3384 Y10.4749 Z-2.6507 F1200
G01 X-0.2916 Y10.3633 Z-2.6889 F1200
G01 X-0.2690 Y10.2553 Z-2.7125 F1200
G01 X-0.2661 Y10.1339 Z-2.7197 F1200
G01 X-0.2873 Y10.0132 Z-2.7055 F1200
G01 X-0.3322 Y9.8973 Z-2.6738 F1200
G01 X-0.3926 Y9.7994 Z-2.6368 F1200
G01 X-0.4777 Y9.7042 Z-2.5972 F1200
G01 X-0.5811 Y9.6247 Z-2.5692 F1200
G01 X-0.6998 Y9.5639 Z-2.5601 F1200
G01 X-0.8183 Y9.5269 Z-2.5705 F1200
G01 X-0.9552 Y9.5082 Z-2.5996 F1200
G01 X-1.0963 Y9.5132 Z-2.6395 F1200
G01 X-1.2374 Y9.5424 Z-2.6796 F1200
G01 X-1.3625 Y9.5897 Z-2.7071 F1200
G01 X-1.4911 Y9.6636 Z-2.7199 F1200
G01 X-1.6080 Y9.7587 Z-2.7113 F1200
G01 X-1.7097 Y9.8725 Z-2.6836 F1200
G01 X-1.7866 Y9.9900 Z-2.6479 F1200
G01 X-1.8502 Y10.1312 Z-2.6071 F1200
G01 X-1.8915 Y10.2815 Z-2.5750 F1200
G01 X-1.9091 Y10.4367 Z-2.5604 F1200
G01 X-1.9041 Y10.5789 Z-2.5656 F1200
G01 X-1.8747 Y10.7320 Z-2.5904 F1200
G01 X-1.8222 Y10.8780 Z-2.6284 F1200
G01 X-1.7482 Y11.0129 Z-2.6695 F1200
G01 X-1.6640 Y11.1231 Z-2.7003 F1200
G01 X-1.5558 Y11.2274 Z-2.7185 F1200
G01 X-1.4343 Y11.3116 Z-2.7157 F1200
G01 X-1.3030 Y11.3736 Z-2.6925 F1200
G01 X-1.1660 Y11.4122 Z-2.6553 F1200
G01 X-1.0274 Y11.4267 Z-2.6140 F1200
G01 X-0.8916 Y11.4171 Z-2.5797 F1200
G01 X-0.7625 Y11.3844 Z-2.5615 F1200
G01 X-0.6441 Y11.3300 Z-2.5643 F1200
G01 X-0.5400 Y11.2562 Z-2.5875 F1200
G01 X-0.4534 Y11.1657 Z-2.6247 F1200
G01 X-0.3869 Y11.0618 Z-2.6660 F1200
G01 X-0.3425 Y10.9481 Z-2.7003 F1200
G01 X-0.3216 Y10.8288 Z-2.7185 F1200
G01 X-0.3248 Y10.7079 Z-2.7157 F1200
G01 X-0.3520 Y10.5897 Z-2.6925 F1200
G01 X-0.4024 Y10.4783 Z-2.6553 F1200
G01 X-0.4745 Y10.3776 Z-2.6140 F1200
G01 X-0.5660 Y10.2912 Z-2.5797 F1200
G01 X-0.6742 Y10.2223 Z-2.5615 F1200
G01 X-0.7957 Y10.1734 Z-2.5643 F1200
G01 X-0.9270 Y10.1467 Z-2.5875 F1200
G01 X-1.0640 Y10.1435 Z-2.6247 F1200
G01 X-1.2026 Y10.1643 Z-2.6660 F1200
G01 X-1.3384 Y10.2092 Z-2.7003 F1200
G01 X-1.4675 Y10.2773 Z-2.7185 F1200
G01 X-1.5859 Y10.3670 Z-2.7157 F1200
G01 X-1.6900 Y10.4761 Z-2.6925 F1200
G01 X-1.7766 Y10.6020 Z-2.6553 F1200
G01 X-1.8431 Y10.7412 Z-2.6140 F1200
G01 X-1.8875 Y10.8902 Z-2.5797 F1200
G01 X-1.9084 Y11.0448 Z-2.5615 F1200
G01 X-1.9052 Y11.2011 Z-2.5643 F1200
G01 X-1.8780 Y11.3546 Z-2.5875 F1200
G01 X-1.8276 Y11.5014 Z-2.6247 F1200
G01 X-1.7555 Y11.6374 Z-2.6660 F1200
G01 X-1.6640 Y11.7591 Z-2.7003 F1200
G01 X-1.5558 Y11.8634 Z-2.7185 F1200
G01 X-1.4343 Y11.9476 Z-2.7157 F1200
G01 X-1.3030 Y12.0096 Z-2.6925 F1200
G01 X-1.1660 Y12.0482 Z-2.6553 F1200
G01 X-1.0274 Y12.0627 Z-2.6140 F1200
G01 X-0.8916 Y12.0531 Z-2.5797 F1200
G01 X-0.7625 Y12.0204 Z-2.5615 F1200
G01 X-0.6441 Y11.9660 Z-2.5643 F1200
G01 X-0.5400 Y11.8922 Z-2.5875 F1200
G01 X-0.4534 Y11.8017 Z-2.6247 F1200
G01 X-0.3869 Y11.6978 Z-2.6660 F1200
G01 X-0.3425 Y11.5841 Z-2.7003 F1200
G01 X-0.3216 Y11.4648 Z-2.7185 F1200
G01 X-0.3248 Y11.3439 Z-2.7157 F1200
G01 X-0.3520 Y11.2257 Z-2.6925 F1200
G01 X-0.4024 Y11.1143 Z-2.6553 F1200
G01 X-0.4745 Y11.0136 Z-2.6140 F1200
G01 X-0.5660 Y10.9272 Z-2.5797 F1200
G01 X-0.6742 Y10.8583 Z-2.5615 F1200
G01 X-0.7957 Y10.8094 Z-2.5643 F1200
G01 X-0.9270 Y10.7827 Z-2.5875 F1200
G01 X-1.0640 Y10.7795 Z-2.6247 F1200
G01 X-1.2026 Y10.8003 Z-2.6660 F1200
G01 X-1.3384 Y10.8452 Z-2.7003 F1200
G01 X-1.4675 Y10.9133 Z-2.7185 F1200
G01 X-1.5859 Y11.0030 Z-2.7157 F1200
G01 X-1.6900 Y11.1121 Z-2.6925 F1200
G01 X-1.7766 Y11.2380 Z-2.6553 F1200
G01 X-1.8431 Y11.3772 Z-2.6140 F1200
G01 X-1.8875 Y11.5262 Z-2.5797 F1200
G01 X-1.9084 Y11.6808 Z-2.5615 F1200
G01 X-1.9052 Y11.8371 Z-2.5643 F1200
G01 X-1.8780 Y11.9906 Z-2.5875 F1200
G01 X-1.8276 Y12.1374 Z-2.6247 F1200
G01 X-1.7555 Y12.2734 Z-2.6660 F1200
G01 X-1.6640 Y12.3951 Z-2.7003 F1200
G01 X-1.5558 Y12.4994 Z-2.7185 F1200
G01 X-1.4343 Y12.5836 Z-2.7157 F1200
G01 X-1.3030 Y12.6456 Z-2.6925 F1200
G01 X-1.1660 Y12.6842 Z-2.6553 F1200
G01 X-1.0274 Y12.6987 Z-2.6140 F1200
G01 X-0.8916 Y12.6891 Z-2.5797 F1200
G01 X-0.7625 Y12.6564 Z-2.5615 F1200
G01 X-0.6441 Y12.6020 Z-2.5643 F1200
G01 X-0.5400 Y12.5282 Z-2.5875 F1200
G01 X-0.4534 Y12.4377 Z-2.6247 F1200
G01 X-0.3869 Y12.3338 Z-2.6660 F1200
G01 X-0.3425 Y12.2201 Z-2.7003 F1200
G01 X-0.3216 Y12.1008 Z-2.7185 F1200
G01 X-0.3248 Y11.9799 Z-2.7157 F1200
G01 X-0.3520 Y11.8617 Z-2.6925 F1200
G01 X-0.4024 Y11.7503 Z-2.6553 F1200
G01 X-0.4745 Y11.6496 Z-2.6140 F1200
G01 X-0.5660 Y11.5632 Z-2.5797 F1200
G01 X-0.6742 Y11.4943 Z-2.5615 F1200
G01 X-0.7957 Y11.4454 Z-2.5643 F1200
G01 X-0.9270 Y11.4187 Z-2.5875 F1200
G01 X-1.0640 Y11.4155 Z-2.6247 F1200
G01 X-1.2026 Y11.4363 Z-2.6660 F1200
G01 X-1.3384 Y11.4812 Z-2.7003 F1200
G01 X-1.4675 Y11.5493 Z-2.7185 F1200
G01 X-1.5859 Y11.6390 Z-2.7157 F1200
G01 X-1.6900 Y11.7481 Z-2.6925 F1200
G01 X-1.7766 Y11.8740 Z-2.6553 F1200
G01 X-1.8431 Y12.0132 Z-2.6140 F1200
G01 X-1.8875 Y12.1622 Z-2.5797 F1200
G01 X-1.9084 Y12.3168 Z-2.5615 F1200
G01 X-1.9052 Y12.4731 Z-2.5643 F1200
G01 X-1.8780 Y12.6266 Z-2.5875 F1200
G01 X-1.8276 Y12.7734 Z-2.6247 F1200
G01 X-1.7555 Y12.9094 Z-2.6660 F1200
G01 X-1.6640 Y13.0311 Z-2.7003 F1200
G01 X-1.5558 Y13.1354 Z-2.7185 F1200
G01 X-1.4343 Y13.2196 Z-2.7157 F1200
G01 X-1.3030 Y13.2816 Z-2.6925 F1200
G01 X-1.1660 Y13.3202 Z-2.6553 F1200
G01 X-1.0274 Y13.3347 Z-2.6140 F1200
G01 X-0.8916 Y13.3251 Z-2.5797 F1200
G01 X-0.7625 Y13.2924 Z-2.5615 F1200
G01 X-0.6441 Y13.2380 Z-2.5643 F1200
G01 X-0.5400 Y13.1642 Z-2.5875 F1200
G01 X-0.4534 Y13.0737 Z-2.6247 F1200
G01 X-0.3869 Y12.9698 Z-2.6660 F1200
G01 X-0.3425 Y12.8561 Z-2.7003 F1200
G01 X-0.3216 Y12.7368 Z-2.7185 F1200
G01 X-0.3248 Y12.6159 Z-2.7157 F1200
G01 X-0.3520 Y12.4977 Z-2.6925 F1200
G01 X-0.4024 Y12.3863 Z-2.6553 F1200
G01 X-0.4745 Y12.2856 Z-2.6140 F1200
G01 X-0.5660 Y12.1992 Z-2.5797 F1200
G01 X-0.6742 Y12.1303 Z-2.5615 F1200
G01 X-0.7957 Y12.0814 Z-2.5643 F1200
G01 X-0.9270 Y12.0547 Z-2.5875 F1200
G01 X-1.0640 Y12.0515 Z-2.6247 F1200
G01 X-1.2026 Y12.0723 Z-2.6660 F1200
G01 X-1.3384 Y12.1172 Z-2.7003 F1200
G01 X-1.4675 Y12.1853 Z-2.7185 F1200
G01 X-1.5859 Y12.2750 Z-2.7157 F1200
G01 X-1.6900 Y12.3841 Z-2.6925 F1200
G01 X-1.7766 Y12.5100 Z-2.6553 F1200
G01 X-1.8431 Y12.6492 Z-2.6140 F1200
G01 X-1.8875 Y12.7982 Z-2.5797 F1200
G01 X-1.9084 Y12.9528 Z-2.5615 F1200
G01 X-1.9052 Y13.1091 Z-2.5643 F1200
G01 X-1.8780 Y13.2626 Z-2.5875 F1200
G01 X-1.8276 Y13.4094 Z-2.6247 F1200
G01 X-1.7555 Y13.5454 Z-2.6660 F1200
G01 X-1.6640 Y13.6671 Z-2.7003 F1200
G01 X-1.5558 Y13.7714 Z-2.7185 F1200
G01 X-1.4343 Y13.8556 Z-2.7157 F1200
G01 X-1.3030 Y13.9176 Z-2.6925 F1200
G01 X-1.1660 Y13.9562 Z-2.6553 F1200
G01 X-1.0274 Y13.9707 Z-2.6140 F1200
G01 X-0.8916 Y13.9611 Z-2.5797 F1200
G01 X-0.7625 Y13.9284 Z-2.5615 F1200
G01 X-0.6441 Y13.8740 Z-2.5643 F1200
G01 X-0.5400 Y13.8002 Z-2.5875 F1200
G01 X-0.4534 Y13.7097 Z-2.6247 F1200
G01 X-0.3869 Y13.6058 Z-2.6660 F1200
G01 X-0.3425 Y13.4921 Z-2.7003 F1200
G01 X-0.3216 Y13.3728 Z-2.7185 F1200
G01 X-0.3248 Y13.2519 Z-2.7157 F1200
G01 X-0.3520 Y13.1337 Z-2.6925 F1200
G01 X-0.4024 Y13.0223 Z-2.6553 F1200
G01 X-0.4745 Y12.9216 Z-2.6140 F1200
G01 X-0.5660 Y12.8352 Z-2.5797 F1200
G01 X-0.6742 Y12.7663 Z-2.5615 F1200
G01 X-0.7957 Y12.7174 Z-2.5643 F1200
G01 X-0.9270 Y12.6907 Z-2.5875 F1200
G01 X-1.0640 Y12.6875 Z-2.6247 F1200
G01 X-1.2026 Y12.7083 Z-2.6660 F1200
G01 X-1.3384 Y12.7532 Z-2.7003 F1200
G01 X-1.4675 Y12.8213 Z-2.7185 F1200
G01 X-1.5859 Y12.9110 Z-2.7157 F1200
G01 X-1.6900 Y13.0201 Z-2.6925 F1200
G01 X-1.7766 Y13.1460 Z-2.6553 F1200
G01 X-1.8431 Y13.2852 Z-2.6140 F1200
G01 X-1.8875 Y13.4342 Z-2.5797 F1200
G01 X-1.9084 Y13.5888 Z-2.5615 F1200
G01 X-1.9052 Y13.7451 Z-2.5643 F1200
G01 X-1.8780 Y13.8986 Z-2.5875 F1200
G01 X-1.8276 Y14.0454 Z-2.6247 F1200
G01 X-1.7555 Y14.1814 Z-2.6660 F1200
G01 X-1.6640 Y14.3031 Z-2.7003 F1200
G01 X-1.5558 Y14.4074 Z-2.7185 F1200
G01 X-1.4343 Y14.4916 Z-2.7157 F1200
G01 X-1.3030 Y14.5536 Z-2.6925 F1200
G01 X-1.1660 Y14.5922 Z-2.6553 F1200
G01 X-1.0274 Y14.6067 Z-2.6140 F1200
G01 X-0.8916 Y14.5971 Z-2.5797 F1200
G01 X-0.7625 Y14.5644 Z-2.5615 F1200
G01 X-0.6441 Y14.5100 Z-2.5643 F1200
G01 X-0.5400 Y14.4362 Z-2.5875 F1200
G01 X-0.4534 Y14.3457 Z-2.6247 F1200
G01 X-0.3869 Y14.2418 Z-2.6660 F1200
G01 X-0.3425 Y14.1281 Z-2.7003 F1200
G01 X-0.3216 Y14.0088 Z-2.7185 F1200
G01 X-0.3248 Y13.8879 Z-2.7157 F1200
G01 X-0.3520 Y13.7697 Z-2.6925 F1200
G01 X-0.4024 Y13.6583 Z-2.6553 F1200
G01 X-0.4745 Y13.5576 Z-2.6140 F1200
G01 X-0.5660 Y13.4712 Z-2.5797 F1200
G01 X-0.6742 Y13.4023 Z-2.5615 F1200
G01 X-0.7957 Y13.3534 Z-2.5643 F1200
G01 X-0.9270 Y13.3267 Z-2.5875 F1200
G01 X-1.0640 Y13.3235 Z-2.6247 F1200
G01 X-1.2026 Y13.3443 Z-2.6660 F1200
G01 X-1.3384 Y13.3892 Z-2.7003 F1200
G01 X-1.4675 Y13.4573 Z-2.7185 F1200
G01 X-1.5859 Y13.5470 Z-2.7157 F1200
G01 X-1.6900 Y13.6561 Z-2.6925 F1200
G01 X-1.7766 Y13.7820 Z-2.6553 F1200
G01 X-1.8431 Y13.9212 Z-2.6140 F1200
G01 X-1.8875 Y14.0702 Z-2.5797 F1200
G01 X-1.9084 Y14.2248 Z-2.5615 F1200
G01 X-1.9052 Y14.3811 Z-2.5643 F1200
G01 X-1.8780 Y14.5346 Z-2.5875 F1200
G01 X-1.8276 Y14.6814 Z-2.6247 F1200
G01 X-1.7555 Y14.8174 Z-2.6660 F1200
G01 X-1.6640 Y14.9391 Z-2.7003 F1200
G01 X-1.5558 Y15.0434 Z-2.7185 F1200
G01 X-1.4343 Y15.1276 Z-2.7157 F1200
G01 X-1.3030 Y15.1896 Z-2.6925 F1200
G01 X-1.1660 Y15.2282 Z-2.6553 F1200
G01 X-1.0274 Y15.2427 Z-2.6140 F1200
G01 X-0.8916 Y15.2331 Z-2.5797 F1200
G01 X-0.7625 Y15.2004 Z-2.5615 F1200
G01 X-0.6441 Y15.1460 Z-2.5643 F1200
G01 X-0.5400 Y15.0722 Z-2.5875 F1200
G01 X-0.4534 Y14.9817 Z-2.6247 F1200
G01 X-0.3869 Y14.8778 Z-2.6660 F1200
G01 X-0.3425 Y14.7641 Z-2.7003 F1200
G01 X-0.3216 Y14.6448 Z-2.7185 F1200
G01 X-0.3248 Y14.5239 Z-2.7157 F1200
G01 X-0.3520 Y14.4057 Z-2.6925 F1200
G01 X-0.4024 Y14.2943 Z-2.6553 F1200
G01 X-0.4745 Y14.1936 Z-2.6140 F1200
G01 X-0.5660 Y14.1072 Z-2.5797 F1200
G01 X-0.6742 Y14.0383 Z-2.5615 F1200
G01 X-0.7957 Y13.9894 Z-2.5643 F1200
G01 X-0.9270 Y13.9627 Z-2.5875 F1200
G01 X-1.0640 Y13.9595 Z-2.6247 F1200
G01 X-1.2026 Y13.9803 Z-2.6660 F1200
G01 X-1.3384 Y14.0252 Z-2.7003 F1200
G01 X-1.4675 Y14.0933 Z-2.7185 F1200
G01 X-1.5859 Y14.1830 Z-2.7157 F1200
G01 X-1.6900 Y14.2921 Z-2.6925 F1200
G01 X-1.7766 Y14.4180 Z-2.6553 F1200
G01 X-1.8431 Y14.5572 Z-2.6140 F1200
G01 X-1.8875 Y14.7062 Z-2.5797 F1200
G01 X-1.9084 Y14.8608 Z-2.5615 F1200
G01 X-1.9052 Y15.0171 Z-2.5643 F1200
G01 X-1.8780 Y15.1706 Z-2.5875 F1200
G01 X-1.8276 Y15.3174 Z-2.6247 F1200
G01 X-1.7555 Y15.4534 Z-2.6660 F1200
G01 X-1.6640 Y15.5751 Z-2.7003 F1200
G01 X-1.5558 Y15.6794 Z-2.7185 F1200
G01 X-1.4343 Y15.7636 Z-2.7157 F1200
G01 X-1.3030 Y15.8256 Z-2.6925 F1200
G01 X-1.1660 Y15.8642 Z-2.6553 F1200
G01 X-1.0274 Y15.8787 Z-2.6140 F1200
G01 X-0.8916 Y15.8691 Z-2.5797 F1200
G01 X-0.7625 Y15.8364 Z-2.5615 F1200
G01 X-0.6441 Y15.7820 Z-2.5643 F1200
G01 X-0.5400 Y15.7082 Z-2.5875 F1200
G01 X-0.4534 Y15.6177 Z-2.6247 F1200
G01 X-0.3869 Y15.5138 Z-2.6660 F1200
G01 X-0.3425 Y15.4001 Z-2.7003 F1200
G01 X-0.3216 Y15.2808 Z-2.7185 F1200
G01 X-0.3248 Y15.1599 Z-2.7157 F1200
G01 X-0.3520 Y15.0417 Z-2.6925 F1200
G01 X-0.4024 Y14.9303 Z-2.6553 F1200
G01 X-0.4745 Y14.8296 Z-2.6140 F1200
G01 X-0.5660 Y14.7432 Z-2.5797 F1200
G01 X-0.6742 Y14.6743 Z-2.5615 F1200
G01 X-0.7957 Y14.6254 Z-2.5643 F1200
G01 X-0.9270 Y14.5987 Z-2.5875 F1200
G01 X-1.0640 Y14.5955 Z-2.6247 F1200
G01 X-1.2026 Y14.6163 Z-2.6660 F1200
G01 X-1.3384 Y14.6612 Z-2.7003 F1200
G01 X-1.3899 Y14.6851 Z-2.7098 F1200
G01 X-1.5148 Y14.7618 Z-2.7200 F1200
G01 X-1.6275 Y14.8594 Z-2.7088 F1200
G01 X-1.7246 Y14.9755 Z-2.6792 F1200
G01 X-1.8031 Y15.1070 Z-2.6390 F1200
G01 X-1.8606 Y15.2505 Z-2.5992 F1200
G01 X-1.8752 Y15.3015 Z-2.5876 F1200
G01 X-1.9007 Y15.4549 Z-2.5644 F1200
G01 X-1.9021 Y15.6111 Z-2.5615 F1200
G01 X-1.8795 Y15.7656 Z-2.5796 F1200
G01 X-1.8334 Y15.9145 Z-2.6139 F1200
G01 X-1.7652 Y16.0537 Z-2.6552 F1200
G01 X-1.7372 Y16.0983 Z-2.6689 F1200
G01 X-1.6413 Y16.2186 Z-2.7023 F1200
G01 X-1.5289 Y16.3212 Z-2.7191 F1200
G01 X-1.4034 Y16.4036 Z-2.7146 F1200
G01 X-1.2685 Y16.4637 Z-2.6902 F1200
G01 X-1.1282 Y16.5002 Z-2.6523 F1200
G01 X-1.0798 Y16.5072 Z-2.6380 F1200
G01 X-0.9375 Y16.5111 Z-2.5983 F1200
G01 X-0.7996 Y16.4912 Z-2.5698 F1200
G01 X-0.6702 Y16.4488 Z-2.5600 F1200
G01 X-0.5529 Y16.3855 Z-2.5717 F1200
G01 X-0.4514 Y16.3038 Z-2.6017 F1200
G01 X-0.4209 Y16.2723 Z-2.6148 F1200
G01 X-0.3437 Y16.1704 Z-2.6562 F1200
G01 X-0.2882 Y16.0579 Z-2.6932 F1200
G01 X-0.2559 Y15.9387 Z-2.7159 F1200
G01 X-0.2476 Y15.8169 Z-2.7184 F1200
G01 X-0.2634 Y15.6967 Z-2.6998 F1200
G01 X-0.2742 Y15.6568 Z-2.6894 F1200
G01 X-0.3200 Y15.5449 Z-2.6513 F1200
G01 X-0.3872 Y15.4441 Z-2.6102 F1200
G01 X-0.4736 Y15.3579 Z-2.5771 F1200
G01 X-0.5765 Y15.2894 Z-2.5608 F1200
G01 X-0.6924 Y15.2413 Z-2.5658 F1200
G01 X-0.7343 Y15.2299 Z-2.5722 F1200
G01 X-0.8606 Y15.2114 Z-2.6026 F1200
G01 X-0.9908 Y15.2168 Z-2.6430 F1200
G01 X-1.1207 Y15.2464 Z-2.6825 F1200
G01 X-1.2461 Y15.2997 Z-2.7107 F1200
G01 X-1.3630 Y15.3755 Z-2.7199 F1200
G01 X-1.4002 Y15.4063 Z-2.7181 F1200
G01 X-1.4986 Y15.5089 Z-2.6991 F1200
G01 X-1.5802 Y15.6288 Z-2.6642 F1200
G01 X-1.6422 Y15.7628 Z-2.6229 F1200
G01 X-1.6825 Y15.9075 Z-2.5861 F1200
G01 X-1.6995 Y16.0587 Z-2.5638 F1200
G01 X-1.6998 Y16.1111 Z-2.5607 F1200
G01 X-1.6835 Y16.2639 Z-2.5661 F1200
G01 X-1.6432 Y16.4136 Z-2.5914 F1200
G01 X-1.5799 Y16.5560 Z-2.6297 F1200
G01 X-1.4952 Y16.6873 Z-2.6707 F1200
G01 X-1.3913 Y16.8038 Z-2.7036 F1200
G01 X-1.3520 Y16.8397 Z-2.7112 F1200
G01 X-1.2259 Y16.9309 Z-2.7199 F1200
G01 X-1.0881 Y17.0010 Z-2.7072 F1200
G01 X-0.9425 Y17.0483 Z-2.6765 F1200
G01 X-0.7930 Y17.0717 Z-2.6360 F1200
G01 X-0.6439 Y17.0710 Z-2.5966 F1200
G01 X-0.5939 Y17.0653 Z-2.5854 F1200
G01 X-0.4510 Y17.0321 Z-2.5635 F1200
G01 X-0.3180 Y16.9770 Z-2.5621 F1200
G01 X-0.1986 Y16.9019 Z-2.5816 F1200
G01 X-0.0962 Y16.8095 Z-2.6167 F1200
G01 X-0.0134 Y16.7030 Z-2.6581 F1200
G01 X0.0100 Y16.6641 Z-2.6717 F1200
G01 X0.0642 Y16.5436 Z-2.7042 F1200
G01 X0.0947 Y16.4179 Z-2.7195 F1200
G01 X0.1011 Y16.2914 Z-2.7135 F1200
G01 X0.0836 Y16.1681 Z-2.6878 F1200
G01 X0.0430 Y16.0521 Z-2.6493 F1200
G01 X0.0242 Y16.0150 Z-2.6350 F1200
G01 X-0.0468 Y15.9171 Z-2.5958 F1200
G01 X-0.1360 Y15.8351 Z-2.5684 F1200
G01 X-0.2403 Y15.7720 Z-2.5602 F1200
G01 X-0.3563 Y15.7300 Z-2.5733 F1200
G01 X-0.4801 Y15.7109 Z-2.6044 F1200
G01 X-0.6075 Y15.7157 Z-2.6450 F1200
G01 X-0.7345 Y15.7446 Z-2.6842 F1200
G01 X-0.8240 Y15.7805 Z-2.7058 F1200
G01 X-0.9412 Y15.8502 Z-2.7197 F1200
G01 X-1.0468 Y15.9412 Z-2.7123 F1200
G01 X-1.1374 Y16.0511 Z-2.6855 F1200
G01 X-1.2099 Y16.1770 Z-2.6465 F1200
G01 X-1.2619 Y16.3155 Z-2.6057 F1200
G01 X-1.2914 Y16.4629 Z-2.5742 F1200
G01 X-1.2972 Y16.6152 Z-2.5603 F1200
G01 X-1.2862 Y16.7265 Z-2.5636 F1200
G01 X-1.2513 Y16.8777 Z-2.5856 F1200
G01 X-1.1931 Y17.0225 Z-2.6222 F1200
G01 X-1.1132 Y17.1567 Z-2.6636 F1200
G01 X-1.0137 Y17.2769 Z-2.6987 F1200
G01 X-0.8973 Y17.3797 Z-2.7180 F1200
G01 X-0.7672 Y17.4626 Z-2.7164 F1200
G01 X-0.6273 Y17.5235 Z-2.6944 F1200
G01 X-0.5216 Y17.5531 Z-2.6687 F1200
G01 X-0.3749 Y17.5736 Z-2.6275 F1200
G01 X-0.2294 Y17.5699 Z-2.5897 F1200
G01 X-0.0893 Y17.5427 Z-2.5653 F1200
G01 X0.0413 Y17.4933 Z-2.5610 F1200
G01 X0.1588 Y17.4236 Z-2.5778 F1200
G01 X0.2598 Y17.3363 Z-2.6113 F1200
G01 X0.3415 Y17.2344 Z-2.6525 F1200
G01 X0.3875 Y17.1532 Z-2.6809 F1200
G01 X0.4301 Y17.0353 Z-2.7098 F1200
G01 X0.4490 Y16.9133 Z-2.7200 F1200
G01 X0.4436 Y16.7913 Z-2.7087 F1200
G01 X0.4145 Y16.6737 Z-2.6791 F1200
G01 X0.3627 Y16.5644 Z-2.6389 F1200
G01 X0.2901 Y16.4673 Z-2.5991 F1200
G01 X0.1990 Y16.3858 Z-2.5702 F1200
G01 X0.1230 Y16.3381 Z-2.5607 F1200
G01 X0.0064 Y16.2907 Z-2.5661 F1200
G01 X-0.1193 Y16.2655 Z-2.5914 F1200
G01 X-0.2503 Y16.2639 Z-2.6297 F1200
G01 X-0.3823 Y16.2865 Z-2.6707 F1200
G01 X-0.5112 Y16.3330 Z-2.7035 F1200
G01 X-0.6328 Y16.4025 Z-2.7193 F1200
G01 X-0.7432 Y16.4935 Z-2.7139 F1200
G01 X-0.8144 Y16.5718 Z-2.6972 F1200
G01 X-0.8984 Y16.6944 Z-2.6615 F1200
G01 X-0.9626 Y16.8310 Z-2.6201 F1200
G01 X-1.0050 Y16.9778 Z-2.5841 F1200
G01 X-1.0241 Y17.1310 Z-2.5630 F1200
G01 X-1.0192 Y17.2864 Z-2.5625 F1200
G01 X-0.9901 Y17.4397 Z-2.5828 F1200
G01 X-0.9377 Y17.5869 Z-2.6185 F1200
G01 X-0.8858 Y17.6877 Z-2.6486 F1200
G01 X-0.7978 Y17.8154 Z-2.6872 F1200
G01 X-0.6918 Y17.9269 Z-2.7132 F1200
G01 X-0.5710 Y18.0193 Z-2.7195 F1200
G01 X-0.4389 Y18.0904 Z-2.7046 F1200
G01 X-0.2994 Y18.1386 Z-2.6723 F1200
G01 X-0.1565 Y18.1628 Z-2.6314 F1200
G01 X-0.0144 Z-2.5928 F1200
G01 X0.0859 Y18.1480 Z-2.5722 F1200
G01 X0.2156 Y18.1082 Z-2.5600 F1200
G01 X0.3336 Y18.0474 Z-2.5693 F1200
G01 X0.4363 Y17.9679 Z-2.5976 F1200
G01 X0.5206 Y17.8726 Z-2.6372 F1200
G01 X0.5841 Y17.7650 Z-2.6775 F1200
G01 X0.6251 Y17.6489 Z-2.7078 F1200
G01 X0.6423 Y17.5283 Z-2.7200 F1200
G01 X0.6397 Y17.4403 Z-2.7153 F1200
G01 X0.6143 Y17.3220 Z-2.6917 F1200
G01 X0.5659 Y17.2106 Z-2.6542 F1200
G01 X0.4958 Y17.1101 Z-2.6129 F1200
G01 X0.4063 Y17.0239 Z-2.5789 F1200
G01 X0.3002 Y16.9553 Z-2.5613 F1200
G01 X0.1809 Y16.9069 Z-2.5647 F1200
G01 X0.0519 Y16.8806 Z-2.5883 F1200
G01 X-0.0456 Y16.8762 Z-2.6147 F1200
G01 X-0.1826 Y16.8911 Z-2.6561 F1200
G01 X-0.3180 Y16.9300 Z-2.6931 F1200
G01 X-0.4477 Y16.9924 Z-2.7159 F1200
G01 X-0.5675 Y17.0769 Z-2.7184 F1200
G01 X-0.6739 Y17.1814 Z-2.6998 F1200
G01 X-0.7636 Y17.3034 Z-2.6653 F1200
G01 X-0.8337 Y17.4396 Z-2.6239 F1200
G01 X-0.8712 Y17.5455 Z-2.5960 F1200
G01 X-0.9039 Y17.6977 Z-2.5685 F1200
G01 X-0.9127 Y17.8536 Z-2.5601 F1200
G01 X-0.8974 Y18.0091 Z-2.5732 F1200
G01 X-0.8584 Y18.1599 Z-2.6042 F1200
G01 X-0.7969 Y18.3019 Z-2.6447 F1200
G01 X-0.7147 Y18.4315 Z-2.6840 F1200
G01 X-0.6143 Y18.5452 Z-2.7115 F1200
G01 X-0.5316 Y18.6162 Z-2.7197 F1200
G01 X-0.4077 Y18.6959 Z-2.7124 F1200
G01 X-0.2749 Y18.7532 Z-2.6857 F1200
G01 X-0.1373 Y18.7868 Z-2.6467 F1200
G01 X0.0011 Y18.7963 Z-2.6060 F1200
G01 X0.1359 Y18.7818 Z-2.5743 F1200
G01 X0.2631 Y18.7445 Z-2.5603 F1200
G01 X0.3788 Y18.6858 Z-2.5676 F1200
G01 X0.4795 Y18.6083 Z-2.5943 F1200
G01 X0.5621 Y18.5147 Z-2.6333 F1200
G01 X0.6241 Y18.4085 Z-2.6740 F1200
G01 X0.6637 Y18.2934 Z-2.7057 F1200
G01 X0.6797 Y18.1734 Z-2.7197 F1200
G01 X0.6715 Y18.0527 Z-2.7124 F1200
G01 X0.6394 Y17.9356 Z-2.6857 F1200
G01 X0.5844 Y17.8260 Z-2.6467 F1200
G01 X0.5081 Y17.7280 Z-2.6060 F1200
G01 X0.4129 Y17.6450 Z-2.5743 F1200
G01 X0.3016 Y17.5800 Z-2.5603 F1200
G01 X0.1777 Y17.5356 Z-2.5676 F1200
G01 X0.0449 Y17.5137 Z-2.5943 F1200
G01 X-0.0927 Y17.5154 Z-2.6333 F1200
G01 X-0.2311 Y17.5413 Z-2.6740 F1200
G01 X-0.3659 Y17.5911 Z-2.7057 F1200
G01 X-0.4931 Y17.6638 Z-2.7197 F1200
G01 X-0.6088 Y17.7577 Z-2.7124 F1200
G01 X-0.7095 Y17.8706 Z-2.6857 F1200
G01 X-0.7921 Y17.9995 Z-2.6467 F1200
G01 X-0.8541 Y18.1411 Z-2.6060 F1200
G01 X-0.8937 Y18.2915 Z-2.5743 F1200
G01 X-0.9097 Y18.4468 Z-2.5603 F1200
G01 X-0.9015 Y18.6028 Z-2.5676 F1200
G01 X-0.8694 Y18.7553 Z-2.5943 F1200
G01 X-0.8144 Y18.9002 Z-2.6333 F1200
G01 X-0.7381 Y19.0335 Z-2.6740 F1200
G01 X-0.6429 Y19.1519 Z-2.7057 F1200
G01 X-0.5316 Y19.2522 Z-2.7197 F1200
G01 X-0.4077 Y19.3319 Z-2.7124 F1200
G01 X-0.2749 Y19.3892 Z-2.6857 F1200
G01 X-0.1373 Y19.4228 Z-2.6467 F1200
G01 X0.0011 Y19.4323 Z-2.6060 F1200
G01 X0.1359 Y19.4178 Z-2.5743 F1200
G01 X0.2631 Y19.3805 Z-2.5603 F1200
G01 X0.3788 Y19.3218 Z-2.5676 F1200
G01 X0.4795 Y19.2443 Z-2.5943 F1200
G01 X0.5621 Y19.1507 Z-2.6333 F1200
G01 X0.6241 Y19.0445 Z-2.6740 F1200
G01 X0.6637 Y18.9294 Z-2.7057 F1200
G01 X0.6797 Y18.8094 Z-2.7197 F1200
G01 X0.6715 Y18.6887 Z-2.7124 F1200
G01 X0.6394 Y18.5716 Z-2.6857 F1200
G01 X0.5844 Y18.4620 Z-2.6467 F1200
G01 X0.5081 Y18.3640 Z-2.6060 F1200
G01 X0.4129 Y18.2810 Z-2.5743 F1200
G01 X0.3016 Y18.2160 Z-2.5603 F1200
G01 X0.1777 Y18.1716 Z-2.5676 F1200
G01 X0.0449 Y18.1497 Z-2.5943 F1200
G01 X-0.0927 Y18.1514 Z-2.6333 F1200
G01 X-0.2311 Y18.1773 Z-2.6740 F1200
G01 X-0.3659 Y18.2271 Z-2.7057 F1200
G01 X-0.4931 Y18.2998 Z-2.7197 F1200
G01 X-0.6088 Y18.3937 Z-2.7124 F1200
G01 X-0.7095 Y18.5066 Z-2.6857 F1200
G01 X-0.7921 Y18.6355 Z-2.6467 F1200
G01 X-0.8541 Y18.7771 Z-2.6060 F1200
G01 X-0.8937 Y18.9275 Z-2.5743 F1200
G01 X-0.9097 Y19.0828 Z-2.5603 F1200
G01 X-0.9015 Y19.2388 Z-2.5676 F1200
G01 X-0.8694 Y19.3913 Z-2.5943 F1200
G01 X-0.8144 Y19.5362 Z-2.6333 F1200
G01 X-0.7381 Y19.6695 Z-2.6740 F1200
G01 X-0.6429 Y19.7879 Z-2.7057 F1200
G01 X-0.5316 Y19.8882 Z-2.7197 F1200
G01 X-0.4077 Y19.9679 Z-2.7124 F1200
G01 X-0.2749 Y20.0252 Z-2.6857 F1200
G01 X-0.1373 Y20.0588 Z-2.6467 F1200
G01 X0.0011 Y20.0683 Z-2.6060 F1200
G01 X0.1359 Y20.0538 Z-2.5743 F1200
G01 X0.2631 Y20.0165 Z-2.5603 F1200
G01 X0.3788 Y19.9578 Z-2.5676 F1200
G01 X0.4795 Y19.8803 Z-2.5943 F1200
G01 X0.5621 Y19.7867 Z-2.6333 F1200
G01 X0.6241 Y19.6805 Z-2.6740 F1200
G01 X0.6637 Y19.5654 Z-2.7057 F1200
G01 X0.6797 Y19.4454 Z-2.7197 F1200
G01 X0.6715 Y19.3247 Z-2.7124 F1200
G01 X0.6394 Y19.2076 Z-2.6857 F1200
G01 X0.5844 Y19.0980 Z-2.6467 F1200
G01 X0.5081 Y19.0000 Z-2.6060 F1200
G01 X0.4129 Y18.9170 Z-2.5743 F1200
G01 X0.3016 Y18.8520 Z-2.5603 F1200
G01 X0.1777 Y18.8076 Z-2.5676 F1200
G01 X0.0449 Y18.7857 Z-2.5943 F1200
G01 X-0.0927 Y18.7874 Z-2.6333 F1200
G01 X-0.2311 Y18.8133 Z-2.6740 F1200
G01 X-0.3659 Y18.8631 Z-2.7057 F1200
G01 X-0.4931 Y18.9358 Z-2.7197 F1200
G01 X-0.6088 Y19.0297 Z-2.7124 F1200
G01 X-0.7095 Y19.1426 Z-2.6857 F1200
G01 X-0.7921 Y19.2715 Z-2.6467 F1200
G01 X-0.8541 Y19.4131 Z-2.6060 F1200
G01 X-0.8937 Y19.5635 Z-2.5743 F1200
G01 X-0.9097 Y19.7188 Z-2.5603 F1200
G01 X-0.9015 Y19.8748 Z-2.5676 F1200
G01 X-0.8694 Y20.0273 Z-2.5943 F1200
G01 X-0.8144 Y20.1722 Z-2.6333 F1200
G01 X-0.7381 Y20.3055 Z-2.6740 F1200
G01 X-0.6429 Y20.4239 Z-2.7057 F1200
G01 X-0.5316 Y20.5242 Z-2.7197 F1200
G01 X-0.4077 Y20.6039 Z-2.7124 F1200
G01 X-0.2749 Y20.6612 Z-2.6857 F1200
G01 X-0.1373 Y20.6948 Z-2.6467 F1200
G01 X0.0011 Y20.7043 Z-2.6060 F1200
G01 X0.1359 Y20.6898 Z-2.5743 F1200
G01 X0.2631 Y20.6525 Z-2.5603 F1200
G01 X0.3788 Y20.5938 Z-2.5676 F1200
G01 X0.4795 Y20.5163 Z-2.5943 F1200
G01 X0.5621 Y20.4227 Z-2.6333 F1200
G01 X0.6241 Y20.3165 Z-2.6740 F1200
G01 X0.6637 Y20.2014 Z-2.7057 F1200
G01 X0.6797 Y20.0814 Z-2.7197 F1200
G01 X0.6715 Y19.9607 Z-2.7124 F1200
G01 X0.6394 Y19.8436 Z-2.6857 F1200
G01 X0.5844 Y19.7340 Z-2.6467 F1200
G01 X0.5081 Y19.6360 Z-2.6060 F1200
G01 X0.4129 Y19.5530 Z-2.5743 F1200
G01 X0.3016 Y19.4880 Z-2.5603 F1200
G01 X0.1777 Y19.4436 Z-2.5676 F1200
G01 X0.0449 Y19.4217 Z-2.5943 F1200
G01 X-0.0927 Y19.4234 Z-2.6333 F1200
G01 X-0.2311 Y19.4493 Z-2.6740 F1200
G01 X-0.3659 Y19.4991 Z-2.7057 F1200
G01 X-0.4931 Y19.5718 Z-2.7197 F1200
G01 X-0.6088 Y19.6657 Z-2.7124 F1200
G01 X-0.7095 Y19.7786 Z-2.6857 F1200
G01 X-0.7921 Y19.9075 Z-2.6467 F1200
G01 X-0.8541 Y20.0491 Z-2.6060 F1200
G01 X-0.8937 Y20.1995 Z-2.5743 F1200
G01 X-0.9097 Y20.3548 Z-2.5603 F1200
G01 X-0.9015 Y20.5108 Z-2.5676 F1200
G01 X-0.8694 Y20.6633 Z-2.5943 F1200
G01 X-0.8144 Y20.8082 Z-2.6333 F1200
G01 X-0.7381 Y20.9415 Z-2.6740 F1200
G01 X-0.6429 Y21.0599 Z-2.7057 F1200
G01 X-0.5316 Y21.1602 Z-2.7197 F1200
G01 X-0.4077 Y21.2399 Z-2.7124 F1200
G01 X-0.2749 Y21.2972 Z-2.6857 F1200
G01 X-0.1373 Y21.3308 Z-2.6467 F1200
G01 X0.0011 Y21.3403 Z-2.6060 F1200
G01 X0.1359 Y21.3258 Z-2.5743 F1200
G01 X0.2631 Y21.2885 Z-2.5603 F1200
G01 X0.3788 Y21.2298 Z-2.5676 F1200
G01 X0.4795 Y21.1523 Z-2.5943 F1200
G01 X0.5621 Y21.0587 Z-2.6333 F1200
G01 X0.6241 Y20.9525 Z-2.6740 F1200
G01 X0.6637 Y20.8374 Z-2.7057 F1200
G01 X0.6797 Y20.7174 Z-2.7197 F1200
G01 X0.6715 Y20.5967 Z-2.7124 F1200
G01 X0.6394 Y20.4796 Z-2.6857 F1200
G01 X0.5844 Y20.3700 Z-2.6467 F1200
G01 X0.5081 Y20.2720 Z-2.6060 F1200
G01 X0.4129 Y20.1890 Z-2.5743 F1200
G01 X0.3016 Y20.1240 Z-2.5603 F1200
G01 X0.1777 Y20.0796 Z-2.5676 F1200
G01 X0.0449 Y20.0577 Z-2.5943 F1200
G01 X-0.0927 Y20.0594 Z-2.6333 F1200
G01 X-0.2311 Y20.0853 Z-2.6740 F1200
G01 X-0.3659 Y20.1351 Z-2.7057 F1200
G01 X-0.4931 Y20.2078 Z-2.7197 F1200
G01 X-0.6088 Y20.3017 Z-2.7124 F1200
G01 X-0.7095 Y20.4146 Z-2.6857 F1200
G01 X-0.7921 Y20.5435 Z-2.6467 F1200
G01 X-0.8541 Y20.6851 Z-2.6060 F1200
G01 X-0.8937 Y20.8355 Z-2.5743 F1200
G01 X-0.9097 Y20.9908 Z-2.5603 F1200
G01 X-0.9015 Y21.1468 Z-2.5676 F1200
G01 X-0.8694 Y21.2993 Z-2.5943 F1200
G01 X-0.8144 Y21.4442 Z-2.6333 F1200
G01 X-0.7381 Y21.5775 Z-2.6740 F1200
G01 X-0.6429 Y21.6959 Z-2.7057 F1200
G01 X-0.5316 Y21.7962 Z-2.7197 F1200
G01 X-0.4077 Y21.8759 Z-2.7124 F1200
G01 X-0.2749 Y21.9332 Z-2.6857 F1200
G01 X-0.1373 Y21.9668 Z-2.6467 F1200
G01 X0.0011 Y21.9763 Z-2.6060 F1200
G01 X0.1359 Y21.9618 Z-2.5743 F1200
G01 X0.2631 Y21.9245 Z-2.5603 F1200
G01 X0.3788 Y21.8658 Z-2.5676 F1200
G01 X0.4795 Y21.7883 Z-2.5943 F1200
G01 X0.5621 Y21.6947 Z-2.6333 F1200
G01 X0.6241 Y21.5885 Z-2.6740 F1200
G01 X0.6637 Y21.4734 Z-2.7057 F1200
G01 X0.6797 Y21.3534 Z-2.7197 F1200
G01 X0.6715 Y21.2327 Z-2.7124 F1200
G01 X0.6394 Y21.1156 Z-2.6857 F1200
G01 X0.5844 Y21.0060 Z-2.6467 F1200
G01 X0.5081 Y20.9080 Z-2.6060 F1200
G01 X0.4129 Y20.8250 Z-2.5743 F1200
G01 X0.3016 Y20.7600 Z-2.5603 F1200
G01 X0.1777 Y20.7156 Z-2.5676 F1200
G01 X0.0449 Y20.6937 Z-2.5943 F1200
G01 X-0.0927 Y20.6954 Z-2.6333 F1200
G01 X-0.2311 Y20.7213 Z-2.6740 F1200
G01 X-0.3659 Y20.7711 Z-2.7057 F1200
G01 X-0.4931 Y20.8438 Z-2.7197 F1200
G01 X-0.6088 Y20.9377 Z-2.7124 F1200
G01 X-0.7095 Y21.0506 Z-2.6857 F1200
G01 X-0.7921 Y21.1795 Z-2.6467 F1200
G01 X-0.8541 Y21.3211 Z-2.6060 F1200
G01 X-0.8937 Y21.4715 Z-2.5743 F1200
G01 X-0.9097 Y21.6268 Z-2.5603 F1200
G01 X-0.9015 Y21.7828 Z-2.5676 F1200
G01 X-0.8694 Y21.9353 Z-2.5943 F1200
G01 X-0.8144 Y22.0802 Z-2.6333 F1200
G01 X-0.7381 Y22.2135 Z-2.6740 F1200
G01 X-0.6429 Y22.3319 Z-2.7057 F1200
G01 X-0.5316 Y22.4322 Z-2.7197 F1200
G01 X-0.4077 Y22.5119 Z-2.7124 F1200
G01 X-0.2749 Y22.5692 Z-2.6857 F1200
G01 X-0.1373 Y22.6028 Z-2.6467 F1200
G01 X0.0011 Y22.6123 Z-2.6060 F1200
G01 X0.1359 Y22.5978 Z-2.5743 F1200
G01 X0.2631 Y22.5605 Z-2.5603 F1200
G01 X0.3788 Y22.5018 Z-2.5676 F1200
G01 X0.4795 Y22.4243 Z-2.5943 F1200
G01 X0.5621 Y22.3307 Z-2.6333 F1200
G01 X0.6241 Y22.2245 Z-2.6740 F1200
G01 X0.6637 Y22.1094 Z-2.7057 F1200
G01 X0.6797 Y21.9894 Z-2.7197 F1200
G01 X0.6715 Y21.8687 Z-2.7124 F1200
G01 X0.6394 Y21.7516 Z-2.6857 F1200
G01 X0.5844 Y21.6420 Z-2.6467 F1200
G01 X0.5081 Y21.5440 Z-2.6060 F1200
G01 X0.4129 Y21.4610 Z-2.5743 F1200
G01 X0.3016 Y21.3960 Z-2.5603 F1200
G01 X0.1777 Y21.3516 Z-2.5676 F1200
G01 X0.0449 Y21.3297 Z-2.5943 F1200
G01 X-0.0927 Y21.3314 Z-2.6333 F1200
G01 X-0.2311 Y21.3573 Z-2.6740 F1200
G01 X-0.3659 Y21.4071 Z-2.7057 F1200
G01 X-0.4931 Y21.4798 Z-2.7197 F1200
G01 X-0.6088 Y21.5737 Z-2.7124 F1200
G01 X-0.7095 Y21.6866 Z-2.6857 F1200
G01 X-0.7921 Y21.8155 Z-2.6467 F1200
G01 X-0.8541 Y21.9571 Z-2.6060 F1200
G01 X-0.8937 Y22.1075 Z-2.5743 F1200
G01 X-0.9097 Y22.2628 Z-2.5603 F1200
G01 X-0.9015 Y22.4188 Z-2.5676 F1200
G01 X-0.8694 Y22.5713 Z-2.5943 F1200
G01 X-0.8144 Y22.7162 Z-2.6333 F1200
G01 X-0.7381 Y22.8495 Z-2.6740 F1200
G01 X-0.6429 Y22.9679 Z-2.7057 F1200
G01 X-0.5316 Y23.0682 Z-2.7197 F1200
G01 X-0.4077 Y23.1479 Z-2.7124 F1200
G01 X-0.2749 Y23.2052 Z-2.6857 F1200
G01 X-0.1373 Y23.2388 Z-2.6467 F1200
G01 X0.0011 Y23.2483 Z-2.6060 F1200
G01 X0.1359 Y23.2338 Z-2.5743 F1200
G01 X0.2631 Y23.1965 Z-2.5603 F1200
G01 X0.3788 Y23.1378 Z-2.5676 F1200
G01 X0.4795 Y23.0603 Z-2.5943 F1200
G01 X0.5621 Y22.9667 Z-2.6333 F1200
G01 X0.6241 Y22.8605 Z-2.6740 F1200
G01 X0.6637 Y22.7454 Z-2.7057 F1200
G01 X0.6797 Y22.6254 Z-2.7197 F1200
G01 X0.6715 Y22.5047 Z-2.7124 F1200
G01 X0.6394 Y22.3876 Z-2.6857 F1200
G01 X0.5844 Y22.2780 Z-2.6467 F1200
G01 X0.5081 Y22.1800 Z-2.6060 F1200
G01 X0.4129 Y22.0970 Z-2.5743 F1200
G01 X0.3016 Y22.0320 Z-2.5603 F1200
G01 X0.1777 Y21.9876 Z-2.5676 F1200
G01 X0.0449 Y21.9657 Z-2.5943 F1200
G01 X-0.0927 Y21.9674 Z-2.6333 F1200
G01 X-0.2311 Y21.9933 Z-2.6740 F1200
G01 X-0.3659 Y22.0431 Z-2.7057 F1200
G01 X-0.4931 Y22.1158 Z-2.7197 F1200
G01 X-0.6088 Y22.2097 Z-2.7124 F1200
G01 X-0.7095 Y22.3226 Z-2.6857 F1200
G01 X-0.7921 Y22.4515 Z-2.6467 F1200
G01 X-0.8541 Y22.5931 Z-2.6060 F1200
G01 X-0.8937 Y22.7435 Z-2.5743 F1200
G01 X-0.9097 Y22.8988 Z-2.5603 F1200
G01 X-0.9015 Y23.0548 Z-2.5676 F1200
G01 X-0.8694 Y23.2073 Z-2.5943 F1200
G01 X-0.8144 Y23.3522 Z-2.6333 F1200
G01 X-0.7381 Y23.4855 Z-2.6740 F1200
G01 X-0.6429 Y23.6039 Z-2.7057 F1200
G01 X-0.5316 Y23.7042 Z-2.7197 F1200
G01 X-0.4077 Y23.7839 Z-2.7124 F1200
G01 X-0.2749 Y23.8412 Z-2.6857 F1200
G01 X-0.1373 Y23.8748 Z-2.6467 F1200
G01 X0.0011 Y23.8843 Z-2.6060 F1200
G01 X0.1359 Y23.8698 Z-2.5743 F1200
G01 X0.2631 Y23.8325 Z-2.5603 F1200
G01 X0.3788 Y23.7738 Z-2.5676 F1200
G01 X0.4795 Y23.6963 Z-2.5943 F1200
G01 X0.5621 Y23.6027 Z-2.6333 F1200
G01 X0.6241 Y23.4965 Z-2.6740 F1200
G01 X0.6637 Y23.3814 Z-2.7057 F1200
G01 X0.6797 Y23.2614 Z-2.7197 F1200
G01 X0.6715 Y23.1407 Z-2.7124 F1200
G01 X0.6394 Y23.0236 Z-2.6857 F1200
G01 X0.5844 Y22.9140 Z-2.6467 F1200
G01 X0.5081 Y22.8160 Z-2.6060 F1200
G01 X0.4129 Y22.7330 Z-2.5743 F1200
G01 X0.3016 Y22.6680 Z-2.5603 F1200
G01 X0.1777 Y22.6236 Z-2.5676 F1200
G01 X0.0449 Y22.6017 Z-2.5943 F1200
G01 X-0.0927 Y22.6034 Z-2.6333 F1200
G01 X-0.2311 Y22.6293 Z-2.6740 F1200
G01 X-0.3659 Y22.6791 Z-2.7057 F1200
G01 X-0.4931 Y22.7518 Z-2.7197 F1200
G01 X-0.6088 Y22.8457 Z-2.7124 F1200
G01 X-0.7095 Y22.9586 Z-2.6857 F1200
G01 X-0.7921 Y23.0875 Z-2.6467 F1200
G01 X-0.8541 Y23.2291 Z-2.6060 F1200
G01 X-0.8937 Y23.3795 Z-2.5743 F1200
G01 X-0.9097 Y23.5348 Z-2.5603 F1200
G01 X-0.9015 Y23.6908 Z-2.5676 F1200
G01 X-0.8694 Y23.8433 Z-2.5943 F1200
G01 X-0.8144 Y23.9882 Z-2.6333 F1200
G01 X-0.7381 Y24.1215 Z-2.6740 F1200
G01 X-0.6429 Y24.2399 Z-2.7057 F1200
G01 X-0.5316 Y24.3402 Z-2.7197 F1200
G01 X-0.4077 Y24.4199 Z-2.7124 F1200
G01 X-0.2749 Y24.4772 Z-2.6857 F1200
G01 X-0.1373 Y24.5108 Z-2.6467 F1200
G01 X0.0011 Y24.5203 Z-2.6060 F1200
G01 X0.1359 Y24.5058 Z-2.5743 F1200
G01 X0.2631 Y24.4685 Z-2.5603 F1200
G01 X0.3788 Y24.4098 Z-2.5676 F1200
G01 X0.4795 Y24.3323 Z-2.5943 F1200
G01 X0.5621 Y24.2387 Z-2.6333 F1200
G01 X0.6241 Y24.1325 Z-2.6740 F1200
G01 X0.6637 Y24.0174 Z-2.7057 F1200
G01 X0.6797 Y23.8974 Z-2.7197 F1200
G01 X0.6715 Y23.7767 Z-2.7124 F1200
G01 X0.6394 Y23.6596 Z-2.6857 F1200
G01 X0.5844 Y23.5500 Z-2.6467 F1200
G01 X0.5081 Y23.4520 Z-2.6060 F1200
G01 X0.4129 Y23.3690 Z-2.5743 F1200
G01 X0.3016 Y23.3040 Z-2.5603 F1200
G01 X0.1777 Y23.2596 Z-2.5676 F1200
G01 X0.0449 Y23.2377 Z-2.5943 F1200
G01 X-0.0927 Y23.2394 Z-2.6333 F1200
G01 X-0.2311 Y23.2653 Z-2.6740 F1200
G01 X-0.3659 Y23.3151 Z-2.7057 F1200
G01 X-0.4931 Y23.3878 Z-2.7197 F1200
G01 X-0.6088 Y23.4817 Z-2.7124 F1200
G01 X-0.7095 Y23.5946 Z-2.6857 F1200
G01 X-0.7921 Y23.7235 Z-2.6467 F1200
G01 X-0.8541 Y23.8651 Z-2.6060 F1200
G01 X-0.8937 Y24.0155 Z-2.5743 F1200
G01 X-0.9097 Y24.1708 Z-2.5603 F1200
G01 X-0.9015 Y24.3268 Z-2.5676 F1200
G01 X-0.8694 Y24.4793 Z-2.5943 F1200
G01 X-0.8144 Y24.6242 Z-2.6333 F1200
G01 X-0.7381 Y24.7575 Z-2.6740 F1200
G01 X-0.6429 Y24.8759 Z-2.7057 F1200
G01 X-0.5316 Y24.9762 Z-2.7197 F1200
G01 X-0.4077 Y25.0559 Z-2.7124 F1200
G01 X-0.2749 Y25.1132 Z-2.6857 F1200
G01 X-0.1373 Y25.1468 Z-2.6467 F1200
G01 X0.0011 Y25.1563 Z-2.6060 F1200
G01 X0.1359 Y25.1418 Z-2.5743 F1200
G01 X0.2631 Y25.1045 Z-2.5603 F1200
G01 X0.3788 Y25.0458 Z-2.5676 F1200
G01 X0.4795 Y24.9683 Z-2.5943 F1200
G01 X0.5621 Y24.8747 Z-2.6333 F1200
G01 X0.6241 Y24.7685 Z-2.6740 F1200
G01 X0.6637 Y24.6534 Z-2.7057 F1200
G01 X0.6797 Y24.5334 Z-2.7197 F1200
G01 X0.6715 Y24.4127 Z-2.7124 F1200
G01 X0.6394 Y24.2956 Z-2.6857 F1200
G01 X0.5844 Y24.1860 Z-2.6467 F1200
G01 X0.5081 Y24.0880 Z-2.6060 F1200
G01 X0.4129 Y24.0050 Z-2.5743 F1200
G01 X0.3016 Y23.9400 Z-2.5603 F1200
G01 X0.1777 Y23.8956 Z-2.5676 F1200
G01 X0.0449 Y23.8737 Z-2.5943 F1200
G01 X-0.0927 Y23.8754 Z-2.6333 F1200
G01 X-0.2311 Y23.9013 Z-2.6740 F1200
G01 X-0.3659 Y23.9511 Z-2.7057 F1200
G01 X-0.4931 Y24.0238 Z-2.7197 F1200
G01 X-0.6088 Y24.1177 Z-2.7124 F1200
G01 X-0.7095 Y24.2306 Z-2.6857 F1200
G01 X-0.7921 Y24.3595 Z-2.6467 F1200
G01 X-0.8541 Y24.5011 Z-2.6060 F1200
G01 X-0.8937 Y24.6515 Z-2.5743 F1200
G01 X-0.9097 Y24.8068 Z-2.5603 F1200
G01 X-0.9015 Y24.9628 Z-2.5676 F1200
G01 X-0.8694 Y25.1153 Z-2.5943 F1200
G01 X-0.8144 Y25.2602 Z-2.6333 F1200
G01 X-0.7381 Y25.3935 Z-2.6740 F1200
G01 X-0.6429 Y25.5119 Z-2.7057 F1200
G01 X-0.5316 Y25.6122 Z-2.7197 F1200
G01 X-0.4077 Y25.6919 Z-2.7124 F1200
G01 X-0.2749 Y25.7492 Z-2.6857 F1200
G01 X-0.1373 Y25.7828 Z-2.6467 F1200
G01 X0.0011 Y25.7923 Z-2.6060 F1200
G01 X0.1359 Y25.7778 Z-2.5743 F1200
G01 X0.2631 Y25.7405 Z-2.5603 F1200
G01 X0.3788 Y25.6818 Z-2.5676 F1200
G01 X0.4795 Y25.6043 Z-2.5943 F1200
G01 X0.5621 Y25.5107 Z-2.6333 F1200
G01 X0.6241 Y25.4045 Z-2.6740 F1200
G01 X0.6637 Y25.2894 Z-2.7057 F1200
G01 X0.6797 Y25.1694 Z-2.7197 F1200
G01 X0.6715 Y25.0487 Z-2.7124 F1200
G01 X0.6394 Y24.9316 Z-2.6857 F1200
G01 X0.5844 Y24.8220 Z-2.6467 F1200
G01 X0.5081 Y24.7240 Z-2.6060 F1200
G01 X0.4129 Y24.6410 Z-2.5743 F1200
G01 X0.3016 Y24.5760 Z-2.5603 F1200
G01 X0.1777 Y24.5316 Z-2.5676 F1200
G01 X0.0449 Y24.5097 Z-2.5943 F1200
G01 X-0.0927 Y24.5114 Z-2.6333 F1200
G01 X-0.2311 Y24.5373 Z-2.6740 F1200
G01 X-0.3659 Y24.5871 Z-2.7057 F1200
G01 X-0.4931 Y24.6598 Z-2.7197 F1200
G01 X-0.6088 Y24.7537 Z-2.7124 F1200
G01 X-0.7095 Y24.8666 Z-2.6857 F1200
G01 X-0.7921 Y24.9955 Z-2.6467 F1200
G01 X-0.8541 Y25.1371 Z-2.6060 F1200
G01 X-0.8937 Y25.2875 Z-2.5743 F1200
G01 X-0.9097 Y25.4428 Z-2.5603 F1200
G01 X-0.9015 Y25.5988 Z-2.5676 F1200
G01 X-0.8694 Y25.7513 Z-2.5943 F1200
G01 X-0.8144 Y25.8962 Z-2.6333 F1200
G01 X-0.7381 Y26.0295 Z-2.6740 F1200
G01 X-0.6429 Y26.1479 Z-2.7057 F1200
G01 X-0.5316 Y26.2482 Z-2.7197 F1200
G01 X-0.4077 Y26.3279 Z-2.7124 F1200
G01 X-0.2749 Y26.3852 Z-2.6857 F1200
G01 X-0.2086 Y26.4045 Z-2.6677 F1200
G01 X-0.0524 Y26.4087 Z-2.6265 F1200
G01 X0.1024 Y26.3889 Z-2.5889 F1200
G01 X0.2517 Y26.3455 Z-2.5650 F1200
G01 X0.3914 Y26.2799 Z-2.5611 F1200
G01 X0.5180 Y26.1941 Z-2.5785 F1200
G01 X0.6279 Y26.0908 Z-2.6123 F1200
G01 X0.7185 Y25.9729 Z-2.6535 F1200
G01 X0.7876 Y25.8442 Z-2.6911 F1200
G01 X0.8335 Y25.7086 Z-2.7150 F1200
G01 X0.8554 Y25.5701 Z-2.7189 F1200
G01 X0.8532 Y25.4329 Z-2.7015 F1200
G01 X0.8275 Y25.3013 Z-2.6677 F1200
G01 X0.7796 Y25.1792 Z-2.6265 F1200
G01 X0.7785 Y25.1770 Z-2.6257 F1200
G01 X0.6924 Y25.0508 Z-2.5883 F1200
G01 X0.5887 Y24.9412 Z-2.5647 F1200
G01 X0.4706 Y24.8510 Z-2.5613 F1200
G01 X0.3417 Y24.7824 Z-2.5790 F1200
G01 X0.2060 Y24.7369 Z-2.6130 F1200
G01 X0.0674 Y24.7154 Z-2.6543 F1200
G01 X-0.0696 Y24.7181 Z-2.6917 F1200
G01 X-0.2011 Y24.7442 Z-2.7153 F1200
G01 X-0.3230 Y24.7925 Z-2.7187 F1200
G01 X-0.4315 Y24.8610 Z-2.7010 F1200
G01 X-0.5235 Y24.9470 Z-2.6670 F1200
G01 X-0.5960 Y25.0474 Z-2.6257 F1200
G01 X-0.6470 Y25.1586 Z-2.5883 F1200
G01 X-0.6748 Y25.2767 Z-2.5647 F1200
G01 X-0.6786 Y25.3976 Z-2.5613 F1200
G01 X-0.6583 Y25.5170 Z-2.5790 F1200
G01 X-0.6145 Y25.6308 Z-2.6130 F1200
G01 X-0.5485 Y25.7350 Z-2.6543 F1200
G01 X-0.4624 Y25.8259 Z-2.6917 F1200
G01 X-0.3587 Y25.9001 Z-2.7153 F1200
G01 X-0.2406 Y25.9550 Z-2.7187 F1200
G01 X-0.1117 Y25.9883 Z-2.7010 F1200
G01 X0.0240 Y25.9984 Z-2.6670 F1200
G01 X0.1626 Y25.9846 Z-2.6257 F1200
G01 X0.2996 Y25.9466 Z-2.5883 F1200
G01 X0.4311 Y25.8851 Z-2.5647 F1200
G01 X0.5530 Y25.8015 Z-2.5613 F1200
G01 X0.6615 Y25.6977 Z-2.5790 F1200
G01 X0.7535 Y25.5763 Z-2.6130 F1200
G01 X0.8260 Y25.4406 Z-2.6543 F1200
G01 X0.8770 Y25.2941 Z-2.6917 F1200
G01 X0.9048 Y25.1406 Z-2.7153 F1200
G01 X0.9086 Y24.9844 Z-2.7187 F1200
G01 X0.8883 Y24.8297 Z-2.7010 F1200
G01 X0.8445 Y24.6806 Z-2.6670 F1200
G01 X0.7785 Y24.5410 Z-2.6257 F1200
G01 X0.6924 Y24.4148 Z-2.5883 F1200
G01 X0.5887 Y24.3052 Z-2.5647 F1200
G01 X0.4706 Y24.2150 Z-2.5613 F1200
G01 X0.3417 Y24.1464 Z-2.5790 F1200
G01 X0.2060 Y24.1009 Z-2.6130 F1200
G01 X0.0674 Y24.0794 Z-2.6543 F1200
G01 X-0.0696 Y24.0821 Z-2.6917 F1200
G01 X-0.2011 Y24.1082 Z-2.7153 F1200
G01 X-0.3230 Y24.1565 Z-2.7187 F1200
G01 X-0.4315 Y24.2250 Z-2.7010 F1200
G01 X-0.5235 Y24.3110 Z-2.6670 F1200
G01 X-0.5960 Y24.4114 Z-2.6257 F1200
G01 X-0.6470 Y24.5226 Z-2.5883 F1200
G01 X-0.6748 Y24.6407 Z-2.5647 F1200
G01 X-0.6786 Y24.7616 Z-2.5613 F1200
G01 X-0.6583 Y24.8810 Z-2.5790 F1200
G01 X-0.6145 Y24.9948 Z-2.6130 F1200
G01 X-0.5485 Y25.0990 Z-2.6543 F1200
G01 X-0.4624 Y25.1899 Z-2.6917 F1200
G01 X-0.3587 Y25.2641 Z-2.7153 F1200
G01 X-0.2406 Y25.3190 Z-2.7187 F1200
G01 X-0.1117 Y25.3523 Z-2.7010 F1200
G01 X0.0240 Y25.3624 Z-2.6670 F1200
G01 X0.1626 Y25.3486 Z-2.6257 F1200
G01 X0.2996 Y25.3106 Z-2.5883 F1200
G01 X0.4311 Y25.2491 Z-2.5647 F1200
G01 X0.5530 Y25.1655 Z-2.5613 F1200
G01 X0.6615 Y25.0617 Z-2.5790 F1200
G01 X0.7535 Y24.9403 Z-2.6130 F1200
G01 X0.8260 Y24.8046 Z-2.6543 F1200
G01 X0.8770 Y24.6581 Z-2.6917 F1200
G01 X0.9048 Y24.5046 Z-2.7153 F1200
G01 X0.9086 Y24.3484 Z-2.7187 F1200
G01 X0.8883 Y24.1937 Z-2.7010 F1200
G01 X0.8445 Y24.0446 Z-2.6670 F1200
G01 X0.7785 Y23.9050 Z-2.6257 F1200
G01 X0.6924 Y23.7788 Z-2.5883 F1200
G01 X0.5887 Y23.6692 Z-2.5647 F1200
G01 X0.4706 Y23.5790 Z-2.5613 F1200
G01 X0.3417 Y23.5104 Z-2.5790 F1200
G01 X0.2060 Y23.4649 Z-2.6130 F1200
G01 X0.0674 Y23.4434 Z-2.6543 F1200
G01 X-0.0696 Y23.4461 Z-2.6917 F1200
G01 X-0.2011 Y23.4722 Z-2.7153 F1200
G01 X-0.3230 Y23.5205 Z-2.7187 F1200
G01 X-0.4315 Y23.5890 Z-2.7010 F1200
G01 X-0.5235 Y23.6750 Z-2.6670 F1200
G01 X-0.5960 Y23.7754 Z-2.6257 F1200
G01 X-0.6470 Y23.8866 Z-2.5883 F1200
G01 X-0.6748 Y24.0047 Z-2.5647 F1200
G01 X-0.6786 Y24.1256 Z-2.5613 F1200
G01 X-0.6583 Y24.2450 Z-2.5790 F1200
G01 X-0.6145 Y24.3588 Z-2.6130 F1200
G01 X-0.5485 Y24.4630 Z-2.6543 F1200
G01 X-0.4624 Y24.5539 Z-2.6917 F1200
G01 X-0.3587 Y24.6281 Z-2.7153 F1200
G01 X-0.2406 Y24.6830 Z-2.7187 F1200
G01 X-0.1117 Y24.7163 Z-2.7010 F1200
G01 X0.0240 Y24.7264 Z-2.6670 F1200
G01 X0.1626 Y24.7126 Z-2.6257 F1200
G01 X0.2996 Y24.6746 Z-2.5883 F1200
G01 X0.4311 Y24.6131 Z-2.5647 F1200
G01 X0.5530 Y24.5295 Z-2.5613 F1200
G01 X0.6615 Y24.4257 Z-2.5790 F1200
G01 X0.7535 Y24.3043 Z-2.6130 F1200
G01 X0.8260 Y24.1686 Z-2.6543 F1200
G01 X0.8770 Y24.0221 Z-2.6917 F1200
G01 X0.9048 Y23.8686 Z-2.7153 F1200
G01 X0.9086 Y23.7124 Z-2.7187 F1200
G01 X0.8883 Y23.5577 Z-2.7010 F1200
G01 X0.8445 Y23.4086 Z-2.6670 F1200
G01 X0.7785 Y23.2690 Z-2.6257 F1200
G01 X0.6924 Y23.1428 Z-2.5883 F1200
G01 X0.5887 Y23.0332 Z-2.5647 F1200
G01 X0.4706 Y22.9430 Z-2.5613 F1200
G01 X0.3417 Y22.8744 Z-2.5790 F1200
G01 X0.2060 Y22.8289 Z-2.6130 F1200
G01 X0.0674 Y22.8074 Z-2.6543 F1200
G01 X-0.0696 Y22.8101 Z-2.6917 F1200
G01 X-0.2011 Y22.8362 Z-2.7153 F1200
G01 X-0.3230 Y22.8845 Z-2.7187 F1200
G01 X-0.4315 Y22.9530 Z-2.7010 F1200
G01 X-0.5235 Y23.0390 Z-2.6670 F1200
G01 X-0.5960 Y23.1394 Z-2.6257 F1200
G01 X-0.6470 Y23.2506 Z-2.5883 F1200
G01 X-0.6748 Y23.3687 Z-2.5647 F1200
G01 X-0.6786 Y23.4896 Z-2.5613 F1200
G01 X-0.6583 Y23.6090 Z-2.5790 F1200
G01 X-0.6145 Y23.7228 Z-2.6130 F1200
G01 X-0.5485 Y23.8270 Z-2.6543 F1200
G01 X-0.4624 Y23.9179 Z-2.6917 F1200
G01 X-0.3587 Y23.9921 Z-2.7153 F1200
G01 X-0.2406 Y24.0470 Z-2.7187 F1200
G01 X-0.1117 Y24.0803 Z-2.7010 F1200
G01 X0.0240 Y24.0904 Z-2.6670 F1200
G01 X0.1626 Y24.0766 Z-2.6257 F1200
G01 X0.2996 Y24.0386 Z-2.5883 F1200
G01 X0.4311 Y23.9771 Z-2.5647 F1200
G01 X0.5530 Y23.8935 Z-2.5613 F1200
G01 X0.6615 Y23.7897 Z-2.5790 F1200
G01 X0.7535 Y23.6683 Z-2.6130 F1200
G01 X0.8260 Y23.5326 Z-2.6543 F1200
G01 X0.8770 Y23.3861 Z-2.6917 F1200
G01 X0.9048 Y23.2326 Z-2.7153 F1200
G01 X0.9086 Y23.0764 Z-2.7187 F1200
G01 X0.8883 Y22.9217 Z-2.7010 F1200
G01 X0.8445 Y22.7726 Z-2.6670 F1200
G01 X0.7785 Y22.6330 Z-2.6257 F1200
G01 X0.6924 Y22.5068 Z-2.5883 F1200
G01 X0.5887 Y22.3972 Z-2.5647 F1200
G01 X0.4706 Y22.3070 Z-2.5613 F1200
G01 X0.3417 Y22.2384 Z-2.5790 F1200
G01 X0.2060 Y22.1929 Z-2.6130 F1200
G01 X0.0674 Y22.1714 Z-2.6543 F1200
G01 X-0.0696 Y22.1741 Z-2.6917 F1200
G01 X-0.2011 Y22.2002 Z-2.7153 F1200
G01 X-0.3230 Y22.2485 Z-2.7187 F1200
G01 X-0.4315 Y22.3170 Z-2.7010 F1200
G01 X-0.5235 Y22.4030 Z-2.6670 F1200
G01 X-0.5960 Y22.5034 Z-2.6257 F1200
G01 X-0.6470 Y22.6146 Z-2.5883 F1200
G01 X-0.6748 Y22.7327 Z-2.5647 F1200
G01 X-0.6786 Y22.8536 Z-2.5613 F1200
G01 X-0.6583 Y22.9730 Z-2.5790 F1200
G01 X-0.6145 Y23.0868 Z-2.6130 F1200
G01 X-0.5485 Y23.1910 Z-2.6543 F1200
G01 X-0.4624 Y23.2819 Z-2.6917 F1200
G01 X-0.3587 Y23.3561 Z-2.7153 F1200
G01 X-0.2406 Y23.4110 Z-2.7187 F1200
G01 X-0.1117 Y23.4443 Z-2.7010 F1200
G01 X0.0240 Y23.4544 Z-2.6670 F1200
G01 X0.1626 Y23.4406 Z-2.6257 F1200
G01 X0.2996 Y23.4026 Z-2.5883 F1200
G01 X0.4311 Y23.3411 Z-2.5647 F1200
G01 X0.5530 Y23.2575 Z-2.5613 F1200
G01 X0.6615 Y23.1537 Z-2.5790 F1200
G01 X0.7535 Y23.0323 Z-2.6130 F1200
G01 X0.8260 Y22.8966 Z-2.6543 F1200
G01 X0.8770 Y22.7501 Z-2.6917 F1200
G01 X0.9048 Y22.5966 Z-2.7153 F1200
G01 X0.9086 Y22.4404 Z-2.7187 F1200
G01 X0.8883 Y22.2857 Z-2.7010 F1200
G01 X0.8445 Y22.1366 Z-2.6670 F1200
G01 X0.7785 Y21.9970 Z-2.6257 F1200
G01 X0.6924 Y21.8708 Z-2.5883 F1200
G01 X0.5887 Y21.7612 Z-2.5647 F1200
G01 X0.4706 Y21.6710 Z-2.5613 F1200
G01 X0.3417 Y21.6024 Z-2.5790 F1200
G01 X0.2060 Y21.5569 Z-2.6130 F1200
G01 X0.0674 Y21.5354 Z-2.6543 F1200
G01 X-0.0696 Y21.5381 Z-2.6917 F1200
G01 X-0.2011 Y21.5642 Z-2.7153 F1200
G01 X-0.3230 Y21.6125 Z-2.7187 F1200
G01 X-0.4315 Y21.6810 Z-2.7010 F1200
G01 X-0.5235 Y21.7670 Z-2.6670 F1200
G01 X-0.5960 Y21.8674 Z-2.6257 F1200
G01 X-0.6470 Y21.9786 Z-2.5883 F1200
G01 X-0.6748 Y22.0967 Z-2.5647 F1200
G01 X-0.6786 Y22.2176 Z-2.5613 F1200
G01 X-0.6583 Y22.3370 Z-2.5790 F1200
G01 X-0.6145 Y22.4508 Z-2.6130 F1200
G01 X-0.5485 Y22.5550 Z-2.6543 F1200
G01 X-0.4624 Y22.6459 Z-2.6917 F1200
G01 X-0.3587 Y22.7201 Z-2.7153 F1200
G01 X-0.2406 Y22.7750 Z-2.7187 F1200
G01 X-0.1117 Y22.8083 Z-2.7010 F1200
G01 X0.0240 Y22.8184 Z-2.6670 F1200
G01 X0.1626 Y22.8046 Z-2.6257 F1200
G01 X0.2996 Y22.7666 Z-2.5883 F1200
G01 X0.4311 Y22.7051 Z-2.5647 F1200
G01 X0.5530 Y22.6215 Z-2.5613 F1200
G01 X0.6615 Y22.5177 Z-2.5790 F1200
G01 X0.7535 Y22.3963 Z-2.6130 F1200
G01 X0.8260 Y22.2606 Z-2.6543 F1200
G01 X0.8770 Y22.1141 Z-2.6917 F1200
G01 X0.9048 Y21.9606 Z-2.7153 F1200
G01 X0.9086 Y21.8044 Z-2.7187 F1200
G01 X0.8883 Y21.6497 Z-2.7010 F1200
G01 X0.8445 Y21.5006 Z-2.6670 F1200
G01 X0.7785 Y21.3610 Z-2.6257 F1200
G01 X0.6924 Y21.2348 Z-2.5883 F1200
G01 X0.5887 Y21.1252 Z-2.5647 F1200
G01 X0.4706 Y21.0350 Z-2.5613 F1200
G01 X0.3417 Y20.9664 Z-2.5790 F1200
G01 X0.2060 Y20.9209 Z-2.6130 F1200
G01 X0.0674 Y20.8994 Z-2.6543 F1200
G01 X-0.0696 Y20.9021 Z-2.6917 F1200
G01 X-0.2011 Y20.9282 Z-2.7153 F1200
G01 X-0.3230 Y20.9765 Z-2.7187 F1200
G01 X-0.4315 Y21.0450 Z-2.7010 F1200
G01 X-0.5235 Y21.1310 Z-2.6670 F1200
G01 X-0.5960 Y21.2314 Z-2.6257 F1200
G01 X-0.6470 Y21.3426 Z-2.5883 F1200
G01 X-0.6748 Y21.4607 Z-2.5647 F1200
G01 X-0.6786 Y21.5816 Z-2.5613 F1200
G01 X-0.6583 Y21.7010 Z-2.5790 F1200
G01 X-0.6145 Y21.8148 Z-2.6130 F1200
G01 X-0.5485 Y21.9190 Z-2.6543 F1200
G01 X-0.4624 Y22.0099 Z-2.6917 F1200
G01 X-0.3587 Y22.0841 Z-2.7153 F1200
G01 X-0.2406 Y22.1390 Z-2.7187 F1200
G01 X-0.1117 Y22.1723 Z-2.7010 F1200
G01 X0.0240 Y22.1824 Z-2.6670 F1200
G01 X0.1626 Y22.1686 Z-2.6257 F1200
G01 X0.2996 Y22.1306 Z-2.5883 F1200
G01 X0.4311 Y22.0691 Z-2.5647 F1200
G01 X0.5530 Y21.9855 Z-2.5613 F1200
G01 X0.6615 Y21.8817 Z-2.5790 F1200
G01 X0.7535 Y21.7603 Z-2.6130 F1200
G01 X0.8260 Y21.6246 Z-2.6543 F1200
G01 X0.8770 Y21.4781 Z-2.6917 F1200
G01 X0.9048 Y21.3246 Z-2.7153 F1200
G01 X0.9086 Y21.1684 Z-2.7187 F1200
G01 X0.8883 Y21.0137 Z-2.7010 F1200
G01 X0.8445 Y20.8646 Z-2.6670 F1200
G01 X0.7785 Y20.7250 Z-2.6257 F1200
G01 X0.6924 Y20.5988 Z-2.5883 F1200
G01 X0.5887 Y20.4892 Z-2.5647 F1200
G01 X0.4706 Y20.3990 Z-2.5613 F1200
G01 X0.3417 Y20.3304 Z-2.5790 F1200
G01 X0.2060 Y20.2849 Z-2.6130 F1200
G01 X0.0674 Y20.2634 Z-2.6543 F1200
G01 X-0.0696 Y20.2661 Z-2.6917 F1200
G01 X-0.2011 Y20.2922 Z-2.7153 F1200
G01 X-0.3230 Y20.3405 Z-2.7187 F1200
G01 X-0.4315 Y20.4090 Z-2.7010 F1200
G01 X-0.5235 Y20.4950 Z-2.6670 F1200
G01 X-0.5960 Y20.5954 Z-2.6257 F1200
G01 X-0.6470 Y20.7066 Z-2.5883 F1200
G01 X-0.6748 Y20.8247 Z-2.5647 F1200
G01 X-0.6786 Y20.9456 Z-2.5613 F1200
G01 X-0.6583 Y21.0650 Z-2.5790 F1200
G01 X-0.6145 Y21.1788 Z-2.6130 F1200
G01 X-0.5485 Y21.2830 Z-2.6543 F1200
G01 X-0.4624 Y21.3739 Z-2.6917 F1200
G01 X-0.3587 Y21.4481 Z-2.7153 F1200
G01 X-0.2406 Y21.5030 Z-2.7187 F1200
G01 X-0.1117 Y21.5363 Z-2.7010 F1200
G01 X0.0240 Y21.5464 Z-2.6670 F1200
G01 X0.1626 Y21.5326 Z-2.6257 F1200
G01 X0.2996 Y21.4946 Z-2.5883 F1200
G01 X0.4311 Y21.4331 Z-2.5647 F1200
G01 X0.5530 Y21.3495 Z-2.5613 F1200
G01 X0.6615 Y21.2457 Z-2.5790 F1200
G01 X0.7535 Y21.1243 Z-2.6130 F1200
G01 X0.8260 Y20.9886 Z-2.6543 F1200
G01 X0.8770 Y20.8421 Z-2.6917 F1200
G01 X0.9048 Y20.6886 Z-2.7153 F1200
G01 X0.9086 Y20.5324 Z-2.7187 F1200
G01 X0.8883 Y20.3777 Z-2.7010 F1200
G01 X0.8445 Y20.2286 Z-2.6670 F1200
G01 X0.7785 Y20.0890 Z-2.6257 F1200
G01 X0.6924 Y19.9628 Z-2.5883 F1200
G01 X0.5887 Y19.8532 Z-2.5647 F1200
G01 X0.4706 Y19.7630 Z-2.5613 F1200
G01 X0.3417 Y19.6944 Z-2.5790 F1200
G01 X0.2060 Y19.6489 Z-2.6130 F1200
G01 X0.0674 Y19.6274 Z-2.6543 F1200
G01 X-0.0696 Y19.6301 Z-2.6917 F1200
G01 X-0.2011 Y19.6562 Z-2.7153 F1200
G01 X-0.3230 Y19.7045 Z-2.7187 F1200
G01 X-0.4315 Y19.7730 Z-2.7010 F1200
G01 X-0.5235 Y19.8590 Z-2.6670 F1200
G01 X-0.5960 Y19.9594 Z-2.6257 F1200
G01 X-0.6470 Y20.0706 Z-2.5883 F1200
G01 X-0.6748 Y20.1887 Z-2.5647 F1200
G01 X-0.6786 Y20.3096 Z-2.5613 F1200
G01 X-0.6583 Y20.4290 Z-2.5790 F1200
G01 X-0.6145 Y20.5428 Z-2.6130 F1200
G01 X-0.5485 Y20.6470 Z-2.6543 F1200
G01 X-0.4624 Y20.7379 Z-2.6917 F1200
G01 X-0.3587 Y20.8121 Z-2.7153 F1200
G01 X-0.2406 Y20.8670 Z-2.7187 F1200
G01 X-0.1117 Y20.9003 Z-2.7010 F1200
G01 X0.0240 Y20.9104 Z-2.6670 F1200
G01 X0.1626 Y20.8966 Z-2.6257 F1200
G01 X0.2996 Y20.8586 Z-2.5883 F1200
G01 X0.4311 Y20.7971 Z-2.5647 F1200
G01 X0.5530 Y20.7135 Z-2.5613 F1200
G01 X0.6615 Y20.6097 Z-2.5790 F1200
G01 X0.7535 Y20.4883 Z-2.6130 F1200
G01 X0.8260 Y20.3526 Z-2.6543 F1200
G01 X0.8770 Y20.2061 Z-2.6917 F1200
G01 X0.9048 Y20.0526 Z-2.7153 F1200
G01 X0.9086 Y19.8964 Z-2.7187 F1200
G01 X0.8883 Y19.7417 Z-2.7010 F1200
G01 X0.8445 Y19.5926 Z-2.6670 F1200
G01 X0.7785 Y19.4530 Z-2.6257 F1200
G01 X0.6924 Y19.3268 Z-2.5883 F1200
G01 X0.5887 Y19.2172 Z-2.5647 F1200
G01 X0.4706 Y19.1270 Z-2.5613 F1200
G01 X0.3417 Y19.0584 Z-2.5790 F1200
G01 X0.2060 Y19.0129 Z-2.6130 F1200
G01 X0.0674 Y18.9914 Z-2.6543 F1200
G01 X-0.0696 Y18.9941 Z-2.6917 F1200
G01 X-0.2011 Y19.0202 Z-2.7153 F1200
G01 X-0.3230 Y19.0685 Z-2.7187 F1200
G01 X-0.4315 Y19.1370 Z-2.7010 F1200
G01 X-0.5235 Y19.2230 Z-2.6670 F1200
G01 X-0.5960 Y19.3234 Z-2.6257 F1200
G01 X-0.6470 Y19.4346 Z-2.5883 F1200
G01 X-0.6748 Y19.5527 Z-2.5647 F1200
G01 X-0.6786 Y19.6736 Z-2.5613 F1200
G01 X-0.6583 Y19.7930 Z-2.5790 F1200
G01 X-0.6145 Y19.9068 Z-2.6130 F1200
G01 X-0.5485 Y20.0110 Z-2.6543 F1200
G01 X-0.4624 Y20.1019 Z-2.6917 F1200
G01 X-0.3587 Y20.1761 Z-2.7153 F1200
G01 X-0.2406 Y20.2310 Z-2.7187 F1200
G01 X-0.1117 Y20.2643 Z-2.7010 F1200
G01 X0.0240 Y20.2744 Z-2.6670 F1200
G01 X0.1626 Y20.2606 Z-2.6257 F1200
G01 X0.2996 Y20.2226 Z-2.5883 F1200
G01 X0.4311 Y20.1611 Z-2.5647 F1200
G01 X0.5530 Y20.0775 Z-2.5613 F1200
G01 X0.6615 Y19.9737 Z-2.5790 F1200
G01 X0.7535 Y19.8523 Z-2.6130 F1200
G01 X0.8260 Y19.7166 Z-2.6543 F1200
G01 X0.8770 Y19.5701 Z-2.6917 F1200
G01 X0.9048 Y19.4166 Z-2.7153 F1200
G01 X0.9086 Y19.2604 Z-2.7187 F1200
G01 X0.8883 Y19.1057 Z-2.7010 F1200
G01 X0.8445 Y18.9566 Z-2.6670 F1200
G01 X0.7785 Y18.8170 Z-2.6257 F1200
G01 X0.6924 Y18.6908 Z-2.5883 F1200
G01 X0.5887 Y18.5812 Z-2.5647 F1200
G01 X0.4706 Y18.4910 Z-2.5613 F1200
G01 X0.3417 Y18.4224 Z-2.5790 F1200
G01 X0.2060 Y18.3769 Z-2.6130 F1200
G01 X0.0674 Y18.3554 Z-2.6543 F1200
G01 X-0.0696 Y18.3581 Z-2.6917 F1200
G01 X-0.2011 Y18.3842 Z-2.7153 F1200
G01 X-0.3230 Y18.4325 Z-2.7187 F1200
G01 X-0.4315 Y18.5010 Z-2.7010 F1200
G01 X-0.5235 Y18.5870 Z-2.6670 F1200
G01 X-0.5960 Y18.6874 Z-2.6257 F1200
G01 X-0.6470 Y18.7986 Z-2.5883 F1200
G01 X-0.6748 Y18.9167 Z-2.5647 F1200
G01 X-0.6786 Y19.0376 Z-2.5613 F1200
G01 X-0.6583 Y19.1570 Z-2.5790 F1200
G01 X-0.6145 Y19.2708 Z-2.6130 F1200
G01 X-0.5485 Y19.3750 Z-2.6543 F1200
G01 X-0.4624 Y19.4659 Z-2.6917 F1200
G01 X-0.3587 Y19.5401 Z-2.7153 F1200
G01 X-0.2406 Y19.5950 Z-2.7187 F1200
G01 X-0.1117 Y19.6283 Z-2.7010 F1200
G01 X0.0240 Y19.6384 Z-2.6670 F1200
G01 X0.1626 Y19.6246 Z-2.6257 F1200
G01 X0.2996 Y19.5866 Z-2.5883 F1200
G01 X0.4311 Y19.5251 Z-2.5647 F1200
G01 X0.5530 Y19.4415 Z-2.5613 F1200
G01 X0.6615 Y19.3377 Z-2.5790 F1200
G01 X0.7535 Y19.2163 Z-2.6130 F1200
G01 X0.8260 Y19.0806 Z-2.6543 F1200
G01 X0.8770 Y18.9341 Z-2.6917 F1200
G01 X0.9048 Y18.7806 Z-2.7153 F1200
G01 X0.9086 Y18.6244 Z-2.7187 F1200
G01 X0.8883 Y18.4697 Z-2.7010 F1200
G01 X0.8445 Y18.3206 Z-2.6670 F1200
G01 X0.7785 Y18.1810 Z-2.6257 F1200
G01 X0.6924 Y18.0548 Z-2.5883 F1200
G01 X0.5887 Y17.9452 Z-2.5647 F1200
G01 X0.4706 Y17.8550 Z-2.5613 F1200
G01 X0.3417 Y17.7864 Z-2.5790 F1200
G01 X0.2060 Y17.7409 Z-2.6130 F1200
G01 X0.0674 Y17.7194 Z-2.6543 F1200
G01 X-0.0696 Y17.7221 Z-2.6917 F1200
G01 X-0.2011 Y17.7482 Z-2.7153 F1200
G01 X-0.3230 Y17.7965 Z-2.7187 F1200
G01 X-0.4315 Y17.8650 Z-2.7010 F1200
G01 X-0.5235 Y17.9510 Z-2.6670 F1200
G01 X-0.5960 Y18.0514 Z-2.6257 F1200
G01 X-0.6470 Y18.1626 Z-2.5883 F1200
G01 X-0.6748 Y18.2807 Z-2.5647 F1200
G01 X-0.6786 Y18.4016 Z-2.5613 F1200
G01 X-0.6583 Y18.5210 Z-2.5790 F1200
G01 X-0.6145 Y18.6348 Z-2.6130 F1200
G01 X-0.5485 Y18.7390 Z-2.6543 F1200
G01 X-0.4624 Y18.8299 Z-2.6917 F1200
G01 X-0.3587 Y18.9041 Z-2.7153 F1200
G01 X-0.2406 Y18.9590 Z-2.7187 F1200
G01 X-0.1117 Y18.9923 Z-2.7010 F1200
G01 X0.0240 Y19.0024 Z-2.6670 F1200
G01 X0.1626 Y18.9886 Z-2.6257 F1200
G01 X0.2996 Y18.9506 Z-2.5883 F1200
G01 X0.4311 Y18.8891 Z-2.5647 F1200
G01 X0.5530 Y18.8055 Z-2.5613 F1200
G01 X0.6615 Y18.7017 Z-2.5790 F1200
G01 X0.7535 Y18.5803 Z-2.6130 F1200
G01 X0.8260 Y18.4446 Z-2.6543 F1200
G01 X0.8770 Y18.2981 Z-2.6917 F1200
G01 X0.9048 Y18.1446 Z-2.7153 F1200
G01 X0.9086 Y17.9884 Z-2.7187 F1200
G01 X0.8883 Y17.8337 Z-2.7010 F1200
G01 X0.8445 Y17.6846 Z-2.6670 F1200
G01 X0.7785 Y17.5450 Z-2.6257 F1200
G01 X0.6924 Y17.4188 Z-2.5883 F1200
G01 X0.5887 Y17.3092 Z-2.5647 F1200
G01 X0.5331 Y17.2629 Z-2.5603 F1200
G01 X0.4098 Y17.1829 Z-2.5674 F1200
G01 X0.2776 Y17.1254 Z-2.5939 F1200
G01 X0.1405 Y17.0915 Z-2.6328 F1200
G01 X0.0027 Y17.0817 Z-2.6736 F1200
G01 X-0.1317 Y17.0959 Z-2.7054 F1200
G01 X-0.2584 Y17.1330 Z-2.7197 F1200
G01 X-0.3592 Y17.1825 Z-2.7148 F1200
G01 X-0.4609 Y17.2575 Z-2.6905 F1200
G01 X-0.5449 Y17.3490 Z-2.6528 F1200
G01 X-0.6087 Y17.4537 Z-2.6116 F1200
G01 X-0.6503 Y17.5678 Z-2.5780 F1200
G01 X-0.6683 Y17.6874 Z-2.5610 F1200
G01 X-0.6622 Y17.8083 Z-2.5652 F1200
G01 X-0.6375 Y17.9109 Z-2.5853 F1200
G01 X-0.5864 Y18.0230 Z-2.6218 F1200
G01 X-0.5136 Y18.1248 Z-2.6632 F1200
G01 X-0.4211 Y18.2125 Z-2.6984 F1200
G01 X-0.3117 Y18.2829 Z-2.7179 F1200
G01 X-0.1887 Y18.3334 Z-2.7166 F1200
G01 X-0.0557 Y18.3619 Z-2.6947 F1200
G01 X0.0646 Y18.3676 Z-2.6636 F1200
G01 X0.2063 Y18.3520 Z-2.6222 F1200
G01 X0.3462 Y18.3123 Z-2.5856 F1200
G01 X0.4802 Y18.2491 Z-2.5636 F1200
G01 X0.6042 Y18.1640 Z-2.5620 F1200
G01 X0.7146 Y18.0588 Z-2.5813 F1200
G01 X0.8081 Y17.9364 Z-2.6164 F1200
G01 X0.8734 Y17.8188 Z-2.6523 F1200
G01 X0.9295 Y17.6731 Z-2.6902 F1200
G01 X0.9624 Y17.5204 Z-2.7146 F1200
G01 X0.9714 Y17.3647 Z-2.7190 F1200
G01 X0.9562 Y17.2102 Z-2.7023 F1200
G01 X0.9175 Y17.0612 Z-2.6689 F1200
G01 X0.8566 Y16.9216 Z-2.6277 F1200
G01 X0.7872 Y16.8111 Z-2.5943 F1200
G01 X0.6914 Y16.6989 Z-2.5676 F1200
G01 X0.5805 Y16.6057 Z-2.5603 F1200
G01 X0.4582 Y16.5337 Z-2.5744 F1200
G01 X0.3282 Y16.4846 Z-2.6060 F1200
G01 X0.1947 Y16.4595 Z-2.6468 F1200
G01 X0.0619 Y16.4584 Z-2.6857 F1200
G01 X-0.0494 Y16.4767 Z-2.7099 F1200
G01 X-0.1690 Y16.5192 Z-2.7200 F1200
G01 X-0.2764 Y16.5825 Z-2.7087 F1200
G01 X-0.3682 Y16.6643 Z-2.6790 F1200
G01 X-0.4414 Y16.7615 Z-2.6388 F1200
G01 X-0.4937 Y16.8707 Z-2.5990 F1200
G01 X-0.5232 Y16.9880 Z-2.5701 F1200
G01 X-0.5295 Y17.0931 Z-2.5601 F1200
G01 X-0.5134 Y17.2149 Z-2.5686 F1200
G01 X-0.4735 Y17.3330 Z-2.5963 F1200
G01 X-0.4107 Y17.4432 Z-2.6356 F1200
G01 X-0.3268 Y17.5418 Z-2.6762 F1200
G01 X-0.2241 Y17.6251 Z-2.7070 F1200
G01 X-0.1055 Y17.6902 Z-2.7199 F1200
G01 X0.0075 Y17.7300 Z-2.7137 F1200
G01 X0.1471 Y17.7553 Z-2.6883 F1200
G01 X0.2918 Y17.7570 Z-2.6499 F1200
G01 X0.4376 Y17.7346 Z-2.6089 F1200
G01 X0.5802 Y17.6882 Z-2.5762 F1200
G01 X0.7154 Y17.6188 Z-2.5606 F1200
G01 X0.8394 Y17.5280 Z-2.5663 F1200
G01 X0.9352 Y17.4337 Z-2.5874 F1200
G01 X1.0299 Y17.3099 Z-2.6246 F1200
G01 X1.1046 Y17.1727 Z-2.6659 F1200
G01 X1.1572 Y17.0257 Z-2.7003 F1200
G01 X1.1863 Y16.8730 Z-2.7185 F1200
G01 X1.1912 Y16.7188 Z-2.7157 F1200
G01 X1.1722 Y16.5672 Z-2.6926 F1200
G01 X1.1369 Y16.4412 Z-2.6609 F1200
G01 X1.0766 Y16.3058 Z-2.6194 F1200
G01 X0.9965 Y16.1844 Z-2.5835 F1200
G01 X0.8993 Y16.0800 Z-2.5628 F1200
G01 X0.7882 Y15.9953 Z-2.5627 F1200
G01 X0.6669 Y15.9326 Z-2.5833 F1200
G01 X0.5393 Y15.8932 Z-2.6191 F1200
G01 X0.4268 Y15.8785 Z-2.6551 F1200
G01 X0.2995 Y15.8844 Z-2.6924 F1200
G01 X0.1778 Y15.9139 Z-2.7156 F1200
G01 X0.0658 Y15.9655 Z-2.7186 F1200
G01 X-0.0328 Y16.0372 Z-2.7005 F1200
G01 X-0.1148 Y16.1264 Z-2.6662 F1200
G01 X-0.1772 Y16.2299 Z-2.6249 F1200
G01 X-0.2140 Y16.3285 Z-2.5920 F1200
G01 X-0.2341 Y16.4494 Z-2.5664 F1200
G01 X-0.2302 Y16.5735 Z-2.5606 F1200
G01 X-0.2023 Y16.6966 Z-2.5760 F1200
G01 X-0.1507 Y16.8146 Z-2.6086 F1200
G01 X-0.0768 Y16.9235 Z-2.6496 F1200
G01 X0.0176 Y17.0194 Z-2.6880 F1200
G01 X0.1139 Y17.0895 Z-2.7112 F1200
G01 X0.2398 Y17.1533 Z-2.7199 F1200
G01 X0.3775 Y17.1959 Z-2.7072 F1200
G01 X0.5230 Y17.2157 Z-2.6764 F1200
G01 X0.6723 Y17.2117 Z-2.6359 F1200
G01 X0.8212 Y17.1835 Z-2.5965 F1200
G01 X0.9655 Y17.1316 Z-2.5688 F1200
G01 X1.0837 Y17.0683 Z-2.5600 F1200
G01 X1.2094 Y16.9763 Z-2.5700 F1200
G01 X1.3198 Y16.8657 Z-2.5987 F1200
G01 X1.4117 Y16.7395 Z-2.6385 F1200
G01 X1.4828 Y16.6011 Z-2.6787 F1200
G01 X1.5312 Y16.4542 Z-2.7085 F1200
G01 X1.5559 Y16.3031 Z-2.7200 F1200
G01 X1.5577 Y16.1717 Z-2.7125 F1200
G01 X1.5382 Y16.0243 Z-2.6860 F1200
G01 X1.4957 Y15.8844 Z-2.6471 F1200
G01 X1.4320 Y15.7560 Z-2.6063 F1200
G01 X1.3493 Y15.6425 Z-2.5745 F1200
G01 X1.2506 Y15.5471 Z-2.5603 F1200
G01 X1.1392 Y15.4723 Z-2.5675 F1200
G01 X1.0352 Y15.4255 Z-2.5896 F1200
G01 X0.9087 Y15.3921 Z-2.6274 F1200
G01 X0.7810 Y15.3829 Z-2.6686 F1200
G01 X0.6562 Y15.3977 Z-2.7021 F1200
G01 X0.5486 Y15.4313 Z-2.7183 F1200
G01 X0.4398 Y15.4882 Z-2.7160 F1200
G01 X0.3452 Y15.5646 Z-2.6933 F1200
G01 X0.2681 Y15.6578 Z-2.6563 F1200
G01 X0.2152 Y15.7546 Z-2.6185 F1200
G01 X0.1773 Y15.8697 Z-2.5828 F1200
G01 X0.1627 Y15.9911 Z-2.5625 F1200
G01 X0.1722 Y16.1145 Z-2.5629 F1200
G01 X0.2018 Y16.2251 Z-2.5814 F1200
G01 X0.2557 Y16.3402 Z-2.6165 F1200
G01 X0.3316 Y16.4453 Z-2.6579 F1200
G01 X0.4275 Y16.5368 Z-2.6945 F1200
G01 X0.5299 Y16.6056 Z-2.7153 F1200
G01 X0.6551 Y16.6620 Z-2.7187 F1200
G01 X0.7911 Y16.6968 Z-2.7011 F1200
G01 X0.9340 Y16.7084 Z-2.6670 F1200
G01 X1.0667 Y16.6982 Z-2.6294 F1200
G01 X1.2102 Y16.6634 Z-2.5912 F1200
G01 X1.3485 Y16.6051 Z-2.5660 F1200
G01 X1.4775 Y16.5245 Z-2.5607 F1200
G01 X1.5838 Y16.4333 Z-2.5744 F1200
G01 X1.6841 Y16.3157 Z-2.6061 F1200
G01 X1.7654 Y16.1830 Z-2.6469 F1200
G01 X1.8255 Y16.0389 Z-2.6858 F1200
G01 X1.8603 Y15.9009 Z-2.7108 F1200
G01 X1.8747 Y15.7455 Z-2.7199 F1200
G01 X1.8649 Y15.5904 Z-2.7077 F1200
G01 X1.8314 Y15.4399 Z-2.6773 F1200
G01 X1.7812 Y15.3101 Z-2.6406 F1200
G01 X1.7051 Y15.1789 Z-2.6005 F1200
G01 X1.6104 Y15.0633 Z-2.5710 F1200
G01 X1.5002 Y14.9661 Z-2.5600 F1200
G01 X1.3891 Y14.8958 Z-2.5687 F1200
G01 X1.2579 Y14.8399 Z-2.5963 F1200
G01 X1.1221 Y14.8078 Z-2.6357 F1200
G01 X0.9859 Y14.7999 Z-2.6762 F1200
G01 X0.8650 Y14.8134 Z-2.7049 F1200
G01 X0.7384 Y14.8501 Z-2.7196 F1200
G01 X0.6233 Y14.9081 Z-2.7130 F1200
G01 X0.5230 Y14.9851 Z-2.6868 F1200
G01 X0.4472 Y15.0694 Z-2.6517 F1200
G01 X0.3825 Y15.1743 Z-2.6106 F1200
G01 X0.3400 Y15.2885 Z-2.5773 F1200
G01 X0.3210 Y15.4081 Z-2.5609 F1200
G01 X0.3248 Y15.5183 Z-2.5643 F1200
G01 X0.3519 Y15.6365 Z-2.5874 F1200
G01 X0.4023 Y15.7479 Z-2.6246 F1200
G01 X0.4743 Y15.8487 Z-2.6659 F1200
G01 X0.5657 Y15.9351 Z-2.7003 F1200
G01 X0.6739 Y16.0041 Z-2.7185 F1200
G01 X0.7954 Y16.0530 Z-2.7157 F1200
G01 X0.9267 Y16.0798 Z-2.6926 F1200
G01 X1.0637 Y16.0831 Z-2.6554 F1200
G01 X1.2022 Y16.0623 Z-2.6141 F1200
G01 X1.3381 Y16.0175 Z-2.5797 F1200
G01 X1.4672 Y15.9495 Z-2.5615 F1200
G01 X1.5856 Y15.8598 Z-2.5643 F1200
G01 X1.6897 Y15.7507 Z-2.5874 F1200
G01 X1.7764 Y15.6249 Z-2.6246 F1200
G01 X1.8429 Y15.4857 Z-2.6659 F1200
G01 X1.8874 Y15.3367 Z-2.7003 F1200
G01 X1.9083 Y15.1821 Z-2.7185 F1200
G01 X1.9052 Y15.0259 Z-2.7157 F1200
G01 X1.8781 Y14.8723 Z-2.6926 F1200
G01 X1.8277 Y14.7255 Z-2.6554 F1200
G01 X1.7557 Y14.5895 Z-2.6141 F1200
G01 X1.6643 Y14.4677 Z-2.5797 F1200
G01 X1.5561 Y14.3634 Z-2.5615 F1200
G01 X1.4346 Y14.2791 Z-2.5643 F1200
G01 X1.3033 Y14.2170 Z-2.5874 F1200
G01 X1.1663 Y14.1784 Z-2.6246 F1200
G01 X1.0278 Y14.1639 Z-2.6659 F1200
G01 X0.8919 Y14.1733 Z-2.7003 F1200
G01 X0.7628 Y14.2060 Z-2.7185 F1200
G01 X0.6444 Y14.2603 Z-2.7157 F1200
G01 X0.5403 Y14.3341 Z-2.6926 F1200
G01 X0.4536 Y14.4246 Z-2.6554 F1200
G01 X0.3871 Y14.5285 Z-2.6141 F1200
G01 X0.3426 Y14.6421 Z-2.5797 F1200
G01 X0.3217 Y14.7614 Z-2.5615 F1200
G01 X0.3248 Y14.8823 Z-2.5643 F1200
G01 X0.3519 Y15.0005 Z-2.5874 F1200
G01 X0.4023 Y15.1119 Z-2.6246 F1200
G01 X0.4743 Y15.2127 Z-2.6659 F1200
G01 X0.5657 Y15.2991 Z-2.7003 F1200
G01 X0.6739 Y15.3681 Z-2.7185 F1200
G01 X0.7954 Y15.4170 Z-2.7157 F1200
G01 X0.9267 Y15.4438 Z-2.6926 F1200
G01 X1.0637 Y15.4471 Z-2.6554 F1200
G01 X1.2022 Y15.4263 Z-2.6141 F1200
G01 X1.3381 Y15.3815 Z-2.5797 F1200
G01 X1.4672 Y15.3135 Z-2.5615 F1200
G01 X1.5856 Y15.2238 Z-2.5643 F1200
G01 X1.6897 Y15.1147 Z-2.5874 F1200
G01 X1.7764 Y14.9889 Z-2.6246 F1200
G01 X1.8429 Y14.8497 Z-2.6659 F1200
G01 X1.8874 Y14.7007 Z-2.7003 F1200
G01 X1.9083 Y14.5461 Z-2.7185 F1200
G01 X1.9052 Y14.3899 Z-2.7157 F1200
G01 X1.8781 Y14.2363 Z-2.6926 F1200
G01 X1.8277 Y14.0895 Z-2.6554 F1200
G01 X1.7557 Y13.9535 Z-2.6141 F1200
G01 X1.6643 Y13.8317 Z-2.5797 F1200
G01 X1.5561 Y13.7274 Z-2.5615 F1200
G01 X1.4346 Y13.6431 Z-2.5643 F1200
G01 X1.3033 Y13.5810 Z-2.5874 F1200
G01 X1.1663 Y13.5424 Z-2.6246 F1200
G01 X1.0278 Y13.5279 Z-2.6659 F1200
G01 X0.8919 Y13.5373 Z-2.7003 F1200
G01 X0.7628 Y13.5700 Z-2.7185 F1200
G01 X0.6444 Y13.6243 Z-2.7157 F1200
G01 X0.5403 Y13.6981 Z-2.6926 F1200
G01 X0.4536 Y13.7886 Z-2.6554 F1200
G01 X0.3871 Y13.8925 Z-2.6141 F1200
G01 X0.3426 Y14.0061 Z-2.5797 F1200
G01 X0.3217 Y14.1254 Z-2.5615 F1200
G01 X0.3248 Y14.2463 Z-2.5643 F1200
G01 X0.3519 Y14.3645 Z-2.5874 F1200
G01 X0.4023 Y14.4759 Z-2.6246 F1200
G01 X0.4743 Y14.5767 Z-2.6659 F1200
G01 X0.5657 Y14.6631 Z-2.7003 F1200
G01 X0.6739 Y14.7321 Z-2.7185 F1200
G01 X0.7954 Y14.7810 Z-2.7157 F1200
G01 X0.9267 Y14.8078 Z-2.6926 F1200
G01 X1.0637 Y14.8111 Z-2.6554 F1200
G01 X1.2022 Y14.7903 Z-2.6141 F1200
G01 X1.3381 Y14.7455 Z-2.5797 F1200
G01 X1.4672 Y14.6775 Z-2.5615 F1200
G01 X1.5856 Y14.5878 Z-2.5643 F1200
G01 X1.6897 Y14.4787 Z-2.5874 F1200
G01 X1.7764 Y14.3529 Z-2.6246 F1200
G01 X1.8429 Y14.2137 Z-2.6659 F1200
G01 X1.8874 Y14.0647 Z-2.7003 F1200
G01 X1.9083 Y13.9101 Z-2.7185 F1200
G01 X1.9052 Y13.7539 Z-2.7157 F1200
G01 X1.8781 Y13.6003 Z-2.6926 F1200
G01 X1.8277 Y13.4535 Z-2.6554 F1200
G01 X1.7557 Y13.3175 Z-2.6141 F1200
G01 X1.6643 Y13.1957 Z-2.5797 F1200
G01 X1.5561 Y13.0914 Z-2.5615 F1200
G01 X1.4346 Y13.0071 Z-2.5643 F1200
G01 X1.3033 Y12.9450 Z-2.5874 F1200
G01 X1.1663 Y12.9064 Z-2.6246 F1200
G01 X1.0278 Y12.8919 Z-2.6659 F1200
G01 X0.8919 Y12.9013 Z-2.7003 F1200
G01 X0.7628 Y12.9340 Z-2.7185 F1200
G01 X0.6444 Y12.9883 Z-2.7157 F1200
G01 X0.5403 Y13.0621 Z-2.6926 F1200
G01 X0.4536 Y13.1526 Z-2.6554 F1200
G01 X0.3871 Y13.2565 Z-2.6141 F1200
G01 X0.3426 Y13.3701 Z-2.5797 F1200
G01 X0.3217 Y13.4894 Z-2.5615 F1200
G01 X0.3248 Y13.6103 Z-2.5643 F1200
G01 X0.3519 Y13.7285 Z-2.5874 F1200
G01 X0.4023 Y13.8399 Z-2.6246 F1200
G01 X0.4743 Y13.9407 Z-2.6659 F1200
G01 X0.5657 Y14.0271 Z-2.7003 F1200
G01 X0.6739 Y14.0961 Z-2.7185 F1200
G01 X0.7954 Y14.1450 Z-2.7157 F1200
G01 X0.9267 Y14.1718 Z-2.6926 F1200
G01 X1.0637 Y14.1751 Z-2.6554 F1200
G01 X1.2022 Y14.1543 Z-2.6141 F1200
G01 X1.3381 Y14.1095 Z-2.5797 F1200
G01 X1.4672 Y14.0415 Z-2.5615 F1200
G01 X1.5856 Y13.9518 Z-2.5643 F1200
G01 X1.6897 Y13.8427 Z-2.5874 F1200
G01 X1.7764 Y13.7169 Z-2.6246 F1200
G01 X1.8429 Y13.5777 Z-2.6659 F1200
G01 X1.8874 Y13.4287 Z-2.7003 F1200
G01 X1.9083 Y13.2741 Z-2.7185 F1200
G01 X1.9052 Y13.1179 Z-2.7157 F1200
G01 X1.8781 Y12.9643 Z-2.6926 F1200
G01 X1.8277 Y12.8175 Z-2.6554 F1200
G01 X1.7557 Y12.6815 Z-2.6141 F1200
G01 X1.6643 Y12.5597 Z-2.5797 F1200
G01 X1.5561 Y12.4554 Z-2.5615 F1200
G01 X1.4346 Y12.3711 Z-2.5643 F1200
G01 X1.3033 Y12.3090 Z-2.5874 F1200
G01 X1.1663 Y12.2704 Z-2.6246 F1200
G01 X1.0278 Y12.2559 Z-2.6659 F1200
G01 X0.8919 Y12.2653 Z-2.7003 F1200
G01 X0.7628 Y12.2980 Z-2.7185 F1200
G01 X0.6444 Y12.3523 Z-2.7157 F1200
G01 X0.5403 Y12.4261 Z-2.6926 F1200
G01 X0.4536 Y12.5166 Z-2.6554 F1200
G01 X0.3871 Y12.6205 Z-2.6141 F1200
G01 X0.3426 Y12.7341 Z-2.5797 F1200
G01 X0.3217 Y12.8534 Z-2.5615 F1200
G01 X0.3248 Y12.9743 Z-2.5643 F1200
G01 X0.3519 Y13.0925 Z-2.5874 F1200
G01 X0.4023 Y13.2039 Z-2.6246 F1200
G01 X0.4743 Y13.3047 Z-2.6659 F1200
G01 X0.5657 Y13.3911 Z-2.7003 F1200
G01 X0.6739 Y13.4601 Z-2.7185 F1200
G01 X0.7954 Y13.5090 Z-2.7157 F1200
G01 X0.9267 Y13.5358 Z-2.6926 F1200
G01 X1.0637 Y13.5391 Z-2.6554 F1200
G01 X1.2022 Y13.5183 Z-2.6141 F1200
G01 X1.3381 Y13.4735 Z-2.5797 F1200
G01 X1.4672 Y13.4055 Z-2.5615 F1200
G01 X1.5856 Y13.3158 Z-2.5643 F1200
G01 X1.6897 Y13.2067 Z-2.5874 F1200
G01 X1.7764 Y13.0809 Z-2.6246 F1200
G01 X1.8429 Y12.9417 Z-2.6659 F1200
G01 X1.8874 Y12.7927 Z-2.7003 F1200
G01 X1.9083 Y12.6381 Z-2.7185 F1200
G01 X1.9052 Y12.4819 Z-2.7157 F1200
G01 X1.8781 Y12.3283 Z-2.6926 F1200
G01 X1.8277 Y12.1815 Z-2.6554 F1200
G01 X1.7557 Y12.0455 Z-2.6141 F1200
G01 X1.6643 Y11.9237 Z-2.5797 F1200
G01 X1.5561 Y11.8194 Z-2.5615 F1200
G01 X1.4346 Y11.7351 Z-2.5643 F1200
G01 X1.3033 Y11.6730 Z-2.5874 F1200
G01 X1.1663 Y11.6344 Z-2.6246 F1200
G01 X1.0278 Y11.6199 Z-2.6659 F1200
G01 X0.8919 Y11.6293 Z-2.7003 F1200
G01 X0.7628 Y11.6620 Z-2.7185 F1200
G01 X0.6444 Y11.7163 Z-2.7157 F1200
G01 X0.5403 Y11.7901 Z-2.6926 F1200
G01 X0.4536 Y11.8806 Z-2.6554 F1200
G01 X0.3871 Y11.9845 Z-2.6141 F1200
G01 X0.3426 Y12.0981 Z-2.5797 F1200
G01 X0.3217 Y12.2174 Z-2.5615 F1200
G01 X0.3248 Y12.3383 Z-2.5643 F1200
G01 X0.3519 Y12.4565 Z-2.5874 F1200
G01 X0.4023 Y12.5679 Z-2.6246 F1200
G01 X0.4743 Y12.6687 Z-2.6659 F1200
G01 X0.5657 Y12.7551 Z-2.7003 F1200
G01 X0.6739 Y12.8241 Z-2.7185 F1200
G01 X0.7954 Y12.8730 Z-2.7157 F1200
G01 X0.9267 Y12.8998 Z-2.6926 F1200
G01 X1.0637 Y12.9031 Z-2.6554 F1200
G01 X1.2022 Y12.8823 Z-2.6141 F1200
G01 X1.3381 Y12.8375 Z-2.5797 F1200
G01 X1.4672 Y12.7695 Z-2.5615 F1200
G01 X1.5856 Y12.6798 Z-2.5643 F1200
G01 X1.6897 Y12.5707 Z-2.5874 F1200
G01 X1.7764 Y12.4449 Z-2.6246 F1200
G01 X1.8429 Y12.3057 Z-2.6659 F1200
G01 X1.8874 Y12.1567 Z-2.7003 F1200
G01 X1.9083 Y12.0021 Z-2.7185 F1200
G01 X1.9052 Y11.8459 Z-2.7157 F1200
G01 X1.8781 Y11.6923 Z-2.6926 F1200
G01 X1.8277 Y11.5455 Z-2.6554 F1200
G01 X1.7557 Y11.4095 Z-2.6141 F1200
G01 X1.6643 Y11.2877 Z-2.5797 F1200
G01 X1.5561 Y11.1834 Z-2.5615 F1200
G01 X1.4346 Y11.0991 Z-2.5643 F1200
G01 X1.3033 Y11.0370 Z-2.5874 F1200
G01 X1.1663 Y10.9984 Z-2.6246 F1200
G01 X1.0278 Y10.9839 Z-2.6659 F1200
G01 X0.8919 Y10.9933 Z-2.7003 F1200
G01 X0.7628 Y11.0260 Z-2.7185 F1200
G01 X0.6444 Y11.0803 Z-2.7157 F1200
G01 X0.5403 Y11.1541 Z-2.6926 F1200
G01 X0.4536 Y11.2446 Z-2.6554 F1200
G01 X0.3871 Y11.3485 Z-2.6141 F1200
G01 X0.3426 Y11.4621 Z-2.5797 F1200
G01 X0.3217 Y11.5814 Z-2.5615 F1200
G01 X0.3248 Y11.7023 Z-2.5643 F1200
G01 X0.3519 Y11.8205 Z-2.5874 F1200
G01 X0.4023 Y11.9319 Z-2.6246 F1200
G01 X0.4743 Y12.0327 Z-2.6659 F1200
G01 X0.5657 Y12.1191 Z-2.7003 F1200
G01 X0.6739 Y12.1881 Z-2.7185 F1200
G01 X0.7954 Y12.2370 Z-2.7157 F1200
G01 X0.9267 Y12.2638 Z-2.6926 F1200
G01 X1.0637 Y12.2671 Z-2.6554 F1200
G01 X1.2022 Y12.2463 Z-2.6141 F1200
G01 X1.3381 Y12.2015 Z-2.5797 F1200
G01 X1.4672 Y12.1335 Z-2.5615 F1200
G01 X1.5856 Y12.0438 Z-2.5643 F1200
G01 X1.6897 Y11.9347 Z-2.5874 F1200
G01 X1.7764 Y11.8089 Z-2.6246 F1200
G01 X1.8429 Y11.6697 Z-2.6659 F1200
G01 X1.8874 Y11.5207 Z-2.7003 F1200
G01 X1.9083 Y11.3661 Z-2.7185 F1200
G01 X1.9052 Y11.2099 Z-2.7157 F1200
G01 X1.8781 Y11.0563 Z-2.6926 F1200
G01 X1.8277 Y10.9095 Z-2.6554 F1200
G01 X1.7557 Y10.7735 Z-2.6141 F1200
G01 X1.6643 Y10.6517 Z-2.5797 F1200
G01 X1.5561 Y10.5474 Z-2.5615 F1200
G01 X1.4346 Y10.4631 Z-2.5643 F1200
G01 X1.3033 Y10.4010 Z-2.5874 F1200
G01 X1.1663 Y10.3624 Z-2.6246 F1200
G01 X1.0278 Y10.3479 Z-2.6659 F1200
G01 X0.8919 Y10.3573 Z-2.7003 F1200
G01 X0.7628 Y10.3900 Z-2.7185 F1200
G01 X0.6444 Y10.4443 Z-2.7157 F1200
G01 X0.5403 Y10.5181 Z-2.6926 F1200
G01 X0.4536 Y10.6086 Z-2.6554 F1200
G01 X0.3871 Y10.7125 Z-2.6141 F1200
G01 X0.3426 Y10.8261 Z-2.5797 F1200
G01 X0.3217 Y10.9454 Z-2.5615 F1200
G01 X0.3248 Y11.0663 Z-2.5643 F1200
G01 X0.3519 Y11.1845 Z-2.5874 F1200
G01 X0.4023 Y11.2959 Z-2.6246 F1200
G01 X0.4743 Y11.3967 Z-2.6659 F1200
G01 X0.5657 Y11.4831 Z-2.7003 F1200
G01 X0.6739 Y11.5521 Z-2.7185 F1200
G01 X0.7954 Y11.6010 Z-2.7157 F1200
G01 X0.9267 Y11.6278 Z-2.6926 F1200
G01 X1.0637 Y11.6311 Z-2.6554 F1200
G01 X1.2022 Y11.6103 Z-2.6141 F1200
G01 X1.3381 Y11.5655 Z-2.5797 F1200
G01 X1.4672 Y11.4975 Z-2.5615 F1200
G01 X1.5856 Y11.4078 Z-2.5643 F1200
G01 X1.6897 Y11.2987 Z-2.5874 F1200
G01 X1.7764 Y11.1729 Z-2.6246 F1200
G01 X1.8429 Y11.0337 Z-2.6659 F1200
G01 X1.8874 Y10.8847 Z-2.7003 F1200
G01 X1.9083 Y10.7301 Z-2.7185 F1200
G01 X1.9052 Y10.5739 Z-2.7157 F1200
G01 X1.8781 Y10.4203 Z-2.6926 F1200
G01 X1.8277 Y10.2735 Z-2.6554 F1200
G01 X1.7557 Y10.1375 Z-2.6141 F1200
G01 X1.6643 Y10.0157 Z-2.5797 F1200
G01 X1.5561 Y9.9114 Z-2.5615 F1200
G01 X1.4346 Y9.8271 Z-2.5643 F1200
G01 X1.3842 Y9.8001 Z-2.5711 F1200
G01 X1.2500 Y9.7471 Z-2.6007 F1200
G01 X1.1117 Y9.7178 Z-2.6409 F1200
G01 X0.9734 Y9.7127 Z-2.6807 F1200
G01 X0.8394 Y9.7314 Z-2.7097 F1200
G01 X0.7154 Y9.7721 Z-2.7200 F1200
G01 X0.6005 Y9.8341 Z-2.7091 F1200
G01 X0.5011 Y9.9146 Z-2.6797 F1200
G01 X0.4202 Y10.0106 Z-2.6397 F1200
G01 X0.3603 Y10.1187 Z-2.5997 F1200
G01 X0.3234 Y10.2334 Z-2.5709 F1200
G01 X0.3083 Y10.3540 Z-2.5600 F1200
G01 X0.3175 Y10.4746 Z-2.5706 F1200
G01 X0.3504 Y10.5910 Z-2.5998 F1200
G01 X0.4060 Y10.6993 Z-2.6397 F1200
G01 X0.4814 Y10.7942 Z-2.6793 F1200
G01 X0.5750 Y10.8754 Z-2.7089 F1200
G01 X0.6842 Y10.9380 Z-2.7200 F1200
G01 X0.8055 Y10.9798 Z-2.7097 F1200
G01 X0.9352 Y10.9990 Z-2.6807 F1200
G01 X1.0673 Y10.9946 Z-2.6414 F1200
G01 X1.2002 Y10.9664 Z-2.6012 F1200
G01 X1.3289 Y10.9145 Z-2.5714 F1200
G01 X1.4496 Y10.8398 Z-2.5600 F1200
G01 X1.5583 Y10.7441 Z-2.5700 F1200
G01 X1.6504 Y10.6315 Z-2.5983 F1200
G01 X1.7243 Y10.5022 Z-2.6380 F1200
G01 X1.7774 Y10.3607 Z-2.6783 F1200
G01 X1.8079 Y10.2107 Z-2.7083 F1200
G01 X1.8146 Y10.0563 Z-2.7200 F1200
G01 X1.7976 Y9.9038 Z-2.7105 F1200
G01 X1.7554 Y9.7536 Z-2.6822 F1200
G01 X1.6905 Y9.6115 Z-2.6425 F1200
G01 X1.6046 Y9.4813 Z-2.6022 F1200
G01 X1.5000 Y9.3663 Z-2.5720 F1200
G01 X1.3813 Y9.2709 Z-2.5601 F1200
G01 X1.2477 Y9.1954 Z-2.5692 F1200
G01 X1.1055 Y9.1425 Z-2.5974 F1200
G01 X0.9588 Y9.1133 Z-2.6369 F1200
G01 X0.8118 Y9.1083 Z-2.6773 F1200
G01 X0.6706 Y9.1267 Z-2.7074 F1200
G01 X0.5343 Y9.1687 Z-2.7199 F1200
G01 X0.4097 Y9.2318 Z-2.7110 F1200
G01 X0.3003 Y9.3137 Z-2.6831 F1200
G01 X0.2092 Y9.4113 Z-2.6436 F1200
G01 X0.1397 Y9.5198 Z-2.6037 F1200
G01 X0.0906 Y9.6391 Z-2.5729 F1200
G01 X0.0652 Y9.7631 Z-2.5601 F1200
G01 X0.0639 Y9.8874 Z-2.5687 F1200
G01 X0.0865 Y10.0080 Z-2.5964 F1200
G01 X0.1312 Y10.1193 Z-2.6352 F1200
G01 X0.1965 Y10.2213 Z-2.6758 F1200
G01 X0.2806 Y10.3081 Z-2.7068 F1200
G01 X0.3806 Y10.3768 Z-2.7199 F1200
G01 X0.4932 Y10.4248 Z-2.7115 F1200
G01 X0.6127 Y10.4500 Z-2.6845 F1200
G01 X0.7376 Y10.4530 Z-2.6453 F1200
G01 X0.8631 Y10.4318 Z-2.6047 F1200
G01 X0.9849 Y10.3868 Z-2.5735 F1200
G01 X1.0990 Y10.3189 Z-2.5602 F1200
G01 X1.2002 Y10.2311 Z-2.5680 F1200
G01 X1.2893 Y10.1219 Z-2.5950 F1200
G01 X1.3603 Y9.9967 Z-2.6341 F1200
G01 X1.4107 Y9.8590 Z-2.6748 F1200
G01 X1.4387 Y9.7124 Z-2.7061 F1200
G01 X1.4429 Y9.5610 Z-2.7198 F1200
G01 X1.4230 Y9.4091 Z-2.7120 F1200
G01 X1.3792 Y9.2607 Z-2.6850 F1200
G01 X1.3125 Y9.1201 Z-2.6459 F1200
G01 X1.3063 Y9.1093 Z-2.6426 F1200
G01 X1.2176 Y8.9807 Z-2.6022 F1200
G01 X1.1103 Y8.8674 Z-2.5720 F1200
G01 X0.9873 Y8.7724 Z-2.5600 F1200
G01 X0.8519 Y8.6982 Z-2.5695 F1200
G01 X0.7081 Y8.6466 Z-2.5978 F1200
G01 X0.5598 Y8.6188 Z-2.6374 F1200
G01 X0.4112 Y8.6151 Z-2.6778 F1200
G01 X0.2666 Y8.6352 Z-2.7080 F1200
G01 X0.2554 Y8.6378 Z-2.7097 F1200
G01 X0.1204 Y8.6819 Z-2.7200 F1200
G01 X-0.0023 Y8.7469 Z-2.7089 F1200
G01 X-0.1095 Y8.8303 Z-2.6793 F1200
G01 X-0.1982 Y8.9292 Z-2.6392 F1200
G01 X-0.2658 Y9.0401 Z-2.5993 F1200
G01 X-0.3108 Y9.1591 Z-2.5703 F1200
G01 X-0.3319 Y9.2823 Z-2.5600 F1200
G01 X-0.3289 Y9.4055 Z-2.5711 F1200
G01 X-0.3276 Y9.4151 Z-2.5729 F1200
G01 X-0.2981 Y9.5329 Z-2.6036 F1200
G01 X-0.2460 Y9.6421 Z-2.6441 F1200
G01 X-0.1732 Y9.7388 Z-2.6835 F1200
G01 X-0.0821 Y9.8197 Z-2.7112 F1200
G01 X0.0241 Y9.8818 Z-2.7199 F1200
G01 X0.1421 Y9.9227 Z-2.7071 F1200
G01 X0.2679 Y9.9409 Z-2.6764 F1200
G01 X0.3975 Y9.9352 Z-2.6359 F1200
G01 X0.4079 Y9.9337 Z-2.6326 F1200
G01 X0.5378 Y9.9014 Z-2.5937 F1200
G01 X0.6629 Y9.8455 Z-2.5673 F1200
G01 X0.7789 Y9.7672 Z-2.5603 F1200
G01 X0.8822 Y9.6683 Z-2.5747 F1200
G01 X0.9695 Y9.5514 Z-2.6066 F1200
G01 X1.0377 Y9.4195 Z-2.6474 F1200
G01 X1.0847 Y9.2763 Z-2.6863 F1200
G01 X1.1088 Y9.1255 Z-2.7127 F1200
G01 X1.1096 Y9.1132 Z-2.7140 F1200
G01 X1.1088 Y8.9584 Z-2.7193 F1200
G01 X1.0839 Y8.8047 Z-2.7033 F1200
G01 X1.0353 Y8.6563 Z-2.6703 F1200
G01 X0.9645 Y8.5171 Z-2.6293 F1200
G01 X0.8733 Y8.3909 Z-2.5911 F1200
G01 X0.7643 Y8.2811 Z-2.5660 F1200
G01 X0.6406 Y8.1904 Z-2.5607 F1200
G01 X0.5058 Y8.1212 Z-2.5767 F1200
G01 X0.4947 Y8.1167 Z-2.5788 F1200
G01 X0.3533 Y8.0720 Z-2.6128 F1200
G01 X0.2090 Y8.0513 Z-2.6540 F1200
G01 X0.0662 Y8.0548 Z-2.6915 F1200
G01 X-0.0710 Y8.0817 Z-2.7152 F1200
G01 X-0.1987 Y8.1309 Z-2.7188 F1200
G01 X-0.3130 Y8.2002 Z-2.7012 F1200
G01 X-0.4108 Y8.2870 Z-2.6672 F1200
G01 X-0.4892 Y8.3883 Z-2.6260 F1200
G01 X-0.4945 Y8.3969 Z-2.6227 F1200
G01 X-0.5485 Y8.5094 Z-2.5860 F1200
G01 X-0.5793 Y8.6284 Z-2.5637 F1200
G01 X-0.5860 Y8.7500 Z-2.5619 F1200
G01 X-0.5686 Y8.8697 Z-2.5810 F1200
G01 X-0.5278 Y8.9836 Z-2.6159 F1200
G01 X-0.4650 Y9.0876 Z-2.6573 F1200
G01 X-0.3822 Y9.1780 Z-2.6940 F1200
G01 X-0.2820 Y9.2516 Z-2.7163 F1200
G01 X-0.2734 Y9.2566 Z-2.7172 F1200
G01 X-0.1571 Y9.3087 Z-2.7173 F1200
G01 X-0.0306 Y9.3389 Z-2.6967 F1200
G01 X0.1022 Y9.3458 Z-2.6609 F1200
G01 X0.2371 Y9.3286 Z-2.6195 F1200
G01 X0.3699 Y9.2874 Z-2.5835 F1200
G01 X0.4965 Y9.2228 Z-2.5628 F1200
G01 X0.6129 Y9.1363 Z-2.5627 F1200
G01 X0.7154 Y9.0300 Z-2.5833 F1200
G01 X0.7229 Y9.0208 Z-2.5857 F1200
G01 X0.8079 Y8.8960 Z-2.6224 F1200
G01 X0.8730 Y8.7576 Z-2.6637 F1200
G01 X0.9160 Y8.6093 Z-2.6988 F1200
G01 X0.9356 Y8.4551 Z-2.7180 F1200
G01 X0.9312 Y8.2990 Z-2.7164 F1200
G01 X0.9027 Y8.1454 Z-2.6943 F1200
G01 X0.8509 Y7.9984 Z-2.6576 F1200
G01 X0.7774 Y7.8618 Z-2.6163 F1200
G01 X0.7707 Y7.8515 Z-2.6131 F1200
G01 X0.6772 Y7.7302 Z-2.5790 F1200
G01 X0.5671 Y7.6264 Z-2.5613 F1200
G01 X0.4437 Y7.5428 Z-2.5647 F1200
G01 X0.3106 Y7.4814 Z-2.5882 F1200
G01 X0.1720 Y7.4434 Z-2.6256 F1200
G01 X0.0318 Y7.4296 Z-2.6669 F1200
G01 X-0.1055 Y7.4397 Z-2.7010 F1200
G01 X-0.2360 Y7.4731 Z-2.7187 F1200
G01 X-0.2460 Y7.4767 Z-2.7192 F1200
G01 X-0.3636 Y7.5332 Z-2.7142 F1200
G01 X-0.4665 Y7.6088 Z-2.6892 F1200
G01 X-0.5517 Y7.7009 Z-2.6511 F1200
G01 X-0.6165 Y7.8060 Z-2.6100 F1200
G01 X-0.6591 Y7.9204 Z-2.5769 F1200
