;Project 250x250-panel-ply-right
;Created by Estlcam version 11 build 11.244
;Machining time about 05:34:41 hours

G90
M03 S10000
G00 X0.0000 Y0.0000 Z0.0000 F1500
G00 Z4.0000 F480


;No. 1: 
G01 Z4.5000 F1200 S10000
G01 X9.1200 Y10.1200 F1200
G01 Z-6.0000 F1200
G01 X451.3200 F1200
G01 X452.3200 Y12.5200 F1200
G01 X449.9200 F1200
G01 Y15.3200 F1200
G01 X452.3200 F1200
G01 Y17.7200 F1200
G01 X449.9200 F1200
G01 Y20.5200 F1200
G01 X452.3200 F1200
G01 Y22.9200 F1200
G01 X449.9200 F1200
G01 Y25.7200 F1200
G01 X452.3200 F1200
G01 Y28.1200 F1200
G01 X449.9200 F1200
G01 Y30.9200 F1200
G01 X452.3200 F1200
G01 Y33.3200 F1200
G01 X449.9200 F1200
G01 Y36.1200 F1200
G01 X452.3200 F1200
G01 Y38.5200 F1200
G01 X449.9200 F1200
G01 Y41.3200 F1200
G01 X452.3200 F1200
G01 Y43.7200 F1200
G01 X449.9200 F1200
G01 Y46.5200 F1200
G01 X452.3200 F1200
G01 Y48.9200 F1200
G01 X449.9200 F1200
G01 Y51.7200 F1200
G01 X452.3200 F1200
G01 Y54.1200 F1200
G01 X449.9200 F1200
G01 Y56.9200 F1200
G01 X452.3200 F1200
G01 Y59.3200 F1200
G01 X449.9200 F1200
G01 Y62.1200 F1200
G01 X452.3200 F1200
G01 Y64.5200 F1200
G01 X449.9200 F1200
G01 Y67.3200 F1200
G01 X452.3200 F1200
G01 Y69.7200 F1200
G01 X449.9200 F1200
G01 Y72.5200 F1200
G01 X452.3200 F1200
G01 Y74.9200 F1200
G01 X449.9200 F1200
G01 Y77.7200 F1200
G01 X452.3200 F1200
G01 Y80.1200 F1200
G01 X449.9200 F1200
G01 Y82.9200 F1200
G01 X452.3200 F1200
G01 Y85.3200 F1200
G01 X449.9200 F1200
G01 Y88.1200 F1200
G01 X452.3200 F1200
G01 Y90.5200 F1200
G01 X449.9200 F1200
G01 Y93.3200 F1200
G01 X452.3200 F1200
G01 Y95.7200 F1200
G01 X449.9200 F1200
G01 Y98.5200 F1200
G01 X452.3200 F1200
G01 Y100.9200 F1200
G01 X449.9200 F1200
G01 Y103.7200 F1200
G01 X452.3200 F1200
G01 Y106.1200 F1200
G01 X449.9200 F1200
G01 Y108.9200 F1200
G01 X452.3200 F1200
G01 Y111.3200 F1200
G01 X449.9200 F1200
G01 Y114.1200 F1200
G01 X452.3200 F1200
G01 Y116.5200 F1200
G01 X449.9200 F1200
G01 Y119.3200 F1200
G01 X452.3200 F1200
G01 Y121.7200 F1200
G01 X449.9200 F1200
G01 Y124.5200 F1200
G01 X452.3200 F1200
G01 Y126.9200 F1200
G01 X449.9200 F1200
G01 Y129.7200 F1200
G01 X452.3200 F1200
G01 Y132.1200 F1200
G01 X449.9200 F1200
G01 Y134.9200 F1200
G01 X452.3200 F1200
G01 Y137.3200 F1200
G01 X449.9200 F1200
G01 Y140.1200 F1200
G01 X452.3200 F1200
G01 Y142.5200 F1200
G01 X449.9200 F1200
G01 Y145.3200 F1200
G01 X452.3200 F1200
G01 Y147.7200 F1200
G01 X449.9200 F1200
G01 Y150.5200 F1200
G01 X452.3200 F1200
G01 Y152.9200 F1200
G01 X449.9200 F1200
G01 Y155.7200 F1200
G01 X452.3200 F1200
G01 Y158.1200 F1200
G01 X449.9200 F1200
G01 Y160.9200 F1200
G01 X452.3200 F1200
G01 Y163.3200 F1200
G01 X449.9200 F1200
G01 Y166.1200 F1200
G01 X452.3200 F1200
G01 Y168.5200 F1200
G01 X449.9200 F1200
G01 Y171.3200 F1200
G01 X452.3200 F1200
G01 Y173.7200 F1200
G01 X449.9200 F1200
G01 Y176.5200 F1200
G01 X452.3200 F1200
G01 Y178.9200 F1200
G01 X449.9200 F1200
G01 Y181.7200 F1200
G01 X452.3200 F1200
G01 Y184.1200 F1200
G01 X449.9200 F1200
G01 Y186.9200 F1200
G01 X452.3200 F1200
G01 Y189.3200 F1200
G01 X449.9200 F1200
G01 Y192.1200 F1200
G01 X452.3200 F1200
G01 Y194.5200 F1200
G01 X449.9200 F1200
G01 Y197.3200 F1200
G01 X452.3200 F1200
G01 Y199.7200 F1200
G01 X449.9200 F1200
G01 Y202.5200 F1200
G01 X452.3200 F1200
G01 Y204.9200 F1200
G01 X449.9200 F1200
G01 Y207.7200 F1200
G01 X452.3200 F1200
G01 Y210.1200 F1200
G01 X449.9200 F1200
G01 Y212.9200 F1200
G01 X452.3200 F1200
G01 Y215.3200 F1200
G01 X449.9200 F1200
G01 Y218.1200 F1200
G01 X452.3200 F1200
G01 Y220.5200 F1200
G01 X449.9200 F1200
G01 Y223.3200 F1200
G01 X452.3200 F1200
G01 Y225.7200 F1200
G01 X449.9200 F1200
G01 Y228.5200 F1200
G01 X452.3200 F1200
G01 Y230.9200 F1200
G01 X449.9200 F1200
G01 Y233.7200 F1200
G01 X452.3200 F1200
G01 Y236.1200 F1200
G01 X449.9200 F1200
G01 Y238.9200 F1200
G01 X452.3200 F1200
G01 Y241.3200 F1200
G01 X449.9200 F1200
G01 Y244.1200 F1200
G01 X452.3200 F1200
G01 Y246.5200 F1200
G01 X449.9200 F1200
G01 Y249.3200 F1200
G01 X452.3200 F1200
G01 Y251.7200 F1200
G01 X449.9200 F1200
G01 Y254.5200 F1200
G01 X452.3200 F1200
G01 Y256.9200 F1200
G01 X449.9200 F1200
G01 Y259.7200 F1200
G01 X452.3200 F1200
G01 Y262.1200 F1200
G01 X449.9200 F1200
G01 Y264.9200 F1200
G01 X452.3200 F1200
G01 Y267.3200 F1200
G01 X449.9200 F1200
G01 Y270.1200 F1200
G01 X452.3200 F1200
G01 Y272.5200 F1200
G01 X449.9200 F1200
G01 Y275.3200 F1200
G01 X452.3200 F1200
G01 Y277.7200 F1200
G01 X449.9200 F1200
G01 Y280.5200 F1200
G01 X452.3200 F1200
G01 Y282.9200 F1200
G01 X449.9200 F1200
G01 Y285.7200 F1200
G01 X452.3200 F1200
G01 Y288.1200 F1200
G01 X449.9200 F1200
G01 Y290.9200 F1200
G01 X452.3200 F1200
G01 Y293.3200 F1200
G01 X449.9200 F1200
G01 Y296.1200 F1200
G01 X452.3200 F1200
G01 Y298.5200 F1200
G01 X449.9200 F1200
G01 Y301.3200 F1200
G01 X452.3200 F1200
G01 Y303.7200 F1200
G01 X449.9200 F1200
G01 Y306.5200 F1200
G01 X452.3200 F1200
G01 Y308.9200 F1200
G01 X449.9200 F1200
G01 Y311.7200 F1200
G01 X452.3200 F1200
G01 Y314.1200 F1200
G01 X449.9200 F1200
G01 Y316.9200 F1200
G01 X452.3200 F1200
G01 Y319.3200 F1200
G01 X449.9200 F1200
G01 Y322.1200 F1200
G01 X452.3200 F1200
G01 Y324.5200 F1200
G01 X449.9200 F1200
G01 Y327.3200 F1200
G01 X452.3200 F1200
G01 Y329.7200 F1200
G01 X449.9200 F1200
G01 Y332.5200 F1200
G01 X452.3200 F1200
G01 Y334.9200 F1200
G01 X449.9200 F1200
G01 Y337.7200 F1200
G01 X452.3200 F1200
G01 Y340.1200 F1200
G01 X449.9200 F1200
G01 Y342.9200 F1200
G01 X452.3200 F1200
G01 Y345.3200 F1200
G01 X449.9200 F1200
G01 Y348.1200 F1200
G01 X452.3200 F1200
G01 Y350.5200 F1200
G01 X449.9200 F1200
G01 Y353.3200 F1200
G01 X452.3200 F1200
G01 Y355.7200 F1200
G01 X449.9200 F1200
G01 Y358.5200 F1200
G01 X452.3200 F1200
G01 Y360.9200 F1200
G01 X449.9200 F1200
G01 Y363.7200 F1200
G01 X452.3200 F1200
G01 Y366.1200 F1200
G01 X449.9200 F1200
G01 Y368.9200 F1200
G01 X452.3200 F1200
G01 Y371.3200 F1200
G01 X449.9200 F1200
G01 Y374.1200 F1200
G01 X452.3200 F1200
G01 Y376.5200 F1200
G01 X449.9200 F1200
G01 Y379.3200 F1200
G01 X452.3200 F1200
G01 Y381.7200 F1200
G01 X449.9200 F1200
G01 Y384.5200 F1200
G01 X452.3200 F1200
G01 Y386.9200 F1200
G01 X449.9200 F1200
G01 Y389.7200 F1200
G01 X452.3200 F1200
G01 Y392.1200 F1200
G01 X449.9200 F1200
G01 Y394.9200 F1200
G01 X452.3200 F1200
G01 Y397.3200 F1200
G01 X449.9200 F1200
G01 X449.7200 Z-5.5000 F1200
G01 X26.1200 F1200
G01 X25.9200 Z0.5000 F1200
G01 X19.5200 F1200
G01 X19.3200 Z-5.5000 F1200
G01 X8.1200 Z-6.0000 F1200
G01 Y394.9200 F1200
G01 X10.5200 F1200
G01 Y392.1200 F1200
G01 X8.1200 F1200
G01 Y389.7200 F1200
G01 X10.5200 F1200
G01 Y386.9200 F1200
G01 X8.1200 F1200
G01 Y384.5200 F1200
G01 X10.5200 F1200
G01 Y381.7200 F1200
G01 X8.1200 F1200
G01 Y379.3200 F1200
G01 X10.5200 F1200
G01 Y376.5200 F1200
G01 X8.1200 F1200
G01 Y374.1200 F1200
G01 X10.5200 F1200
G01 Y371.3200 F1200
G01 X8.1200 F1200
G01 Y368.9200 F1200
G01 X10.5200 F1200
G01 Y366.1200 F1200
G01 X8.1200 F1200
G01 Y363.7200 F1200
G01 X10.5200 F1200
G01 Y360.9200 F1200
G01 X8.1200 F1200
G01 Y358.5200 F1200
G01 X10.5200 F1200
G01 Y355.7200 F1200
G01 X8.1200 F1200
G01 Y353.3200 F1200
G01 X10.5200 F1200
G01 Y350.5200 F1200
G01 X8.1200 F1200
G01 Y348.1200 F1200
G01 X10.5200 F1200
G01 Y345.3200 F1200
G01 X8.1200 F1200
G01 Y342.9200 F1200
G01 X10.5200 F1200
G01 Y340.1200 F1200
G01 X8.1200 F1200
G01 Y337.7200 F1200
G01 X10.5200 F1200
G01 Y334.9200 F1200
G01 X8.1200 F1200
G01 Y332.5200 F1200
G01 X10.5200 F1200
G01 Y329.7200 F1200
G01 X8.1200 F1200
G01 Y327.3200 F1200
G01 X10.5200 F1200
G01 Y324.5200 F1200
G01 X8.1200 F1200
G01 Y322.1200 F1200
G01 X10.5200 F1200
G01 Y319.3200 F1200
G01 X8.1200 F1200
G01 Y316.9200 F1200
G01 X10.5200 F1200
G01 Y314.1200 F1200
G01 X8.1200 F1200
G01 Y311.7200 F1200
G01 X10.5200 F1200
G01 Y308.9200 F1200
G01 X8.1200 F1200
G01 Y306.5200 F1200
G01 X10.5200 F1200
G01 Y303.7200 F1200
G01 X8.1200 F1200
G01 Y301.3200 F1200
G01 X10.5200 F1200
G01 Y298.5200 F1200
G01 X8.1200 F1200
G01 Y296.1200 F1200
G01 X10.5200 F1200
G01 Y293.3200 F1200
G01 X8.1200 F1200
G01 Y290.9200 F1200
G01 X10.5200 F1200
G01 Y288.1200 F1200
G01 X8.1200 F1200
G01 Y285.7200 F1200
G01 X10.5200 F1200
G01 Y282.9200 F1200
G01 X8.1200 F1200
G01 Y280.5200 F1200
G01 X10.5200 F1200
G01 Y277.7200 F1200
G01 X8.1200 F1200
G01 Y275.3200 F1200
G01 X10.5200 F1200
G01 Y272.5200 F1200
G01 X8.1200 F1200
G01 Y270.1200 F1200
G01 X10.5200 F1200
G01 Y267.3200 F1200
G01 X8.1200 F1200
G01 Y264.9200 F1200
G01 X10.5200 F1200
G01 Y262.1200 F1200
G01 X8.1200 F1200
G01 Y259.7200 F1200
G01 X10.5200 F1200
G01 Y256.9200 F1200
G01 X8.1200 F1200
G01 Y254.5200 F1200
G01 X10.5200 F1200
G01 Y251.7200 F1200
G01 X8.1200 F1200
G01 Y249.3200 F1200
G01 X10.5200 F1200
G01 Y246.5200 F1200
G01 X8.1200 F1200
G01 Y244.1200 F1200
G01 X10.5200 F1200
G01 Y241.3200 F1200
G01 X8.1200 F1200
G01 Y238.9200 F1200
G01 X10.5200 F1200
G01 Y236.1200 F1200
G01 X8.1200 F1200
G01 Y233.7200 F1200
G01 X10.5200 F1200
G01 Y230.9200 F1200
G01 X8.1200 F1200
G01 Y228.5200 F1200
G01 X10.5200 F1200
G01 Y225.7200 F1200
G01 X8.1200 F1200
G01 Y223.3200 F1200
G01 X10.5200 F1200
G01 Y220.5200 F1200
G01 X8.1200 F1200
G01 Y218.1200 F1200
G01 X10.5200 F1200
G01 Y215.3200 F1200
G01 X8.1200 F1200
G01 Y212.9200 F1200
G01 X10.5200 F1200
G01 Y210.1200 F1200
G01 X8.1200 F1200
G01 Y207.7200 F1200
G01 X10.5200 F1200
G01 Y204.9200 F1200
G01 X8.1200 F1200
G01 Y202.5200 F1200
G01 X10.5200 F1200
G01 Y199.7200 F1200
G01 X8.1200 F1200
G01 Y197.3200 F1200
G01 X10.5200 F1200
G01 Y194.5200 F1200
G01 X8.1200 F1200
G01 Y192.1200 F1200
G01 X10.5200 F1200
G01 Y189.3200 F1200
G01 X8.1200 F1200
G01 Y186.9200 F1200
G01 X10.5200 F1200
G01 Y184.1200 F1200
G01 X8.1200 F1200
G01 Y181.7200 F1200
G01 X10.5200 F1200
G01 Y178.9200 F1200
G01 X8.1200 F1200
G01 Y176.5200 F1200
G01 X10.5200 F1200
G01 Y173.7200 F1200
G01 X8.1200 F1200
G01 Y171.3200 F1200
G01 X10.5200 F1200
G01 Y168.5200 F1200
G01 X8.1200 F1200
G01 Y166.1200 F1200
G01 X10.5200 F1200
G01 Y163.3200 F1200
G01 X8.1200 F1200
G01 Y160.9200 F1200
G01 X10.5200 F1200
G01 Y158.1200 F1200
G01 X8.1200 F1200
G01 Y155.7200 F1200
G01 X10.5200 F1200
G01 Y152.9200 F1200
G01 X8.1200 F1200
G01 Y150.5200 F1200
G01 X10.5200 F1200
G01 Y147.7200 F1200
G01 X8.1200 F1200
G01 Y145.3200 F1200
G01 X10.5200 F1200
G01 Y142.5200 F1200
G01 X8.1200 F1200
G01 Y140.1200 F1200
G01 X10.5200 F1200
G01 Y137.3200 F1200
G01 X8.1200 F1200
G01 Y134.9200 F1200
G01 X10.5200 F1200
G01 Y132.1200 F1200
G01 X8.1200 F1200
G01 Y129.7200 F1200
G01 X10.5200 F1200
G01 Y126.9200 F1200
G01 X8.1200 F1200
G01 Y124.5200 F1200
G01 X10.5200 F1200
G01 Y121.7200 F1200
G01 X8.1200 F1200
G01 Y119.3200 F1200
G01 X10.5200 F1200
G01 Y116.5200 F1200
G01 X8.1200 F1200
G01 Y114.1200 F1200
G01 X10.5200 F1200
G01 Y111.3200 F1200
G01 X8.1200 F1200
G01 Y108.9200 F1200
G01 X10.5200 F1200
G01 Y106.1200 F1200
G01 X8.1200 F1200
G01 Y103.7200 F1200
G01 X10.5200 F1200
G01 Y100.9200 F1200
G01 X8.1200 F1200
G01 Y98.5200 F1200
G01 X10.5200 F1200
G01 Y95.7200 F1200
G01 X8.1200 F1200
G01 Y93.3200 F1200
G01 X10.5200 F1200
G01 Y90.5200 F1200
G01 X8.1200 F1200
G01 Y88.1200 F1200
G01 X10.5200 F1200
G01 Y85.3200 F1200
G01 X8.1200 F1200
G01 Y82.9200 F1200
G01 X10.5200 F1200
G01 Y80.1200 F1200
G01 X8.1200 F1200
G01 Y77.7200 F1200
G01 X10.5200 F1200
G01 Y74.9200 F1200
G01 X8.1200 F1200
G01 Y72.5200 F1200
G01 X10.5200 F1200
G01 Y69.7200 F1200
G01 X8.1200 F1200
G01 Y67.3200 F1200
G01 X10.5200 F1200
G01 Y64.5200 F1200
G01 X8.1200 F1200
G01 Y62.1200 F1200
G01 X10.5200 F1200
G01 Y59.3200 F1200
G01 X8.1200 F1200
G01 Y56.9200 F1200
G01 X10.5200 F1200
G01 Y54.1200 F1200
G01 X8.1200 F1200
G01 Y51.7200 F1200
G01 X10.5200 F1200
G01 Y48.9200 F1200
G01 X8.1200 F1200
G01 Y46.5200 F1200
G01 X10.5200 F1200
G01 Y43.7200 F1200
G01 X8.1200 F1200
G01 Y41.3200 F1200
G01 X10.5200 F1200
G01 Y38.5200 F1200
G01 X8.1200 F1200
G01 Y36.1200 F1200
G01 X10.5200 F1200
G01 Y33.3200 F1200
G01 X8.1200 F1200
G01 Y30.9200 F1200
G01 X10.5200 F1200
G01 Y28.1200 F1200
G01 X8.1200 F1200
G01 Y25.7200 F1200
G01 X10.5200 F1200
G01 Y22.9200 F1200
G01 X8.1200 F1200
G01 Y20.5200 F1200
G01 X10.5200 F1200
G01 Y17.7200 F1200
G01 X8.1200 F1200
G01 Y15.3200 F1200
G01 X10.5200 F1200
G01 Y12.5200 F1200
G01 X8.1200 F1200
G00 Z4.0000 F480
G00 X96.7200 F1500
G01 Z-5.5000 F1200
G01 X98.7200 F1200
G01 Y15.3200 F1200
G01 X96.7200 F1200
G01 Y17.7200 F1200
G01 X98.7200 F1200
G01 Y20.5200 F1200
G01 X96.7200 F1200
G01 Y22.9200 F1200
G01 X98.7200 F1200
G01 Y25.7200 F1200
G01 X96.7200 F1200
G01 Y28.1200 F1200
G01 X98.7200 F1200
G01 Y30.9200 F1200
G01 X96.7200 F1200
G01 Y33.3200 F1200
G01 X98.7200 F1200
G01 Y36.1200 F1200
G01 X96.7200 F1200
G01 Y38.5200 F1200
G01 X98.7200 F1200
G01 Y41.3200 F1200
G01 X96.7200 F1200
G01 Y43.7200 F1200
G01 X98.7200 F1200
G01 Y46.5200 F1200
G01 X96.7200 F1200
G01 Y48.9200 F1200
G01 X98.7200 F1200
G01 Y51.7200 F1200
G01 X96.7200 F1200
G01 Y54.1200 F1200
G01 X98.7200 F1200
G01 Y56.9200 F1200
G01 X96.7200 F1200
G01 Y59.3200 F1200
G01 X98.7200 F1200
G01 Y62.1200 F1200
G01 X96.7200 F1200
G01 Y64.5200 F1200
G01 X98.7200 F1200
G01 Y67.3200 F1200
G01 X96.7200 F1200
G01 Y69.7200 F1200
G01 X98.7200 F1200
G01 Y72.5200 F1200
G01 X96.7200 F1200
G01 Y74.9200 F1200
G01 X98.7200 F1200
G01 Y77.7200 F1200
G01 X96.7200 F1200
G01 Y80.1200 F1200
G01 X98.7200 F1200
G01 Y82.9200 F1200
G01 X96.7200 F1200
G01 Y85.3200 F1200
G01 X98.7200 F1200
G01 Y88.1200 F1200
G01 X96.7200 F1200
G01 Y90.5200 F1200
G01 X98.7200 F1200
G01 Y93.3200 F1200
G01 X96.7200 F1200
G01 Y95.7200 F1200
G01 X98.7200 F1200
G01 Y98.5200 F1200
G01 X96.7200 F1200
G01 Y100.9200 F1200
G01 X98.7200 F1200
G01 Y103.7200 F1200
G01 X96.7200 F1200
G01 Y106.1200 F1200
G01 X98.7200 F1200
G01 Y108.9200 F1200
G01 X96.7200 F1200
G01 Y111.3200 F1200
G01 X98.7200 F1200
G01 Y114.1200 F1200
G01 X96.7200 F1200
G01 Y116.5200 F1200
G01 X98.7200 F1200
G01 Y119.3200 F1200
G01 X96.7200 F1200
G01 Y121.7200 F1200
G01 X98.7200 F1200
G01 Y124.5200 F1200
G01 X96.7200 F1200
G01 Y126.9200 F1200
G01 X98.7200 F1200
G01 Y129.7200 F1200
G01 X96.7200 F1200
G01 Y132.1200 F1200
G01 X98.7200 F1200
G01 Y134.9200 F1200
G01 X96.7200 F1200
G01 Y137.3200 F1200
G01 X98.7200 F1200
G01 Y140.1200 F1200
G01 X96.7200 F1200
G01 Y142.5200 F1200
G01 X98.7200 F1200
G01 Y145.3200 F1200
G01 X96.7200 F1200
G01 Y147.7200 F1200
G01 X98.7200 F1200
G01 Y150.5200 F1200
G01 X96.7200 F1200
G01 Y152.9200 F1200
G01 X98.7200 F1200
G01 Y155.7200 F1200
G01 X96.7200 F1200
G01 Y158.1200 F1200
G01 X98.7200 F1200
G01 Y160.9200 F1200
G01 X96.7200 F1200
G01 Y163.3200 F1200
G01 X98.7200 F1200
G01 Y166.1200 F1200
G01 X96.7200 F1200
G01 Y168.5200 F1200
G01 X98.7200 F1200
G01 Y171.3200 F1200
G01 X96.7200 F1200
G01 Y173.7200 F1200
G01 X98.7200 F1200
G01 Y176.5200 F1200
G01 X96.7200 F1200
G01 Y178.9200 F1200
G01 X98.7200 F1200
G01 Y181.7200 F1200
G01 X96.7200 F1200
G01 Y184.1200 F1200
G01 X98.7200 F1200
G01 Y186.9200 F1200
G01 X96.7200 F1200
G01 Y189.3200 F1200
G01 X98.7200 F1200
G01 Y192.1200 F1200
G01 X96.7200 F1200
G01 Y194.5200 F1200
G01 X98.7200 F1200
G01 Y197.3200 F1200
G01 X96.7200 F1200
G01 Y199.7200 F1200
G01 X98.7200 F1200
G01 Y202.5200 F1200
G01 X96.7200 F1200
G01 Y204.9200 F1200
G01 X98.7200 F1200
G01 Y207.7200 F1200
G01 X96.7200 F1200
G01 Y210.1200 F1200
G01 X98.7200 F1200
G01 Y212.9200 F1200
G01 X96.7200 F1200
G01 Y215.3200 F1200
G01 X98.7200 F1200
G01 Y218.1200 F1200
G01 X96.7200 F1200
G01 Y220.5200 F1200
G01 X98.7200 F1200
G01 Y223.3200 F1200
G01 X96.7200 F1200
G01 Y225.7200 F1200
G01 X98.7200 F1200
G01 Y228.5200 F1200
G01 X96.7200 F1200
G01 Y230.9200 F1200
G01 X98.7200 F1200
G01 Y233.7200 F1200
G01 X96.7200 F1200
G01 Y236.1200 F1200
G01 X98.7200 F1200
G01 Y238.9200 F1200
G01 X96.7200 F1200
G01 Y241.3200 F1200
G01 X98.7200 F1200
G01 Y244.1200 F1200
G01 X96.7200 F1200
G01 Y246.5200 F1200
G01 X98.7200 F1200
G01 Y249.3200 F1200
G01 X96.7200 F1200
G01 Y251.7200 F1200
G01 X98.7200 F1200
G01 Y254.5200 F1200
G01 X96.7200 F1200
G01 Y256.9200 F1200
G01 X98.7200 F1200
G01 Y259.7200 F1200
G01 X96.7200 F1200
G01 Y262.1200 F1200
G01 X98.7200 F1200
G01 Y264.9200 F1200
G01 X96.7200 F1200
G01 Y267.3200 F1200
G01 X98.7200 F1200
G01 Y270.1200 F1200
G01 X96.7200 F1200
G01 Y272.5200 F1200
G01 X98.7200 F1200
G01 Y275.3200 F1200
G01 X96.7200 F1200
G01 Y277.7200 F1200
G01 X98.7200 F1200
G01 Y280.5200 F1200
G01 X96.7200 F1200
G01 Y282.9200 F1200
G01 X98.7200 F1200
G01 Y285.7200 F1200
G01 X96.7200 F1200
G01 Y288.1200 F1200
G01 X98.7200 F1200
G01 Y290.9200 F1200
G01 X96.7200 F1200
G01 Y293.3200 F1200
G01 X98.7200 F1200
G01 Y296.1200 F1200
G01 X96.7200 F1200
G01 Y298.5200 F1200
G01 X98.7200 F1200
G01 Y301.3200 F1200
G01 X96.7200 F1200
G01 Y303.7200 F1200
G01 X98.7200 F1200
G01 Y306.5200 F1200
G01 X96.7200 F1200
G01 Y308.9200 F1200
G01 X98.7200 F1200
G01 Y311.7200 F1200
G01 X96.7200 F1200
G01 Y314.1200 F1200
G01 X98.7200 F1200
G01 Y316.9200 F1200
G01 X96.7200 F1200
G01 Y319.3200 F1200
G01 X98.7200 F1200
G01 Y322.1200 F1200
G01 X96.7200 F1200
G01 Y324.5200 F1200
G01 X98.7200 F1200
G01 Y327.3200 F1200
G01 X96.7200 F1200
G01 Y329.7200 F1200
G01 X98.7200 F1200
G01 Y332.5200 F1200
G01 X96.7200 F1200
G01 Y334.9200 F1200
G01 X98.7200 F1200
G01 Y337.7200 F1200
G01 X96.7200 F1200
G01 Y340.1200 F1200
G01 X98.7200 F1200
G01 Y342.9200 F1200
G01 X96.7200 F1200
G01 Y345.3200 F1200
G01 X98.7200 F1200
G01 Y348.1200 F1200
G01 X96.7200 F1200
G01 Y350.5200 F1200
G01 X98.7200 F1200
G01 Y353.3200 F1200
G01 X96.7200 F1200
G01 Y355.7200 F1200
G01 X98.7200 F1200
G01 Y358.5200 F1200
G01 X96.7200 F1200
G01 Y360.9200 F1200
G01 X98.7200 F1200
G01 Y363.7200 F1200
G01 X96.7200 F1200
G01 Y366.1200 F1200
G01 X98.7200 F1200
G01 Y368.9200 F1200
G01 X96.7200 F1200
G01 Y371.3200 F1200
G01 X98.7200 F1200
G01 Y374.1200 F1200
G01 X96.7200 F1200
G01 Y376.5200 F1200
G01 X98.7200 F1200
G01 Y379.3200 F1200
G01 X96.7200 F1200
G01 Y381.7200 F1200
G01 X98.7200 F1200
G01 Y384.5200 F1200
G01 X96.7200 F1200
G00 Z4.0000 F480
G00 X9.1200 Y410.5200 F1500
G01 Z-6.0000 F1200
G01 X451.3200 F1200
G01 X452.3200 Y407.7200 F1200
G01 X449.9200 F1200
G01 Y405.3200 F1200
G01 X452.3200 F1200
G01 Y402.5200 F1200
G01 X449.9200 F1200
G01 Z-5.5000 F1200
G01 X449.7200 Y400.1200 F1200
G01 X449.9200 Z-6.0000 F1200
G01 X452.3200 F1200
G00 Z4.0000 F480
G00 X10.7200 F1500
G01 Z-5.5000 F1200
G01 X10.5200 Z-6.0000 F1200
G01 X8.1200 F1200
G01 Y402.5200 F1200
G01 X10.5200 F1200
G01 Y405.3200 F1200
G01 X8.1200 F1200
G01 Y407.7200 F1200
G01 X10.5200 F1200
G00 Z4.0000 F480
G00 X9.1200 Y10.1200 F1500
G01 Z-10.0250 F1200
G01 X451.3200 F1200
G01 X452.3200 Y12.5200 F1200
G01 X449.9200 F1200
G01 Y15.3200 F1200
G01 X452.3200 F1200
G01 Y17.7200 F1200
G01 X449.9200 F1200
G01 Y20.5200 F1200
G01 X452.3200 F1200
G01 Y22.9200 F1200
G01 X449.9200 F1200
G01 Y25.7200 F1200
G01 X452.3200 F1200
G01 Y28.1200 F1200
G01 X449.9200 F1200
G01 Y30.9200 F1200
G01 X452.3200 F1200
G01 Y33.3200 F1200
G01 X449.9200 F1200
G01 Y36.1200 F1200
G01 X452.3200 F1200
G01 Y38.5200 F1200
G01 X449.9200 F1200
G01 Y41.3200 F1200
G01 X452.3200 F1200
G01 Y43.7200 F1200
G01 X449.9200 F1200
G01 Y46.5200 F1200
G01 X452.3200 F1200
G01 Y48.9200 F1200
G01 X449.9200 F1200
G01 Y51.7200 F1200
G01 X452.3200 F1200
G01 Y54.1200 F1200
G01 X449.9200 F1200
G01 Y56.9200 F1200
G01 X452.3200 F1200
G01 Y59.3200 F1200
G01 X449.9200 F1200
G01 Y62.1200 F1200
G01 X452.3200 F1200
G01 Y64.5200 F1200
G01 X449.9200 F1200
G01 Y67.3200 F1200
G01 X452.3200 F1200
G01 Y69.7200 F1200
G01 X449.9200 F1200
G01 Y72.5200 F1200
G01 X452.3200 F1200
G01 Y74.9200 F1200
G01 X449.9200 F1200
G01 Y77.7200 F1200
G01 X452.3200 F1200
G01 Y80.1200 F1200
G01 X449.9200 F1200
G01 Y82.9200 F1200
G01 X452.3200 F1200
G01 Y85.3200 F1200
G01 X449.9200 F1200
G01 Y88.1200 F1200
G01 X452.3200 F1200
G01 Y90.5200 F1200
G01 X449.9200 F1200
G01 Y93.3200 F1200
G01 X452.3200 F1200
G01 Y95.7200 F1200
G01 X449.9200 F1200
G01 Y98.5200 F1200
G01 X452.3200 F1200
G01 Y100.9200 F1200
G01 X449.9200 F1200
G01 Y103.7200 F1200
G01 X452.3200 F1200
G01 Y106.1200 F1200
G01 X449.9200 F1200
G01 Y108.9200 F1200
G01 X452.3200 F1200
G01 Y111.3200 F1200
G01 X449.9200 F1200
G01 Y114.1200 F1200
G01 X452.3200 F1200
G01 Y116.5200 F1200
G01 X449.9200 F1200
G01 Y119.3200 F1200
G01 X452.3200 F1200
G01 Y121.7200 F1200
G01 X449.9200 F1200
G01 Y124.5200 F1200
G01 X452.3200 F1200
G01 Y126.9200 F1200
G01 X449.9200 F1200
G01 Y129.7200 F1200
G01 X452.3200 F1200
G01 Y132.1200 F1200
G01 X449.9200 F1200
G01 Y134.9200 F1200
G01 X452.3200 F1200
G01 Y137.3200 F1200
G01 X449.9200 F1200
G01 Y140.1200 F1200
G01 X452.3200 F1200
G01 Y142.5200 F1200
G01 X449.9200 F1200
G01 Y145.3200 F1200
G01 X452.3200 F1200
G01 Y147.7200 F1200
G01 X449.9200 F1200
G01 Y150.5200 F1200
G01 X452.3200 F1200
G01 Y152.9200 F1200
G01 X449.9200 F1200
G01 Y155.7200 F1200
G01 X452.3200 F1200
G01 Y158.1200 F1200
G01 X449.9200 F1200
G01 Y160.9200 F1200
G01 X452.3200 F1200
G01 Y163.3200 F1200
G01 X449.9200 F1200
G01 Z-8.0250 F1200
G01 Y166.1200 F1200
G01 X452.3200 F1200
G01 Y168.5200 F1200
G01 X449.9200 F1200
G01 Y171.3200 F1200
G01 X452.3200 F1200
G01 Y173.7200 F1200
G01 X449.9200 F1200
G01 Y176.5200 F1200
G01 X452.3200 F1200
G01 Y178.9200 F1200
G01 X449.9200 F1200
G01 Y181.7200 F1200
G01 X452.3200 F1200
G01 Y184.1200 F1200
G01 X449.9200 F1200
G01 Y186.9200 F1200
G01 Z-10.0250 F1200
G01 X452.3200 F1200
G01 Y189.3200 F1200
G01 X449.9200 F1200
G01 Y192.1200 F1200
G01 X452.3200 F1200
G01 Y194.5200 F1200
G01 X449.9200 F1200
G01 Y197.3200 F1200
G01 X452.3200 F1200
G01 Y199.7200 F1200
G01 X449.9200 F1200
G01 Y202.5200 F1200
G01 X452.3200 F1200
G01 Y204.9200 F1200
G01 X449.9200 F1200
G01 Y207.7200 F1200
G01 X452.3200 F1200
G01 Y210.1200 F1200
G01 X449.9200 F1200
G01 Y212.9200 F1200
G01 X452.3200 F1200
G01 Y215.3200 F1200
G01 X449.9200 F1200
G01 Y218.1200 F1200
G01 X452.3200 F1200
G01 Y220.5200 F1200
G01 X449.9200 F1200
G01 Y223.3200 F1200
G01 X452.3200 F1200
G01 Y225.7200 F1200
G01 X449.9200 F1200
G01 Y228.5200 F1200
G01 X452.3200 F1200
G01 Y230.9200 F1200
G01 X449.9200 F1200
G01 Y233.7200 F1200
G01 X452.3200 F1200
G01 Y236.1200 F1200
G01 X449.9200 F1200
G01 Y238.9200 F1200
G01 X452.3200 F1200
G01 Y241.3200 F1200
G01 X449.9200 F1200
G01 Y244.1200 F1200
G01 X452.3200 F1200
G01 Y246.5200 F1200
G01 X449.9200 F1200
G01 Y249.3200 F1200
G01 X452.3200 F1200
G01 Y251.7200 F1200
G01 X449.9200 F1200
G01 Y254.5200 F1200
G01 X452.3200 F1200
G01 Y256.9200 F1200
G01 X449.9200 F1200
G01 Y259.7200 F1200
G01 X452.3200 F1200
G01 Y262.1200 F1200
G01 X449.9200 F1200
G01 Y264.9200 F1200
G01 X452.3200 F1200
G01 Y267.3200 F1200
G01 X449.9200 F1200
G01 Y270.1200 F1200
G01 X452.3200 F1200
G01 Y272.5200 F1200
G01 X449.9200 F1200
G01 Y275.3200 F1200
G01 X452.3200 F1200
G01 Y277.7200 F1200
G01 X449.9200 F1200
G01 Y280.5200 F1200
G01 X452.3200 F1200
G01 Y282.9200 F1200
G01 X449.9200 F1200
G01 Y285.7200 F1200
G01 X452.3200 F1200
G01 Y288.1200 F1200
G01 X449.9200 F1200
G01 Y290.9200 F1200
G01 X452.3200 F1200
G01 Y293.3200 F1200
G01 X449.9200 F1200
G01 Y296.1200 F1200
G01 X452.3200 F1200
G01 Y298.5200 F1200
G01 X449.9200 F1200
G01 Y301.3200 F1200
G01 X452.3200 F1200
G01 Y303.7200 F1200
G01 X449.9200 F1200
G01 Y306.5200 F1200
G01 X452.3200 F1200
G01 Y308.9200 F1200
G01 X449.9200 F1200
G01 Y311.7200 F1200
G01 X452.3200 F1200
G01 Y314.1200 F1200
G01 X449.9200 F1200
G01 Y316.9200 F1200
G01 X452.3200 F1200
G01 Y319.3200 F1200
G01 X449.9200 F1200
G01 Y322.1200 F1200
G01 X452.3200 F1200
G01 Y324.5200 F1200
G01 X449.9200 F1200
G01 Y327.3200 F1200
G01 X452.3200 F1200
G01 Y329.7200 F1200
G01 X449.9200 F1200
G01 Y332.5200 F1200
G01 X452.3200 F1200
G01 Y334.9200 F1200
G01 X449.9200 F1200
G01 Y337.7200 F1200
G01 X452.3200 F1200
G01 Y340.1200 F1200
G01 X449.9200 F1200
G01 Y342.9200 F1200
G01 X452.3200 F1200
G01 Y345.3200 F1200
G01 X449.9200 F1200
G01 Y348.1200 F1200
G01 X452.3200 F1200
G01 Y350.5200 F1200
G01 X449.9200 F1200
G01 Y353.3200 F1200
G01 X452.3200 F1200
G01 Y355.7200 F1200
G01 X449.9200 F1200
G01 Y358.5200 F1200
G01 X452.3200 F1200
G01 Y360.9200 F1200
G01 X449.9200 F1200
G01 Y363.7200 F1200
G01 X452.3200 F1200
G01 Y366.1200 F1200
G01 X449.9200 F1200
G01 Y368.9200 F1200
G01 X452.3200 F1200
G01 Y371.3200 F1200
G01 X449.9200 F1200
G01 Y374.1200 F1200
G01 X452.3200 F1200
G01 Y376.5200 F1200
G01 X449.9200 F1200
G01 Y379.3200 F1200
G01 X452.3200 F1200
G01 Y381.7200 F1200
G01 X449.9200 F1200
G01 Y384.5200 F1200
G01 X452.3200 F1200
G01 Y386.9200 F1200
G01 X449.9200 F1200
G01 Y389.7200 F1200
G01 X452.3200 F1200
G01 Y392.1200 F1200
G01 X449.9200 F1200
G01 Y394.9200 F1200
G01 X452.3200 F1200
G01 Y397.3200 F1200
G01 X449.9200 F1200
G01 Y400.1200 F1200
G01 X452.3200 F1200
G01 Y402.5200 F1200
G01 X449.9200 F1200
G01 Y405.3200 F1200
G01 X452.3200 F1200
G01 Y407.7200 F1200
G01 X449.9200 F1200
G01 X451.3200 Y410.5200 F1200
G01 X9.1200 F1200
G01 X8.1200 Y407.7200 F1200
G01 X10.5200 F1200
G01 Y405.3200 F1200
G01 X8.1200 F1200
G01 Y402.5200 F1200
G01 X10.5200 F1200
G01 Y400.1200 F1200
G01 X8.1200 F1200
G01 Y397.3200 F1200
G01 X10.5200 F1200
G01 Y394.9200 F1200
G01 X8.1200 F1200
G01 Y392.1200 F1200
G01 X10.5200 F1200
G01 Y389.7200 F1200
G01 X8.1200 F1200
G01 Y386.9200 F1200
G01 X10.5200 F1200
G01 Y384.5200 F1200
G01 X8.1200 F1200
G01 Y381.7200 F1200
G01 X10.5200 F1200
G01 Y379.3200 F1200
G01 X8.1200 F1200
G01 Y376.5200 F1200
G01 X10.5200 F1200
G01 Y374.1200 F1200
G01 X8.1200 F1200
G01 Y371.3200 F1200
G01 X10.5200 F1200
G01 Y368.9200 F1200
G01 X8.1200 F1200
G01 Y366.1200 F1200
G01 X10.5200 F1200
G01 Y363.7200 F1200
G01 X8.1200 F1200
G01 Y360.9200 F1200
G01 X10.5200 F1200
G01 Y358.5200 F1200
G01 X8.1200 F1200
G01 Y355.7200 F1200
G01 X10.5200 F1200
G01 Y353.3200 F1200
G01 X8.1200 F1200
G01 Y350.5200 F1200
G01 X10.5200 F1200
G01 Y348.1200 F1200
G01 X8.1200 F1200
G01 Y345.3200 F1200
G01 X10.5200 F1200
G01 Y342.9200 F1200
G01 X8.1200 F1200
G01 Y340.1200 F1200
G01 X10.5200 F1200
G01 Y337.7200 F1200
G01 X8.1200 F1200
G01 Y334.9200 F1200
G01 X10.5200 F1200
G01 Y332.5200 F1200
G01 X8.1200 F1200
G01 Y329.7200 F1200
G01 X10.5200 F1200
G01 Y327.3200 F1200
G01 X8.1200 F1200
G01 Y324.5200 F1200
G01 X10.5200 F1200
G01 Y322.1200 F1200
G01 X8.1200 F1200
G01 Y319.3200 F1200
G01 X10.5200 F1200
G01 Y316.9200 F1200
G01 X8.1200 F1200
G01 Y314.1200 F1200
G01 X10.5200 F1200
G01 Y311.7200 F1200
G01 X8.1200 F1200
G01 Y308.9200 F1200
G01 X10.5200 F1200
G01 Y306.5200 F1200
G01 X8.1200 F1200
G01 Y303.7200 F1200
G01 X10.5200 F1200
G01 Y301.3200 F1200
G01 X8.1200 F1200
G01 Y298.5200 F1200
G01 X10.5200 F1200
G01 Y296.1200 F1200
G01 X8.1200 F1200
G01 Y293.3200 F1200
G01 X10.5200 F1200
G01 Y290.9200 F1200
G01 X8.1200 F1200
G01 Y288.1200 F1200
G01 X10.5200 F1200
G01 Y285.7200 F1200
G01 X8.1200 F1200
G01 Y282.9200 F1200
G01 X10.5200 F1200
G01 Y280.5200 F1200
G01 X8.1200 F1200
G01 Y277.7200 F1200
G01 X10.5200 F1200
G01 Y275.3200 F1200
G01 X8.1200 F1200
G01 Y272.5200 F1200
G01 X10.5200 F1200
G01 Y270.1200 F1200
G01 X8.1200 F1200
G01 Y267.3200 F1200
G01 X10.5200 F1200
G01 Y264.9200 F1200
G01 X8.1200 F1200
G01 Y262.1200 F1200
G01 X10.5200 F1200
G01 Y259.7200 F1200
G01 X8.1200 F1200
G01 Y256.9200 F1200
G01 X10.5200 F1200
G01 Y254.5200 F1200
G01 X8.1200 F1200
G01 Y251.7200 F1200
G01 X10.5200 F1200
G01 Y249.3200 F1200
G01 X8.1200 F1200
G01 Y246.5200 F1200
G01 X10.5200 F1200
G01 Y244.1200 F1200
G01 X8.1200 F1200
G01 Y241.3200 F1200
G01 X10.5200 F1200
G01 Y238.9200 F1200
G01 X8.1200 F1200
G01 Y236.1200 F1200
G01 X10.5200 F1200
G01 Y233.7200 F1200
G01 X8.1200 F1200
G01 Y230.9200 F1200
G01 X10.5200 F1200
G01 Y228.5200 F1200
G01 X8.1200 F1200
G01 Y225.7200 F1200
G01 X10.5200 F1200
G01 Y223.3200 F1200
G01 X8.1200 F1200
G01 Y220.5200 F1200
G01 X10.5200 F1200
G01 Y218.1200 F1200
G01 X8.1200 F1200
G01 Y215.3200 F1200
G01 X10.5200 F1200
G01 Y212.9200 F1200
G01 X8.1200 F1200
G01 Y210.1200 F1200
G01 X10.5200 F1200
G01 Y207.7200 F1200
G01 X8.1200 F1200
G01 Y204.9200 F1200
G01 X10.5200 F1200
G01 Y202.5200 F1200
G01 X8.1200 F1200
G01 Y199.7200 F1200
G01 X10.5200 F1200
G01 Y197.3200 F1200
G01 X8.1200 F1200
G01 Y194.5200 F1200
G01 X10.5200 F1200
G01 Y192.1200 F1200
G01 X8.1200 F1200
G01 Y189.3200 F1200
G01 X10.5200 F1200
G01 Y186.9200 F1200
G01 X8.1200 F1200
G01 Y184.1200 F1200
G01 X10.5200 F1200
G01 Y181.7200 F1200
G01 X8.1200 F1200
G01 Y178.9200 F1200
G01 X10.5200 F1200
G01 Y176.5200 F1200
G01 X8.1200 F1200
G01 Y173.7200 F1200
G01 X10.5200 F1200
G01 Y171.3200 F1200
G01 X8.1200 F1200
G01 Y168.5200 F1200
G01 X10.5200 F1200
G01 Y166.1200 F1200
G01 X8.1200 F1200
G01 Y163.3200 F1200
G01 X10.5200 F1200
G01 Y160.9200 F1200
G01 X8.1200 F1200
G01 Y158.1200 F1200
G01 X10.5200 F1200
G01 Y155.7200 F1200
G01 X8.1200 F1200
G01 Y152.9200 F1200
G01 X10.5200 F1200
G01 Y150.5200 F1200
G01 X8.1200 F1200
G01 Y147.7200 F1200
G01 X10.5200 F1200
G01 Y145.3200 F1200
G01 X8.1200 F1200
G01 Y142.5200 F1200
G01 X10.5200 F1200
G01 Y140.1200 F1200
G01 X8.1200 F1200
G01 Y137.3200 F1200
G01 X10.5200 F1200
G01 Y134.9200 F1200
G01 X8.1200 F1200
G01 Y132.1200 F1200
G01 X10.5200 F1200
G01 Y129.7200 F1200
G01 X8.1200 F1200
G01 Y126.9200 F1200
G01 X10.5200 F1200
G01 Y124.5200 F1200
G01 X8.1200 F1200
G01 Y121.7200 F1200
G01 X10.5200 F1200
G01 Y119.3200 F1200
G01 X8.1200 F1200
G01 Y116.5200 F1200
G01 X10.5200 F1200
G01 Y114.1200 F1200
G01 X8.1200 F1200
G01 Y111.3200 F1200
G01 X10.5200 F1200
G01 Y108.9200 F1200
G01 X8.1200 F1200
G01 Y106.1200 F1200
G01 X10.5200 F1200
G01 Y103.7200 F1200
G01 X8.1200 F1200
G01 Y100.9200 F1200
G01 X10.5200 F1200
G01 Y98.5200 F1200
G01 X8.1200 F1200
G01 Y95.7200 F1200
G01 X10.5200 F1200
G01 Y93.3200 F1200
G01 X8.1200 F1200
G01 Y90.5200 F1200
G01 X10.5200 F1200
G01 Y88.1200 F1200
G01 X8.1200 F1200
G01 Y85.3200 F1200
G01 X10.5200 F1200
G01 Y82.9200 F1200
G01 X8.1200 F1200
G01 Y80.1200 F1200
G01 X10.5200 F1200
G01 Y77.7200 F1200
G01 X8.1200 F1200
G01 Y74.9200 F1200
G01 X10.5200 F1200
G01 Y72.5200 F1200
G01 X8.1200 F1200
G01 Y69.7200 F1200
G01 X10.5200 F1200
G01 Y67.3200 F1200
G01 X8.1200 F1200
G01 Y64.5200 F1200
G01 X10.5200 F1200
G01 Y62.1200 F1200
G01 X8.1200 F1200
G01 Y59.3200 F1200
G01 X10.5200 F1200
G01 Y56.9200 F1200
G01 X8.1200 F1200
G01 Y54.1200 F1200
G01 X10.5200 F1200
G01 Y51.7200 F1200
G01 X8.1200 F1200
G01 Y48.9200 F1200
G01 X10.5200 F1200
G01 Y46.5200 F1200
G01 X8.1200 F1200
G01 Y43.7200 F1200
G01 X10.5200 F1200
G01 Y41.3200 F1200
G01 X8.1200 F1200
G01 Y38.5200 F1200
G01 X10.5200 F1200
G01 Y36.1200 F1200
G01 X8.1200 F1200
G01 Y33.3200 F1200
G01 X10.5200 F1200
G01 Y30.9200 F1200
G01 X8.1200 F1200
G01 Y28.1200 F1200
G01 X10.5200 F1200
G01 Y25.7200 F1200
G01 X8.1200 F1200
G01 Y22.9200 F1200
G01 X10.5200 F1200
G01 Y20.5200 F1200
G01 X8.1200 F1200
G01 Y17.7200 F1200
G01 X10.5200 F1200
G01 Y15.3200 F1200
G01 X8.1200 F1200
G01 Y12.5200 F1200
G01 X10.5200 F1200
G00 Z4.0000 F480
G00 X12.7200 Y12.7200 F1500


;No. 2: 
G01 X12.7200 Y12.7200 Z4.5000 F1200
G01 Y10.8120 F1200
G01 Z-10.5250 F1200
G01 X447.7440 F1200
G01 Z0.5000 F1200
G01 X448.9365 Y11.2890 F1200
G01 Z-10.5250 F1200
G01 X448.4595 F1200
G01 X448.3403 Z0.0000 F1200
G01 X100.3688 F1200
G01 X100.2495 Z-6.0000 F1200
G01 X95.2410 F1200
G01 X95.1218 Z0.0000 F1200
G01 X12.1238 F1200
G01 X12.0045 Z-10.5250 F1200
G01 X11.5275 F1200
G01 X11.0505 Y11.7660 F1200
G01 X11.4083 F1200
G01 X11.5275 Z0.0000 F1200
G01 X95.7180 F1200
G01 X95.8373 Z-6.0000 F1200
G01 X99.6533 F1200
G01 X99.7725 Z0.0000 F1200
G01 X448.9365 F1200
G01 X449.0558 Z-10.5250 F1200
G01 X449.4135 F1200
G01 X449.5328 Y12.2430 F1200
G01 X449.1750 Z0.0000 F1200
G01 X99.5340 F1200
G01 X99.4148 Z-6.0000 F1200
G01 X96.0758 F1200
G01 X95.9565 Z0.0000 F1200
G01 X11.2890 F1200
G01 X10.9313 Z-10.5250 F1200
G01 X10.8120 Y12.7200 F1200
G01 X11.1698 Z0.0000 F1200
G01 X96.0758 F1200
G01 X96.1950 Z-6.0000 F1200
G01 X99.2955 F1200
G01 X99.4148 Z0.0000 F1200
G01 X449.2943 F1200
G01 X449.6520 Z-10.5250 F1200
G01 Y13.1970 F1200
G01 X449.2943 Z0.0000 F1200
G01 X99.4148 F1200
G01 X99.2955 Z-6.0000 F1200
G01 X96.1950 F1200
G01 X96.0758 Z0.0000 F1200
G01 X11.1698 F1200
G01 X10.8120 Z-10.5250 F1200
G01 Y13.6740 F1200
G01 X11.1698 Z0.0000 F1200
G01 X96.0758 F1200
G01 X96.1950 Z-6.0000 F1200
G01 X99.2955 F1200
G01 X99.4148 Z0.0000 F1200
G01 X449.2943 F1200
G01 X449.6520 Z-10.5250 F1200
G01 Y14.1510 F1200
G01 X449.2943 Z0.0000 F1200
G01 X99.4148 F1200
G01 X99.2955 Z-6.0000 F1200
G01 X96.1950 F1200
G01 X96.0758 Z0.0000 F1200
G01 X11.1698 F1200
G01 X10.8120 Z-10.5250 F1200
G01 Y14.6280 F1200
G01 X11.1698 Z0.0000 F1200
G01 X96.0758 F1200
G01 X96.1950 Z-6.0000 F1200
G01 X99.2955 F1200
G01 X99.4148 Z0.0000 F1200
G01 X449.2943 F1200
G01 X449.6520 Z-10.5250 F1200
G01 Y15.1050 F1200
G01 X449.2943 Z0.0000 F1200
G01 X99.4148 F1200
G01 X99.2955 Z-6.0000 F1200
G01 X96.1950 F1200
G01 X96.0758 Z0.0000 F1200
G01 X11.1698 F1200
G01 X10.8120 Z-10.5250 F1200
G01 Y15.5820 F1200
G01 X11.1698 Z0.0000 F1200
G01 X96.0758 F1200
G01 X96.1950 Z-6.0000 F1200
G01 X99.2955 F1200
G01 X99.4148 Z0.0000 F1200
G01 X449.2943 F1200
G01 X449.6520 Z-10.5250 F1200
G01 Y16.0590 F1200
G01 X449.2943 Z0.0000 F1200
G01 X99.4148 F1200
G01 X99.2955 Z-6.0000 F1200
G01 X96.1950 F1200
G01 X96.0758 Z0.0000 F1200
G01 X11.1698 F1200
G01 X10.8120 Z-10.5250 F1200
G01 Y16.5360 F1200
G01 X11.1698 Z0.0000 F1200
G01 X96.0758 F1200
G01 X96.1950 Z-6.0000 F1200
G01 X99.2955 F1200
G01 X99.4148 Z0.0000 F1200
G01 X449.2943 F1200
G01 X449.6520 Z-10.5250 F1200
G01 Y17.0130 F1200
G01 X449.2943 Z0.0000 F1200
G01 X99.4148 F1200
G01 X99.2955 Z-6.0000 F1200
G01 X96.1950 F1200
G01 X96.0758 Z0.0000 F1200
G01 X11.1698 F1200
G01 X10.8120 Z-10.5250 F1200
G01 Y17.4900 F1200
G01 X11.1698 Z0.0000 F1200
G01 X96.0758 F1200
G01 X96.1950 Z-6.0000 F1200
G01 X99.2955 F1200
G01 X99.4148 Z0.0000 F1200
G01 X449.2943 F1200
G01 X449.6520 Z-10.5250 F1200
G01 Y17.9670 F1200
G01 X449.2943 Z0.0000 F1200
G01 X99.4148 F1200
G01 X99.2955 Z-6.0000 F1200
G01 X96.1950 F1200
G01 X96.0758 Z0.0000 F1200
G01 X11.1698 F1200
G01 X10.8120 Z-10.5250 F1200
G01 Y18.4440 F1200
G01 X11.1698 Z0.0000 F1200
G01 X96.0758 F1200
G01 X96.1950 Z-6.0000 F1200
G01 X99.2955 F1200
G01 X99.4148 Z0.0000 F1200
G01 X449.2943 F1200
G01 X449.6520 Z-10.5250 F1200
G01 Y18.9210 F1200
G01 X449.2943 Z0.0000 F1200
G01 X99.4148 F1200
G01 X99.2955 Z-6.0000 F1200
G01 X96.1950 F1200
G01 X96.0758 Z0.0000 F1200
G01 X11.1698 F1200
G01 X10.8120 Z-10.5250 F1200
G01 Y19.3980 F1200
G01 X11.1698 Z0.0000 F1200
G01 X96.0758 F1200
G01 X96.1950 Z-6.0000 F1200
G01 X99.2955 F1200
G01 X99.4148 Z0.0000 F1200
G01 X449.2943 F1200
G01 X449.6520 Z-10.5250 F1200
G01 Y19.8750 F1200
G01 X449.2943 Z0.0000 F1200
G01 X99.4148 F1200
G01 X99.2955 Z-6.0000 F1200
G01 X96.1950 F1200
G01 X96.0758 Z0.0000 F1200
G01 X11.1698 F1200
G01 X10.8120 Z-10.5250 F1200
G01 Y20.3520 F1200
G01 X11.1698 Z0.0000 F1200
G01 X96.0758 F1200
G01 X96.1950 Z-6.0000 F1200
G01 X99.2955 F1200
G01 X99.4148 Z0.0000 F1200
G01 X449.2943 F1200
G01 X449.6520 Z-10.5250 F1200
G01 Y20.8290 F1200
G01 X449.2943 Z0.0000 F1200
G01 X99.4148 F1200
G01 X99.2955 Z-6.0000 F1200
G01 X96.1950 F1200
G01 X96.0758 Z0.0000 F1200
G01 X11.1698 F1200
G01 X10.8120 Z-10.5250 F1200
G01 Y21.3060 F1200
G01 X11.1698 Z0.0000 F1200
G01 X96.0758 F1200
G01 X96.1950 Z-6.0000 F1200
G01 X99.2955 F1200
G01 X99.4148 Z0.0000 F1200
G01 X449.2943 F1200
G01 X449.6520 Z-10.5250 F1200
G01 Y21.7830 F1200
G01 X449.2943 Z0.0000 F1200
G01 X99.4148 F1200
G01 X99.2955 Z-6.0000 F1200
G01 X96.1950 F1200
G01 X96.0758 Z0.0000 F1200
G01 X11.1698 F1200
G01 X10.8120 Z-10.5250 F1200
G01 Y22.2600 F1200
G01 X11.1698 Z0.0000 F1200
G01 X96.0758 F1200
G01 X96.1950 Z-6.0000 F1200
G01 X99.2955 F1200
G01 X99.4148 Z0.0000 F1200
G01 X449.2943 F1200
G01 X449.6520 Z-10.5250 F1200
G01 Y22.7370 F1200
G01 X449.2943 Z0.0000 F1200
G01 X99.4148 F1200
G01 X99.2955 Z-6.0000 F1200
G01 X96.1950 F1200
G01 X96.0758 Z0.0000 F1200
G01 X11.1698 F1200
G01 X10.8120 Z-10.5250 F1200
G01 Y23.2140 F1200
G01 X11.1698 Z0.0000 F1200
G01 X96.0758 F1200
G01 X96.1950 Z-6.0000 F1200
G01 X99.2955 F1200
G01 X99.4148 Z0.0000 F1200
G01 X449.2943 F1200
G01 X449.6520 Z-10.5250 F1200
G01 Y23.6910 F1200
G01 X449.2943 Z0.0000 F1200
G01 X99.4148 F1200
G01 X99.2955 Z-6.0000 F1200
G01 X96.1950 F1200
G01 X96.0758 Z0.0000 F1200
G01 X11.1698 F1200
G01 X10.8120 Z-10.5250 F1200
G01 Y24.1680 F1200
G01 X11.1698 Z0.0000 F1200
G01 X96.0758 F1200
G01 X96.1950 Z-6.0000 F1200
G01 X99.2955 F1200
G01 X99.4148 Z0.0000 F1200
G01 X449.2943 F1200
G01 X449.6520 Z-10.5250 F1200
G01 Y24.6450 F1200
G01 X449.2943 Z0.0000 F1200
G01 X99.4148 F1200
G01 X99.2955 Z-6.0000 F1200
G01 X96.1950 F1200
G01 X96.0758 Z0.0000 F1200
G01 X11.1698 F1200
G01 X10.8120 Z-10.5250 F1200
G01 Y25.1220 F1200
G01 X11.1698 Z0.0000 F1200
G01 X96.0758 F1200
G01 X96.1950 Z-6.0000 F1200
G01 X99.2955 F1200
G01 X99.4148 Z0.0000 F1200
G01 X449.2943 F1200
G01 X449.6520 Z-10.5250 F1200
G01 Y25.5990 F1200
G01 X449.2943 Z0.0000 F1200
G01 X99.4148 F1200
G01 X99.2955 Z-6.0000 F1200
G01 X96.1950 F1200
G01 X96.0758 Z0.0000 F1200
G01 X11.1698 F1200
G01 X10.8120 Z-10.5250 F1200
G01 Y26.0760 F1200
G01 X11.1698 Z0.0000 F1200
G01 X96.0758 F1200
G01 X96.1950 Z-6.0000 F1200
G01 X99.2955 F1200
G01 X99.4148 Z0.0000 F1200
G01 X449.2943 F1200
G01 X449.6520 Z-10.5250 F1200
G01 Y26.5530 F1200
G01 X449.2943 Z0.0000 F1200
G01 X99.4148 F1200
G01 X99.2955 Z-6.0000 F1200
G01 X96.1950 F1200
G01 X96.0758 Z0.0000 F1200
G01 X11.1698 F1200
G01 X10.8120 Z-10.5250 F1200
G01 Y27.0300 F1200
G01 X11.1698 Z0.0000 F1200
G01 X96.0758 F1200
G01 X96.1950 Z-6.0000 F1200
G01 X99.2955 F1200
G01 X99.4148 Z0.0000 F1200
G01 X449.2943 F1200
G01 X449.6520 Z-10.5250 F1200
G01 Y27.5070 F1200
G01 X449.2943 Z0.0000 F1200
G01 X99.4148 F1200
G01 X99.2955 Z-6.0000 F1200
G01 X96.1950 F1200
G01 X96.0758 Z0.0000 F1200
G01 X11.1698 F1200
G01 X10.8120 Z-10.5250 F1200
G01 Y27.9840 F1200
G01 X11.1698 Z0.0000 F1200
G01 X96.0758 F1200
G01 X96.1950 Z-6.0000 F1200
G01 X99.2955 F1200
G01 X99.4148 Z0.0000 F1200
G01 X449.2943 F1200
G01 X449.6520 Z-10.5250 F1200
G01 Y28.4610 F1200
G01 X449.2943 Z0.0000 F1200
G01 X99.4148 F1200
G01 X99.2955 Z-6.0000 F1200
G01 X96.1950 F1200
G01 X96.0758 Z0.0000 F1200
G01 X11.1698 F1200
G01 X10.8120 Z-10.5250 F1200
G01 Y28.9380 F1200
G01 X11.1698 Z0.0000 F1200
G01 X96.0758 F1200
G01 X96.1950 Z-6.0000 F1200
G01 X99.2955 F1200
G01 X99.4148 Z0.0000 F1200
G01 X449.2943 F1200
G01 X449.6520 Z-10.5250 F1200
G01 Y29.4150 F1200
G01 X449.2943 Z0.0000 F1200
G01 X99.4148 F1200
G01 X99.2955 Z-6.0000 F1200
G01 X96.1950 F1200
G01 X96.0758 Z0.0000 F1200
G01 X11.1698 F1200
G01 X10.8120 Z-10.5250 F1200
G01 Y29.8920 F1200
G01 X11.1698 Z0.0000 F1200
G01 X96.0758 F1200
G01 X96.1950 Z-6.0000 F1200
G01 X99.2955 F1200
G01 X99.4148 Z0.0000 F1200
G01 X449.2943 F1200
G01 X449.6520 Z-10.5250 F1200
G01 Y30.3690 F1200
G01 X449.2943 Z0.0000 F1200
G01 X99.4148 F1200
G01 X99.2955 Z-6.0000 F1200
G01 X96.1950 F1200
G01 X96.0758 Z0.0000 F1200
G01 X11.1698 F1200
G01 X10.8120 Z-10.5250 F1200
G01 Y30.8460 F1200
G01 X11.1698 Z0.0000 F1200
G01 X96.0758 F1200
G01 X96.1950 Z-6.0000 F1200
G01 X99.2955 F1200
G01 X99.4148 Z0.0000 F1200
G01 X449.2943 F1200
G01 X449.6520 Z-10.5250 F1200
G01 Y31.3230 F1200
G01 X449.2943 Z0.0000 F1200
G01 X99.4148 F1200
G01 X99.2955 Z-6.0000 F1200
G01 X96.1950 F1200
G01 X96.0758 Z0.0000 F1200
G01 X11.1698 F1200
G01 X10.8120 Z-10.5250 F1200
G01 Y31.8000 F1200
G01 X11.1698 Z0.0000 F1200
G01 X96.0758 F1200
G01 X96.1950 Z-6.0000 F1200
G01 X99.2955 F1200
G01 X99.4148 Z0.0000 F1200
G01 X449.2943 F1200
G01 X449.6520 Z-10.5250 F1200
G01 Y32.2770 F1200
G01 X449.2943 Z0.0000 F1200
G01 X99.4148 F1200
G01 X99.2955 Z-6.0000 F1200
G01 X96.1950 F1200
G01 X96.0758 Z0.0000 F1200
G01 X11.1698 F1200
G01 X10.8120 Z-10.5250 F1200
G01 Y32.7540 F1200
G01 X11.1698 Z0.0000 F1200
G01 X96.0758 F1200
G01 X96.1950 Z-6.0000 F1200
G01 X99.2955 F1200
G01 X99.4148 Z0.0000 F1200
G01 X449.2943 F1200
G01 X449.6520 Z-10.5250 F1200
G01 Y33.2310 F1200
G01 X449.2943 Z0.0000 F1200
G01 X99.4148 F1200
G01 X99.2955 Z-6.0000 F1200
G01 X96.1950 F1200
G01 X96.0758 Z0.0000 F1200
G01 X11.1698 F1200
G01 X10.8120 Z-10.5250 F1200
G01 Y33.7080 F1200
G01 X11.1698 Z0.0000 F1200
G01 X96.0758 F1200
G01 X96.1950 Z-6.0000 F1200
G01 X99.2955 F1200
G01 X99.4148 Z0.0000 F1200
G01 X449.2943 F1200
G01 X449.6520 Z-10.5250 F1200
G01 Y34.1850 F1200
G01 X449.2943 Z0.0000 F1200
G01 X99.4148 F1200
G01 X99.2955 Z-6.0000 F1200
G01 X96.1950 F1200
G01 X96.0758 Z0.0000 F1200
G01 X11.1698 F1200
G01 X10.8120 Z-10.5250 F1200
G01 Y34.6620 F1200
G01 X11.1698 Z0.0000 F1200
G01 X96.0758 F1200
G01 X96.1950 Z-6.0000 F1200
G01 X99.2955 F1200
G01 X99.4148 Z0.0000 F1200
G01 X449.2943 F1200
G01 X449.6520 Z-10.5250 F1200
G01 Y35.1390 F1200
G01 X449.2943 Z0.0000 F1200
G01 X99.4148 F1200
G01 X99.2955 Z-6.0000 F1200
G01 X96.1950 F1200
G01 X96.0758 Z0.0000 F1200
G01 X11.1698 F1200
G01 X10.8120 Z-10.5250 F1200
G01 Y35.6160 F1200
G01 X11.1698 Z0.0000 F1200
G01 X96.0758 F1200
G01 X96.1950 Z-6.0000 F1200
G01 X99.2955 F1200
G01 X99.4148 Z0.0000 F1200
G01 X449.2943 F1200
G01 X449.6520 Z-10.5250 F1200
G01 Y36.0930 F1200
G01 X449.2943 Z0.0000 F1200
G01 X99.4148 F1200
G01 X99.2955 Z-6.0000 F1200
G01 X96.1950 F1200
G01 X96.0758 Z0.0000 F1200
G01 X11.1698 F1200
G01 X10.8120 Z-10.5250 F1200
G01 Y36.5700 F1200
G01 X11.1698 Z0.0000 F1200
G01 X96.0758 F1200
G01 X96.1950 Z-6.0000 F1200
G01 X99.2955 F1200
G01 X99.4148 Z0.0000 F1200
G01 X449.2943 F1200
G01 X449.6520 Z-10.5250 F1200
G01 Y37.0470 F1200
G01 X449.2943 Z0.0000 F1200
G01 X99.4148 F1200
G01 X99.2955 Z-6.0000 F1200
G01 X96.1950 F1200
G01 X96.0758 Z0.0000 F1200
G01 X11.1698 F1200
G01 X10.8120 Z-10.5250 F1200
G01 Y37.5240 F1200
G01 X11.1698 Z0.0000 F1200
G01 X96.0758 F1200
G01 X96.1950 Z-6.0000 F1200
G01 X99.2955 F1200
G01 X99.4148 Z0.0000 F1200
G01 X449.2943 F1200
G01 X449.6520 Z-10.5250 F1200
G01 Y38.0010 F1200
G01 X449.2943 Z0.0000 F1200
G01 X99.4148 F1200
G01 X99.2955 Z-6.0000 F1200
G01 X96.1950 F1200
G01 X96.0758 Z0.0000 F1200
G01 X11.1698 F1200
G01 X10.8120 Z-10.5250 F1200
G01 Y38.4780 F1200
G01 X11.1698 Z0.0000 F1200
G01 X96.0758 F1200
G01 X96.1950 Z-6.0000 F1200
G01 X99.2955 F1200
G01 X99.4148 Z0.0000 F1200
G01 X449.2943 F1200
G01 X449.6520 Z-10.5250 F1200
G01 Y38.9550 F1200
G01 X449.2943 Z0.0000 F1200
G01 X99.4148 F1200
G01 X99.2955 Z-6.0000 F1200
G01 X96.1950 F1200
G01 X96.0758 Z0.0000 F1200
G01 X11.1698 F1200
G01 X10.8120 Z-10.5250 F1200
G01 Y39.4320 F1200
G01 X11.1698 Z0.0000 F1200
G01 X96.0758 F1200
G01 X96.1950 Z-6.0000 F1200
G01 X99.2955 F1200
G01 X99.4148 Z0.0000 F1200
G01 X449.2943 F1200
G01 X449.6520 Z-10.5250 F1200
G01 Y39.9090 F1200
G01 X449.2943 Z0.0000 F1200
G01 X99.4148 F1200
G01 X99.2955 Z-6.0000 F1200
G01 X96.1950 F1200
G01 X96.0758 Z0.0000 F1200
G01 X11.1698 F1200
G01 X10.8120 Z-10.5250 F1200
G01 Y40.3860 F1200
G01 X11.1698 Z0.0000 F1200
G01 X96.0758 F1200
G01 X96.1950 Z-6.0000 F1200
G01 X99.2955 F1200
G01 X99.4148 Z0.0000 F1200
G01 X449.2943 F1200
G01 X449.6520 Z-10.5250 F1200
G01 Y40.8630 F1200
G01 X449.2943 Z0.0000 F1200
G01 X99.4148 F1200
G01 X99.2955 Z-6.0000 F1200
G01 X96.1950 F1200
G01 X96.0758 Z0.0000 F1200
G01 X11.1698 F1200
G01 X10.8120 Z-10.5250 F1200
G01 Y41.3400 F1200
G01 X11.1698 Z0.0000 F1200
G01 X96.0758 F1200
G01 X96.1950 Z-6.0000 F1200
G01 X99.2955 F1200
G01 X99.4148 Z0.0000 F1200
G01 X449.2943 F1200
G01 X449.6520 Z-10.5250 F1200
G01 Y41.8170 F1200
G01 X449.2943 Z0.0000 F1200
G01 X99.4148 F1200
G01 X99.2955 Z-6.0000 F1200
G01 X96.1950 F1200
G01 X96.0758 Z0.0000 F1200
G01 X11.1698 F1200
G01 X10.8120 Z-10.5250 F1200
G01 Y42.2940 F1200
G01 X11.1698 Z0.0000 F1200
G01 X96.0758 F1200
G01 X96.1950 Z-6.0000 F1200
G01 X99.2955 F1200
G01 X99.4148 Z0.0000 F1200
G01 X449.2943 F1200
G01 X449.6520 Z-10.5250 F1200
G01 Y42.7710 F1200
G01 X449.2943 Z0.0000 F1200
G01 X99.4148 F1200
G01 X99.2955 Z-6.0000 F1200
G01 X96.1950 F1200
G01 X96.0758 Z0.0000 F1200
G01 X11.1698 F1200
G01 X10.8120 Z-10.5250 F1200
G01 Y43.2480 F1200
G01 X11.1698 Z0.0000 F1200
G01 X96.0758 F1200
G01 X96.1950 Z-6.0000 F1200
G01 X99.2955 F1200
G01 X99.4148 Z0.0000 F1200
G01 X449.2943 F1200
G01 X449.6520 Z-10.5250 F1200
G01 Y43.7250 F1200
G01 X449.2943 Z0.0000 F1200
G01 X99.4148 F1200
G01 X99.2955 Z-6.0000 F1200
G01 X96.1950 F1200
G01 X96.0758 Z0.0000 F1200
G01 X11.1698 F1200
G01 X10.8120 Z-10.5250 F1200
G01 Y44.2020 F1200
G01 X11.1698 Z0.0000 F1200
G01 X96.0758 F1200
G01 X96.1950 Z-6.0000 F1200
G01 X99.2955 F1200
G01 X99.4148 Z0.0000 F1200
G01 X449.2943 F1200
G01 X449.6520 Z-10.5250 F1200
G01 Y44.6790 F1200
G01 X449.2943 Z0.0000 F1200
G01 X99.4148 F1200
G01 X99.2955 Z-6.0000 F1200
G01 X96.1950 F1200
G01 X96.0758 Z0.0000 F1200
G01 X11.1698 F1200
G01 X10.8120 Z-10.5250 F1200
G01 Y45.1560 F1200
G01 X11.1698 Z0.0000 F1200
G01 X96.0758 F1200
G01 X96.1950 Z-6.0000 F1200
G01 X99.2955 F1200
G01 X99.4148 Z0.0000 F1200
G01 X449.2943 F1200
G01 X449.6520 Z-10.5250 F1200
G01 Y45.6330 F1200
G01 X449.2943 Z0.0000 F1200
G01 X99.4148 F1200
G01 X99.2955 Z-6.0000 F1200
G01 X96.1950 F1200
G01 X96.0758 Z0.0000 F1200
G01 X11.1698 F1200
G01 X10.8120 Z-10.5250 F1200
G01 Y46.1100 F1200
G01 X11.1698 Z0.0000 F1200
G01 X96.0758 F1200
G01 X96.1950 Z-6.0000 F1200
G01 X99.2955 F1200
G01 X99.4148 Z0.0000 F1200
G01 X449.2943 F1200
G01 X449.6520 Z-10.5250 F1200
G01 Y46.5870 F1200
G01 X449.2943 Z0.0000 F1200
G01 X99.4148 F1200
G01 X99.2955 Z-6.0000 F1200
G01 X96.1950 F1200
G01 X96.0758 Z0.0000 F1200
G01 X11.1698 F1200
G01 X10.8120 Z-10.5250 F1200
G01 Y47.0640 F1200
G01 X11.1698 Z0.0000 F1200
G01 X96.0758 F1200
G01 X96.1950 Z-6.0000 F1200
G01 X99.2955 F1200
G01 X99.4148 Z0.0000 F1200
G01 X449.2943 F1200
G01 X449.6520 Z-10.5250 F1200
G01 Y47.5410 F1200
G01 X449.2943 Z0.0000 F1200
G01 X99.4148 F1200
G01 X99.2955 Z-6.0000 F1200
G01 X96.1950 F1200
G01 X96.0758 Z0.0000 F1200
G01 X11.1698 F1200
G01 X10.8120 Z-10.5250 F1200
G01 Y48.0180 F1200
G01 X11.1698 Z0.0000 F1200
G01 X96.0758 F1200
G01 X96.1950 Z-6.0000 F1200
G01 X99.2955 F1200
G01 X99.4148 Z0.0000 F1200
G01 X449.2943 F1200
G01 X449.6520 Z-10.5250 F1200
G01 Y48.4950 F1200
G01 X449.2943 Z0.0000 F1200
G01 X99.4148 F1200
G01 X99.2955 Z-6.0000 F1200
G01 X96.1950 F1200
G01 X96.0758 Z0.0000 F1200
G01 X11.1698 F1200
G01 X10.8120 Z-10.5250 F1200
G01 Y48.9720 F1200
G01 X11.1698 Z0.0000 F1200
G01 X96.0758 F1200
G01 X96.1950 Z-6.0000 F1200
G01 X99.2955 F1200
G01 X99.4148 Z0.0000 F1200
G01 X449.2943 F1200
G01 X449.6520 Z-10.5250 F1200
G01 Y49.4490 F1200
G01 X449.2943 Z0.0000 F1200
G01 X99.4148 F1200
G01 X99.2955 Z-6.0000 F1200
G01 X96.1950 F1200
G01 X96.0758 Z0.0000 F1200
G01 X11.1698 F1200
G01 X10.8120 Z-10.5250 F1200
G01 Y49.9260 F1200
G01 X11.1698 Z0.0000 F1200
G01 X96.0758 F1200
G01 X96.1950 Z-6.0000 F1200
G01 X99.2955 F1200
G01 X99.4148 Z0.0000 F1200
G01 X449.2943 F1200
G01 X449.6520 Z-10.5250 F1200
G01 Y50.4030 F1200
G01 X449.2943 Z0.0000 F1200
G01 X99.4148 F1200
G01 X99.2955 Z-6.0000 F1200
G01 X96.1950 F1200
G01 X96.0758 Z0.0000 F1200
G01 X11.1698 F1200
G01 X10.8120 Z-10.5250 F1200
G01 Y50.8800 F1200
G01 X11.1698 Z0.0000 F1200
G01 X96.0758 F1200
G01 X96.1950 Z-6.0000 F1200
G01 X99.2955 F1200
G01 X99.4148 Z0.0000 F1200
G01 X449.2943 F1200
G01 X449.6520 Z-10.5250 F1200
G01 Y51.3570 F1200
G01 X449.2943 Z0.0000 F1200
G01 X99.4148 F1200
G01 X99.2955 Z-6.0000 F1200
G01 X96.1950 F1200
G01 X96.0758 Z0.0000 F1200
G01 X11.1698 F1200
G01 X10.8120 Z-10.5250 F1200
G01 Y51.8340 F1200
G01 X11.1698 Z0.0000 F1200
G01 X96.0758 F1200
G01 X96.1950 Z-6.0000 F1200
G01 X99.2955 F1200
G01 X99.4148 Z0.0000 F1200
G01 X449.2943 F1200
G01 X449.6520 Z-10.5250 F1200
G01 Y52.3110 F1200
G01 X449.2943 Z0.0000 F1200
G01 X99.4148 F1200
G01 X99.2955 Z-6.0000 F1200
G01 X96.1950 F1200
G01 X96.0758 Z0.0000 F1200
G01 X11.1698 F1200
G01 X10.8120 Z-10.5250 F1200
G01 Y52.7880 F1200
G01 X11.1698 Z0.0000 F1200
G01 X96.0758 F1200
G01 X96.1950 Z-6.0000 F1200
G01 X99.2955 F1200
G01 X99.4148 Z0.0000 F1200
G01 X449.2943 F1200
G01 X449.6520 Z-10.5250 F1200
G01 Y53.2650 F1200
G01 X449.2943 Z0.0000 F1200
G01 X99.4148 F1200
G01 X99.2955 Z-6.0000 F1200
G01 X96.1950 F1200
G01 X96.0758 Z0.0000 F1200
G01 X11.1698 F1200
G01 X10.8120 Z-10.5250 F1200
G01 Y53.7420 F1200
G01 X11.1698 Z0.0000 F1200
G01 X96.0758 F1200
G01 X96.1950 Z-6.0000 F1200
G01 X99.2955 F1200
G01 X99.4148 Z0.0000 F1200
G01 X449.2943 F1200
G01 X449.6520 Z-10.5250 F1200
G01 Y54.2190 F1200
G01 X449.2943 Z0.0000 F1200
G01 X99.4148 F1200
G01 X99.2955 Z-6.0000 F1200
G01 X96.1950 F1200
G01 X96.0758 Z0.0000 F1200
G01 X11.1698 F1200
G01 X10.8120 Z-10.5250 F1200
G01 Y54.6960 F1200
G01 X11.1698 Z0.0000 F1200
G01 X96.0758 F1200
G01 X96.1950 Z-6.0000 F1200
G01 X99.2955 F1200
G01 X99.4148 Z0.0000 F1200
G01 X449.2943 F1200
G01 X449.6520 Z-10.5250 F1200
G01 Y55.1730 F1200
G01 X449.2943 Z0.0000 F1200
G01 X99.4148 F1200
G01 X99.2955 Z-6.0000 F1200
G01 X96.1950 F1200
G01 X96.0758 Z0.0000 F1200
G01 X11.1698 F1200
G01 X10.8120 Z-10.5250 F1200
G01 Y55.6500 F1200
G01 X11.1698 Z0.0000 F1200
G01 X96.0758 F1200
G01 X96.1950 Z-6.0000 F1200
G01 X99.2955 F1200
G01 X99.4148 Z0.0000 F1200
G01 X449.2943 F1200
G01 X449.6520 Z-10.5250 F1200
G01 Y56.1270 F1200
G01 X449.2943 Z0.0000 F1200
G01 X99.4148 F1200
G01 X99.2955 Z-6.0000 F1200
G01 X96.1950 F1200
G01 X96.0758 Z0.0000 F1200
G01 X11.1698 F1200
G01 X10.8120 Z-10.5250 F1200
G01 Y56.6040 F1200
G01 X11.1698 Z0.0000 F1200
G01 X96.0758 F1200
G01 X96.1950 Z-6.0000 F1200
G01 X99.2955 F1200
G01 X99.4148 Z0.0000 F1200
G01 X449.2943 F1200
G01 X449.6520 Z-10.5250 F1200
G01 Y57.0810 F1200
G01 X449.2943 Z0.0000 F1200
G01 X99.4148 F1200
G01 X99.2955 Z-6.0000 F1200
G01 X96.1950 F1200
G01 X96.0758 Z0.0000 F1200
G01 X11.1698 F1200
G01 X10.8120 Z-10.5250 F1200
G01 Y57.5580 F1200
G01 X11.1698 Z0.0000 F1200
G01 X96.0758 F1200
G01 X96.1950 Z-6.0000 F1200
G01 X99.2955 F1200
G01 X99.4148 Z0.0000 F1200
G01 X449.2943 F1200
G01 X449.6520 Z-10.5250 F1200
G01 Y58.0350 F1200
G01 X449.2943 Z0.0000 F1200
G01 X99.4148 F1200
G01 X99.2955 Z-6.0000 F1200
G01 X96.1950 F1200
G01 X96.0758 Z0.0000 F1200
G01 X11.1698 F1200
G01 X10.8120 Z-10.5250 F1200
G01 Y58.5120 F1200
G01 X11.1698 Z0.0000 F1200
G01 X96.0758 F1200
G01 X96.1950 Z-6.0000 F1200
G01 X99.2955 F1200
G01 X99.4148 Z0.0000 F1200
G01 X449.2943 F1200
G01 X449.6520 Z-10.5250 F1200
G01 Y58.9890 F1200
G01 X449.2943 Z0.0000 F1200
G01 X99.4148 F1200
G01 X99.2955 Z-6.0000 F1200
G01 X96.1950 F1200
G01 X96.0758 Z0.0000 F1200
G01 X11.1698 F1200
G01 X10.8120 Z-10.5250 F1200
G01 Y59.4660 F1200
G01 X11.1698 Z0.0000 F1200
G01 X96.0758 F1200
G01 X96.1950 Z-6.0000 F1200
G01 X99.2955 F1200
G01 X99.4148 Z0.0000 F1200
G01 X449.2943 F1200
G01 X449.6520 Z-10.5250 F1200
G01 Y59.9430 F1200
G01 X449.2943 Z0.0000 F1200
G01 X99.4148 F1200
G01 X99.2955 Z-6.0000 F1200
G01 X96.1950 F1200
G01 X96.0758 Z0.0000 F1200
G01 X11.1698 F1200
G01 X10.8120 Z-10.5250 F1200
G01 Y60.4200 F1200
G01 X11.1698 Z0.0000 F1200
G01 X96.0758 F1200
G01 X96.1950 Z-6.0000 F1200
G01 X99.2955 F1200
G01 X99.4148 Z0.0000 F1200
G01 X449.2943 F1200
G01 X449.6520 Z-10.5250 F1200
G01 Y60.8970 F1200
G01 X449.2943 Z0.0000 F1200
G01 X99.4148 F1200
G01 X99.2955 Z-6.0000 F1200
G01 X96.1950 F1200
G01 X96.0758 Z0.0000 F1200
G01 X11.1698 F1200
G01 X10.8120 Z-10.5250 F1200
G01 Y61.3740 F1200
G01 X11.1698 Z0.0000 F1200
G01 X96.0758 F1200
G01 X96.1950 Z-6.0000 F1200
G01 X99.2955 F1200
G01 X99.4148 Z0.0000 F1200
G01 X449.2943 F1200
G01 X449.6520 Z-10.5250 F1200
G01 Y61.8510 F1200
G01 X449.2943 Z0.0000 F1200
G01 X99.4148 F1200
G01 X99.2955 Z-6.0000 F1200
G01 X96.1950 F1200
G01 X96.0758 Z0.0000 F1200
G01 X11.1698 F1200
G01 X10.8120 Z-10.5250 F1200
G01 Y62.3280 F1200
G01 X11.1698 Z0.0000 F1200
G01 X96.0758 F1200
G01 X96.1950 Z-6.0000 F1200
G01 X99.2955 F1200
G01 X99.4148 Z0.0000 F1200
G01 X449.2943 F1200
G01 X449.6520 Z-10.5250 F1200
G01 Y62.8050 F1200
G01 X449.2943 Z0.0000 F1200
G01 X99.4148 F1200
G01 X99.2955 Z-6.0000 F1200
G01 X96.1950 F1200
G01 X96.0758 Z0.0000 F1200
G01 X11.1698 F1200
G01 X10.8120 Z-10.5250 F1200
G01 Y63.2820 F1200
G01 X11.1698 Z0.0000 F1200
G01 X96.0758 F1200
G01 X96.1950 Z-6.0000 F1200
G01 X99.2955 F1200
G01 X99.4148 Z0.0000 F1200
G01 X449.2943 F1200
G01 X449.6520 Z-10.5250 F1200
G01 Y63.7590 F1200
G01 X449.2943 Z0.0000 F1200
G01 X99.4148 F1200
G01 X99.2955 Z-6.0000 F1200
G01 X96.1950 F1200
G01 X96.0758 Z0.0000 F1200
G01 X11.1698 F1200
G01 X10.8120 Z-10.5250 F1200
G01 Y64.2360 F1200
G01 X11.1698 Z0.0000 F1200
G01 X96.0758 F1200
G01 X96.1950 Z-6.0000 F1200
G01 X99.2955 F1200
G01 X99.4148 Z0.0000 F1200
G01 X449.2943 F1200
G01 X449.6520 Z-10.5250 F1200
G01 Y64.7130 F1200
G01 X449.2943 Z0.0000 F1200
G01 X99.4148 F1200
G01 X99.2955 Z-6.0000 F1200
G01 X96.1950 F1200
G01 X96.0758 Z0.0000 F1200
G01 X11.1698 F1200
G01 X10.8120 Z-10.5250 F1200
G01 Y65.1900 F1200
G01 X11.1698 Z0.0000 F1200
G01 X96.0758 F1200
G01 X96.1950 Z-6.0000 F1200
G01 X99.2955 F1200
G01 X99.4148 Z0.0000 F1200
G01 X449.2943 F1200
G01 X449.6520 Z-10.5250 F1200
G01 Y65.6670 F1200
G01 X449.2943 Z0.0000 F1200
G01 X99.4148 F1200
G01 X99.2955 Z-6.0000 F1200
G01 X96.1950 F1200
G01 X96.0758 Z0.0000 F1200
G01 X11.1698 F1200
G01 X10.8120 Z-10.5250 F1200
G01 Y66.1440 F1200
G01 X11.1698 Z0.0000 F1200
G01 X96.0758 F1200
G01 X96.1950 Z-6.0000 F1200
G01 X99.2955 F1200
G01 X99.4148 Z0.0000 F1200
G01 X449.2943 F1200
G01 X449.6520 Z-10.5250 F1200
G01 Y66.6210 F1200
G01 X449.2943 Z0.0000 F1200
G01 X99.4148 F1200
G01 X99.2955 Z-6.0000 F1200
G01 X96.1950 F1200
G01 X96.0758 Z0.0000 F1200
G01 X11.1698 F1200
G01 X10.8120 Z-10.5250 F1200
G01 Y67.0980 F1200
G01 X11.1698 Z0.0000 F1200
G01 X96.0758 F1200
G01 X96.1950 Z-6.0000 F1200
G01 X99.2955 F1200
G01 X99.4148 Z0.0000 F1200
G01 X449.2943 F1200
G01 X449.6520 Z-10.5250 F1200
G01 Y67.5750 F1200
G01 X449.2943 Z0.0000 F1200
G01 X99.4148 F1200
G01 X99.2955 Z-6.0000 F1200
G01 X96.1950 F1200
G01 X96.0758 Z0.0000 F1200
G01 X11.1698 F1200
G01 X10.8120 Z-10.5250 F1200
G01 Y68.0520 F1200
G01 X11.1698 Z0.0000 F1200
G01 X96.0758 F1200
G01 X96.1950 Z-6.0000 F1200
G01 X99.2955 F1200
G01 X99.4148 Z0.0000 F1200
G01 X449.2943 F1200
G01 X449.6520 Z-10.5250 F1200
G01 Y68.5290 F1200
G01 X449.2943 Z0.0000 F1200
G01 X99.4148 F1200
G01 X99.2955 Z-6.0000 F1200
G01 X96.1950 F1200
G01 X96.0758 Z0.0000 F1200
G01 X11.1698 F1200
G01 X10.8120 Z-10.5250 F1200
G01 Y69.0060 F1200
G01 X11.1698 Z0.0000 F1200
G01 X96.0758 F1200
G01 X96.1950 Z-6.0000 F1200
G01 X99.2955 F1200
G01 X99.4148 Z0.0000 F1200
G01 X449.2943 F1200
G01 X449.6520 Z-10.5250 F1200
G01 Y69.4830 F1200
G01 X449.2943 Z0.0000 F1200
G01 X99.4148 F1200
G01 X99.2955 Z-6.0000 F1200
G01 X96.1950 F1200
G01 X96.0758 Z0.0000 F1200
G01 X11.1698 F1200
G01 X10.8120 Z-10.5250 F1200
G01 Y69.9600 F1200
G01 X11.1698 Z0.0000 F1200
G01 X96.0758 F1200
G01 X96.1950 Z-6.0000 F1200
G01 X99.2955 F1200
G01 X99.4148 Z0.0000 F1200
G01 X449.2943 F1200
G01 X449.6520 Z-10.5250 F1200
G01 Y70.4370 F1200
G01 X449.2943 Z0.0000 F1200
G01 X99.4148 F1200
G01 X99.2955 Z-6.0000 F1200
G01 X96.1950 F1200
G01 X96.0758 Z0.0000 F1200
G01 X11.1698 F1200
G01 X10.8120 Z-10.5250 F1200
G01 Y70.9140 F1200
G01 X11.1698 Z0.0000 F1200
G01 X96.0758 F1200
G01 X96.1950 Z-6.0000 F1200
G01 X99.2955 F1200
G01 X99.4148 Z0.0000 F1200
G01 X449.2943 F1200
G01 X449.6520 Z-10.5250 F1200
G01 Y71.3910 F1200
G01 X449.2943 Z0.0000 F1200
G01 X99.4148 F1200
G01 X99.2955 Z-6.0000 F1200
G01 X96.1950 F1200
G01 X96.0758 Z0.0000 F1200
G01 X11.1698 F1200
G01 X10.8120 Z-10.5250 F1200
G01 Y71.8680 F1200
G01 X11.1698 Z0.0000 F1200
G01 X96.0758 F1200
G01 X96.1950 Z-6.0000 F1200
G01 X99.2955 F1200
G01 X99.4148 Z0.0000 F1200
G01 X449.2943 F1200
G01 X449.6520 Z-10.5250 F1200
G01 Y72.3450 F1200
G01 X449.2943 Z0.0000 F1200
G01 X99.4148 F1200
G01 X99.2955 Z-6.0000 F1200
G01 X96.1950 F1200
G01 X96.0758 Z0.0000 F1200
G01 X11.1698 F1200
G01 X10.8120 Z-10.5250 F1200
G01 Y72.8220 F1200
G01 X11.1698 Z0.0000 F1200
G01 X96.0758 F1200
G01 X96.1950 Z-6.0000 F1200
G01 X99.2955 F1200
G01 X99.4148 Z0.0000 F1200
G01 X449.2943 F1200
G01 X449.6520 Z-10.5250 F1200
G01 Y73.2990 F1200
G01 X449.2943 Z0.0000 F1200
G01 X99.4148 F1200
G01 X99.2955 Z-6.0000 F1200
G01 X96.1950 F1200
G01 X96.0758 Z0.0000 F1200
G01 X11.1698 F1200
G01 X10.8120 Z-10.5250 F1200
G01 Y73.7760 F1200
G01 X11.1698 Z0.0000 F1200
G01 X96.0758 F1200
G01 X96.1950 Z-6.0000 F1200
G01 X99.2955 F1200
G01 X99.4148 Z0.0000 F1200
G01 X449.2943 F1200
G01 X449.6520 Z-10.5250 F1200
G01 Y74.2530 F1200
G01 X449.2943 Z0.0000 F1200
G01 X99.4148 F1200
G01 X99.2955 Z-6.0000 F1200
G01 X96.1950 F1200
G01 X96.0758 Z0.0000 F1200
G01 X11.1698 F1200
G01 X10.8120 Z-10.5250 F1200
G01 Y74.7300 F1200
G01 X11.1698 Z0.0000 F1200
G01 X96.0758 F1200
G01 X96.1950 Z-6.0000 F1200
G01 X99.2955 F1200
G01 X99.4148 Z0.0000 F1200
G01 X449.2943 F1200
G01 X449.6520 Z-10.5250 F1200
G01 Y75.2070 F1200
G01 X449.2943 Z0.0000 F1200
G01 X99.4148 F1200
G01 X99.2955 Z-6.0000 F1200
G01 X96.1950 F1200
G01 X96.0758 Z0.0000 F1200
G01 X11.1698 F1200
G01 X10.8120 Z-10.5250 F1200
G01 Y75.6840 F1200
G01 X11.1698 Z0.0000 F1200
G01 X96.0758 F1200
G01 X96.1950 Z-6.0000 F1200
G01 X99.2955 F1200
G01 X99.4148 Z0.0000 F1200
G01 X449.2943 F1200
G01 X449.6520 Z-10.5250 F1200
G01 Y76.1610 F1200
G01 X449.2943 Z0.0000 F1200
G01 X99.4148 F1200
G01 X99.2955 Z-6.0000 F1200
G01 X96.1950 F1200
G01 X96.0758 Z0.0000 F1200
G01 X11.1698 F1200
G01 X10.8120 Z-10.5250 F1200
G01 Y76.6380 F1200
G01 X11.1698 Z0.0000 F1200
G01 X96.0758 F1200
G01 X96.1950 Z-6.0000 F1200
G01 X99.2955 F1200
G01 X99.4148 Z0.0000 F1200
G01 X449.2943 F1200
G01 X449.6520 Z-10.5250 F1200
G01 Y77.1150 F1200
G01 X449.2943 Z0.0000 F1200
G01 X99.4148 F1200
G01 X99.2955 Z-6.0000 F1200
G01 X96.1950 F1200
G01 X96.0758 Z0.0000 F1200
G01 X11.1698 F1200
G01 X10.8120 Z-10.5250 F1200
G01 Y77.5920 F1200
G01 X11.1698 Z0.0000 F1200
G01 X96.0758 F1200
G01 X96.1950 Z-6.0000 F1200
G01 X99.2955 F1200
G01 X99.4148 Z0.0000 F1200
G01 X449.2943 F1200
G01 X449.6520 Z-10.5250 F1200
G01 Y78.0690 F1200
G01 X449.2943 Z0.0000 F1200
G01 X99.4148 F1200
G01 X99.2955 Z-6.0000 F1200
G01 X96.1950 F1200
G01 X96.0758 Z0.0000 F1200
G01 X11.1698 F1200
G01 X10.8120 Z-10.5250 F1200
G01 Y78.5460 F1200
G01 X11.1698 Z0.0000 F1200
G01 X96.0758 F1200
G01 X96.1950 Z-6.0000 F1200
G01 X99.2955 F1200
G01 X99.4148 Z0.0000 F1200
G01 X449.2943 F1200
G01 X449.6520 Z-10.5250 F1200
G01 Y79.0230 F1200
G01 X449.2943 Z0.0000 F1200
G01 X99.4148 F1200
G01 X99.2955 Z-6.0000 F1200
G01 X96.1950 F1200
G01 X96.0758 Z0.0000 F1200
G01 X11.1698 F1200
G01 X10.8120 Z-10.5250 F1200
G01 Y79.5000 F1200
G01 X11.1698 Z0.0000 F1200
G01 X96.0758 F1200
G01 X96.1950 Z-6.0000 F1200
G01 X99.2955 F1200
G01 X99.4148 Z0.0000 F1200
G01 X449.2943 F1200
G01 X449.6520 Z-10.5250 F1200
G01 Y79.9770 F1200
G01 X449.2943 Z0.0000 F1200
G01 X99.4148 F1200
G01 X99.2955 Z-6.0000 F1200
G01 X96.1950 F1200
G01 X96.0758 Z0.0000 F1200
G01 X11.1698 F1200
G01 X10.8120 Z-10.5250 F1200
G01 Y80.4540 F1200
G01 X11.1698 Z0.0000 F1200
G01 X96.0758 F1200
G01 X96.1950 Z-6.0000 F1200
G01 X99.2955 F1200
G01 X99.4148 Z0.0000 F1200
G01 X449.2943 F1200
G01 X449.6520 Z-10.5250 F1200
G01 Y80.9310 F1200
G01 X449.2943 Z0.0000 F1200
G01 X99.4148 F1200
G01 X99.2955 Z-6.0000 F1200
G01 X96.1950 F1200
G01 X96.0758 Z0.0000 F1200
G01 X11.1698 F1200
G01 X10.8120 Z-10.5250 F1200
G01 Y81.4080 F1200
G01 X11.1698 Z0.0000 F1200
G01 X96.0758 F1200
G01 X96.1950 Z-6.0000 F1200
G01 X99.2955 F1200
G01 X99.4148 Z0.0000 F1200
G01 X449.2943 F1200
G01 X449.6520 Z-10.5250 F1200
G01 Y81.8850 F1200
G01 X449.2943 Z0.0000 F1200
G01 X99.4148 F1200
G01 X99.2955 Z-6.0000 F1200
G01 X96.1950 F1200
G01 X96.0758 Z0.0000 F1200
G01 X11.1698 F1200
G01 X10.8120 Z-10.5250 F1200
G01 Y82.3620 F1200
G01 X11.1698 Z0.0000 F1200
G01 X96.0758 F1200
G01 X96.1950 Z-6.0000 F1200
G01 X99.2955 F1200
G01 X99.4148 Z0.0000 F1200
G01 X449.2943 F1200
G01 X449.6520 Z-10.5250 F1200
G01 Y82.8390 F1200
G01 X449.2943 Z0.0000 F1200
G01 X99.4148 F1200
G01 X99.2955 Z-6.0000 F1200
G01 X96.1950 F1200
G01 X96.0758 Z0.0000 F1200
G01 X11.1698 F1200
G01 X10.8120 Z-10.5250 F1200
G01 Y83.3160 F1200
G01 X11.1698 Z0.0000 F1200
G01 X96.0758 F1200
G01 X96.1950 Z-6.0000 F1200
G01 X99.2955 F1200
G01 X99.4148 Z0.0000 F1200
G01 X449.2943 F1200
G01 X449.6520 Z-10.5250 F1200
G01 Y83.7930 F1200
G01 X449.2943 Z0.0000 F1200
G01 X99.4148 F1200
G01 X99.2955 Z-6.0000 F1200
G01 X96.1950 F1200
G01 X96.0758 Z0.0000 F1200
G01 X11.1698 F1200
G01 X10.8120 Z-10.5250 F1200
G01 Y84.2700 F1200
G01 X11.1698 Z0.0000 F1200
G01 X96.0758 F1200
G01 X96.1950 Z-6.0000 F1200
G01 X99.2955 F1200
G01 X99.4148 Z0.0000 F1200
G01 X449.2943 F1200
G01 X449.6520 Z-10.5250 F1200
G01 Y84.7470 F1200
G01 X449.2943 Z0.0000 F1200
G01 X99.4148 F1200
G01 X99.2955 Z-6.0000 F1200
G01 X96.1950 F1200
G01 X96.0758 Z0.0000 F1200
G01 X11.1698 F1200
G01 X10.8120 Z-10.5250 F1200
G01 Y85.2240 F1200
G01 X11.1698 Z0.0000 F1200
G01 X96.0758 F1200
G01 X96.1950 Z-6.0000 F1200
G01 X99.2955 F1200
G01 X99.4148 Z0.0000 F1200
G01 X449.2943 F1200
G01 X449.6520 Z-10.5250 F1200
G01 Y85.7010 F1200
G01 X449.2943 Z0.0000 F1200
G01 X99.4148 F1200
G01 X99.2955 Z-6.0000 F1200
G01 X96.1950 F1200
G01 X96.0758 Z0.0000 F1200
G01 X11.1698 F1200
G01 X10.8120 Z-10.5250 F1200
G01 Y86.1780 F1200
G01 X11.1698 Z0.0000 F1200
G01 X96.0758 F1200
G01 X96.1950 Z-6.0000 F1200
G01 X99.2955 F1200
G01 X99.4148 Z0.0000 F1200
G01 X449.2943 F1200
G01 X449.6520 Z-10.5250 F1200
G01 Y86.6550 F1200
G01 X449.2943 Z0.0000 F1200
G01 X99.4148 F1200
G01 X99.2955 Z-6.0000 F1200
G01 X96.1950 F1200
G01 X96.0758 Z0.0000 F1200
G01 X11.1698 F1200
G01 X10.8120 Z-10.5250 F1200
G01 Y87.1320 F1200
G01 X11.1698 Z0.0000 F1200
G01 X96.0758 F1200
G01 X96.1950 Z-6.0000 F1200
G01 X99.2955 F1200
G01 X99.4148 Z0.0000 F1200
G01 X449.2943 F1200
G01 X449.6520 Z-10.5250 F1200
G01 Y87.6090 F1200
G01 X449.2943 Z0.0000 F1200
G01 X99.4148 F1200
G01 X99.2955 Z-6.0000 F1200
G01 X96.1950 F1200
G01 X96.0758 Z0.0000 F1200
G01 X11.1698 F1200
G01 X10.8120 Z-10.5250 F1200
G01 Y88.0860 F1200
G01 X11.1698 Z0.0000 F1200
G01 X96.0758 F1200
G01 X96.1950 Z-6.0000 F1200
G01 X99.2955 F1200
G01 X99.4148 Z0.0000 F1200
G01 X449.2943 F1200
G01 X449.6520 Z-10.5250 F1200
G01 Y88.5630 F1200
G01 X449.2943 Z0.0000 F1200
G01 X99.4148 F1200
G01 X99.2955 Z-6.0000 F1200
G01 X96.1950 F1200
G01 X96.0758 Z0.0000 F1200
G01 X11.1698 F1200
G01 X10.8120 Z-10.5250 F1200
G01 Y89.0400 F1200
G01 X11.1698 Z0.0000 F1200
G01 X96.0758 F1200
G01 X96.1950 Z-6.0000 F1200
G01 X99.2955 F1200
G01 X99.4148 Z0.0000 F1200
G01 X449.2943 F1200
G01 X449.6520 Z-10.5250 F1200
G01 Y89.5170 F1200
G01 X449.2943 Z0.0000 F1200
G01 X99.4148 F1200
G01 X99.2955 Z-6.0000 F1200
G01 X96.1950 F1200
G01 X96.0758 Z0.0000 F1200
G01 X11.1698 F1200
G01 X10.8120 Z-10.5250 F1200
G01 Y89.9940 F1200
G01 X11.1698 Z0.0000 F1200
G01 X96.0758 F1200
G01 X96.1950 Z-6.0000 F1200
G01 X99.2955 F1200
G01 X99.4148 Z0.0000 F1200
G01 X449.2943 F1200
G01 X449.6520 Z-10.5250 F1200
G01 Y90.4710 F1200
G01 X449.2943 Z0.0000 F1200
G01 X99.4148 F1200
G01 X99.2955 Z-6.0000 F1200
G01 X96.1950 F1200
G01 X96.0758 Z0.0000 F1200
G01 X11.1698 F1200
G01 X10.8120 Z-10.5250 F1200
G01 Y90.9480 F1200
G01 X11.1698 Z0.0000 F1200
G01 X96.0758 F1200
G01 X96.1950 Z-6.0000 F1200
G01 X99.2955 F1200
G01 X99.4148 Z0.0000 F1200
G01 X449.2943 F1200
G01 X449.6520 Z-10.5250 F1200
G01 Y91.4250 F1200
G01 X449.2943 Z0.0000 F1200
G01 X99.4148 F1200
G01 X99.2955 Z-6.0000 F1200
G01 X96.1950 F1200
G01 X96.0758 Z0.0000 F1200
G01 X11.1698 F1200
G01 X10.8120 Z-10.5250 F1200
G01 Y91.9020 F1200
G01 X11.1698 Z0.0000 F1200
G01 X96.0758 F1200
G01 X96.1950 Z-6.0000 F1200
G01 X99.2955 F1200
G01 X99.4148 Z0.0000 F1200
G01 X449.2943 F1200
G01 X449.6520 Z-10.5250 F1200
G01 Y92.3790 F1200
G01 X449.2943 Z0.0000 F1200
G01 X99.4148 F1200
G01 X99.2955 Z-6.0000 F1200
G01 X96.1950 F1200
G01 X96.0758 Z0.0000 F1200
G01 X11.1698 F1200
G01 X10.8120 Z-10.5250 F1200
G01 Y92.8560 F1200
G01 X11.1698 Z0.0000 F1200
G01 X96.0758 F1200
G01 X96.1950 Z-6.0000 F1200
G01 X99.2955 F1200
G01 X99.4148 Z0.0000 F1200
G01 X449.2943 F1200
G01 X449.6520 Z-10.5250 F1200
G01 Y93.3330 F1200
G01 X449.2943 Z0.0000 F1200
G01 X99.4148 F1200
G01 X99.2955 Z-6.0000 F1200
G01 X96.1950 F1200
G01 X96.0758 Z0.0000 F1200
G01 X11.1698 F1200
G01 X10.8120 Z-10.5250 F1200
G01 Y93.8100 F1200
G01 X11.1698 Z0.0000 F1200
G01 X96.0758 F1200
G01 X96.1950 Z-6.0000 F1200
G01 X99.2955 F1200
G01 X99.4148 Z0.0000 F1200
G01 X449.2943 F1200
G01 X449.6520 Z-10.5250 F1200
G01 Y94.2870 F1200
G01 X449.2943 Z0.0000 F1200
G01 X99.4148 F1200
G01 X99.2955 Z-6.0000 F1200
G01 X96.1950 F1200
G01 X96.0758 Z0.0000 F1200
G01 X11.1698 F1200
G01 X10.8120 Z-10.5250 F1200
G01 Y94.7640 F1200
G01 X11.1698 Z0.0000 F1200
G01 X96.0758 F1200
G01 X96.1950 Z-6.0000 F1200
G01 X99.2955 F1200
G01 X99.4148 Z0.0000 F1200
G01 X449.2943 F1200
G01 X449.6520 Z-10.5250 F1200
G01 Y95.2410 F1200
G01 X449.2943 Z0.0000 F1200
G01 X99.4148 F1200
G01 X99.2955 Z-6.0000 F1200
G01 X96.1950 F1200
G01 X96.0758 Z0.0000 F1200
G01 X11.1698 F1200
G01 X10.8120 Z-10.5250 F1200
G01 Y95.7180 F1200
G01 X11.1698 Z0.0000 F1200
G01 X96.0758 F1200
G01 X96.1950 Z-6.0000 F1200
G01 X99.2955 F1200
G01 X99.4148 Z0.0000 F1200
G01 X449.2943 F1200
G01 X449.6520 Z-10.5250 F1200
G01 Y96.1950 F1200
G01 X449.2943 Z0.0000 F1200
G01 X99.4148 F1200
G01 X99.2955 Z-6.0000 F1200
G01 X96.1950 F1200
G01 X96.0758 Z0.0000 F1200
G01 X11.1698 F1200
G01 X10.8120 Z-10.5250 F1200
G01 Y96.6720 F1200
G01 X11.1698 Z0.0000 F1200
G01 X96.0758 F1200
G01 X96.1950 Z-6.0000 F1200
G01 X99.2955 F1200
G01 X99.4148 Z0.0000 F1200
G01 X449.2943 F1200
G01 X449.6520 Z-10.5250 F1200
G01 Y97.1490 F1200
G01 X449.2943 Z0.0000 F1200
G01 X99.4148 F1200
G01 X99.2955 Z-6.0000 F1200
G01 X96.1950 F1200
G01 X96.0758 Z0.0000 F1200
G01 X11.1698 F1200
G01 X10.8120 Z-10.5250 F1200
G01 Y97.6260 F1200
G01 X11.1698 Z0.0000 F1200
G01 X96.0758 F1200
G01 X96.1950 Z-6.0000 F1200
G01 X99.2955 F1200
G01 X99.4148 Z0.0000 F1200
G01 X449.2943 F1200
G01 X449.6520 Z-10.5250 F1200
G01 Y98.1030 F1200
G01 X449.2943 Z0.0000 F1200
G01 X99.4148 F1200
G01 X99.2955 Z-6.0000 F1200
G01 X96.1950 F1200
G01 X96.0758 Z0.0000 F1200
G01 X11.1698 F1200
G01 X10.8120 Z-10.5250 F1200
G01 Y98.5800 F1200
G01 X11.1698 Z0.0000 F1200
G01 X96.0758 F1200
G01 X96.1950 Z-6.0000 F1200
G01 X99.2955 F1200
G01 X99.4148 Z0.0000 F1200
G01 X449.2943 F1200
G01 X449.6520 Z-10.5250 F1200
G01 Y99.0570 F1200
G01 X449.2943 Z0.0000 F1200
G01 X99.4148 F1200
G01 X99.2955 Z-6.0000 F1200
G01 X96.1950 F1200
G01 X96.0758 Z0.0000 F1200
G01 X11.1698 F1200
G01 X10.8120 Z-10.5250 F1200
G01 Y99.5340 F1200
G01 X11.1698 Z0.0000 F1200
G01 X96.0758 F1200
G01 X96.1950 Z-6.0000 F1200
G01 X99.2955 F1200
G01 X99.4148 Z0.0000 F1200
G01 X449.2943 F1200
G01 X449.6520 Z-10.5250 F1200
G01 Y100.0110 F1200
G01 X449.2943 Z0.0000 F1200
G01 X99.4148 F1200
G01 X99.2955 Z-6.0000 F1200
G01 X96.1950 F1200
G01 X96.0758 Z0.0000 F1200
G01 X11.1698 F1200
G01 X10.8120 Z-10.5250 F1200
G01 Y100.4880 F1200
G01 X11.1698 Z0.0000 F1200
G01 X96.0758 F1200
G01 X96.1950 Z-6.0000 F1200
G01 X99.2955 F1200
G01 X99.4148 Z0.0000 F1200
G01 X449.2943 F1200
G01 X449.6520 Z-10.5250 F1200
G01 Y100.9650 F1200
G01 X449.2943 Z0.0000 F1200
G01 X99.4148 F1200
G01 X99.2955 Z-6.0000 F1200
G01 X96.1950 F1200
G01 X96.0758 Z0.0000 F1200
G01 X11.1698 F1200
G01 X10.8120 Z-10.5250 F1200
G01 Y101.4420 F1200
G01 X11.1698 Z0.0000 F1200
G01 X96.0758 F1200
G01 X96.1950 Z-6.0000 F1200
G01 X99.2955 F1200
G01 X99.4148 Z0.0000 F1200
G01 X449.2943 F1200
G01 X449.6520 Z-10.5250 F1200
G01 Y101.9190 F1200
G01 X449.2943 Z0.0000 F1200
G01 X99.4148 F1200
G01 X99.2955 Z-6.0000 F1200
G01 X96.1950 F1200
G01 X96.0758 Z0.0000 F1200
G01 X11.1698 F1200
G01 X10.8120 Z-10.5250 F1200
G01 Y102.3960 F1200
G01 X11.1698 Z0.0000 F1200
G01 X96.0758 F1200
G01 X96.1950 Z-6.0000 F1200
G01 X99.2955 F1200
G01 X99.4148 Z0.0000 F1200
G01 X449.2943 F1200
G01 X449.6520 Z-10.5250 F1200
G01 Y102.8730 F1200
G01 X449.2943 Z0.0000 F1200
G01 X99.4148 F1200
G01 X99.2955 Z-6.0000 F1200
G01 X96.1950 F1200
G01 X96.0758 Z0.0000 F1200
G01 X11.1698 F1200
G01 X10.8120 Z-10.5250 F1200
G01 Y103.3500 F1200
G01 X11.1698 Z0.0000 F1200
G01 X96.0758 F1200
G01 X96.1950 Z-6.0000 F1200
G01 X99.2955 F1200
G01 X99.4148 Z0.0000 F1200
G01 X449.2943 F1200
G01 X449.6520 Z-10.5250 F1200
G01 Y103.8270 F1200
G01 X449.2943 Z0.0000 F1200
G01 X99.4148 F1200
G01 X99.2955 Z-6.0000 F1200
G01 X96.1950 F1200
G01 X96.0758 Z0.0000 F1200
G01 X11.1698 F1200
G01 X10.8120 Z-10.5250 F1200
G01 Y104.3040 F1200
G01 X11.1698 Z0.0000 F1200
G01 X96.0758 F1200
G01 X96.1950 Z-6.0000 F1200
G01 X99.2955 F1200
G01 X99.4148 Z0.0000 F1200
G01 X449.2943 F1200
G01 X449.6520 Z-10.5250 F1200
G01 Y104.7810 F1200
G01 X449.2943 Z0.0000 F1200
G01 X99.4148 F1200
G01 X99.2955 Z-6.0000 F1200
G01 X96.1950 F1200
G01 X96.0758 Z0.0000 F1200
G01 X11.1698 F1200
G01 X10.8120 Z-10.5250 F1200
G01 Y105.2580 F1200
G01 X11.1698 Z0.0000 F1200
G01 X96.0758 F1200
G01 X96.1950 Z-6.0000 F1200
G01 X99.2955 F1200
G01 X99.4148 Z0.0000 F1200
G01 X449.2943 F1200
G01 X449.6520 Z-10.5250 F1200
G01 Y105.7350 F1200
G01 X449.2943 Z0.0000 F1200
G01 X99.4148 F1200
G01 X99.2955 Z-6.0000 F1200
G01 X96.1950 F1200
G01 X96.0758 Z0.0000 F1200
G01 X11.1698 F1200
G01 X10.8120 Z-10.5250 F1200
G01 Y106.2120 F1200
G01 X11.1698 Z0.0000 F1200
G01 X96.0758 F1200
G01 X96.1950 Z-6.0000 F1200
G01 X99.2955 F1200
G01 X99.4148 Z0.0000 F1200
G01 X449.2943 F1200
G01 X449.6520 Z-10.5250 F1200
G01 Y106.6890 F1200
G01 X449.2943 Z0.0000 F1200
G01 X99.4148 F1200
G01 X99.2955 Z-6.0000 F1200
G01 X96.1950 F1200
G01 X96.0758 Z0.0000 F1200
G01 X11.1698 F1200
G01 X10.8120 Z-10.5250 F1200
G01 Y107.1660 F1200
G01 X11.1698 Z0.0000 F1200
G01 X96.0758 F1200
G01 X96.1950 Z-6.0000 F1200
G01 X99.2955 F1200
G01 X99.4148 Z0.0000 F1200
G01 X449.2943 F1200
G01 X449.6520 Z-10.5250 F1200
G01 Y107.6430 F1200
G01 X449.2943 Z0.0000 F1200
G01 X99.4148 F1200
G01 X99.2955 Z-6.0000 F1200
G01 X96.1950 F1200
G01 X96.0758 Z0.0000 F1200
G01 X11.1698 F1200
G01 X10.8120 Z-10.5250 F1200
G01 Y108.1200 F1200
G01 X11.1698 Z0.0000 F1200
G01 X96.0758 F1200
G01 X96.1950 Z-6.0000 F1200
G01 X99.2955 F1200
G01 X99.4148 Z0.0000 F1200
G01 X449.2943 F1200
G01 X449.6520 Z-10.5250 F1200
G01 Y108.5970 F1200
G01 X449.2943 Z0.0000 F1200
G01 X99.4148 F1200
G01 X99.2955 Z-6.0000 F1200
G01 X96.1950 F1200
G01 X96.0758 Z0.0000 F1200
G01 X11.1698 F1200
G01 X10.8120 Z-10.5250 F1200
G01 Y109.0740 F1200
G01 X11.1698 Z0.0000 F1200
G01 X96.0758 F1200
G01 X96.1950 Z-6.0000 F1200
G01 X99.2955 F1200
G01 X99.4148 Z0.0000 F1200
G01 X449.2943 F1200
G01 X449.6520 Z-10.5250 F1200
G01 Y109.5510 F1200
G01 X449.2943 Z0.0000 F1200
G01 X99.4148 F1200
G01 X99.2955 Z-6.0000 F1200
G01 X96.1950 F1200
G01 X96.0758 Z0.0000 F1200
G01 X11.1698 F1200
G01 X10.8120 Z-10.5250 F1200
G01 Y110.0280 F1200
G01 X11.1698 Z0.0000 F1200
G01 X96.0758 F1200
G01 X96.1950 Z-6.0000 F1200
G01 X99.2955 F1200
G01 X99.4148 Z0.0000 F1200
G01 X449.2943 F1200
G01 X449.6520 Z-10.5250 F1200
G01 Y110.5050 F1200
G01 X449.2943 Z0.0000 F1200
G01 X99.4148 F1200
G01 X99.2955 Z-6.0000 F1200
G01 X96.1950 F1200
G01 X96.0758 Z0.0000 F1200
G01 X11.1698 F1200
G01 X10.8120 Z-10.5250 F1200
G01 Y110.9820 F1200
G01 X11.1698 Z0.0000 F1200
G01 X96.0758 F1200
G01 X96.1950 Z-6.0000 F1200
G01 X99.2955 F1200
G01 X99.4148 Z0.0000 F1200
G01 X449.2943 F1200
G01 X449.6520 Z-10.5250 F1200
G01 Y111.4590 F1200
G01 X449.2943 Z0.0000 F1200
G01 X99.4148 F1200
G01 X99.2955 Z-6.0000 F1200
G01 X96.1950 F1200
G01 X96.0758 Z0.0000 F1200
G01 X11.1698 F1200
G01 X10.8120 Z-10.5250 F1200
G01 Y111.9360 F1200
G01 X11.1698 Z0.0000 F1200
G01 X96.0758 F1200
G01 X96.1950 Z-6.0000 F1200
G01 X99.2955 F1200
G01 X99.4148 Z0.0000 F1200
G01 X449.2943 F1200
G01 X449.6520 Z-10.5250 F1200
G01 Y112.4130 F1200
G01 X449.2943 Z0.0000 F1200
G01 X99.4148 F1200
G01 X99.2955 Z-6.0000 F1200
G01 X96.1950 F1200
G01 X96.0758 Z0.0000 F1200
G01 X11.1698 F1200
G01 X10.8120 Z-10.5250 F1200
G01 Y112.8900 F1200
G01 X11.1698 Z0.0000 F1200
G01 X96.0758 F1200
G01 X96.1950 Z-6.0000 F1200
G01 X99.2955 F1200
G01 X99.4148 Z0.0000 F1200
G01 X449.2943 F1200
G01 X449.6520 Z-10.5250 F1200
G01 Y113.3670 F1200
G01 X449.2943 Z0.0000 F1200
G01 X99.4148 F1200
G01 X99.2955 Z-6.0000 F1200
G01 X96.1950 F1200
G01 X96.0758 Z0.0000 F1200
G01 X11.1698 F1200
G01 X10.8120 Z-10.5250 F1200
G01 Y113.8440 F1200
G01 X11.1698 Z0.0000 F1200
G01 X96.0758 F1200
G01 X96.1950 Z-6.0000 F1200
G01 X99.2955 F1200
G01 X99.4148 Z0.0000 F1200
G01 X449.2943 F1200
G01 X449.6520 Z-10.5250 F1200
G01 Y114.3210 F1200
G01 X449.2943 Z0.0000 F1200
G01 X99.4148 F1200
G01 X99.2955 Z-6.0000 F1200
G01 X96.1950 F1200
G01 X96.0758 Z0.0000 F1200
G01 X11.1698 F1200
G01 X10.8120 Z-10.5250 F1200
G01 Y114.7980 F1200
G01 X11.1698 Z0.0000 F1200
G01 X96.0758 F1200
G01 X96.1950 Z-6.0000 F1200
G01 X99.2955 F1200
G01 X99.4148 Z0.0000 F1200
G01 X449.2943 F1200
G01 X449.6520 Z-10.5250 F1200
G01 Y115.2750 F1200
G01 X449.2943 Z0.0000 F1200
G01 X99.4148 F1200
G01 X99.2955 Z-6.0000 F1200
G01 X96.1950 F1200
G01 X96.0758 Z0.0000 F1200
G01 X11.1698 F1200
G01 X10.8120 Z-10.5250 F1200
G01 Y115.7520 F1200
G01 X11.1698 Z0.0000 F1200
G01 X96.0758 F1200
G01 X96.1950 Z-6.0000 F1200
G01 X99.2955 F1200
G01 X99.4148 Z0.0000 F1200
G01 X449.2943 F1200
G01 X449.6520 Z-10.5250 F1200
G01 Y116.2290 F1200
G01 X449.2943 Z0.0000 F1200
G01 X99.4148 F1200
G01 X99.2955 Z-6.0000 F1200
G01 X96.1950 F1200
G01 X96.0758 Z0.0000 F1200
G01 X11.1698 F1200
G01 X10.8120 Z-10.5250 F1200
G01 Y116.7060 F1200
G01 X11.1698 Z0.0000 F1200
G01 X96.0758 F1200
G01 X96.1950 Z-6.0000 F1200
G01 X99.2955 F1200
G01 X99.4148 Z0.0000 F1200
G01 X449.2943 F1200
G01 X449.6520 Z-10.5250 F1200
G01 Y117.1830 F1200
G01 X449.2943 Z0.0000 F1200
G01 X99.4148 F1200
G01 X99.2955 Z-6.0000 F1200
G01 X96.1950 F1200
G01 X96.0758 Z0.0000 F1200
G01 X11.1698 F1200
G01 X10.8120 Z-10.5250 F1200
G01 Y117.6600 F1200
G01 X11.1698 Z0.0000 F1200
G01 X96.0758 F1200
G01 X96.1950 Z-6.0000 F1200
G01 X99.2955 F1200
G01 X99.4148 Z0.0000 F1200
G01 X449.2943 F1200
G01 X449.6520 Z-10.5250 F1200
G01 Y118.1370 F1200
G01 X449.2943 Z0.0000 F1200
G01 X99.4148 F1200
G01 X99.2955 Z-6.0000 F1200
G01 X96.1950 F1200
G01 X96.0758 Z0.0000 F1200
G01 X11.1698 F1200
G01 X10.8120 Z-10.5250 F1200
G01 Y118.6140 F1200
G01 X11.1698 Z0.0000 F1200
G01 X96.0758 F1200
G01 X96.1950 Z-6.0000 F1200
G01 X99.2955 F1200
G01 X99.4148 Z0.0000 F1200
G01 X449.2943 F1200
G01 X449.6520 Z-10.5250 F1200
G01 Y119.0910 F1200
G01 X449.2943 Z0.0000 F1200
G01 X99.4148 F1200
G01 X99.2955 Z-6.0000 F1200
G01 X96.1950 F1200
G01 X96.0758 Z0.0000 F1200
G01 X11.1698 F1200
G01 X10.8120 Z-10.5250 F1200
G01 Y119.5680 F1200
G01 X11.1698 Z0.0000 F1200
G01 X96.0758 F1200
G01 X96.1950 Z-6.0000 F1200
G01 X99.2955 F1200
G01 X99.4148 Z0.0000 F1200
G01 X449.2943 F1200
G01 X449.6520 Z-10.5250 F1200
G01 Y120.0450 F1200
G01 X449.2943 Z0.0000 F1200
G01 X99.4148 F1200
G01 X99.2955 Z-6.0000 F1200
G01 X96.1950 F1200
G01 X96.0758 Z0.0000 F1200
G01 X11.1698 F1200
G01 X10.8120 Z-10.5250 F1200
G01 Y120.5220 F1200
G01 X11.1698 Z0.0000 F1200
G01 X96.0758 F1200
G01 X96.1950 Z-6.0000 F1200
G01 X99.2955 F1200
G01 X99.4148 Z0.0000 F1200
G01 X449.2943 F1200
G01 X449.6520 Z-10.5250 F1200
G01 Y120.9990 F1200
G01 X449.2943 Z0.0000 F1200
G01 X99.4148 F1200
G01 X99.2955 Z-6.0000 F1200
G01 X96.1950 F1200
G01 X96.0758 Z0.0000 F1200
G01 X11.1698 F1200
G01 X10.8120 Z-10.5250 F1200
G01 Y121.4760 F1200
G01 X11.1698 Z0.0000 F1200
G01 X96.0758 F1200
G01 X96.1950 Z-6.0000 F1200
G01 X99.2955 F1200
G01 X99.4148 Z0.0000 F1200
G01 X449.2943 F1200
G01 X449.6520 Z-10.5250 F1200
G01 Y121.9530 F1200
G01 X449.2943 Z0.0000 F1200
G01 X99.4148 F1200
G01 X99.2955 Z-6.0000 F1200
G01 X96.1950 F1200
G01 X96.0758 Z0.0000 F1200
G01 X11.1698 F1200
G01 X10.8120 Z-10.5250 F1200
G01 Y122.4300 F1200
G01 X11.1698 Z0.0000 F1200
G01 X96.0758 F1200
G01 X96.1950 Z-6.0000 F1200
G01 X99.2955 F1200
G01 X99.4148 Z0.0000 F1200
G01 X449.2943 F1200
G01 X449.6520 Z-10.5250 F1200
G01 Y122.9070 F1200
G01 X449.2943 Z0.0000 F1200
G01 X99.4148 F1200
G01 X99.2955 Z-6.0000 F1200
G01 X96.1950 F1200
G01 X96.0758 Z0.0000 F1200
G01 X11.1698 F1200
G01 X10.8120 Z-10.5250 F1200
G01 Y123.3840 F1200
G01 X11.1698 Z0.0000 F1200
G01 X96.0758 F1200
G01 X96.1950 Z-6.0000 F1200
G01 X99.2955 F1200
G01 X99.4148 Z0.0000 F1200
G01 X449.2943 F1200
G01 X449.6520 Z-10.5250 F1200
G01 Y123.8610 F1200
G01 X449.2943 Z0.0000 F1200
G01 X99.4148 F1200
G01 X99.2955 Z-6.0000 F1200
G01 X96.1950 F1200
G01 X96.0758 Z0.0000 F1200
G01 X11.1698 F1200
G01 X10.8120 Z-10.5250 F1200
G01 Y124.3380 F1200
G01 X11.1698 Z0.0000 F1200
G01 X96.0758 F1200
G01 X96.1950 Z-6.0000 F1200
G01 X99.2955 F1200
G01 X99.4148 Z0.0000 F1200
G01 X449.2943 F1200
G01 X449.6520 Z-10.5250 F1200
G01 Y124.8150 F1200
G01 X449.2943 Z0.0000 F1200
G01 X99.4148 F1200
G01 X99.2955 Z-6.0000 F1200
G01 X96.1950 F1200
G01 X96.0758 Z0.0000 F1200
G01 X11.1698 F1200
G01 X10.8120 Z-10.5250 F1200
G01 Y125.2920 F1200
G01 X11.1698 Z0.0000 F1200
G01 X96.0758 F1200
G01 X96.1950 Z-6.0000 F1200
G01 X99.2955 F1200
G01 X99.4148 Z0.0000 F1200
G01 X449.2943 F1200
G01 X449.6520 Z-10.5250 F1200
G01 Y125.7690 F1200
G01 X449.2943 Z0.0000 F1200
G01 X99.4148 F1200
G01 X99.2955 Z-6.0000 F1200
G01 X96.1950 F1200
G01 X96.0758 Z0.0000 F1200
G01 X11.1698 F1200
G01 X10.8120 Z-10.5250 F1200
G01 Y126.2460 F1200
G01 X11.1698 Z0.0000 F1200
G01 X96.0758 F1200
G01 X96.1950 Z-6.0000 F1200
G01 X99.2955 F1200
G01 X99.4148 Z0.0000 F1200
G01 X449.2943 F1200
G01 X449.6520 Z-10.5250 F1200
G01 Y126.7230 F1200
G01 X449.2943 Z0.0000 F1200
G01 X99.4148 F1200
G01 X99.2955 Z-6.0000 F1200
G01 X96.1950 F1200
G01 X96.0758 Z0.0000 F1200
G01 X11.1698 F1200
G01 X10.8120 Z-10.5250 F1200
G01 Y127.2000 F1200
G01 X11.1698 Z0.0000 F1200
G01 X96.0758 F1200
G01 X96.1950 Z-6.0000 F1200
G01 X99.2955 F1200
G01 X99.4148 Z0.0000 F1200
G01 X449.2943 F1200
G01 X449.6520 Z-10.5250 F1200
G01 Y127.6770 F1200
G01 X449.2943 Z0.0000 F1200
G01 X99.4148 F1200
G01 X99.2955 Z-6.0000 F1200
G01 X96.1950 F1200
G01 X96.0758 Z0.0000 F1200
G01 X11.1698 F1200
G01 X10.8120 Z-10.5250 F1200
G01 Y128.1540 F1200
G01 X11.1698 Z0.0000 F1200
G01 X96.0758 F1200
G01 X96.1950 Z-6.0000 F1200
G01 X99.2955 F1200
G01 X99.4148 Z0.0000 F1200
G01 X449.2943 F1200
G01 X449.6520 Z-10.5250 F1200
G01 Y128.6310 F1200
G01 X449.2943 Z0.0000 F1200
G01 X99.4148 F1200
G01 X99.2955 Z-6.0000 F1200
G01 X96.1950 F1200
G01 X96.0758 Z0.0000 F1200
G01 X11.1698 F1200
G01 X10.8120 Z-10.5250 F1200
G01 Y129.1080 F1200
G01 X11.1698 Z0.0000 F1200
G01 X96.0758 F1200
G01 X96.1950 Z-6.0000 F1200
G01 X99.2955 F1200
G01 X99.4148 Z0.0000 F1200
G01 X449.2943 F1200
G01 X449.6520 Z-10.5250 F1200
G01 Y129.5850 F1200
G01 X449.2943 Z0.0000 F1200
G01 X99.4148 F1200
G01 X99.2955 Z-6.0000 F1200
G01 X96.1950 F1200
G01 X96.0758 Z0.0000 F1200
G01 X11.1698 F1200
G01 X10.8120 Z-10.5250 F1200
G01 Y130.0620 F1200
G01 X11.1698 Z0.0000 F1200
G01 X96.0758 F1200
G01 X96.1950 Z-6.0000 F1200
G01 X99.2955 F1200
G01 X99.4148 Z0.0000 F1200
G01 X449.2943 F1200
G01 X449.6520 Z-10.5250 F1200
G01 Y130.5390 F1200
G01 X449.2943 Z0.0000 F1200
G01 X99.4148 F1200
G01 X99.2955 Z-6.0000 F1200
G01 X96.1950 F1200
G01 X96.0758 Z0.0000 F1200
G01 X11.1698 F1200
G01 X10.8120 Z-10.5250 F1200
G01 Y131.0160 F1200
G01 X11.1698 Z0.0000 F1200
G01 X96.0758 F1200
G01 X96.1950 Z-6.0000 F1200
G01 X99.2955 F1200
G01 X99.4148 Z0.0000 F1200
G01 X449.2943 F1200
G01 X449.6520 Z-10.5250 F1200
G01 Y131.4930 F1200
G01 X449.2943 Z0.0000 F1200
G01 X99.4148 F1200
G01 X99.2955 Z-6.0000 F1200
G01 X96.1950 F1200
G01 X96.0758 Z0.0000 F1200
G01 X11.1698 F1200
G01 X10.8120 Z-10.5250 F1200
G01 Y131.9700 F1200
G01 X11.1698 Z0.0000 F1200
G01 X96.0758 F1200
G01 X96.1950 Z-6.0000 F1200
G01 X99.2955 F1200
G01 X99.4148 Z0.0000 F1200
G01 X449.2943 F1200
G01 X449.6520 Z-10.5250 F1200
G01 Y132.4470 F1200
G01 X449.2943 Z0.0000 F1200
G01 X99.4148 F1200
G01 X99.2955 Z-6.0000 F1200
G01 X96.1950 F1200
G01 X96.0758 Z0.0000 F1200
G01 X11.1698 F1200
G01 X10.8120 Z-10.5250 F1200
G01 Y132.9240 F1200
G01 X11.1698 Z0.0000 F1200
G01 X96.0758 F1200
G01 X96.1950 Z-6.0000 F1200
G01 X99.2955 F1200
G01 X99.4148 Z0.0000 F1200
G01 X449.2943 F1200
G01 X449.6520 Z-10.5250 F1200
G01 Y133.4010 F1200
G01 X449.2943 Z0.0000 F1200
G01 X99.4148 F1200
G01 X99.2955 Z-6.0000 F1200
G01 X96.1950 F1200
G01 X96.0758 Z0.0000 F1200
G01 X11.1698 F1200
G01 X10.8120 Z-10.5250 F1200
G01 Y133.8780 F1200
G01 X11.1698 Z0.0000 F1200
G01 X96.0758 F1200
G01 X96.1950 Z-6.0000 F1200
G01 X99.2955 F1200
G01 X99.4148 Z0.0000 F1200
G01 X449.2943 F1200
G01 X449.6520 Z-10.5250 F1200
G01 Y134.3550 F1200
G01 X449.2943 Z0.0000 F1200
G01 X99.4148 F1200
G01 X99.2955 Z-6.0000 F1200
G01 X96.1950 F1200
G01 X96.0758 Z0.0000 F1200
G01 X11.1698 F1200
G01 X10.8120 Z-10.5250 F1200
G01 Y134.8320 F1200
G01 X11.1698 Z0.0000 F1200
G01 X96.0758 F1200
G01 X96.1950 Z-6.0000 F1200
G01 X99.2955 F1200
G01 X99.4148 Z0.0000 F1200
G01 X449.2943 F1200
G01 X449.6520 Z-10.5250 F1200
G01 Y135.3090 F1200
G01 X449.2943 Z0.0000 F1200
G01 X99.4148 F1200
G01 X99.2955 Z-6.0000 F1200
G01 X96.1950 F1200
G01 X96.0758 Z0.0000 F1200
G01 X11.1698 F1200
G01 X10.8120 Z-10.5250 F1200
G01 Y135.7860 F1200
G01 X11.1698 Z0.0000 F1200
G01 X96.0758 F1200
G01 X96.1950 Z-6.0000 F1200
G01 X99.2955 F1200
G01 X99.4148 Z0.0000 F1200
G01 X449.2943 F1200
G01 X449.6520 Z-10.5250 F1200
G01 Y136.2630 F1200
G01 X449.2943 Z0.0000 F1200
G01 X99.4148 F1200
G01 X99.2955 Z-6.0000 F1200
G01 X96.1950 F1200
G01 X96.0758 Z0.0000 F1200
G01 X11.1698 F1200
G01 X10.8120 Z-10.5250 F1200
G01 Y136.7400 F1200
G01 X11.1698 Z0.0000 F1200
G01 X96.0758 F1200
G01 X96.1950 Z-6.0000 F1200
G01 X99.2955 F1200
G01 X99.4148 Z0.0000 F1200
G01 X449.2943 F1200
G01 X449.6520 Z-10.5250 F1200
G01 Y137.2170 F1200
G01 X449.2943 Z0.0000 F1200
G01 X99.4148 F1200
G01 X99.2955 Z-6.0000 F1200
G01 X96.1950 F1200
G01 X96.0758 Z0.0000 F1200
G01 X11.1698 F1200
G01 X10.8120 Z-10.5250 F1200
G01 Y137.6940 F1200
G01 X11.1698 Z0.0000 F1200
G01 X96.0758 F1200
G01 X96.1950 Z-6.0000 F1200
G01 X99.2955 F1200
G01 X99.4148 Z0.0000 F1200
G01 X449.2943 F1200
G01 X449.6520 Z-10.5250 F1200
G01 Y138.1710 F1200
G01 X449.2943 Z0.0000 F1200
G01 X99.4148 F1200
G01 X99.2955 Z-6.0000 F1200
G01 X96.1950 F1200
G01 X96.0758 Z0.0000 F1200
G01 X11.1698 F1200
G01 X10.8120 Z-10.5250 F1200
G01 Y138.6480 F1200
G01 X11.1698 Z0.0000 F1200
G01 X96.0758 F1200
G01 X96.1950 Z-6.0000 F1200
G01 X99.2955 F1200
G01 X99.4148 Z0.0000 F1200
G01 X449.2943 F1200
G01 X449.6520 Z-10.5250 F1200
G01 Y139.1250 F1200
G01 X449.2943 Z0.0000 F1200
G01 X99.4148 F1200
G01 X99.2955 Z-6.0000 F1200
G01 X96.1950 F1200
G01 X96.0758 Z0.0000 F1200
G01 X11.1698 F1200
G01 X10.8120 Z-10.5250 F1200
G01 Y139.6020 F1200
G01 X11.1698 Z0.0000 F1200
G01 X96.0758 F1200
G01 X96.1950 Z-6.0000 F1200
G01 X99.2955 F1200
G01 X99.4148 Z0.0000 F1200
G01 X449.2943 F1200
G01 X449.6520 Z-10.5250 F1200
G01 Y140.0790 F1200
G01 X449.2943 Z0.0000 F1200
G01 X99.4148 F1200
G01 X99.2955 Z-6.0000 F1200
G01 X96.1950 F1200
G01 X96.0758 Z0.0000 F1200
G01 X11.1698 F1200
G01 X10.8120 Z-10.5250 F1200
G01 Y140.5560 F1200
G01 X11.1698 Z0.0000 F1200
G01 X96.0758 F1200
G01 X96.1950 Z-6.0000 F1200
G01 X99.2955 F1200
G01 X99.4148 Z0.0000 F1200
G01 X449.2943 F1200
G01 X449.6520 Z-10.5250 F1200
G01 Y141.0330 F1200
G01 X449.2943 Z0.0000 F1200
G01 X99.4148 F1200
G01 X99.2955 Z-6.0000 F1200
G01 X96.1950 F1200
G01 X96.0758 Z0.0000 F1200
G01 X11.1698 F1200
G01 X10.8120 Z-10.5250 F1200
G01 Y141.5100 F1200
G01 X11.1698 Z0.0000 F1200
G01 X96.0758 F1200
G01 X96.1950 Z-6.0000 F1200
G01 X99.2955 F1200
G01 X99.4148 Z0.0000 F1200
G01 X449.2943 F1200
G01 X449.6520 Z-10.5250 F1200
G01 Y141.9870 F1200
G01 X449.2943 Z0.0000 F1200
G01 X99.4148 F1200
G01 X99.2955 Z-6.0000 F1200
G01 X96.1950 F1200
G01 X96.0758 Z0.0000 F1200
G01 X11.1698 F1200
G01 X10.8120 Z-10.5250 F1200
G01 Y142.4640 F1200
G01 X11.1698 Z0.0000 F1200
G01 X96.0758 F1200
G01 X96.1950 Z-6.0000 F1200
G01 X99.2955 F1200
G01 X99.4148 Z0.0000 F1200
G01 X449.2943 F1200
G01 X449.6520 Z-10.5250 F1200
G01 Y142.9410 F1200
G01 X449.2943 Z0.0000 F1200
G01 X99.4148 F1200
G01 X99.2955 Z-6.0000 F1200
G01 X96.1950 F1200
G01 X96.0758 Z0.0000 F1200
G01 X11.1698 F1200
G01 X10.8120 Z-10.5250 F1200
G01 Y143.4180 F1200
G01 X11.1698 Z0.0000 F1200
G01 X96.0758 F1200
G01 X96.1950 Z-6.0000 F1200
G01 X99.2955 F1200
G01 X99.4148 Z0.0000 F1200
G01 X449.2943 F1200
G01 X449.6520 Z-10.5250 F1200
G01 Y143.8950 F1200
G01 X449.2943 Z0.0000 F1200
G01 X99.4148 F1200
G01 X99.2955 Z-6.0000 F1200
G01 X96.1950 F1200
G01 X96.0758 Z0.0000 F1200
G01 X11.1698 F1200
G01 X10.8120 Z-10.5250 F1200
G01 Y144.3720 F1200
G01 X11.1698 Z0.0000 F1200
G01 X96.0758 F1200
G01 X96.1950 Z-6.0000 F1200
G01 X99.2955 F1200
G01 X99.4148 Z0.0000 F1200
G01 X449.2943 F1200
G01 X449.6520 Z-10.5250 F1200
G01 Y144.8490 F1200
G01 X449.2943 Z0.0000 F1200
G01 X99.4148 F1200
G01 X99.2955 Z-6.0000 F1200
G01 X96.1950 F1200
G01 X96.0758 Z0.0000 F1200
G01 X11.1698 F1200
G01 X10.8120 Z-10.5250 F1200
G01 Y145.3260 F1200
G01 X11.1698 Z0.0000 F1200
G01 X96.0758 F1200
G01 X96.1950 Z-6.0000 F1200
G01 X99.2955 F1200
G01 X99.4148 Z0.0000 F1200
G01 X449.2943 F1200
G01 X449.6520 Z-10.5250 F1200
G01 Y145.8030 F1200
G01 X449.2943 Z0.0000 F1200
G01 X99.4148 F1200
G01 X99.2955 Z-6.0000 F1200
G01 X96.1950 F1200
G01 X96.0758 Z0.0000 F1200
G01 X11.1698 F1200
G01 X10.8120 Z-10.5250 F1200
G01 Y146.2800 F1200
G01 X11.1698 Z0.0000 F1200
G01 X96.0758 F1200
G01 X96.1950 Z-6.0000 F1200
G01 X99.2955 F1200
G01 X99.4148 Z0.0000 F1200
G01 X449.2943 F1200
G01 X449.6520 Z-10.5250 F1200
G01 Y146.7570 F1200
G01 X449.2943 Z0.0000 F1200
G01 X99.4148 F1200
G01 X99.2955 Z-6.0000 F1200
G01 X96.1950 F1200
G01 X96.0758 Z0.0000 F1200
G01 X11.1698 F1200
G01 X10.8120 Z-10.5250 F1200
G01 Y147.2340 F1200
G01 X11.1698 Z0.0000 F1200
G01 X96.0758 F1200
G01 X96.1950 Z-6.0000 F1200
G01 X99.2955 F1200
G01 X99.4148 Z0.0000 F1200
G01 X449.2943 F1200
G01 X449.6520 Z-10.5250 F1200
G01 Y147.7110 F1200
G01 X449.2943 Z0.0000 F1200
G01 X99.4148 F1200
G01 X99.2955 Z-6.0000 F1200
G01 X96.1950 F1200
G01 X96.0758 Z0.0000 F1200
G01 X11.1698 F1200
G01 X10.8120 Z-10.5250 F1200
G01 Y148.1880 F1200
G01 X11.1698 Z0.0000 F1200
G01 X96.0758 F1200
G01 X96.1950 Z-6.0000 F1200
G01 X99.2955 F1200
G01 X99.4148 Z0.0000 F1200
G01 X449.2943 F1200
G01 X449.6520 Z-10.5250 F1200
G01 Y148.6650 F1200
G01 X449.2943 Z0.0000 F1200
G01 X99.4148 F1200
G01 X99.2955 Z-6.0000 F1200
G01 X96.1950 F1200
G01 X96.0758 Z0.0000 F1200
G01 X11.1698 F1200
G01 X10.8120 Z-10.5250 F1200
G01 Y149.1420 F1200
G01 X11.1698 Z0.0000 F1200
G01 X96.0758 F1200
G01 X96.1950 Z-6.0000 F1200
G01 X99.2955 F1200
G01 X99.4148 Z0.0000 F1200
G01 X449.2943 F1200
G01 X449.6520 Z-10.5250 F1200
G01 Y149.6190 F1200
G01 X449.2943 Z0.0000 F1200
G01 X99.4148 F1200
G01 X99.2955 Z-6.0000 F1200
G01 X96.1950 F1200
G01 X96.0758 Z0.0000 F1200
G01 X11.1698 F1200
G01 X10.8120 Z-10.5250 F1200
G01 Y150.0960 F1200
G01 X11.1698 Z0.0000 F1200
G01 X96.0758 F1200
G01 X96.1950 Z-6.0000 F1200
G01 X99.2955 F1200
G01 X99.4148 Z0.0000 F1200
G01 X449.2943 F1200
G01 X449.6520 Z-10.5250 F1200
G01 Y150.5730 F1200
G01 X449.2943 Z0.0000 F1200
G01 X99.4148 F1200
G01 X99.2955 Z-6.0000 F1200
G01 X96.1950 F1200
G01 X96.0758 Z0.0000 F1200
G01 X11.1698 F1200
G01 X10.8120 Z-10.5250 F1200
G01 Y151.0500 F1200
G01 X11.1698 Z0.0000 F1200
G01 X96.0758 F1200
G01 X96.1950 Z-6.0000 F1200
G01 X99.2955 F1200
G01 X99.4148 Z0.0000 F1200
G01 X449.2943 F1200
G01 X449.6520 Z-10.5250 F1200
G01 Y151.5270 F1200
G01 X449.2943 Z0.0000 F1200
G01 X99.4148 F1200
G01 X99.2955 Z-6.0000 F1200
G01 X96.1950 F1200
G01 X96.0758 Z0.0000 F1200
G01 X11.1698 F1200
G01 X10.8120 Z-10.5250 F1200
G01 Y152.0040 F1200
G01 X11.1698 Z0.0000 F1200
G01 X96.0758 F1200
G01 X96.1950 Z-6.0000 F1200
G01 X99.2955 F1200
G01 X99.4148 Z0.0000 F1200
G01 X449.2943 F1200
G01 X449.6520 Z-10.5250 F1200
G01 Y152.4810 F1200
G01 X449.2943 Z0.0000 F1200
G01 X99.4148 F1200
G01 X99.2955 Z-6.0000 F1200
G01 X96.1950 F1200
G01 X96.0758 Z0.0000 F1200
G01 X11.1698 F1200
G01 X10.8120 Z-10.5250 F1200
G01 Y152.9580 F1200
G01 X11.1698 Z0.0000 F1200
G01 X96.0758 F1200
G01 X96.1950 Z-6.0000 F1200
G01 X99.2955 F1200
G01 X99.4148 Z0.0000 F1200
G01 X449.2943 F1200
G01 X449.6520 Z-10.5250 F1200
G01 Y153.4350 F1200
G01 X449.2943 Z0.0000 F1200
G01 X99.4148 F1200
G01 X99.2955 Z-6.0000 F1200
G01 X96.1950 F1200
G01 X96.0758 Z0.0000 F1200
G01 X11.1698 F1200
G01 X10.8120 Z-10.5250 F1200
G01 Y153.9120 F1200
G01 X11.1698 Z0.0000 F1200
G01 X96.0758 F1200
G01 X96.1950 Z-6.0000 F1200
G01 X99.2955 F1200
G01 X99.4148 Z0.0000 F1200
G01 X449.2943 F1200
G01 X449.6520 Z-10.5250 F1200
G01 Y154.3890 F1200
G01 X449.2943 Z0.0000 F1200
G01 X99.4148 F1200
G01 X99.2955 Z-6.0000 F1200
G01 X96.1950 F1200
G01 X96.0758 Z0.0000 F1200
G01 X11.1698 F1200
G01 X10.8120 Z-10.5250 F1200
G01 Y154.8660 F1200
G01 X11.1698 Z0.0000 F1200
G01 X96.0758 F1200
G01 X96.1950 Z-6.0000 F1200
G01 X99.2955 F1200
G01 X99.4148 Z0.0000 F1200
G01 X449.2943 F1200
G01 X449.6520 Z-10.5250 F1200
G01 Y155.3430 F1200
G01 X449.2943 Z0.0000 F1200
G01 X99.4148 F1200
G01 X99.2955 Z-6.0000 F1200
G01 X96.1950 F1200
G01 X96.0758 Z0.0000 F1200
G01 X11.1698 F1200
G01 X10.8120 Z-10.5250 F1200
G01 Y155.8200 F1200
G01 X11.1698 Z0.0000 F1200
G01 X96.0758 F1200
G01 X96.1950 Z-6.0000 F1200
G01 X99.2955 F1200
G01 X99.4148 Z0.0000 F1200
G01 X449.2943 F1200
G01 X449.6520 Z-10.5250 F1200
G01 Y156.2970 F1200
G01 X449.2943 Z0.0000 F1200
G01 X99.4148 F1200
G01 X99.2955 Z-6.0000 F1200
G01 X96.1950 F1200
G01 X96.0758 Z0.0000 F1200
G01 X11.1698 F1200
G01 X10.8120 Z-10.5250 F1200
G01 Y156.7740 F1200
G01 X11.1698 Z0.0000 F1200
G01 X96.0758 F1200
G01 X96.1950 Z-6.0000 F1200
G01 X99.2955 F1200
G01 X99.4148 Z0.0000 F1200
G01 X449.2943 F1200
G01 X449.6520 Z-10.5250 F1200
G01 Y157.2510 F1200
G01 X449.2943 Z0.0000 F1200
G01 X99.4148 F1200
G01 X99.2955 Z-6.0000 F1200
G01 X96.1950 F1200
G01 X96.0758 Z0.0000 F1200
G01 X11.1698 F1200
G01 X10.8120 Z-10.5250 F1200
G01 Y157.7280 F1200
G01 X11.1698 Z0.0000 F1200
G01 X96.0758 F1200
G01 X96.1950 Z-6.0000 F1200
G01 X99.2955 F1200
G01 X99.4148 Z0.0000 F1200
G01 X449.2943 F1200
G01 X449.6520 Z-10.5250 F1200
G01 Y158.2050 F1200
G01 X449.2943 Z0.0000 F1200
G01 X99.4148 F1200
G01 X99.2955 Z-6.0000 F1200
G01 X96.1950 F1200
G01 X96.0758 Z0.0000 F1200
G01 X11.1698 F1200
G01 X10.8120 Z-10.5250 F1200
G01 Y158.6820 F1200
G01 X11.1698 Z0.0000 F1200
G01 X96.0758 F1200
G01 X96.1950 Z-6.0000 F1200
G01 X99.2955 F1200
G01 X99.4148 Z0.0000 F1200
G01 X449.2943 F1200
G01 X449.6520 Z-10.5250 F1200
G01 Y159.1590 F1200
G01 X449.2943 Z0.0000 F1200
G01 X99.4148 F1200
G01 X99.2955 Z-6.0000 F1200
G01 X96.1950 F1200
G01 X96.0758 Z0.0000 F1200
G01 X11.1698 F1200
G01 X10.8120 Z-10.5250 F1200
G01 Y159.6360 F1200
G01 X11.1698 Z0.0000 F1200
G01 X96.0758 F1200
G01 X96.1950 Z-6.0000 F1200
G01 X99.2955 F1200
G01 X99.4148 Z0.0000 F1200
G01 X449.2943 F1200
G01 X449.6520 Z-10.5250 F1200
G01 Y160.1130 F1200
G01 X449.2943 Z0.0000 F1200
G01 X99.4148 F1200
G01 X99.2955 Z-6.0000 F1200
G01 X96.1950 F1200
G01 X96.0758 Z0.0000 F1200
G01 X11.1698 F1200
G01 X10.8120 Z-10.5250 F1200
G01 Y160.5900 F1200
G01 X11.1698 Z0.0000 F1200
G01 X96.0758 F1200
G01 X96.1950 Z-6.0000 F1200
G01 X99.2955 F1200
G01 X99.4148 Z0.0000 F1200
G01 X449.2943 F1200
G01 X449.6520 Z-10.5250 F1200
G01 Y161.0670 F1200
G01 X449.2943 Z0.0000 F1200
G01 X99.4148 F1200
G01 X99.2955 Z-6.0000 F1200
G01 X96.1950 F1200
G01 X96.0758 Z0.0000 F1200
G01 X11.1698 F1200
G01 X10.8120 Z-10.5250 F1200
G01 Y161.5440 F1200
G01 X11.1698 Z0.0000 F1200
G01 X96.0758 F1200
G01 X96.1950 Z-6.0000 F1200
G01 X99.2955 F1200
G01 X99.4148 Z0.0000 F1200
G01 X449.2943 F1200
G01 X449.6520 Z-10.5250 F1200
G01 Y162.0210 F1200
G01 X449.2943 Z0.0000 F1200
G01 X99.4148 F1200
G01 X99.2955 Z-6.0000 F1200
G01 X96.1950 F1200
G01 X96.0758 Z0.0000 F1200
G01 X11.1698 F1200
G01 X10.8120 Z-10.5250 F1200
G01 Y162.4980 F1200
G01 X11.1698 Z0.0000 F1200
G01 X96.0758 F1200
G01 X96.1950 Z-6.0000 F1200
G01 X99.2955 F1200
G01 X99.4148 Z0.0000 F1200
G01 X449.2943 F1200
G01 X449.6520 Z-10.5250 F1200
G01 Y162.9750 F1200
G01 X449.2943 Z0.0000 F1200
G01 X99.4148 F1200
G01 X99.2955 Z-6.0000 F1200
G01 X96.1950 F1200
G01 X96.0758 Z0.0000 F1200
G01 X11.1698 F1200
G01 X10.8120 Z-10.5250 F1200
G01 Y163.4520 F1200
G01 X11.1698 Z0.0000 F1200
G01 X96.0758 F1200
G01 X96.1950 Z-6.0000 F1200
G01 X99.2955 F1200
G01 X99.4148 Z0.0000 F1200
G01 X449.2943 F1200
G01 X449.6520 Z-10.5250 F1200
G01 Y163.9290 F1200
G01 X449.2943 Z0.0000 F1200
G01 X99.4148 F1200
G01 X99.2955 Z-6.0000 F1200
G01 X96.1950 F1200
G01 X96.0758 Z0.0000 F1200
G01 X11.1698 F1200
G01 X10.8120 Z-10.5250 F1200
G01 Y164.4060 F1200
G01 X11.1698 Z0.0000 F1200
G01 X96.0758 F1200
G01 X96.1950 Z-6.0000 F1200
G01 X99.2955 F1200
G01 X99.4148 Z0.0000 F1200
G01 X449.2943 F1200
G01 X449.6520 Z-10.5250 F1200
G01 Y164.8830 F1200
G01 X449.2943 Z0.0000 F1200
G01 X99.4148 F1200
G01 X99.2955 Z-6.0000 F1200
G01 X96.1950 F1200
G01 X96.0758 Z0.0000 F1200
G01 X11.1698 F1200
G01 X10.8120 Z-10.5250 F1200
G01 Y165.3600 F1200
G01 X11.1698 Z0.0000 F1200
G01 X96.0758 F1200
G01 X96.1950 Z-6.0000 F1200
G01 X99.2955 F1200
G01 X99.4148 Z0.0000 F1200
G01 X449.2943 F1200
G01 X449.6520 Z-10.5250 F1200
G01 Y165.8370 F1200
G01 X449.2943 Z0.0000 F1200
G01 X99.4148 F1200
G01 X99.2955 Z-6.0000 F1200
G01 X96.1950 F1200
G01 X96.0758 Z0.0000 F1200
G01 X11.1698 F1200
G01 X10.8120 Z-10.5250 F1200
G01 Y166.3140 F1200
G01 X11.1698 Z0.0000 F1200
G01 X96.0758 F1200
G01 X96.1950 Z-6.0000 F1200
G01 X99.2955 F1200
G01 X99.4148 Z0.0000 F1200
G01 X449.2943 F1200
G01 X449.6520 Z-10.5250 F1200
G01 Z-8.5250 F1200
G01 Y166.7910 F1200
G01 X449.2943 Z0.0000 F1200
G01 X99.4148 F1200
G01 X99.2955 Z-6.0000 F1200
G01 X96.1950 F1200
G01 X96.0758 Z0.0000 F1200
G01 X11.1698 F1200
G01 X10.8120 Z-10.5250 F1200
G01 Y167.2680 F1200
G01 X11.1698 Z0.0000 F1200
G01 X96.0758 F1200
G01 X96.1950 Z-6.0000 F1200
G01 X99.2955 F1200
G01 X99.4148 Z0.0000 F1200
G01 X449.2943 F1200
G01 X449.6520 Z-8.5250 F1200
G01 Y167.7450 F1200
G01 X449.2943 Z0.0000 F1200
G01 X99.4148 F1200
G01 X99.2955 Z-6.0000 F1200
G01 X96.1950 F1200
G01 X96.0758 Z0.0000 F1200
G01 X11.1698 F1200
G01 X10.8120 Z-10.5250 F1200
G01 Y168.2220 F1200
G01 X11.1698 Z0.0000 F1200
G01 X96.0758 F1200
G01 X96.1950 Z-6.0000 F1200
G01 X99.2955 F1200
G01 X99.4148 Z0.0000 F1200
G01 X449.2943 F1200
G01 X449.6520 Z-8.5250 F1200
G01 Y168.6990 F1200
G01 X449.2943 Z0.0000 F1200
G01 X99.4148 F1200
G01 X99.2955 Z-6.0000 F1200
G01 X96.1950 F1200
G01 X96.0758 Z0.0000 F1200
G01 X11.1698 F1200
G01 X10.8120 Z-10.5250 F1200
G01 Y169.1760 F1200
G01 X11.1698 Z0.0000 F1200
G01 X96.0758 F1200
G01 X96.1950 Z-6.0000 F1200
G01 X99.2955 F1200
G01 X99.4148 Z0.0000 F1200
G01 X449.2943 F1200
G01 X449.6520 Z-8.5250 F1200
G01 Y169.6530 F1200
G01 X449.2943 Z0.0000 F1200
G01 X99.4148 F1200
G01 X99.2955 Z-6.0000 F1200
G01 X96.1950 F1200
G01 X96.0758 Z0.0000 F1200
G01 X11.1698 F1200
G01 X10.8120 Z-10.5250 F1200
G01 Y170.1300 F1200
G01 X11.1698 Z0.0000 F1200
G01 X96.0758 F1200
G01 X96.1950 Z-6.0000 F1200
G01 X99.2955 F1200
G01 X99.4148 Z0.0000 F1200
G01 X449.2943 F1200
G01 X449.6520 Z-8.5250 F1200
G01 Y170.6070 F1200
G01 X449.2943 Z0.0000 F1200
G01 X99.4148 F1200
G01 X99.2955 Z-6.0000 F1200
G01 X96.1950 F1200
G01 X96.0758 Z0.0000 F1200
G01 X11.1698 F1200
G01 X10.8120 Z-10.5250 F1200
G01 Y171.0840 F1200
G01 X11.1698 Z0.0000 F1200
G01 X96.0758 F1200
G01 X96.1950 Z-6.0000 F1200
G01 X99.2955 F1200
G01 X99.4148 Z0.0000 F1200
G01 X449.2943 F1200
G01 X449.6520 Z-8.5250 F1200
G01 Y171.5610 F1200
G01 X449.2943 Z0.0000 F1200
G01 X99.4148 F1200
G01 X99.2955 Z-6.0000 F1200
G01 X96.1950 F1200
G01 X96.0758 Z0.0000 F1200
G01 X11.1698 F1200
G01 X10.8120 Z-10.5250 F1200
G01 Y172.0380 F1200
G01 X11.1698 Z0.0000 F1200
G01 X96.0758 F1200
G01 X96.1950 Z-6.0000 F1200
G01 X99.2955 F1200
G01 X99.4148 Z0.0000 F1200
G01 X449.2943 F1200
G01 X449.6520 Z-8.5250 F1200
G01 Y172.5150 F1200
G01 X449.2943 Z0.0000 F1200
G01 X99.4148 F1200
G01 X99.2955 Z-6.0000 F1200
G01 X96.1950 F1200
G01 X96.0758 Z0.0000 F1200
G01 X11.1698 F1200
G01 X10.8120 Z-10.5250 F1200
G01 Y172.9920 F1200
G01 X11.1698 Z0.0000 F1200
G01 X96.0758 F1200
G01 X96.1950 Z-6.0000 F1200
G01 X99.2955 F1200
G01 X99.4148 Z0.0000 F1200
G01 X449.2943 F1200
G01 X449.6520 Z-8.5250 F1200
G01 Y173.4690 F1200
G01 X449.2943 Z0.0000 F1200
G01 X99.4148 F1200
G01 X99.2955 Z-6.0000 F1200
G01 X96.1950 F1200
G01 X96.0758 Z0.0000 F1200
G01 X11.1698 F1200
G01 X10.8120 Z-10.5250 F1200
G01 Y173.9460 F1200
G01 X11.1698 Z0.0000 F1200
G01 X96.0758 F1200
G01 X96.1950 Z-6.0000 F1200
G01 X99.2955 F1200
G01 X99.4148 Z0.0000 F1200
G01 X449.2943 F1200
G01 X449.6520 Z-8.5250 F1200
G01 Y174.4230 F1200
G01 X449.2943 Z0.0000 F1200
G01 X99.4148 F1200
G01 X99.2955 Z-6.0000 F1200
G01 X96.1950 F1200
G01 X96.0758 Z0.0000 F1200
G01 X11.1698 F1200
G01 X10.8120 Z-10.5250 F1200
G01 Y174.9000 F1200
G01 X11.1698 Z0.0000 F1200
G01 X96.0758 F1200
G01 X96.1950 Z-6.0000 F1200
G01 X99.2955 F1200
G01 X99.4148 Z0.0000 F1200
G01 X449.2943 F1200
G01 X449.6520 Z-10.5250 F1200
G01 Y175.3770 F1200
G01 X449.2943 Z0.0000 F1200
G01 X99.4148 F1200
G01 X99.2955 Z-6.0000 F1200
G01 X96.1950 F1200
G01 X96.0758 Z0.0000 F1200
G01 X11.1698 F1200
G01 X10.8120 Z-10.5250 F1200
G01 Y175.8540 F1200
G01 X11.1698 Z0.0000 F1200
G01 X96.0758 F1200
G01 X96.1950 Z-6.0000 F1200
G01 X99.2955 F1200
G01 X99.4148 Z0.0000 F1200
G01 X449.2943 F1200
G01 X449.6520 Z-8.5250 F1200
G01 Y176.3310 F1200
G01 X449.2943 Z0.0000 F1200
G01 X99.4148 F1200
G01 X99.2955 Z-6.0000 F1200
G01 X96.1950 F1200
G01 X96.0758 Z0.0000 F1200
G01 X11.1698 F1200
G01 X10.8120 Z-10.5250 F1200
G01 Y176.8080 F1200
G01 X11.1698 Z0.0000 F1200
G01 X96.0758 F1200
G01 X96.1950 Z-6.0000 F1200
G01 X99.2955 F1200
G01 X99.4148 Z0.0000 F1200
G01 X449.2943 F1200
G01 X449.6520 Z-8.5250 F1200
G01 Y177.2850 F1200
G01 X449.2943 Z0.0000 F1200
G01 X99.4148 F1200
G01 X99.2955 Z-6.0000 F1200
G01 X96.1950 F1200
G01 X96.0758 Z0.0000 F1200
G01 X11.1698 F1200
G01 X10.8120 Z-10.5250 F1200
G01 Y177.7620 F1200
G01 X11.1698 Z0.0000 F1200
G01 X96.0758 F1200
G01 X96.1950 Z-6.0000 F1200
G01 X99.2955 F1200
G01 X99.4148 Z0.0000 F1200
G01 X449.2943 F1200
G01 X449.6520 Z-8.5250 F1200
G01 Y178.2390 F1200
G01 X449.2943 Z0.0000 F1200
G01 X99.4148 F1200
G01 X99.2955 Z-6.0000 F1200
G01 X96.1950 F1200
G01 X96.0758 Z0.0000 F1200
G01 X11.1698 F1200
G01 X10.8120 Z-10.5250 F1200
G01 Y178.7160 F1200
G01 X11.1698 Z0.0000 F1200
G01 X96.0758 F1200
G01 X96.1950 Z-6.0000 F1200
G01 X99.2955 F1200
G01 X99.4148 Z0.0000 F1200
G01 X449.2943 F1200
G01 X449.6520 Z-8.5250 F1200
G01 Y179.1930 F1200
G01 X449.2943 Z0.0000 F1200
G01 X99.4148 F1200
G01 X99.2955 Z-6.0000 F1200
G01 X96.1950 F1200
G01 X96.0758 Z0.0000 F1200
G01 X11.1698 F1200
G01 X10.8120 Z-10.5250 F1200
G01 Y179.6700 F1200
G01 X11.1698 Z0.0000 F1200
G01 X96.0758 F1200
G01 X96.1950 Z-6.0000 F1200
G01 X99.2955 F1200
G01 X99.4148 Z0.0000 F1200
G01 X449.2943 F1200
G01 X449.6520 Z-8.5250 F1200
G01 Y180.1470 F1200
G01 Z-10.5250 F1200
G01 X449.2943 Z0.0000 F1200
G01 X99.4148 F1200
G01 X99.2955 Z-6.0000 F1200
G01 X96.1950 F1200
G01 X96.0758 Z0.0000 F1200
G01 X11.1698 F1200
G01 X10.8120 Z-10.5250 F1200
G01 Y180.6240 F1200
G01 X11.1698 Z0.0000 F1200
G01 X96.0758 F1200
G01 X96.1950 Z-6.0000 F1200
G01 X99.2955 F1200
G01 X99.4148 Z0.0000 F1200
G01 X449.2943 F1200
G01 X449.6520 Z-8.5250 F1200
G01 Y181.1010 F1200
G01 X449.2943 Z0.0000 F1200
G01 X99.4148 F1200
G01 X99.2955 Z-6.0000 F1200
G01 X96.1950 F1200
G01 X96.0758 Z0.0000 F1200
G01 X11.1698 F1200
G01 X10.8120 Z-10.5250 F1200
G01 Y181.5780 F1200
G01 X11.1698 Z0.0000 F1200
G01 X96.0758 F1200
G01 X96.1950 Z-6.0000 F1200
G01 X99.2955 F1200
G01 X99.4148 Z0.0000 F1200
G01 X449.2943 F1200
G01 X449.6520 Z-8.5250 F1200
G01 Y182.0550 F1200
G01 X449.2943 Z0.0000 F1200
G01 X99.4148 F1200
G01 X99.2955 Z-6.0000 F1200
G01 X96.1950 F1200
G01 X96.0758 Z0.0000 F1200
G01 X11.1698 F1200
G01 X10.8120 Z-10.5250 F1200
G01 Y182.5320 F1200
G01 X11.1698 Z0.0000 F1200
G01 X96.0758 F1200
G01 X96.1950 Z-6.0000 F1200
G01 X99.2955 F1200
G01 X99.4148 Z0.0000 F1200
G01 X449.2943 F1200
G01 X449.6520 Z-8.5250 F1200
G01 Y183.0090 F1200
G01 X449.2943 Z0.0000 F1200
G01 X99.4148 F1200
G01 X99.2955 Z-6.0000 F1200
G01 X96.1950 F1200
G01 X96.0758 Z0.0000 F1200
G01 X11.1698 F1200
G01 X10.8120 Z-10.5250 F1200
G01 Y183.4860 F1200
G01 X11.1698 Z0.0000 F1200
G01 X96.0758 F1200
G01 X96.1950 Z-6.0000 F1200
G01 X99.2955 F1200
G01 X99.4148 Z0.0000 F1200
G01 X449.2943 F1200
G01 X449.6520 Z-8.5250 F1200
G01 Y183.9630 F1200
G01 Z-10.5250 F1200
G01 X449.2943 Z0.0000 F1200
G01 X99.4148 F1200
G01 X99.2955 Z-6.0000 F1200
G01 X96.1950 F1200
G01 X96.0758 Z0.0000 F1200
G01 X11.1698 F1200
G01 X10.8120 Z-10.5250 F1200
G01 Y184.4400 F1200
G01 X11.1698 Z0.0000 F1200
G01 X96.0758 F1200
G01 X96.1950 Z-6.0000 F1200
G01 X99.2955 F1200
G01 X99.4148 Z0.0000 F1200
G01 X449.2943 F1200
G01 X449.6520 Z-10.5250 F1200
G01 Y184.9170 F1200
G01 X449.2943 Z0.0000 F1200
G01 X99.4148 F1200
G01 X99.2955 Z-6.0000 F1200
G01 X96.1950 F1200
G01 X96.0758 Z0.0000 F1200
G01 X11.1698 F1200
G01 X10.8120 Z-10.5250 F1200
G01 Y185.3940 F1200
G01 X11.1698 Z0.0000 F1200
G01 X96.0758 F1200
G01 X96.1950 Z-6.0000 F1200
G01 X99.2955 F1200
G01 X99.4148 Z0.0000 F1200
G01 X449.2943 F1200
G01 X449.6520 Z-10.5250 F1200
G01 Y185.8710 F1200
G01 X449.2943 Z0.0000 F1200
G01 X99.4148 F1200
G01 X99.2955 Z-6.0000 F1200
G01 X96.1950 F1200
G01 X96.0758 Z0.0000 F1200
G01 X11.1698 F1200
