;Project 250x250-sm-panel-rear
;Created by Estlcam version 11 build 11.245
;Machining time about 00:21:25 hours

G90
M03 S10000
G00 X0.0000 Y0.0000 Z0.0000 F1500
G00 Z5.0000 F480


;No. 1: Hole 75
G00 X49.4963 Y9.9925 F1500
G00 Z0.5000 F480
G01 Z0.0000 F120 S10000
G02 X49.5631 Y10.0025 Z-0.2748 I0.0330 J0.0075 F120
G02 X49.4999 Y9.9832 Z-0.5000 I-0.0338 J-0.0025 F120
G03 X49.5631 Y10.0025 Z-0.7252 I0.0294 J0.0168 F120
G03 X49.4963 Y9.9925 Z-1.0000 I-0.0338 J-0.0025 F120
G02 X49.5631 Y10.0025 I0.0330 J0.0075 F900
G02 X49.4963 Y9.9925 I-0.0338 J-0.0025 F900
G00 Z5.0000 F480


;No. 2: Hole 74
G00 X144.4955 Y9.9975 Z5.0000 F1500
G00 Z0.5000 F480
G01 Z0.0000 F120
G02 X144.5631 Z-0.2748 I0.0338 J0.0025 F120
G02 X144.4977 Y9.9877 Z-0.5000 I-0.0338 J0.0025 F120
G03 X144.5631 Y9.9975 Z-0.7252 I0.0316 J0.0123 F120
G03 X144.4955 Z-1.0000 I-0.0338 J0.0025 F120
G02 X144.5631 I0.0338 J0.0025 F900
G02 X144.4955 I-0.0338 J0.0025 F900
G00 Z5.0000 F480


;No. 3: Hole 68
G00 X239.4955 Y9.9975 Z5.0000 F1500
G00 Z0.5000 F480
G01 Z0.0000 F120
G02 X239.5631 Z-0.2748 I0.0338 J0.0025 F120
G02 X239.4977 Y9.9877 Z-0.5000 I-0.0338 J0.0025 F120
G03 X239.5631 Y9.9975 Z-0.7252 I0.0316 J0.0123 F120
G03 X239.4955 Z-1.0000 I-0.0338 J0.0025 F120
G02 X239.5631 I0.0338 J0.0025 F900
G02 X239.4955 I-0.0338 J0.0025 F900
G00 Z5.0000 F480


;No. 4: Hole 69
G00 X239.3720 Y42.4774 Z5.0000 F1500
G00 Z0.5000 F480
G01 Z0.0000 F120
G02 X239.5884 Y42.6476 Z-0.2884 I0.1574 J0.0226 F120
G02 X239.6788 Y42.4459 Z-0.5000 I-0.0591 J-0.1476 F120
G03 X239.5884 Y42.6476 Z-0.7116 I-0.1495 J0.0541 F120
G03 X239.3720 Y42.4774 Z-1.0000 I-0.0591 J-0.1476 F120
G02 X239.5884 Y42.6476 I0.1574 J0.0226 F900
G02 X239.6276 Y42.3750 I-0.0591 J-0.1476 F900
G02 X239.3720 Y42.4774 I-0.0983 J0.1250 F900
G00 Z5.0000 F480


;No. 5: Hole 70
G00 X239.3956 Y142.4140 Z5.0000 F1500
G00 Z0.5000 F480
G01 Z0.0000 F120
G02 X239.5218 Y142.6588 Z-0.2884 I0.1337 J0.0860 F120
G02 X239.6878 Y142.5129 Z-0.5000 I0.0076 J-0.1588 F120
G03 X239.5218 Y142.6588 Z-0.7116 I-0.1585 J-0.0129 F120
G03 X239.3956 Y142.4140 Z-1.0000 I0.0076 J-0.1588 F120
G02 X239.5218 Y142.6588 I0.1337 J0.0860 F900
G02 X239.6706 Y142.4271 I0.0076 J-0.1588 F900
G02 X239.3956 Y142.4140 I-0.1413 J0.0729 F900
G00 Z5.0000 F480


;No. 6: Hole 71
G00 X239.4092 Y217.3959 Z5.0000 F1500
G00 Z0.5000 F480
G01 Z0.0000 F120
G02 X239.4992 Y217.6561 Z-0.2884 I0.1202 J0.1041 F120
G02 X239.6843 Y217.5353 Z-0.5000 I0.0301 J-0.1561 F120
G03 X239.4992 Y217.6561 Z-0.7116 I-0.1550 J-0.0353 F120
G03 X239.4092 Y217.3959 Z-1.0000 I0.0301 J-0.1561 F120
G02 X239.4992 Y217.6561 I0.1202 J0.1041 F900
G02 X239.6796 Y217.4480 I0.0301 J-0.1561 F900
G02 X239.4092 Y217.3959 I-0.1502 J0.0520 F900
G00 Z5.0000 F480


;No. 7: Hole 72
G00 X239.4341 Y317.3727 Z5.0000 F1500
G00 Z0.5000 F480
G01 Z0.0000 F120
G02 X239.4668 Y317.6461 Z-0.2884 I0.0953 J0.1273 F120
G02 X239.6733 Y317.5675 Z-0.5000 I0.0626 J-0.1461 F120
G03 X239.4668 Y317.6461 Z-0.7116 I-0.1440 J-0.0675 F120
G03 X239.4341 Y317.3727 Z-1.0000 I0.0626 J-0.1461 F120
G02 X239.4668 Y317.6461 I0.0953 J0.1273 F900
G02 X239.6872 Y317.4811 I0.0626 J-0.1461 F900
G02 X239.4341 Y317.3727 I-0.1579 J0.0189 F900
G00 Z5.0000 F480


;No. 8: Hole 73
G00 X239.5102 Y349.9720 Z5.0000 F1500
G00 Z0.5000 F480
G01 Z0.0000 F120
G02 X239.5524 Y350.0248 Z-0.2748 I0.0191 J0.0280 F120
G02 X239.5192 Y349.9677 Z-0.5000 I-0.0230 J-0.0248 F120
G03 X239.5524 Y350.0248 Z-0.7252 I0.0101 J0.0323 F120
G03 X239.5102 Y349.9720 Z-1.0000 I-0.0230 J-0.0248 F120
G02 X239.5524 Y350.0248 I0.0191 J0.0280 F900
G02 X239.5102 Y349.9720 I-0.0230 J-0.0248 F900
G00 Z5.0000 F480


;No. 9: Hole 57
G00 X239.5493 Y384.9710 Z5.0000 F1500
G00 Z0.5000 F480
G01 Z0.0000 F120
G02 X239.5873 Y385.0269 Z-0.2748 I0.0169 J0.0293 F120
G02 X239.5585 Y384.9674 Z-0.5000 I-0.0211 J-0.0265 F120
G03 X239.5873 Y385.0269 Z-0.7252 I0.0077 J0.0330 F120
G03 X239.5493 Y384.9710 Z-1.0000 I-0.0211 J-0.0265 F120
G02 X239.5873 Y385.0269 I0.0169 J0.0293 F900
G02 X239.5493 Y384.9710 I-0.0211 J-0.0265 F900
G00 Z5.0000 F480


;No. 10: Hole 58
G00 X334.5432 Y384.9752 Z5.0000 F1500
G00 Z0.5000 F480
G01 Z0.0000 F120
G02 X334.5927 Y385.0211 Z-0.2748 I0.0230 J0.0248 F120
G02 X334.5514 Y384.9695 Z-0.5000 I-0.0265 J-0.0211 F120
G03 X334.5927 Y385.0211 Z-0.7252 I0.0148 J0.0305 F120
G03 X334.5432 Y384.9752 Z-1.0000 I-0.0265 J-0.0211 F120
G02 X334.5927 Y385.0211 I0.0230 J0.0248 F900
G02 X334.5432 Y384.9752 I-0.0265 J-0.0211 F900
G00 Z5.0000 F480


;No. 11: Hole 59
G00 X429.5414 Y384.9770 Z5.0000 F1500
G00 Z0.5000 F480
G01 Z0.0000 F120
G02 X429.5942 Y385.0191 Z-0.2748 I0.0248 J0.0230 F120
G02 X429.5492 Y384.9707 Z-0.5000 I-0.0280 J-0.0191 F120
G03 X429.5942 Y385.0191 Z-0.7252 I0.0171 J0.0293 F120
G03 X429.5414 Y384.9770 Z-1.0000 I-0.0280 J-0.0191 F120
G02 X429.5942 Y385.0191 I0.0248 J0.0230 F900
G02 X429.5414 Y384.9770 I-0.0280 J-0.0191 F900
G00 Z5.0000 F480


;No. 12: Hole 64
G00 X461.0842 Y286.2404 Z5.0000 F1500
G00 Z0.5000 F480
G01 Z0.0000 F120
G01 X461.0829 Y286.2524 Z-0.0105 F120
G01 X461.0859 Y286.2641 Z-0.0209 F120
G01 X461.0928 Y286.2740 Z-0.0314 F120
G01 X461.1027 Y286.2809 Z-0.0418 F120
G01 X461.1144 Y286.2839 Z-0.0523 F120
G02 X461.6311 Y286.3010 Z-0.5000 I0.7481 J-14.7923 F120
G03 X461.1144 Y286.2839 Z-0.9477 I0.2314 J-14.8094 F120
G01 X461.1027 Y286.2809 Z-0.9582 F120
G01 X461.0928 Y286.2740 Z-0.9686 F120
G01 X461.0859 Y286.2641 Z-0.9791 F120
G01 X461.0829 Y286.2524 Z-0.9895 F120
G01 X461.0842 Y286.2404 Z-1.0000 F120
G01 X461.0829 Y286.2524 F900
G01 X461.0859 Y286.2641 F900
G01 X461.0928 Y286.2740 F900
G01 X461.1027 Y286.2809 F900
G01 X461.1144 Y286.2839 F900
G02 X462.6241 Y286.2832 I0.7481 J-14.7923 F900
G01 X462.6352 Y286.2786 F900
G01 X462.6440 Y286.2704 F900
G01 X462.6494 Y286.2596 F900
G01 X462.6507 Y286.2476 F900
G01 X462.6478 Y286.2359 F900
G01 X462.6409 Y286.2260 F900
G01 X462.6310 Y286.2191 F900
G01 X462.6193 Y286.2161 F900
G02 X461.1073 Y286.2174 I-0.7459 J11.8645 F900
G01 X461.0965 Y286.2228 F900
G01 X461.0842 Y286.2404 F900
G00 Z5.0000 F480


;No. 13: Hole 62
G00 X461.0842 Y197.4904 Z5.0000 F1500
G00 Z0.5000 F480
G01 Z0.0000 F120
G01 X461.0829 Y197.5024 Z-0.0105 F120
G01 X461.0859 Y197.5141 Z-0.0209 F120
G01 X461.0928 Y197.5240 Z-0.0314 F120
G01 X461.1027 Y197.5309 Z-0.0418 F120
G01 X461.1144 Y197.5339 Z-0.0523 F120
G02 X461.6311 Y197.5510 Z-0.5000 I0.7481 J-14.7923 F120
G03 X461.1144 Y197.5339 Z-0.9477 I0.2314 J-14.8094 F120
G01 X461.1027 Y197.5309 Z-0.9582 F120
G01 X461.0928 Y197.5240 Z-0.9686 F120
G01 X461.0859 Y197.5141 Z-0.9791 F120
G01 X461.0829 Y197.5024 Z-0.9895 F120
G01 X461.0842 Y197.4904 Z-1.0000 F120
G01 X461.0829 Y197.5024 F900
G01 X461.0859 Y197.5141 F900
G01 X461.0928 Y197.5240 F900
G01 X461.1027 Y197.5309 F900
G01 X461.1144 Y197.5339 F900
G02 X462.6241 Y197.5332 I0.7481 J-14.7923 F900
G01 X462.6352 Y197.5286 F900
G01 X462.6440 Y197.5204 F900
G01 X462.6494 Y197.5096 F900
G01 X462.6507 Y197.4976 F900
G01 X462.6478 Y197.4859 F900
G01 X462.6409 Y197.4760 F900
G01 X462.6310 Y197.4691 F900
G01 X462.6193 Y197.4661 F900
G02 X461.1144 I-0.7524 J20.6355 F900
G01 X461.1027 Y197.4691 F900
G01 X461.0928 Y197.4760 F900
G01 X461.0842 Y197.4904 F900
G00 Z5.0000 F480


;No. 14: Hole 65
G00 X461.0845 Y108.7400 Z5.0000 F1500
G00 Z0.5000 F480
G01 Z0.0000 F120
G02 X461.1466 Y108.7850 Z-0.0822 I0.0423 J0.0069 F120
G01 X461.6290 Z-0.5000 F120
G01 X461.1466 Z-0.9178 F120
G03 X461.0845 Y108.7400 Z-1.0000 I-0.0198 J-0.0381 F120
G02 X461.1466 Y108.7850 I0.0423 J0.0069 F900
G01 X462.5885 F900
G01 X462.6241 Y108.7832 F900
G01 X462.6352 Y108.7786 F900
G01 X462.6440 Y108.7704 F900
G01 X462.6494 Y108.7596 F900
G01 X462.6507 Y108.7476 F900
G01 X462.6478 Y108.7359 F900
G01 X462.6409 Y108.7260 F900
G01 X462.6310 Y108.7191 F900
G01 X462.6193 Y108.7161 F900
G02 X461.1045 Y108.7185 I-0.7432 J9.1497 F900
G02 X461.0845 Y108.7400 I0.0124 J0.0315 F900
G00 Z5.0000 F480


;No. 15: Hole 66
G00 X429.4954 Y10.0000 Z5.0000 F1500
G00 Z0.5000 F480
G01 Z0.0000 F120
G02 X429.5628 Y9.9949 Z-0.2748 I0.0339 J0.0000 F120
G02 X429.4969 Y9.9901 Z-0.5000 I-0.0335 J0.0051 F120
G03 X429.5628 Y9.9949 Z-0.7252 I0.0324 J0.0099 F120
G03 X429.4954 Y10.0000 Z-1.0000 I-0.0335 J0.0051 F120
G02 X429.5628 Y9.9949 I0.0339 J0.0000 F900
G02 X429.4954 Y10.0000 I-0.0335 J0.0051 F900
G00 Z5.0000 F480


;No. 16: Hole 67
G00 X334.4954 Y10.0000 Z5.0000 F1500
G00 Z0.5000 F480
G01 Z0.0000 F120
G02 X334.5628 Y9.9949 Z-0.2748 I0.0339 J0.0000 F120
G02 X334.4969 Y9.9901 Z-0.5000 I-0.0335 J0.0051 F120
G03 X334.5628 Y9.9949 Z-0.7252 I0.0324 J0.0099 F120
G03 X334.4954 Y10.0000 Z-1.0000 I-0.0335 J0.0051 F120
G02 X334.5628 Y9.9949 I0.0339 J0.0000 F900
G02 X334.4954 Y10.0000 I-0.0335 J0.0051 F900
G00 Z5.0000 F480


;No. 17: Hole 52
G00 X16.4346 Y108.7168 Z5.0000 F1500
G00 Z0.5000 F480
G01 Z0.0000 F120
G01 X16.4235 Y108.7214 Z-0.0105 F120
G01 X16.4146 Y108.7296 Z-0.0209 F120
G01 X16.4092 Y108.7404 Z-0.0314 F120
G01 X16.4079 Y108.7524 Z-0.0418 F120
G01 X16.4109 Y108.7641 Z-0.0523 F120
G01 X16.4178 Y108.7740 Z-0.0627 F120
G01 X16.4277 Y108.7809 Z-0.0732 F120
G01 X16.4394 Y108.7839 Z-0.0836 F120
G02 X16.9199 Y108.8004 Z-0.5000 I0.7481 J-14.7923 F120
G03 X16.4394 Y108.7839 Z-0.9164 I0.2676 J-14.8088 F120
G01 X16.4277 Y108.7809 Z-0.9268 F120
G01 X16.4178 Y108.7740 Z-0.9373 F120
G01 X16.4109 Y108.7641 Z-0.9477 F120
G01 X16.4079 Y108.7524 Z-0.9582 F120
G01 X16.4092 Y108.7404 Z-0.9686 F120
G01 X16.4146 Y108.7296 Z-0.9791 F120
G01 X16.4235 Y108.7214 Z-0.9895 F120
G01 X16.4346 Y108.7168 Z-1.0000 F120
G01 X16.4235 Y108.7214 F900
G01 X16.4146 Y108.7296 F900
G01 X16.4092 Y108.7404 F900
G01 X16.4079 Y108.7524 F900
G01 X16.4109 Y108.7641 F900
G01 X16.4178 Y108.7740 F900
G01 X16.4277 Y108.7809 F900
G01 X16.4394 Y108.7839 F900
G02 X17.9491 Y108.7832 I0.7481 J-14.7923 F900
G01 X17.9602 Y108.7786 F900
G01 X17.9690 Y108.7704 F900
G01 X17.9744 Y108.7596 F900
G01 X17.9757 Y108.7476 F900
G01 X17.9728 Y108.7359 F900
G01 X17.9659 Y108.7260 F900
G01 X17.9560 Y108.7191 F900
G01 X17.9443 Y108.7161 F900
G02 X16.4346 Y108.7168 I-0.7481 J14.7923 F900
G00 Z5.0000 F480


;No. 18: Hole 53
G00 X16.4702 Y197.4650 Z5.0000 F1500
G00 Z0.5000 F480
G01 Z0.0000 F120
G01 X16.4346 Y197.4668 Z-0.0309 F120
G01 X16.4235 Y197.4714 Z-0.0413 F120
G01 X16.4146 Y197.4796 Z-0.0518 F120
G01 X16.4092 Y197.4904 Z-0.0622 F120
G01 X16.4079 Y197.5024 Z-0.0727 F120
G01 X16.4109 Y197.5141 Z-0.0831 F120
G01 X16.4178 Y197.5240 Z-0.0936 F120
G01 X16.4277 Y197.5309 Z-0.1040 F120
G01 X16.4394 Y197.5339 Z-0.1145 F120
G02 X16.8843 Y197.5497 Z-0.5000 I0.7481 J-14.7923 F120
G03 X16.4394 Y197.5339 Z-0.8855 I0.3032 J-14.8081 F120
G01 X16.4277 Y197.5309 Z-0.8960 F120
G01 X16.4178 Y197.5240 Z-0.9064 F120
G01 X16.4109 Y197.5141 Z-0.9169 F120
G01 X16.4079 Y197.5024 Z-0.9273 F120
G01 X16.4092 Y197.4904 Z-0.9378 F120
G01 X16.4146 Y197.4796 Z-0.9482 F120
G01 X16.4235 Y197.4714 Z-0.9587 F120
G01 X16.4346 Y197.4668 Z-0.9691 F120
G01 X16.4702 Y197.4650 Z-1.0000 F120
G01 X16.4346 Y197.4668 F900
G01 X16.4235 Y197.4714 F900
G01 X16.4146 Y197.4796 F900
G01 X16.4092 Y197.4904 F900
G01 X16.4079 Y197.5024 F900
G01 X16.4109 Y197.5141 F900
G01 X16.4178 Y197.5240 F900
G01 X16.4277 Y197.5309 F900
G01 X16.4394 Y197.5339 F900
G02 X17.9491 Y197.5332 I0.7481 J-14.7923 F900
G01 X17.9602 Y197.5286 F900
G01 X17.9690 Y197.5204 F900
G01 X17.9744 Y197.5096 F900
G01 X17.9757 Y197.4976 F900
G01 X17.9728 Y197.4859 F900
G01 X17.9659 Y197.4760 F900
G01 X17.9560 Y197.4691 F900
G01 X17.9443 Y197.4661 F900
G01 X17.9135 Y197.4650 F900
G01 X16.4702 F900
G00 Z5.0000 F480


;No. 19: Hole 54
G00 X16.4702 Y286.2150 Z5.0000 F1500
G00 Z0.5000 F480
G01 Z0.0000 F120
G01 X16.4346 Y286.2168 Z-0.0309 F120
G01 X16.4235 Y286.2214 Z-0.0413 F120
G01 X16.4146 Y286.2296 Z-0.0518 F120
G01 X16.4092 Y286.2404 Z-0.0622 F120
G01 X16.4079 Y286.2524 Z-0.0727 F120
G01 X16.4109 Y286.2641 Z-0.0831 F120
G01 X16.4178 Y286.2740 Z-0.0936 F120
G01 X16.4277 Y286.2809 Z-0.1040 F120
G01 X16.4394 Y286.2839 Z-0.1145 F120
G02 X16.8843 Y286.2997 Z-0.5000 I0.7481 J-14.7923 F120
G03 X16.4394 Y286.2839 Z-0.8855 I0.3032 J-14.8081 F120
G01 X16.4277 Y286.2809 Z-0.8960 F120
G01 X16.4178 Y286.2740 Z-0.9064 F120
G01 X16.4109 Y286.2641 Z-0.9169 F120
G01 X16.4079 Y286.2524 Z-0.9273 F120
G01 X16.4092 Y286.2404 Z-0.9378 F120
G01 X16.4146 Y286.2296 Z-0.9482 F120
G01 X16.4235 Y286.2214 Z-0.9587 F120
G01 X16.4346 Y286.2168 Z-0.9691 F120
G01 X16.4702 Y286.2150 Z-1.0000 F120
G01 X16.4346 Y286.2168 F900
G01 X16.4235 Y286.2214 F900
G01 X16.4146 Y286.2296 F900
G01 X16.4092 Y286.2404 F900
G01 X16.4079 Y286.2524 F900
G01 X16.4109 Y286.2641 F900
G01 X16.4178 Y286.2740 F900
G01 X16.4277 Y286.2809 F900
G01 X16.4394 Y286.2839 F900
G02 X17.9491 Y286.2832 I0.7481 J-14.7923 F900
G01 X17.9602 Y286.2786 F900
G01 X17.9690 Y286.2704 F900
G01 X17.9744 Y286.2596 F900
G01 X17.9757 Y286.2476 F900
G01 X17.9728 Y286.2359 F900
G01 X17.9659 Y286.2260 F900
G01 X17.9560 Y286.2191 F900
G01 X17.9443 Y286.2161 F900
G01 X17.9135 Y286.2150 F900
G01 X16.4702 F900
G00 Z5.0000 F480


;No. 20: Hole 55
G00 X49.4874 Y384.9665 Z5.0000 F1500
G00 Z0.5000 F480
G01 Z0.0000 F120
G02 X49.5024 Y385.0324 Z-0.2748 I0.0051 J0.0335 F120
G02 X49.4974 Y384.9665 Z-0.5000 I-0.0100 J-0.0324 F120
G03 X49.5024 Y385.0324 Z-0.7252 I-0.0049 J0.0335 F120
G03 X49.4874 Y384.9665 Z-1.0000 I-0.0100 J-0.0324 F120
G02 X49.5024 Y385.0324 I0.0051 J0.0335 F900
G02 X49.4874 Y384.9665 I-0.0100 J-0.0324 F900
G00 Z5.0000 F480


;No. 21: Hole 56
G00 X144.4801 Y384.9685 Z5.0000 F1500
G00 Z0.5000 F480
G01 Z0.0000 F120
G02 X144.5094 Y385.0293 Z-0.2748 I0.0124 J0.0315 F120
G02 X144.4898 Y384.9662 Z-0.5000 I-0.0169 J-0.0293 F120
G03 X144.5094 Y385.0293 Z-0.7252 I0.0027 J0.0338 F120
G03 X144.4801 Y384.9685 Z-1.0000 I-0.0169 J-0.0293 F120
G02 X144.5094 Y385.0293 I0.0124 J0.0315 F900
G02 X144.4801 Y384.9685 I-0.0169 J-0.0293 F900
G00 Z5.0000 F480


;No. 22: Part 4
M05
G0 Z60 F2000	
G0 X0 Y0 F4000
M0 ("CHANGE BIT TO: "< n >) ; 
M108
M0 (?SET UP PROBE?)
M108
; Touch off Z
G38.2 Z-20 F300 ; perform z-probe
G92 Z0.5 ; Set Z to thickness of touch plate 6.6mm in my case
G0 Z15 F500 ; raise 15mm
M0 (?Remove probe - READY TO RESUME JOB?)
M108
;Change tool: 1/8" Troch Sheet Met
M03
G00 X448.5293 Y-1.5350 Z5.0000 F1500
G00 X449.3123 Y-1.6731 Z0.5107 F480
G01 X449.2764 Y-1.8069 Z0.5223 F60
G01 X449.2178 Y-1.9325 Z0.5447 F60
G01 X449.1383 Y-2.0460 Z0.5670 F60
G01 X449.0404 Y-2.1440 Z0.5786 F60
G01 X448.9268 Y-2.2235 Z0.5717 F60
G01 X448.8012 Y-2.2821 Z0.5433 F60
G01 X448.6674 Y-2.3179 Z0.4963 F60
G01 X448.5293 Y-2.3300 Z0.4387 F60
G01 X448.3913 Y-2.3179 Z0.3810 F60
G01 X448.2574 Y-2.2821 Z0.3341 F60
G01 X448.1318 Y-2.2235 Z0.3057 F60
G01 X448.0183 Y-2.1440 Z0.2987 F60
G01 X447.9203 Y-2.0460 Z0.3103 F60
G01 X447.8408 Y-1.9325 Z0.3327 F60
G01 X447.7823 Y-1.8069 Z0.3550 F60
G01 X447.7464 Y-1.6731 Z0.3666 F60
G01 X447.7343 Y-1.5350 Z0.3597 F60
G01 X447.7464 Y-1.3969 Z0.3313 F60
G01 X447.7823 Y-1.2631 Z0.2843 F60
G01 X447.8408 Y-1.1375 Z0.2267 F60
G01 X447.9203 Y-1.0240 Z0.1690 F60
G01 X448.0183 Y-0.9260 Z0.1221 F60
G01 X448.1318 Y-0.8465 Z0.0937 F60
G01 X448.2574 Y-0.7879 Z0.0867 F60
G01 X448.3913 Y-0.7521 Z0.0983 F60
G01 X448.5293 Y-0.7400 Z0.1207 F60
G01 X448.6674 Y-0.7521 Z0.1430 F60
G01 X448.8012 Y-0.7879 Z0.1546 F60
G01 X448.8402 Y-0.8033 Z0.1547 F60
G01 X448.9802 Y-0.8679 Z0.1585 F60
G01 X449.1070 Y-0.9528 Z0.1412 F60
G01 X449.2174 Y-1.0553 Z0.1072 F60
G01 X449.3084 Y-1.1723 Z0.0656 F60
G01 X449.3779 Y-1.3003 Z0.0273 F60
G01 X449.4244 Y-1.4354 Z0.0025 F60
G01 X449.4468 Y-1.5734 Z-0.0022 F60
G01 X449.4451 Y-1.7101 Z0.0142 F60
G01 X449.4444 Y-1.7171 Z0.0155 F60
G01 X449.4179 Y-1.8470 Z0.0492 F60
G01 X449.3693 Y-1.9672 Z0.0901 F60
G01 X449.3006 Y-2.0741 Z0.1269 F60
G01 X449.2144 Y-2.1644 Z0.1499 F60
G01 X449.1138 Y-2.2353 Z0.1526 F60
G01 X449.0024 Y-2.2845 Z0.1342 F60
G01 X448.8842 Y-2.3106 Z0.0996 F60
G01 X448.7633 Y-2.3126 Z0.0579 F60
G01 X448.7570 Y-2.3121 Z0.0557 F60
G01 X448.6377 Y-2.2878 Z0.0184 F60
G01 X448.5242 Y-2.2401 Z-0.0045 F60
G01 X448.4205 Y-2.1704 Z-0.0071 F60
G01 X448.3304 Y-2.0806 Z0.0114 F60
G01 X448.2570 Y-1.9735 Z0.0457 F60
G01 X448.2032 Y-1.8521 Z0.0866 F60
G01 X448.1712 Y-1.7203 Z0.1230 F60
G01 X448.1623 Y-1.5817 Z0.1450 F60
G01 X448.1625 Y-1.5745 Z0.1456 F60
G01 X448.1788 Y-1.4325 Z0.1461 F60
G01 X448.2192 Y-1.2924 Z0.1257 F60
G01 X448.2829 Y-1.1584 Z0.0899 F60
G01 X448.3686 Y-1.0344 Z0.0480 F60
G01 X448.4742 Y-0.9241 Z0.0112 F60
G01 X448.5970 Y-0.8308 Z-0.0107 F60
G01 X448.7338 Y-0.7571 Z-0.0121 F60
G01 X448.8809 Y-0.7053 Z0.0073 F60
G01 X448.8887 Y-0.7032 Z0.0088 F60
G01 X449.0423 Y-0.6750 Z0.0442 F60
G01 X449.1980 Y-0.6707 Z0.0852 F60
G01 X449.3516 Y-0.6906 Z0.1205 F60
G01 X449.4988 Y-0.7337 Z0.1406 F60
G01 X449.6358 Y-0.7988 Z0.1400 F60
G01 X449.7590 Y-0.8836 Z0.1187 F60
G01 X449.8650 Y-0.9855 Z0.0822 F60
G01 X449.9512 Y-1.1012 Z0.0404 F60
G01 X449.9551 Y-1.1074 Z0.0383 F60
G01 X450.0179 Y-1.2328 Z0.0026 F60
G01 X450.0574 Y-1.3641 Z-0.0174 F60
G01 X450.0728 Y-1.4973 Z-0.0166 F60
G01 X450.0642 Y-1.6282 Z0.0047 F60
G01 X450.0322 Y-1.7525 Z0.0408 F60
G01 X449.9785 Y-1.8665 Z0.0817 F60
G01 X449.9052 Y-1.9663 Z0.1164 F60
G01 X449.8149 Y-2.0489 Z0.1355 F60
G01 X449.8099 Y-2.0527 Z0.1360 F60
G01 X449.7051 Y-2.1133 Z0.1331 F60
G01 X449.5904 Y-2.1519 Z0.1099 F60
G01 X449.4700 Y-2.1670 Z0.0724 F60
G01 X449.3480 Y-2.1580 Z0.0306 F60
G01 X449.2285 Y-2.1250 Z-0.0044 F60
G01 X449.1157 Y-2.0688 Z-0.0235 F60
G01 X449.0136 Y-1.9909 Z-0.0215 F60
G01 X448.9257 Y-1.8935 Z0.0007 F60
G01 X448.9216 Y-1.8880 Z0.0024 F60
G01 X448.8517 Y-1.7722 Z0.0394 F60
G01 X448.8019 Y-1.6430 Z0.0802 F60
G01 X448.7744 Y-1.5043 Z0.1137 F60
G01 X448.7703 Y-1.3600 Z0.1308 F60
G01 X448.7903 Y-1.2143 Z0.1268 F60
G01 X448.8344 Y-1.0713 Z0.1027 F60
G01 X448.9016 Y-0.9353 Z0.0647 F60
G01 X448.9904 Y-0.8101 Z0.0230 F60
G01 X448.9955 Y-0.8040 Z0.0210 F60
G01 X449.1042 Y-0.6931 Z-0.0128 F60
G01 X449.2292 Y-0.5999 Z-0.0298 F60
G01 X449.3675 Y-0.5271 Z-0.0257 F60
G01 X449.5150 Y-0.4765 Z-0.0016 F60
G01 X449.6680 Y-0.4494 Z0.0359 F60
G01 X449.8222 Y-0.4465 Z0.0766 F60
G01 X449.9734 Y-0.4675 Z0.1095 F60
G01 X450.1174 Y-0.5116 Z0.1256 F60
G01 X450.1246 Y-0.5145 Z0.1259 F60
G01 X450.2564 Y-0.5803 Z0.1197 F60
G01 X450.3736 Y-0.6652 Z0.0937 F60
G01 X450.4728 Y-0.7664 Z0.0549 F60
G01 X450.5517 Y-0.8806 Z0.0134 F60
G01 X450.6082 Y-1.0039 Z-0.0197 F60
G01 X450.6412 Y-1.1323 Z-0.0357 F60
G01 X450.6500 Y-1.2618 Z-0.0304 F60
G01 X450.6348 Y-1.3880 Z-0.0054 F60
G01 X450.6334 Y-1.3944 Z-0.0037 F60
G01 X450.5936 Y-1.5119 Z0.0346 F60
G01 X450.5324 Y-1.6181 Z0.0750 F60
G01 X450.4523 Y-1.7094 Z0.1065 F60
G01 X450.3561 Y-1.7826 Z0.1205 F60
G01 X450.2471 Y-1.8354 Z0.1132 F60
G01 X450.1291 Y-1.8657 Z0.0864 F60
G01 X450.0062 Y-1.8724 Z0.0471 F60
G01 X449.8825 Y-1.8549 Z0.0058 F60
G01 X449.8762 Y-1.8533 Z0.0039 F60
G01 X449.7557 Y-1.8099 Z-0.0278 F60
G01 X449.6429 Y-1.7436 Z-0.0417 F60
G01 X449.5417 Y-1.6562 Z-0.0343 F60
G01 X449.4556 Y-1.5498 Z-0.0075 F60
G01 X449.3876 Y-1.4275 Z0.0312 F60
G01 X449.3403 Y-1.2927 Z0.0714 F60
G01 X449.3155 Y-1.1491 Z0.1021 F60
G01 X449.3144 Y-1.0007 Z0.1151 F60
G01 X449.3150 Y-0.9930 Z0.1152 F60
G01 X449.3386 Y-0.8434 Z0.1057 F60
G01 X449.3861 Y-0.6977 Z0.0772 F60
G01 X449.4564 Y-0.5599 Z0.0372 F60
G01 X449.5478 Y-0.4339 Z-0.0036 F60
G01 X449.6579 Y-0.3232 Z-0.0346 F60
G01 X449.7838 Y-0.2307 Z-0.0474 F60
G01 X449.9220 Y-0.1590 Z-0.0389 F60
G01 X450.0689 Y-0.1099 Z-0.0113 F60
G01 X450.0766 Y-0.1080 Z-0.0095 F60
G01 X450.2274 Y-0.0831 Z0.0299 F60
G01 X450.3783 Y-0.0823 Z0.0696 F60
G01 X450.5252 Y-0.1054 Z0.0988 F60
G01 X450.6639 Y-0.1512 Z0.1097 F60
G01 X450.7907 Y-0.2180 Z0.0991 F60
G01 X450.9020 Y-0.3034 Z0.0698 F60
G01 X450.9949 Y-0.4044 Z0.0295 F60
G01 X451.0669 Y-0.5175 Z-0.0111 F60
G01 X451.0700 Y-0.5236 Z-0.0130 F60
G01 X451.1175 Y-0.6448 Z-0.0424 F60
G01 X451.1411 Y-0.7700 Z-0.0531 F60
G01 X451.1406 Y-0.8952 Z-0.0424 F60
G01 X451.1163 Y-1.0161 Z-0.0132 F60
G01 X451.0694 Y-1.1286 Z0.0265 F60
G01 X451.0016 Y-1.2290 Z0.0659 F60
G01 X450.9153 Y-1.3137 Z0.0943 F60
G01 X450.8136 Y-1.3799 Z0.1041 F60
G01 X450.8080 Y-1.3828 Z0.1040 F60
G01 X450.6931 Y-1.4262 Z0.0913 F60
G01 X450.5702 Y-1.4469 Z0.0604 F60
G01 X450.4434 Y-1.4436 Z0.0196 F60
G01 X450.3169 Y-1.4163 Z-0.0204 F60
G01 X450.1949 Y-1.3652 Z-0.0490 F60
G01 X450.0815 Y-1.2915 Z-0.0586 F60
G01 X449.9804 Y-1.1970 Z-0.0468 F60
G01 X449.8951 Y-1.0843 Z-0.0169 F60
G01 X449.8912 Y-1.0780 Z-0.0150 F60
G01 X449.8248 Y-0.9487 Z0.0252 F60
G01 X449.7797 Y-0.8077 Z0.0639 F60
G01 X449.7574 Y-0.6590 Z0.0908 F60
G01 X449.7589 Y-0.5066 Z0.0983 F60
G01 X449.7847 Y-0.3548 Z0.0846 F60
G01 X449.8341 Y-0.2076 Z0.0529 F60
G01 X449.9060 Y-0.0692 Z0.0119 F60
G01 X449.9986 Y0.0566 Z-0.0278 F60
G01 X450.0039 Y0.0627 Z-0.0296 F60
G01 X450.1147 Y0.1723 Z-0.0565 F60
G01 X450.2404 Y0.2629 Z-0.0639 F60
G01 X450.3776 Y0.3322 Z-0.0500 F60
G01 X450.5223 Y0.3786 Z-0.0186 F60
G01 X450.6705 Y0.4011 Z0.0218 F60
G01 X450.8179 Y0.3994 Z0.0601 F60
G01 X450.9604 Y0.3741 Z0.0861 F60
G01 X451.0939 Y0.3264 Z0.0926 F60
G01 X451.1005 Y0.3234 Z0.0923 F60
G01 X451.2197 Y0.2546 Z0.0765 F60
G01 X451.3227 Y0.1680 Z0.0434 F60
G01 X451.4065 Y0.0666 Z0.0020 F60
G01 X451.4690 Y-0.0460 Z-0.0369 F60
G01 X451.5085 Y-0.1660 Z-0.0630 F60
G01 X451.5240 Y-0.2892 Z-0.0693 F60
G01 X451.5154 Y-0.4115 Z-0.0543 F60
G01 X451.4832 Y-0.5286 Z-0.0222 F60
G01 X451.4809 Y-0.5344 Z-0.0202 F60
G01 X451.4243 Y-0.6413 Z0.0204 F60
G01 X451.3475 Y-0.7351 Z0.0580 F60
G01 X451.2529 Y-0.8124 Z0.0822 F60
G01 X451.1438 Y-0.8706 Z0.0865 F60
G01 X451.0236 Y-0.9072 Z0.0696 F60
G01 X450.8962 Y-0.9208 Z0.0358 F60
G01 X450.7659 Y-0.9104 Z-0.0058 F60
G01 X450.6367 Y-0.8759 Z-0.0442 F60
G01 X450.6301 Y-0.8735 Z-0.0459 F60
G01 X450.5058 Y-0.8138 Z-0.0702 F60
G01 X450.3910 Y-0.7320 Z-0.0743 F60
G01 X450.2895 Y-0.6299 Z-0.0572 F60
G01 X450.2046 Y-0.5103 Z-0.0238 F60
G01 X450.1390 Y-0.3762 Z0.0170 F60
G01 X450.0950 Y-0.2313 Z0.0541 F60
G01 X450.0742 Y-0.0795 Z0.0774 F60
G01 X450.0773 Y0.0751 Z0.0806 F60
G01 X450.0782 Y0.0831 Z0.0801 F60
G01 X450.1057 Y0.2365 Z0.0612 F60
G01 X450.1568 Y0.3842 Z0.0262 F60
G01 X450.2299 Y0.5221 Z-0.0156 F60
G01 X450.3231 Y0.6465 Z-0.0531 F60
G01 X450.4337 Y0.7542 Z-0.0764 F60
G01 X450.5586 Y0.8424 Z-0.0794 F60
G01 X450.6941 Y0.9090 Z-0.0614 F60
G01 X450.8364 Y0.9523 Z-0.0273 F60
G01 X450.8438 Y0.9539 Z-0.0253 F60
G01 X450.9878 Y0.9723 Z0.0156 F60
G01 X451.1299 Y0.9666 Z0.0517 F60
G01 X451.2660 Y0.9375 Z0.0732 F60
G01 X451.3921 Y0.8864 Z0.0741 F60
G01 X451.5046 Y0.8154 Z0.0542 F60
G01 X451.6003 Y0.7270 Z0.0186 F60
G01 X451.6763 Y0.6246 Z-0.0233 F60
G01 X451.7305 Y0.5118 Z-0.0603 F60
G01 X451.7327 Y0.5058 Z-0.0619 F60
G01 X451.7615 Y0.3865 Z-0.0833 F60
G01 X451.7662 Y0.2650 Z-0.0841 F60
G01 X451.7469 Y0.1456 Z-0.0641 F60
G01 X451.7042 Y0.0323 Z-0.0288 F60
G01 X451.6396 Y-0.0707 Z0.0121 F60
G01 X451.5552 Y-0.1600 Z0.0477 F60
G01 X451.4537 Y-0.2322 Z0.0682 F60
G01 X451.3382 Y-0.2847 Z0.0680 F60
G01 X451.3320 Y-0.2868 Z0.0674 F60
G01 X451.2049 Y-0.3160 Z0.0455 F60
G01 X451.0717 Y-0.3219 Z0.0088 F60
G01 X450.9366 Y-0.3036 Z-0.0331 F60
G01 X450.8037 Y-0.2613 Z-0.0690 F60
G01 X450.6772 Y-0.1957 Z-0.0894 F60
G01 X450.5611 Y-0.1083 Z-0.0891 F60
G01 X450.4590 Y-0.0012 Z-0.0681 F60
G01 X450.3741 Y0.1228 Z-0.0323 F60
G01 X450.3702 Y0.1296 Z-0.0302 F60
G01 X450.3053 Y0.2682 Z0.0107 F60
G01 X450.2624 Y0.4166 Z0.0451 F60
G01 X450.2430 Y0.5709 Z0.0636 F60
G01 X450.2476 Y0.7270 Z0.0612 F60
G01 X450.2763 Y0.8806 Z0.0384 F60
G01 X450.3282 Y1.0275 Z0.0011 F60
G01 X450.4018 Y1.1639 Z-0.0407 F60
G01 X450.4950 Y1.2861 Z-0.0760 F60
G01 X450.5003 Y1.2920 Z-0.0775 F60
G01 X450.6101 Y1.3960 Z-0.0959 F60
G01 X450.7332 Y1.4799 Z-0.0933 F60
G01 X450.8661 Y1.5417 Z-0.0705 F60
G01 X451.0046 Y1.5800 Z-0.0337 F60
G01 X451.1446 Y1.5942 Z0.0072 F60
G01 X451.2819 Y1.5844 Z0.0409 F60
G01 X451.4124 Y1.5514 Z0.0585 F60
G01 X451.5322 Y1.4968 Z0.0549 F60
G01 X451.5380 Y1.4934 Z0.0542 F60
G01 X451.6416 Y1.4184 Z0.0295 F60
G01 X451.7275 Y1.3270 Z-0.0087 F60
G01 X451.7932 Y1.2224 Z-0.0504 F60
G01 X451.8367 Y1.1083 Z-0.0844 F60
G01 X451.8567 Y0.9888 Z-0.1019 F60
G01 X451.8525 Y0.8679 Z-0.0982 F60
G01 X451.8244 Y0.7500 Z-0.0744 F60
G01 X451.7731 Y0.6391 Z-0.0371 F60
G01 X451.7699 Y0.6336 Z-0.0350 F60
G01 X451.6955 Y0.5343 Z0.0056 F60
G01 X451.6020 Y0.4497 Z0.0381 F60
G01 X451.4922 Y0.3829 Z0.0536 F60
G01 X451.3693 Y0.3365 Z0.0478 F60
G01 X451.2372 Y0.3123 Z0.0222 F60
G01 X451.0998 Y0.3118 Z-0.0164 F60
G01 X450.9614 Y0.3353 Z-0.0580 F60
G01 X450.8260 Y0.3828 Z-0.0914 F60
G01 X450.6980 Y0.4534 Z-0.1078 F60
G01 X450.5810 Y0.5454 Z-0.1030 F60
G01 X450.4787 Y0.6566 Z-0.0783 F60
G01 X450.3943 Y0.7841 Z-0.0406 F60
G01 X450.3302 Y0.9246 Z0.0000 F60
G01 X450.2884 Y1.0744 Z0.0325 F60
G01 X450.2701 Y1.2294 Z0.0480 F60
G01 X450.2760 Y1.3855 Z0.0423 F60
G01 X450.3059 Y1.5385 Z0.0167 F60
G01 X450.3588 Y1.6843 Z-0.0220 F60
G01 X450.4331 Y1.8189 Z-0.0635 F60
G01 X450.5266 Y1.9388 Z-0.0969 F60
G01 X450.6365 Y2.0409 Z-0.1133 F60
G01 X450.7594 Y2.1227 Z-0.1085 F60
G01 X450.8915 Y2.1822 Z-0.0839 F60
G01 X451.0288 Y2.2181 Z-0.0461 F60
G01 X451.1673 Y2.2298 Z-0.0055 F60
G01 X451.3026 Y2.2176 Z0.0269 F60
G01 X451.4307 Y2.1824 Z0.0424 F60
G01 X451.5477 Y2.1257 Z0.0367 F60
G01 X451.6499 Y2.0498 Z0.0111 F60
G01 X451.7344 Y1.9577 Z-0.0275 F60
G01 X451.7985 Y1.8525 Z-0.0691 F60
G01 X451.8403 Y1.7380 Z-0.1025 F60
G01 X451.8585 Y1.6183 Z-0.1189 F60
G01 X451.8526 Y1.4975 Z-0.1141 F60
G01 X451.8228 Y1.3798 Z-0.0894 F60
G01 X451.7699 Y1.2694 Z-0.0517 F60
G01 X451.6955 Y1.1701 Z-0.0111 F60
G01 X451.6020 Y1.0855 Z0.0214 F60
G01 X451.4922 Y1.0187 Z0.0369 F60
G01 X451.3693 Y0.9723 Z0.0311 F60
G01 X451.2372 Y0.9481 Z0.0056 F60
G01 X451.0998 Y0.9475 Z-0.0331 F60
G01 X450.9614 Y0.9711 Z-0.0746 F60
G01 X450.8260 Y1.0186 Z-0.1080 F60
G01 X450.6980 Y1.0892 Z-0.1245 F60
G01 X450.5810 Y1.1812 Z-0.1196 F60
G01 X450.4787 Y1.2924 Z-0.0950 F60
G01 X450.3943 Y1.4199 Z-0.0572 F60
G01 X450.3302 Y1.5604 Z-0.0166 F60
G01 X450.2884 Y1.7102 Z0.0158 F60
G01 X450.2701 Y1.8652 Z0.0313 F60
G01 X450.2760 Y2.0213 Z0.0256 F60
G01 X450.3059 Y2.1743 Z0.0000 F60
G01 X450.3588 Y2.3200 Z-0.0386 F60
G01 X450.4331 Y2.4547 Z-0.0802 F60
G01 X450.5266 Y2.5746 Z-0.1136 F60
G01 X450.6365 Y2.6767 Z-0.1300 F60
G01 X450.7594 Y2.7585 Z-0.1252 F60
G01 X450.8915 Y2.8180 Z-0.1005 F60
G01 X451.0288 Y2.8538 Z-0.0628 F60
G01 X451.1673 Y2.8656 Z-0.0222 F60
G01 X451.3026 Y2.8534 Z0.0103 F60
G01 X451.4307 Y2.8182 Z0.0258 F60
G01 X451.5477 Y2.7615 Z0.0200 F60
G01 X451.6499 Y2.6856 Z-0.0055 F60
G01 X451.7344 Y2.5934 Z-0.0442 F60
G01 X451.7985 Y2.4882 Z-0.0857 F60
G01 X451.8403 Y2.3738 Z-0.1191 F60
G01 X451.8585 Y2.2541 Z-0.1356 F60
G01 X451.8526 Y2.1333 Z-0.1307 F60
G01 X451.8228 Y2.0156 Z-0.1061 F60
G01 X451.7699 Y1.9052 Z-0.0683 F60
G01 X451.6955 Y1.8059 Z-0.0277 F60
G01 X451.6020 Y1.7213 Z0.0047 F60
G01 X451.4922 Y1.6545 Z0.0202 F60
G01 X451.3693 Y1.6080 Z0.0145 F60
G01 X451.2372 Y1.5839 Z-0.0111 F60
G01 X451.0998 Y1.5833 Z-0.0498 F60
G01 X450.9614 Y1.6069 Z-0.0913 F60
G01 X450.8260 Y1.6544 Z-0.1247 F60
G01 X450.6980 Y1.7250 Z-0.1411 F60
G01 X450.5810 Y1.8170 Z-0.1363 F60
G01 X450.4787 Y1.9281 Z-0.1116 F60
G01 X450.3943 Y2.0557 Z-0.0739 F60
G01 X450.3302 Y2.1962 Z-0.0333 F60
G01 X450.2884 Y2.3460 Z-0.0008 F60
G01 X450.2701 Y2.5010 Z0.0147 F60
G01 X450.2760 Y2.6571 Z0.0089 F60
G01 X450.3059 Y2.8101 Z-0.0166 F60
G01 X450.3588 Y2.9558 Z-0.0553 F60
G01 X450.4331 Y3.0904 Z-0.0968 F60
G01 X450.5266 Y3.2104 Z-0.1302 F60
G01 X450.6365 Y3.3125 Z-0.1467 F60
G01 X450.7594 Y3.3943 Z-0.1418 F60
G01 X450.8915 Y3.4537 Z-0.1172 F60
G01 X451.0288 Y3.4896 Z-0.0795 F60
G01 X451.1673 Y3.5014 Z-0.0388 F60
G01 X451.3026 Y3.4892 Z-0.0064 F60
G01 X451.4307 Y3.4539 Z0.0091 F60
G01 X451.5477 Y3.3973 Z0.0034 F60
G01 X451.6499 Y3.3214 Z-0.0222 F60
G01 X451.7344 Y3.2292 Z-0.0609 F60
G01 X451.7985 Y3.1240 Z-0.1024 F60
G01 X451.8403 Y3.0096 Z-0.1358 F60
G01 X451.8585 Y2.8898 Z-0.1522 F60
G01 X451.8526 Y2.7691 Z-0.1474 F60
G01 X451.8228 Y2.6514 Z-0.1228 F60
G01 X451.7699 Y2.5410 Z-0.0850 F60
G01 X451.6955 Y2.4417 Z-0.0444 F60
G01 X451.6020 Y2.3571 Z-0.0119 F60
G01 X451.4922 Y2.2903 Z0.0036 F60
G01 X451.3693 Y2.2438 Z-0.0022 F60
G01 X451.2372 Y2.2197 Z-0.0277 F60
G01 X451.0998 Y2.2191 Z-0.0664 F60
G01 X450.9614 Y2.2427 Z-0.1080 F60
G01 X450.8260 Y2.2902 Z-0.1413 F60
G01 X450.6980 Y2.3607 Z-0.1578 F60
G01 X450.5810 Y2.4527 Z-0.1530 F60
G01 X450.4787 Y2.5639 Z-0.1283 F60
G01 X450.3943 Y2.6914 Z-0.0906 F60
G01 X450.3302 Y2.8320 Z-0.0500 F60
G01 X450.2884 Y2.9817 Z-0.0175 F60
G01 X450.2701 Y3.1368 Z-0.0020 F60
G01 X450.2760 Y3.2929 Z-0.0077 F60
G01 X450.3059 Y3.4459 Z-0.0333 F60
G01 X450.3588 Y3.5916 Z-0.0720 F60
G01 X450.4331 Y3.7262 Z-0.1135 F60
G01 X450.5266 Y3.8461 Z-0.1469 F60
G01 X450.6365 Y3.9483 Z-0.1633 F60
G01 X450.7594 Y4.0301 Z-0.1585 F60
G01 X450.8915 Y4.0895 Z-0.1339 F60
G01 X451.0288 Y4.1254 Z-0.0961 F60
G01 X451.1673 Y4.1372 Z-0.0555 F60
G01 X451.3026 Y4.1250 Z-0.0230 F60
G01 X451.4307 Y4.0897 Z-0.0075 F60
G01 X451.5477 Y4.0331 Z-0.0133 F60
G01 X451.6499 Y3.9572 Z-0.0388 F60
G01 X451.7344 Y3.8650 Z-0.0775 F60
G01 X451.7985 Y3.7598 Z-0.1191 F60
G01 X451.8403 Y3.6453 Z-0.1525 F60
G01 X451.8585 Y3.5256 Z-0.1689 F60
G01 X451.8526 Y3.4048 Z-0.1641 F60
G01 X451.8228 Y3.2872 Z-0.1394 F60
G01 X451.7699 Y3.1768 Z-0.1017 F60
G01 X451.6955 Y3.0775 Z-0.0611 F60
G01 X451.6020 Y2.9929 Z-0.0286 F60
G01 X451.4922 Y2.9260 Z-0.0131 F60
G01 X451.3693 Y2.8796 Z-0.0188 F60
G01 X451.2372 Y2.8555 Z-0.0444 F60
G01 X451.0998 Y2.8549 Z-0.0831 F60
G01 X450.9614 Y2.8784 Z-0.1246 F60
G01 X450.8260 Y2.9260 Z-0.1580 F60
G01 X450.6980 Y2.9965 Z-0.1744 F60
G01 X450.5810 Y3.0885 Z-0.1696 F60
G01 X450.4787 Y3.1997 Z-0.1450 F60
G01 X450.3943 Y3.3272 Z-0.1072 F60
G01 X450.3302 Y3.4677 Z-0.0666 F60
G01 X450.2884 Y3.6175 Z-0.0341 F60
G01 X450.2701 Y3.7725 Z-0.0186 F60
G01 X450.2760 Y3.9287 Z-0.0244 F60
G01 X450.3059 Y4.0816 Z-0.0500 F60
G01 X450.3588 Y4.2274 Z-0.0886 F60
G01 X450.4331 Y4.3620 Z-0.1302 F60
G01 X450.5266 Y4.4819 Z-0.1636 F60
G01 X450.6365 Y4.5841 Z-0.1800 F60
G01 X450.7594 Y4.6658 Z-0.1752 F60
G01 X450.8915 Y4.7253 Z-0.1505 F60
G01 X451.0288 Y4.7612 Z-0.1128 F60
G01 X451.1673 Y4.7729 Z-0.0722 F60
G01 X451.3026 Y4.7608 Z-0.0397 F60
G01 X451.4307 Y4.7255 Z-0.0242 F60
G01 X451.5477 Y4.6688 Z-0.0299 F60
G01 X451.6499 Y4.5930 Z-0.0555 F60
G01 X451.7344 Y4.5008 Z-0.0942 F60
G01 X451.7985 Y4.3956 Z-0.1357 F60
G01 X451.8403 Y4.2811 Z-0.1691 F60
G01 X451.8585 Y4.1614 Z-0.1855 F60
G01 X451.8526 Y4.0406 Z-0.1807 F60
G01 X451.8228 Y3.9230 Z-0.1561 F60
G01 X451.7699 Y3.8125 Z-0.1183 F60
G01 X451.6955 Y3.7132 Z-0.0777 F60
G01 X451.6020 Y3.6286 Z-0.0452 F60
G01 X451.4922 Y3.5618 Z-0.0297 F60
G01 X451.3693 Y3.5154 Z-0.0355 F60
G01 X451.2372 Y3.4912 Z-0.0611 F60
G01 X451.0998 Y3.4907 Z-0.0997 F60
G01 X450.9614 Y3.5142 Z-0.1413 F60
G01 X450.8260 Y3.5617 Z-0.1747 F60
G01 X450.6980 Y3.6323 Z-0.1911 F60
G01 X450.5810 Y3.7243 Z-0.1863 F60
G01 X450.4787 Y3.8355 Z-0.1616 F60
G01 X450.3943 Y3.9630 Z-0.1239 F60
G01 X450.3302 Y4.1035 Z-0.0833 F60
G01 X450.2884 Y4.2533 Z-0.0508 F60
G01 X450.2701 Y4.4083 Z-0.0353 F60
G01 X450.2760 Y4.5644 Z-0.0410 F60
G01 X450.3059 Y4.7174 Z-0.0666 F60
G01 X450.3588 Y4.8632 Z-0.1053 F60
G01 X450.4331 Y4.9978 Z-0.1468 F60
G01 X450.5266 Y5.1177 Z-0.1802 F60
G01 X450.6365 Y5.2198 Z-0.1966 F60
G01 X450.7594 Y5.3016 Z-0.1918 F60
G01 X450.8915 Y5.3611 Z-0.1672 F60
G01 X451.0288 Y5.3970 Z-0.1294 F60
G01 X451.1673 Y5.4087 Z-0.0888 F60
G01 X451.3026 Y5.3965 Z-0.0564 F60
G01 X451.4307 Y5.3613 Z-0.0409 F60
G01 X451.5477 Y5.3046 Z-0.0466 F60
G01 X451.6499 Y5.2288 Z-0.0722 F60
G01 X451.7344 Y5.1366 Z-0.1108 F60
G01 X451.7985 Y5.0314 Z-0.1524 F60
G01 X451.8403 Y4.9169 Z-0.1858 F60
G01 X451.8585 Y4.7972 Z-0.2022 F60
G01 X451.8526 Y4.6764 Z-0.1974 F60
G01 X451.8228 Y4.5587 Z-0.1727 F60
G01 X451.7699 Y4.4483 Z-0.1350 F60
G01 X451.6955 Y4.3490 Z-0.0944 F60
G01 X451.6020 Y4.2644 Z-0.0619 F60
G01 X451.4922 Y4.1976 Z-0.0464 F60
G01 X451.3693 Y4.1512 Z-0.0522 F60
G01 X451.2372 Y4.1270 Z-0.0777 F60
G01 X451.0998 Y4.1264 Z-0.1164 F60
G01 X450.9614 Y4.1500 Z-0.1579 F60
G01 X450.8260 Y4.1975 Z-0.1913 F60
G01 X450.6980 Y4.2681 Z-0.2078 F60
G01 X450.5810 Y4.3601 Z-0.2029 F60
G01 X450.4787 Y4.4713 Z-0.1783 F60
G01 X450.3943 Y4.5988 Z-0.1405 F60
G01 X450.3302 Y4.7393 Z-0.0999 F60
G01 X450.2884 Y4.8891 Z-0.0675 F60
G01 X450.2701 Y5.0441 Z-0.0520 F60
G01 X450.2760 Y5.2002 Z-0.0577 F60
G01 X450.3059 Y5.3532 Z-0.0833 F60
G01 X450.3588 Y5.4990 Z-0.1219 F60
G01 X450.4331 Y5.6336 Z-0.1635 F60
G01 X450.5266 Y5.7535 Z-0.1969 F60
G01 X450.6365 Y5.8556 Z-0.2133 F60
G01 X450.7594 Y5.9374 Z-0.2085 F60
G01 X450.8915 Y5.9969 Z-0.1838 F60
G01 X451.0288 Y6.0328 Z-0.1461 F60
G01 X451.1673 Y6.0445 Z-0.1055 F60
G01 X451.3026 Y6.0323 Z-0.0730 F60
G01 X451.4307 Y5.9971 Z-0.0575 F60
G01 X451.5477 Y5.9404 Z-0.0633 F60
G01 X451.6499 Y5.8645 Z-0.0888 F60
G01 X451.7344 Y5.7723 Z-0.1275 F60
G01 X451.7985 Y5.6672 Z-0.1690 F60
G01 X451.8403 Y5.5527 Z-0.2024 F60
G01 X451.8585 Y5.4330 Z-0.2189 F60
G01 X451.8526 Y5.3122 Z-0.2140 F60
G01 X451.8228 Y5.1945 Z-0.1894 F60
G01 X451.7699 Y5.0841 Z-0.1516 F60
G01 X451.6955 Y4.9848 Z-0.1110 F60
G01 X451.6020 Y4.9002 Z-0.0786 F60
G01 X451.4922 Y4.8334 Z-0.0631 F60
G01 X451.3693 Y4.7869 Z-0.0688 F60
G01 X451.2372 Y4.7628 Z-0.0944 F60
G01 X451.0998 Y4.7622 Z-0.1331 F60
G01 X450.9614 Y4.7858 Z-0.1746 F60
G01 X450.8260 Y4.8333 Z-0.2080 F60
G01 X450.6980 Y4.9039 Z-0.2244 F60
G01 X450.5810 Y4.9959 Z-0.2196 F60
G01 X450.4787 Y5.1070 Z-0.1949 F60
G01 X450.3943 Y5.2346 Z-0.1572 F60
G01 X450.3302 Y5.3751 Z-0.1166 F60
G01 X450.2884 Y5.5249 Z-0.0841 F60
G01 X450.2701 Y5.6799 Z-0.0686 F60
G01 X450.2760 Y5.8360 Z-0.0744 F60
G01 X450.3059 Y5.9890 Z-0.0999 F60
G01 X450.3588 Y6.1347 Z-0.1386 F60
G01 X450.4331 Y6.2693 Z-0.1801 F60
G01 X450.5266 Y6.3893 Z-0.2135 F60
G01 X450.6365 Y6.4914 Z-0.2300 F60
G01 X450.7594 Y6.5732 Z-0.2251 F60
G01 X450.8915 Y6.6326 Z-0.2005 F60
G01 X451.0288 Y6.6685 Z-0.1628 F60
G01 X451.1673 Y6.6803 Z-0.1221 F60
G01 X451.3026 Y6.6681 Z-0.0897 F60
G01 X451.4307 Y6.6329 Z-0.0742 F60
G01 X451.5477 Y6.5762 Z-0.0799 F60
G01 X451.6499 Y6.5003 Z-0.1055 F60
G01 X451.7344 Y6.4081 Z-0.1442 F60
G01 X451.7985 Y6.3029 Z-0.1857 F60
G01 X451.8403 Y6.1885 Z-0.2191 F60
G01 X451.8585 Y6.0688 Z-0.2355 F60
G01 X451.8526 Y5.9480 Z-0.2307 F60
G01 X451.8228 Y5.8303 Z-0.2061 F60
G01 X451.7699 Y5.7199 Z-0.1683 F60
G01 X451.6955 Y5.6206 Z-0.1277 F60
G01 X451.6020 Y5.5360 Z-0.0952 F60
G01 X451.4922 Y5.4692 Z-0.0797 F60
G01 X451.3693 Y5.4227 Z-0.0855 F60
G01 X451.2372 Y5.3986 Z-0.1110 F60
G01 X451.0998 Y5.3980 Z-0.1497 F60
G01 X450.9614 Y5.4216 Z-0.1913 F60
G01 X450.8260 Y5.4691 Z-0.2246 F60
G01 X450.6980 Y5.5397 Z-0.2411 F60
G01 X450.5810 Y5.6317 Z-0.2363 F60
G01 X450.4787 Y5.7428 Z-0.2116 F60
G01 X450.3943 Y5.8703 Z-0.1739 F60
G01 X450.3302 Y6.0109 Z-0.1333 F60
G01 X450.2884 Y6.1606 Z-0.1008 F60
G01 X450.2701 Y6.3157 Z-0.0853 F60
G01 X450.2760 Y6.4718 Z-0.0910 F60
G01 X450.3059 Y6.6248 Z-0.1166 F60
G01 X450.3588 Y6.7705 Z-0.1553 F60
G01 X450.4331 Y6.9051 Z-0.1968 F60
G01 X450.5266 Y7.0251 Z-0.2302 F60
G01 X450.6365 Y7.1272 Z-0.2466 F60
G01 X450.7594 Y7.2090 Z-0.2418 F60
G01 X450.8915 Y7.2684 Z-0.2172 F60
G01 X451.0288 Y7.3043 Z-0.1794 F60
G01 X451.1673 Y7.3161 Z-0.1388 F60
G01 X451.3026 Y7.3039 Z-0.1063 F60
G01 X451.4307 Y7.2686 Z-0.0908 F60
G01 X451.5477 Y7.2120 Z-0.0966 F60
G01 X451.6499 Y7.1361 Z-0.1221 F60
G01 X451.7344 Y7.0439 Z-0.1608 F60
G01 X451.7985 Y6.9387 Z-0.2024 F60
G01 X451.8403 Y6.8243 Z-0.2358 F60
G01 X451.8585 Y6.7045 Z-0.2522 F60
G01 X451.8526 Y6.5837 Z-0.2474 F60
G01 X451.8228 Y6.4661 Z-0.2227 F60
G01 X451.7699 Y6.3557 Z-0.1850 F60
G01 X451.6955 Y6.2564 Z-0.1444 F60
G01 X451.6020 Y6.1718 Z-0.1119 F60
G01 X451.4922 Y6.1050 Z-0.0964 F60
G01 X451.3693 Y6.0585 Z-0.1021 F60
G01 X451.2372 Y6.0344 Z-0.1277 F60
G01 X451.0998 Y6.0338 Z-0.1664 F60
G01 X450.9614 Y6.0574 Z-0.2079 F60
G01 X450.8260 Y6.1049 Z-0.2413 F60
G01 X450.6980 Y6.1754 Z-0.2577 F60
G01 X450.5810 Y6.2674 Z-0.2529 F60
G01 X450.4787 Y6.3786 Z-0.2283 F60
G01 X450.3943 Y6.5061 Z-0.1905 F60
G01 X450.3302 Y6.6466 Z-0.1499 F60
G01 X450.2884 Y6.7964 Z-0.1174 F60
G01 X450.2701 Y6.9515 Z-0.1019 F60
G01 X450.2760 Y7.1076 Z-0.1077 F60
G01 X450.3059 Y7.2606 Z-0.1333 F60
G01 X450.3588 Y7.4063 Z-0.1719 F60
G01 X450.4331 Y7.5409 Z-0.2135 F60
G01 X450.5266 Y7.6608 Z-0.2469 F60
G01 X450.6365 Y7.7630 Z-0.2633 F60
G01 X450.7594 Y7.8447 Z-0.2585 F60
G01 X450.8915 Y7.9042 Z-0.2338 F60
G01 X451.0288 Y7.9401 Z-0.1961 F60
G01 X451.1673 Y7.9519 Z-0.1555 F60
G01 X451.3026 Y7.9397 Z-0.1230 F60
G01 X451.4307 Y7.9044 Z-0.1075 F60
G01 X451.5477 Y7.8477 Z-0.1132 F60
G01 X451.6499 Y7.7719 Z-0.1388 F60
G01 X451.7344 Y7.6797 Z-0.1775 F60
G01 X451.7985 Y7.5745 Z-0.2190 F60
G01 X451.8403 Y7.4600 Z-0.2524 F60
G01 X451.8585 Y7.3403 Z-0.2688 F60
G01 X451.8526 Y7.2195 Z-0.2640 F60
G01 X451.8228 Y7.1019 Z-0.2394 F60
G01 X451.7699 Y6.9914 Z-0.2016 F60
G01 X451.6955 Y6.8922 Z-0.1610 F60
G01 X451.6020 Y6.8076 Z-0.1285 F60
G01 X451.4922 Y6.7407 Z-0.1130 F60
G01 X451.3693 Y6.6943 Z-0.1188 F60
G01 X451.2372 Y6.6701 Z-0.1444 F60
G01 X451.0998 Y6.6696 Z-0.1830 F60
G01 X450.9614 Y6.6931 Z-0.2246 F60
G01 X450.8260 Y6.7407 Z-0.2580 F60
G01 X450.6980 Y6.8112 Z-0.2744 F60
G01 X450.5810 Y6.9032 Z-0.2696 F60
G01 X450.4787 Y7.0144 Z-0.2449 F60
G01 X450.3943 Y7.1419 Z-0.2072 F60
G01 X450.3302 Y7.2824 Z-0.1666 F60
G01 X450.2884 Y7.4322 Z-0.1341 F60
G01 X450.2701 Y7.5872 Z-0.1186 F60
G01 X450.2760 Y7.7434 Z-0.1243 F60
G01 X450.3059 Y7.8963 Z-0.1499 F60
G01 X450.3588 Y8.0421 Z-0.1886 F60
G01 X450.4331 Y8.1767 Z-0.2301 F60
G01 X450.5266 Y8.2966 Z-0.2635 F60
G01 X450.6365 Y8.3988 Z-0.2799 F60
G01 X450.7594 Y8.4805 Z-0.2751 F60
G01 X450.8915 Y8.5400 Z-0.2505 F60
G01 X451.0288 Y8.5759 Z-0.2127 F60
G01 X451.1673 Y8.5876 Z-0.1721 F60
G01 X451.3026 Y8.5754 Z-0.1397 F60
G01 X451.4307 Y8.5402 Z-0.1242 F60
G01 X451.5477 Y8.4835 Z-0.1299 F60
G01 X451.6499 Y8.4077 Z-0.1555 F60
G01 X451.7344 Y8.3155 Z-0.1941 F60
G01 X451.7985 Y8.2103 Z-0.2357 F60
G01 X451.8403 Y8.0958 Z-0.2691 F60
G01 X451.8585 Y7.9761 Z-0.2855 F60
G01 X451.8526 Y7.8553 Z-0.2807 F60
G01 X451.8228 Y7.7376 Z-0.2560 F60
G01 X451.7699 Y7.6272 Z-0.2183 F60
G01 X451.6955 Y7.5279 Z-0.1777 F60
G01 X451.6020 Y7.4433 Z-0.1452 F60
G01 X451.4922 Y7.3765 Z-0.1297 F60
G01 X451.3693 Y7.3301 Z-0.1355 F60
G01 X451.2372 Y7.3059 Z-0.1610 F60
G01 X451.0998 Y7.3054 Z-0.1997 F60
G01 X450.9614 Y7.3289 Z-0.2412 F60
G01 X450.8260 Y7.3764 Z-0.2746 F60
G01 X450.6980 Y7.4470 Z-0.2911 F60
G01 X450.5810 Y7.5390 Z-0.2862 F60
G01 X450.4787 Y7.6502 Z-0.2616 F60
G01 X450.3943 Y7.7777 Z-0.2238 F60
G01 X450.3302 Y7.9182 Z-0.1832 F60
G01 X450.2884 Y8.0680 Z-0.1508 F60
G01 X450.2701 Y8.2230 Z-0.1353 F60
G01 X450.2760 Y8.3791 Z-0.1410 F60
G01 X450.3059 Y8.5321 Z-0.1666 F60
G01 X450.3588 Y8.6779 Z-0.2052 F60
G01 X450.4331 Y8.8125 Z-0.2468 F60
G01 X450.5266 Y8.9324 Z-0.2802 F60
G01 X450.6365 Y9.0345 Z-0.2966 F60
G01 X450.7594 Y9.1163 Z-0.2918 F60
G01 X450.8915 Y9.1758 Z-0.2671 F60
G01 X451.0288 Y9.2117 Z-0.2294 F60
G01 X451.1673 Y9.2234 Z-0.1888 F60
G01 X451.3026 Y9.2112 Z-0.1563 F60
G01 X451.4307 Y9.1760 Z-0.1408 F60
G01 X451.5477 Y9.1193 Z-0.1466 F60
G01 X451.6499 Y9.0434 Z-0.1721 F60
G01 X451.7344 Y8.9513 Z-0.2108 F60
G01 X451.7985 Y8.8461 Z-0.2523 F60
G01 X451.8403 Y8.7316 Z-0.2857 F60
G01 X451.8585 Y8.6119 Z-0.3022 F60
G01 X451.8526 Y8.4911 Z-0.2973 F60
G01 X451.8228 Y8.3734 Z-0.2727 F60
G01 X451.7699 Y8.2630 Z-0.2349 F60
G01 X451.6955 Y8.1637 Z-0.1943 F60
G01 X451.6020 Y8.0791 Z-0.1619 F60
G01 X451.4922 Y8.0123 Z-0.1464 F60
G01 X451.3693 Y7.9658 Z-0.1521 F60
G01 X451.2372 Y7.9417 Z-0.1777 F60
G01 X451.0998 Y7.9411 Z-0.2164 F60
G01 X450.9614 Y7.9647 Z-0.2579 F60
G01 X450.8260 Y8.0122 Z-0.2913 F60
G01 X450.6980 Y8.0828 Z-0.3077 F60
G01 X450.5810 Y8.1748 Z-0.3029 F60
G01 X450.4787 Y8.2860 Z-0.2782 F60
G01 X450.3943 Y8.4135 Z-0.2405 F60
G01 X450.3302 Y8.5540 Z-0.1999 F60
G01 X450.2884 Y8.7038 Z-0.1674 F60
G01 X450.2701 Y8.8588 Z-0.1519 F60
G01 X450.2760 Y9.0149 Z-0.1577 F60
G01 X450.3059 Y9.1679 Z-0.1832 F60
G01 X450.3588 Y9.3136 Z-0.2219 F60
G01 X450.4331 Y9.4483 Z-0.2634 F60
G01 X450.5266 Y9.5682 Z-0.2968 F60
G01 X450.6365 Y9.6703 Z-0.3133 F60
G01 X450.7594 Y9.7521 Z-0.3084 F60
G01 X450.8915 Y9.8116 Z-0.2838 F60
G01 X451.0288 Y9.8474 Z-0.2461 F60
G01 X451.1673 Y9.8592 Z-0.2054 F60
G01 X451.3026 Y9.8470 Z-0.1730 F60
G01 X451.4307 Y9.8118 Z-0.1575 F60
G01 X451.5477 Y9.7551 Z-0.1632 F60
G01 X451.6499 Y9.6792 Z-0.1888 F60
G01 X451.7344 Y9.5870 Z-0.2275 F60
G01 X451.7985 Y9.4818 Z-0.2690 F60
G01 X451.8403 Y9.3674 Z-0.3024 F60
G01 X451.8585 Y9.2477 Z-0.3188 F60
G01 X451.8526 Y9.1269 Z-0.3140 F60
G01 X451.8228 Y9.0092 Z-0.2894 F60
G01 X451.7699 Y8.8988 Z-0.2516 F60
G01 X451.6955 Y8.7995 Z-0.2110 F60
G01 X451.6020 Y8.7149 Z-0.1785 F60
G01 X451.4922 Y8.6481 Z-0.1630 F60
G01 X451.3693 Y8.6016 Z-0.1688 F60
G01 X451.2372 Y8.5775 Z-0.1943 F60
G01 X451.0998 Y8.5769 Z-0.2330 F60
G01 X450.9614 Y8.6005 Z-0.2746 F60
G01 X450.8260 Y8.6480 Z-0.3079 F60
G01 X450.6980 Y8.7186 Z-0.3244 F60
G01 X450.5810 Y8.8106 Z-0.3196 F60
G01 X450.4787 Y8.9217 Z-0.2949 F60
G01 X450.3943 Y9.0493 Z-0.2572 F60
G01 X450.3302 Y9.1898 Z-0.2165 F60
G01 X450.2884 Y9.3396 Z-0.1841 F60
G01 X450.2701 Y9.4946 Z-0.1686 F60
G01 X450.2760 Y9.6507 Z-0.1743 F60
G01 X450.3059 Y9.8037 Z-0.1999 F60
G01 X450.3588 Y9.9494 Z-0.2386 F60
G01 X450.4331 Y10.0840 Z-0.2801 F60
G01 X450.5266 Y10.2040 Z-0.3135 F60
G01 X450.6365 Y10.3061 Z-0.3299 F60
G01 X450.7594 Y10.3879 Z-0.3251 F60
G01 X450.8915 Y10.4473 Z-0.3005 F60
G01 X451.0288 Y10.4832 Z-0.2627 F60
G01 X451.1673 Y10.4950 Z-0.2221 F60
G01 X451.3026 Y10.4828 Z-0.1896 F60
G01 X451.4307 Y10.4475 Z-0.1741 F60
G01 X451.5477 Y10.3909 Z-0.1799 F60
G01 X451.6499 Y10.3150 Z-0.2054 F60
G01 X451.7344 Y10.2228 Z-0.2441 F60
G01 X451.7985 Y10.1176 Z-0.2857 F60
G01 X451.8403 Y10.0032 Z-0.3191 F60
G01 X451.8585 Y9.8834 Z-0.3355 F60
G01 X451.8526 Y9.7627 Z-0.3307 F60
G01 X451.8228 Y9.6450 Z-0.3060 F60
G01 X451.7699 Y9.5346 Z-0.2683 F60
G01 X451.6955 Y9.4353 Z-0.2277 F60
G01 X451.6020 Y9.3507 Z-0.1952 F60
G01 X451.4922 Y9.2839 Z-0.1797 F60
G01 X451.3693 Y9.2374 Z-0.1854 F60
G01 X451.2372 Y9.2133 Z-0.2110 F60
G01 X451.0998 Y9.2127 Z-0.2497 F60
G01 X450.9614 Y9.2363 Z-0.2912 F60
G01 X450.8260 Y9.2838 Z-0.3246 F60
G01 X450.6980 Y9.3543 Z-0.3410 F60
G01 X450.5810 Y9.4463 Z-0.3362 F60
G01 X450.4787 Y9.5575 Z-0.3116 F60
G01 X450.3943 Y9.6850 Z-0.2738 F60
G01 X450.3302 Y9.8256 Z-0.2332 F60
G01 X450.2884 Y9.9753 Z-0.2007 F60
G01 X450.2701 Y10.1304 Z-0.1852 F60
G01 X450.2760 Y10.2865 Z-0.1910 F60
G01 X450.3059 Y10.4395 Z-0.2166 F60
G01 X450.3588 Y10.5852 Z-0.2552 F60
G01 X450.4331 Y10.7198 Z-0.2968 F60
G01 X450.5266 Y10.8397 Z-0.3302 F60
G01 X450.6365 Y10.9419 Z-0.3466 F60
G01 X450.7594 Y11.0237 Z-0.3418 F60
G01 X450.8915 Y11.0831 Z-0.3171 F60
G01 X451.0288 Y11.1190 Z-0.2794 F60
G01 X451.1673 Y11.1308 Z-0.2388 F60
G01 X451.3026 Y11.1186 Z-0.2063 F60
G01 X451.4307 Y11.0833 Z-0.1908 F60
G01 X451.5477 Y11.0267 Z-0.1965 F60
G01 X451.6499 Y10.9508 Z-0.2221 F60
G01 X451.7344 Y10.8586 Z-0.2608 F60
G01 X451.7985 Y10.7534 Z-0.3023 F60
G01 X451.8403 Y10.6389 Z-0.3357 F60
G01 X451.8585 Y10.5192 Z-0.3521 F60
G01 X451.8526 Y10.3984 Z-0.3473 F60
G01 X451.8228 Y10.2808 Z-0.3227 F60
G01 X451.7699 Y10.1704 Z-0.2849 F60
G01 X451.6955 Y10.0711 Z-0.2443 F60
G01 X451.6020 Y9.9865 Z-0.2118 F60
G01 X451.4922 Y9.9196 Z-0.1963 F60
G01 X451.3693 Y9.8732 Z-0.2021 F60
G01 X451.2372 Y9.8490 Z-0.2277 F60
G01 X451.0998 Y9.8485 Z-0.2663 F60
G01 X450.9614 Y9.8720 Z-0.3079 F60
G01 X450.8260 Y9.9196 Z-0.3413 F60
G01 X450.6980 Y9.9901 Z-0.3577 F60
G01 X450.5810 Y10.0821 Z-0.3529 F60
G01 X450.4787 Y10.1933 Z-0.3282 F60
G01 X450.3943 Y10.3208 Z-0.2905 F60
G01 X450.3302 Y10.4613 Z-0.2499 F60
G01 X450.2884 Y10.6111 Z-0.2174 F60
G01 X450.2701 Y10.7661 Z-0.2019 F60
G01 X450.2760 Y10.9223 Z-0.2076 F60
G01 X450.3059 Y11.0752 Z-0.2332 F60
G01 X450.3588 Y11.2210 Z-0.2719 F60
G01 X450.4331 Y11.3556 Z-0.3134 F60
G01 X450.5266 Y11.4755 Z-0.3468 F60
G01 X450.6365 Y11.5777 Z-0.3632 F60
G01 X450.7594 Y11.6594 Z-0.3584 F60
G01 X450.8915 Y11.7189 Z-0.3338 F60
G01 X451.0288 Y11.7548 Z-0.2960 F60
G01 X451.1673 Y11.7665 Z-0.2554 F60
G01 X451.3026 Y11.7544 Z-0.2230 F60
G01 X451.4307 Y11.7191 Z-0.2075 F60
G01 X451.5477 Y11.6624 Z-0.2132 F60
G01 X451.6499 Y11.5866 Z-0.2388 F60
G01 X451.7344 Y11.4944 Z-0.2774 F60
G01 X451.7985 Y11.3892 Z-0.3190 F60
G01 X451.8403 Y11.2747 Z-0.3524 F60
G01 X451.8585 Y11.1550 Z-0.3688 F60
G01 X451.8526 Y11.0342 Z-0.3640 F60
G01 X451.8228 Y10.9166 Z-0.3393 F60
G01 X451.7699 Y10.8061 Z-0.3016 F60
G01 X451.6955 Y10.7068 Z-0.2610 F60
G01 X451.6020 Y10.6222 Z-0.2285 F60
G01 X451.4922 Y10.5554 Z-0.2130 F60
G01 X451.3693 Y10.5090 Z-0.2187 F60
G01 X451.2372 Y10.4848 Z-0.2443 F60
G01 X451.0998 Y10.4843 Z-0.2830 F60
G01 X450.9614 Y10.5078 Z-0.3245 F60
G01 X450.8260 Y10.5553 Z-0.3579 F60
G01 X450.6980 Y10.6259 Z-0.3744 F60
G01 X450.5810 Y10.7179 Z-0.3695 F60
G01 X450.4787 Y10.8291 Z-0.3449 F60
G01 X450.3943 Y10.9566 Z-0.3071 F60
G01 X450.3302 Y11.0971 Z-0.2665 F60
G01 X450.2884 Y11.2469 Z-0.2341 F60
G01 X450.2701 Y11.4019 Z-0.2186 F60
G01 X450.2760 Y11.5580 Z-0.2243 F60
G01 X450.3059 Y11.7110 Z-0.2499 F60
G01 X450.3588 Y11.8568 Z-0.2885 F60
G01 X450.4331 Y11.9914 Z-0.3301 F60
G01 X450.5266 Y12.1113 Z-0.3635 F60
G01 X450.6365 Y12.2134 Z-0.3799 F60
G01 X450.7594 Y12.2952 Z-0.3751 F60
G01 X450.8915 Y12.3547 Z-0.3504 F60
G01 X451.0288 Y12.3906 Z-0.3127 F60
G01 X451.1673 Y12.4023 Z-0.2721 F60
G01 X451.3026 Y12.3901 Z-0.2396 F60
G01 X451.4307 Y12.3549 Z-0.2241 F60
G01 X451.5477 Y12.2982 Z-0.2299 F60
G01 X451.6499 Y12.2224 Z-0.2554 F60
G01 X451.7344 Y12.1302 Z-0.2941 F60
G01 X451.7985 Y12.0250 Z-0.3356 F60
G01 X451.8403 Y11.9105 Z-0.3690 F60
G01 X451.8585 Y11.7908 Z-0.3855 F60
G01 X451.8526 Y11.6700 Z-0.3806 F60
G01 X451.8228 Y11.5523 Z-0.3560 F60
G01 X451.7699 Y11.4419 Z-0.3182 F60
G01 X451.6955 Y11.3426 Z-0.2776 F60
G01 X451.6020 Y11.2580 Z-0.2452 F60
G01 X451.4922 Y11.1912 Z-0.2297 F60
G01 X451.3693 Y11.1448 Z-0.2354 F60
G01 X451.2372 Y11.1206 Z-0.2610 F60
G01 X451.0998 Y11.1200 Z-0.2997 F60
G01 X450.9614 Y11.1436 Z-0.3412 F60
G01 X450.8260 Y11.1911 Z-0.3746 F60
G01 X450.6980 Y11.2617 Z-0.3910 F60
G01 X450.5810 Y11.3537 Z-0.3862 F60
G01 X450.4787 Y11.4649 Z-0.3615 F60
G01 X450.3943 Y11.5924 Z-0.3238 F60
G01 X450.3302 Y11.7329 Z-0.2832 F60
G01 X450.2884 Y11.8827 Z-0.2507 F60
G01 X450.2701 Y12.0377 Z-0.2352 F60
G01 X450.2760 Y12.1938 Z-0.2410 F60
G01 X450.3059 Y12.3468 Z-0.2665 F60
G01 X450.3588 Y12.4926 Z-0.3052 F60
G01 X450.4331 Y12.6272 Z-0.3467 F60
G01 X450.5266 Y12.7471 Z-0.3801 F60
G01 X450.6365 Y12.8492 Z-0.3966 F60
G01 X450.7594 Y12.9310 Z-0.3917 F60
G01 X450.8915 Y12.9905 Z-0.3671 F60
G01 X451.0288 Y13.0264 Z-0.3294 F60
G01 X451.1673 Y13.0381 Z-0.2887 F60
G01 X451.3026 Y13.0259 Z-0.2563 F60
G01 X451.4307 Y12.9907 Z-0.2408 F60
G01 X451.5477 Y12.9340 Z-0.2465 F60
G01 X451.6499 Y12.8581 Z-0.2721 F60
G01 X451.7344 Y12.7659 Z-0.3108 F60
G01 X451.7985 Y12.6607 Z-0.3523 F60
G01 X451.8403 Y12.5463 Z-0.3857 F60
G01 X451.8585 Y12.4266 Z-0.4021 F60
G01 X451.8526 Y12.3058 Z-0.3973 F60
G01 X451.8228 Y12.1881 Z-0.3727 F60
G01 X451.7699 Y12.0777 Z-0.3349 F60
G01 X451.6955 Y11.9784 Z-0.2943 F60
G01 X451.6020 Y11.8938 Z-0.2618 F60
G01 X451.4922 Y11.8270 Z-0.2463 F60
G01 X451.3693 Y11.7805 Z-0.2521 F60
G01 X451.2372 Y11.7564 Z-0.2776 F60
G01 X451.0998 Y11.7558 Z-0.3163 F60
G01 X450.9614 Y11.7794 Z-0.3579 F60
G01 X450.8260 Y11.8269 Z-0.3912 F60
G01 X450.6980 Y11.8975 Z-0.4077 F60
G01 X450.5810 Y11.9895 Z-0.4029 F60
G01 X450.4787 Y12.1006 Z-0.3782 F60
G01 X450.3943 Y12.2282 Z-0.3405 F60
G01 X450.3302 Y12.3687 Z-0.2998 F60
G01 X450.2884 Y12.5185 Z-0.2674 F60
G01 X450.2701 Y12.6735 Z-0.2519 F60
G01 X450.2760 Y12.8296 Z-0.2576 F60
G01 X450.3059 Y12.9826 Z-0.2832 F60
G01 X450.3588 Y13.1283 Z-0.3219 F60
G01 X450.4331 Y13.2629 Z-0.3634 F60
G01 X450.5266 Y13.3829 Z-0.3968 F60
G01 X450.6365 Y13.4850 Z-0.4132 F60
G01 X450.7594 Y13.5668 Z-0.4084 F60
G01 X450.8915 Y13.6262 Z-0.3838 F60
G01 X451.0288 Y13.6621 Z-0.3460 F60
G01 X451.1673 Y13.6739 Z-0.3054 F60
G01 X451.3026 Y13.6617 Z-0.2729 F60
G01 X451.4307 Y13.6265 Z-0.2574 F60
G01 X451.5477 Y13.5698 Z-0.2632 F60
G01 X451.6499 Y13.4939 Z-0.2887 F60
G01 X451.7344 Y13.4017 Z-0.3274 F60
G01 X451.7985 Y13.2965 Z-0.3690 F60
G01 X451.8403 Y13.1821 Z-0.4024 F60
G01 X451.8585 Y13.0624 Z-0.4188 F60
G01 X451.8526 Y12.9416 Z-0.4140 F60
G01 X451.8228 Y12.8239 Z-0.3893 F60
G01 X451.7699 Y12.7135 Z-0.3516 F60
G01 X451.6955 Y12.6142 Z-0.3110 F60
G01 X451.6020 Y12.5296 Z-0.2785 F60
G01 X451.4922 Y12.4628 Z-0.2630 F60
G01 X451.3693 Y12.4163 Z-0.2687 F60
G01 X451.2372 Y12.3922 Z-0.2943 F60
G01 X451.0998 Y12.3916 Z-0.3330 F60
G01 X450.9614 Y12.4152 Z-0.3745 F60
G01 X450.8260 Y12.4627 Z-0.4079 F60
G01 X450.6980 Y12.5333 Z-0.4243 F60
G01 X450.5810 Y12.6253 Z-0.4195 F60
G01 X450.4787 Y12.7364 Z-0.3949 F60
G01 X450.3943 Y12.8639 Z-0.3571 F60
G01 X450.3302 Y13.0045 Z-0.3165 F60
G01 X450.2884 Y13.1542 Z-0.2840 F60
G01 X450.2701 Y13.3093 Z-0.2685 F60
G01 X450.2760 Y13.4654 Z-0.2743 F60
G01 X450.3059 Y13.6184 Z-0.2999 F60
G01 X450.3588 Y13.7641 Z-0.3385 F60
G01 X450.4331 Y13.8987 Z-0.3801 F60
G01 X450.5266 Y14.0187 Z-0.4135 F60
G01 X450.6365 Y14.1208 Z-0.4299 F60
G01 X450.7594 Y14.2026 Z-0.4251 F60
G01 X450.8915 Y14.2620 Z-0.4004 F60
G01 X451.0288 Y14.2979 Z-0.3627 F60
G01 X451.1673 Y14.3097 Z-0.3221 F60
G01 X451.3026 Y14.2975 Z-0.2896 F60
G01 X451.4307 Y14.2622 Z-0.2741 F60
G01 X451.5477 Y14.2056 Z-0.2798 F60
G01 X451.6499 Y14.1297 Z-0.3054 F60
G01 X451.7344 Y14.0375 Z-0.3441 F60
G01 X451.7985 Y13.9323 Z-0.3856 F60
G01 X451.8403 Y13.8179 Z-0.4190 F60
G01 X451.8585 Y13.6981 Z-0.4354 F60
G01 X451.8526 Y13.5773 Z-0.4306 F60
G01 X451.8228 Y13.4597 Z-0.4060 F60
G01 X451.7699 Y13.3493 Z-0.3682 F60
G01 X451.6955 Y13.2500 Z-0.3276 F60
G01 X451.6020 Y13.1654 Z-0.2951 F60
G01 X451.4922 Y13.0986 Z-0.2796 F60
G01 X451.3693 Y13.0521 Z-0.2854 F60
G01 X451.2372 Y13.0280 Z-0.3110 F60
G01 X451.0998 Y13.0274 Z-0.3496 F60
G01 X450.9614 Y13.0510 Z-0.3912 F60
G01 X450.8260 Y13.0985 Z-0.4246 F60
G01 X450.6980 Y13.1690 Z-0.4410 F60
G01 X450.5810 Y13.2610 Z-0.4362 F60
G01 X450.4787 Y13.3722 Z-0.4115 F60
G01 X450.3943 Y13.4997 Z-0.3738 F60
G01 X450.3302 Y13.6402 Z-0.3332 F60
G01 X450.2884 Y13.7900 Z-0.3007 F60
G01 X450.2701 Y13.9451 Z-0.2852 F60
G01 X450.2760 Y14.1012 Z-0.2909 F60
G01 X450.3059 Y14.2542 Z-0.3165 F60
G01 X450.3588 Y14.3999 Z-0.3552 F60
G01 X450.4331 Y14.5345 Z-0.3967 F60
G01 X450.5266 Y14.6544 Z-0.4301 F60
G01 X450.6365 Y14.7566 Z-0.4465 F60
G01 X450.7594 Y14.8383 Z-0.4417 F60
G01 X450.8915 Y14.8978 Z-0.4171 F60
G01 X451.0288 Y14.9337 Z-0.3793 F60
G01 X451.1673 Y14.9455 Z-0.3387 F60
G01 X451.3026 Y14.9333 Z-0.3063 F60
G01 X451.4307 Y14.8980 Z-0.2908 F60
G01 X451.5477 Y14.8413 Z-0.2965 F60
G01 X451.6499 Y14.7655 Z-0.3221 F60
G01 X451.7344 Y14.6733 Z-0.3607 F60
G01 X451.7985 Y14.5681 Z-0.4023 F60
G01 X451.8403 Y14.4536 Z-0.4357 F60
G01 X451.8585 Y14.3339 Z-0.4521 F60
G01 X451.8526 Y14.2131 Z-0.4473 F60
G01 X451.8228 Y14.0955 Z-0.4226 F60
G01 X451.7699 Y13.9850 Z-0.3849 F60
G01 X451.6955 Y13.8858 Z-0.3443 F60
G01 X451.6020 Y13.8011 Z-0.3118 F60
G01 X451.4922 Y13.7343 Z-0.2963 F60
G01 X451.3693 Y13.6879 Z-0.3020 F60
G01 X451.2372 Y13.6637 Z-0.3276 F60
G01 X451.0998 Y13.6632 Z-0.3663 F60
G01 X450.9614 Y13.6867 Z-0.4078 F60
G01 X450.8260 Y13.7343 Z-0.4412 F60
G01 X450.6980 Y13.8048 Z-0.4577 F60
G01 X450.5810 Y13.8968 Z-0.4528 F60
G01 X450.4787 Y14.0080 Z-0.4282 F60
G01 X450.3943 Y14.1355 Z-0.3904 F60
G01 X450.3302 Y14.2760 Z-0.3498 F60
G01 X450.2884 Y14.4258 Z-0.3174 F60
G01 X450.2701 Y14.5808 Z-0.3019 F60
G01 X450.2760 Y14.7370 Z-0.3076 F60
G01 X450.3059 Y14.8899 Z-0.3332 F60
G01 X450.3588 Y15.0357 Z-0.3718 F60
G01 X450.4331 Y15.1703 Z-0.4134 F60
G01 X450.5266 Y15.2902 Z-0.4468 F60
G01 X450.6365 Y15.3924 Z-0.4632 F60
G01 X450.7594 Y15.4741 Z-0.4584 F60
G01 X450.8915 Y15.5336 Z-0.4337 F60
G01 X451.0288 Y15.5695 Z-0.3960 F60
G01 X451.1673 Y15.5812 Z-0.3554 F60
G01 X451.3026 Y15.5690 Z-0.3229 F60
G01 X451.4307 Y15.5338 Z-0.3074 F60
G01 X451.5477 Y15.4771 Z-0.3132 F60
G01 X451.6499 Y15.4013 Z-0.3387 F60
G01 X451.7344 Y15.3091 Z-0.3774 F60
G01 X451.7985 Y15.2039 Z-0.4189 F60
G01 X451.8403 Y15.0894 Z-0.4523 F60
G01 X451.8585 Y14.9697 Z-0.4688 F60
G01 X451.8526 Y14.8489 Z-0.4639 F60
G01 X451.8228 Y14.7312 Z-0.4393 F60
G01 X451.7699 Y14.6208 Z-0.4015 F60
G01 X451.6955 Y14.5215 Z-0.3609 F60
G01 X451.6020 Y14.4369 Z-0.3285 F60
G01 X451.4922 Y14.3701 Z-0.3130 F60
G01 X451.3693 Y14.3237 Z-0.3187 F60
G01 X451.2372 Y14.2995 Z-0.3443 F60
G01 X451.0998 Y14.2990 Z-0.3830 F60
G01 X450.9614 Y14.3225 Z-0.4245 F60
G01 X450.8260 Y14.3700 Z-0.4579 F60
G01 X450.6980 Y14.4406 Z-0.4743 F60
G01 X450.5810 Y14.5326 Z-0.4695 F60
G01 X450.4787 Y14.6438 Z-0.4448 F60
G01 X450.3943 Y14.7713 Z-0.4071 F60
G01 X450.3302 Y14.9118 Z-0.3665 F60
G01 X450.2884 Y15.0616 Z-0.3340 F60
G01 X450.2701 Y15.2166 Z-0.3185 F60
G01 X450.2760 Y15.3727 Z-0.3243 F60
G01 X450.3059 Y15.5257 Z-0.3498 F60
G01 X450.3588 Y15.6715 Z-0.3885 F60
G01 X450.4331 Y15.8061 Z-0.4300 F60
G01 X450.5266 Y15.9260 Z-0.4634 F60
G01 X450.6365 Y16.0281 Z-0.4799 F60
G01 X450.7594 Y16.1099 Z-0.4750 F60
G01 X450.8915 Y16.1694 Z-0.4504 F60
G01 X451.0288 Y16.2053 Z-0.4127 F60
G01 X451.1673 Y16.2170 Z-0.3720 F60
G01 X451.3026 Y16.2048 Z-0.3396 F60
G01 X451.4307 Y16.1696 Z-0.3241 F60
G01 X451.5477 Y16.1129 Z-0.3298 F60
G01 X451.6499 Y16.0370 Z-0.3554 F60
G01 X451.7344 Y15.9449 Z-0.3941 F60
G01 X451.7985 Y15.8397 Z-0.4356 F60
G01 X451.8403 Y15.7252 Z-0.4690 F60
G01 X451.8585 Y15.6055 Z-0.4854 F60
G01 X451.8526 Y15.4847 Z-0.4806 F60
G01 X451.8228 Y15.3670 Z-0.4560 F60
G01 X451.7699 Y15.2566 Z-0.4182 F60
G01 X451.6955 Y15.1573 Z-0.3776 F60
G01 X451.6020 Y15.0727 Z-0.3451 F60
G01 X451.4922 Y15.0059 Z-0.3296 F60
G01 X451.3693 Y14.9594 Z-0.3354 F60
G01 X451.2372 Y14.9353 Z-0.3609 F60
G01 X451.0998 Y14.9347 Z-0.3996 F60
G01 X450.9614 Y14.9583 Z-0.4412 F60
G01 X450.8260 Y15.0058 Z-0.4745 F60
G01 X450.6980 Y15.0764 Z-0.4910 F60
G01 X450.5810 Y15.1684 Z-0.4862 F60
G01 X450.4787 Y15.2796 Z-0.4615 F60
G01 X450.3943 Y15.4071 Z-0.4238 F60
G01 X450.3302 Y15.5476 Z-0.3831 F60
G01 X450.2884 Y15.6974 Z-0.3507 F60
G01 X450.2701 Y15.8524 Z-0.3352 F60
G01 X450.2760 Y16.0085 Z-0.3409 F60
G01 X450.3059 Y16.1615 Z-0.3665 F60
G01 X450.3588 Y16.3072 Z-0.4052 F60
G01 X450.4331 Y16.4419 Z-0.4467 F60
G01 X450.5266 Y16.5618 Z-0.4801 F60
G01 X450.6365 Y16.6639 Z-0.4965 F60
G01 X450.7594 Y16.7457 Z-0.4917 F60
G01 X450.8915 Y16.8052 Z-0.4671 F60
G01 X451.0288 Y16.8410 Z-0.4293 F60
G01 X451.1673 Y16.8528 Z-0.3887 F60
G01 X451.3026 Y16.8406 Z-0.3562 F60
G01 X451.4262 Y16.8070 Z-0.3409 F60
G01 X451.5436 Y16.7158 Z-0.3459 F60
G01 X451.6465 Y16.6053 Z-0.3708 F60
G01 X451.7316 Y16.4783 Z-0.4092 F60
G01 X451.7965 Y16.3382 Z-0.4508 F60
G01 X451.8392 Y16.1887 Z-0.4847 F60
G01 X451.8583 Y16.0338 Z-0.5018 F60
G01 X451.8533 Y15.8776 Z-0.4978 F60
G01 X451.8243 Y15.7245 Z-0.4738 F60
G01 X451.7722 Y15.5784 Z-0.4364 F60
G01 X451.6986 Y15.4433 Z-0.3957 F60
G01 X451.6058 Y15.3228 Z-0.3627 F60
G01 X451.4965 Y15.2199 Z-0.3465 F60
G01 X451.3740 Y15.1374 Z-0.3514 F60
G01 X451.2422 Y15.0771 Z-0.3764 F60
G01 X451.1049 Y15.0403 Z-0.4147 F60
G01 X450.9664 Y15.0277 Z-0.4564 F60
G01 X450.8309 Y15.0390 Z-0.4902 F60
G01 X450.7025 Y15.0734 Z-0.5074 F60
G01 X450.5851 Y15.1293 Z-0.5034 F60
G01 X450.4822 Y15.2045 Z-0.4794 F60
G01 X450.3970 Y15.2962 Z-0.4419 F60
G01 X450.3321 Y15.4010 Z-0.4012 F60
G01 X450.2895 Y15.5151 Z-0.3683 F60
G01 X450.2704 Y15.6347 Z-0.3520 F60
G01 X450.2754 Y15.7556 Z-0.3570 F60
G01 X450.3044 Y15.8734 Z-0.3819 F60
G01 X450.3565 Y15.9842 Z-0.4203 F60
G01 X450.4300 Y16.0839 Z-0.4619 F60
G01 X450.5229 Y16.1691 Z-0.4958 F60
G01 X450.6322 Y16.2367 Z-0.5129 F60
G01 X450.7547 Y16.2839 Z-0.5089 F60
G01 X450.8865 Y16.3089 Z-0.4849 F60
G01 X451.0238 Y16.3103 Z-0.4475 F60
G01 X451.1622 Y16.2877 Z-0.4068 F60
G01 X451.2978 Y16.2410 Z-0.3738 F60
G01 X451.4262 Y16.1713 Z-0.3576 F60
G01 X451.5436 Y16.0800 Z-0.3625 F60
G01 X451.6465 Y15.9695 Z-0.3875 F60
G01 X451.7316 Y15.8425 Z-0.4258 F60
G01 X451.7965 Y15.7024 Z-0.4675 F60
G01 X451.8392 Y15.5529 Z-0.5013 F60
G01 X451.8583 Y15.3980 Z-0.5185 F60
G01 X451.8533 Y15.2419 Z-0.5145 F60
G01 X451.8243 Y15.0887 Z-0.4905 F60
G01 X451.7722 Y14.9426 Z-0.4530 F60
G01 X451.6986 Y14.8075 Z-0.4123 F60
G01 X451.6058 Y14.6870 Z-0.3794 F60
G01 X451.4965 Y14.5842 Z-0.3632 F60
G01 X451.3740 Y14.5016 Z-0.3681 F60
G01 X451.2422 Y14.4413 Z-0.3930 F60
G01 X451.1049 Y14.4045 Z-0.4314 F60
G01 X450.9664 Y14.3919 Z-0.4730 F60
G01 X450.8309 Y14.4032 Z-0.5069 F60
G01 X450.7025 Y14.4376 Z-0.5241 F60
G01 X450.5851 Y14.4935 Z-0.5200 F60
G01 X450.4822 Y14.5687 Z-0.4960 F60
G01 X450.3970 Y14.6604 Z-0.4586 F60
G01 X450.3321 Y14.7652 Z-0.4179 F60
G01 X450.2895 Y14.8794 Z-0.3849 F60
G01 X450.2704 Y14.9990 Z-0.3687 F60
G01 X450.2754 Y15.1198 Z-0.3737 F60
G01 X450.3044 Y15.2376 Z-0.3986 F60
G01 X450.3565 Y15.3484 Z-0.4369 F60
G01 X450.4300 Y15.4482 Z-0.4786 F60
G01 X450.5229 Y15.5334 Z-0.5124 F60
G01 X450.6322 Y15.6009 Z-0.5296 F60
G01 X450.7547 Y15.6481 Z-0.5256 F60
G01 X450.8865 Y15.6731 Z-0.5016 F60
G01 X451.0238 Y15.6746 Z-0.4641 F60
G01 X451.1622 Y15.6519 Z-0.4234 F60
G01 X451.2978 Y15.6052 Z-0.3905 F60
G01 X451.4262 Y15.5355 Z-0.3743 F60
G01 X451.5436 Y15.4442 Z-0.3792 F60
G01 X451.6465 Y15.3337 Z-0.4041 F60
G01 X451.7316 Y15.2067 Z-0.4425 F60
G01 X451.7965 Y15.0666 Z-0.4841 F60
G01 X451.8392 Y14.9171 Z-0.5180 F60
G01 X451.8583 Y14.7622 Z-0.5352 F60
G01 X451.8533 Y14.6061 Z-0.5311 F60
G01 X451.8243 Y14.4529 Z-0.5071 F60
G01 X451.7722 Y14.3068 Z-0.4697 F60
G01 X451.6986 Y14.1717 Z-0.4290 F60
G01 X451.6058 Y14.0512 Z-0.3960 F60
G01 X451.4965 Y13.9484 Z-0.3798 F60
G01 X451.3740 Y13.8658 Z-0.3848 F60
G01 X451.2422 Y13.8055 Z-0.4097 F60
G01 X451.1049 Y13.7687 Z-0.4481 F60
G01 X450.9664 Y13.7561 Z-0.4897 F60
G01 X450.8309 Y13.7674 Z-0.5236 F60
G01 X450.7025 Y13.8018 Z-0.5407 F60
G01 X450.5851 Y13.8578 Z-0.5367 F60
G01 X450.4822 Y13.9330 Z-0.5127 F60
G01 X450.3970 Y14.0246 Z-0.4752 F60
G01 X450.3321 Y14.1294 Z-0.4345 F60
G01 X450.2895 Y14.2436 Z-0.4016 F60
G01 X450.2704 Y14.3632 Z-0.3854 F60
G01 X450.2754 Y14.4840 Z-0.3903 F60
G01 X450.3044 Y14.6018 Z-0.4152 F60
G01 X450.3565 Y14.7126 Z-0.4536 F60
G01 X450.4300 Y14.8124 Z-0.4952 F60
G01 X450.5229 Y14.8976 Z-0.5291 F60
G01 X450.6322 Y14.9651 Z-0.5463 F60
G01 X450.7547 Y15.0123 Z-0.5422 F60
G01 X450.8865 Y15.0373 Z-0.5182 F60
G01 X451.0238 Y15.0388 Z-0.4808 F60
G01 X451.1622 Y15.0161 Z-0.4401 F60
G01 X451.2978 Y14.9694 Z-0.4072 F60
G01 X451.4262 Y14.8997 Z-0.3909 F60
G01 X451.5436 Y14.8085 Z-0.3959 F60
G01 X451.6465 Y14.6979 Z-0.4208 F60
G01 X451.7316 Y14.5710 Z-0.4592 F60
G01 X451.7965 Y14.4309 Z-0.5008 F60
G01 X451.8392 Y14.2814 Z-0.5347 F60
G01 X451.8583 Y14.1264 Z-0.5518 F60
G01 X451.8533 Y13.9703 Z-0.5478 F60
G01 X451.8243 Y13.8171 Z-0.5238 F60
G01 X451.7722 Y13.6710 Z-0.4864 F60
G01 X451.6986 Y13.5360 Z-0.4456 F60
G01 X451.6058 Y13.4154 Z-0.4127 F60
G01 X451.4965 Y13.3126 Z-0.3965 F60
G01 X451.3740 Y13.2300 Z-0.4014 F60
G01 X451.2422 Y13.1697 Z-0.4264 F60
G01 X451.1049 Y13.1329 Z-0.4647 F60
G01 X450.9664 Y13.1203 Z-0.5063 F60
G01 X450.8309 Y13.1316 Z-0.5402 F60
G01 X450.7025 Y13.1661 Z-0.5574 F60
G01 X450.5851 Y13.2220 Z-0.5533 F60
G01 X450.4822 Y13.2972 Z-0.5293 F60
G01 X450.3970 Y13.3888 Z-0.4919 F60
G01 X450.3321 Y13.4936 Z-0.4512 F60
G01 X450.2895 Y13.6078 Z-0.4183 F60
G01 X450.2704 Y13.7274 Z-0.4020 F60
G01 X450.2754 Y13.8482 Z-0.4070 F60
G01 X450.3044 Y13.9661 Z-0.4319 F60
G01 X450.3565 Y14.0768 Z-0.4703 F60
G01 X450.4300 Y14.1766 Z-0.5119 F60
G01 X450.5229 Y14.2618 Z-0.5458 F60
G01 X450.6322 Y14.3293 Z-0.5629 F60
G01 X450.7547 Y14.3765 Z-0.5589 F60
G01 X450.8865 Y14.4015 Z-0.5349 F60
G01 X451.0238 Y14.4030 Z-0.4975 F60
G01 X451.1622 Y14.3803 Z-0.4568 F60
G01 X451.2978 Y14.3337 Z-0.4238 F60
G01 X451.4262 Y14.2639 Z-0.4076 F60
G01 X451.5436 Y14.1727 Z-0.4125 F60
G01 X451.6465 Y14.0622 Z-0.4375 F60
G01 X451.7316 Y13.9352 Z-0.4758 F60
G01 X451.7965 Y13.7951 Z-0.5175 F60
G01 X451.8392 Y13.6456 Z-0.5513 F60
G01 X451.8583 Y13.4907 Z-0.5685 F60
G01 X451.8533 Y13.3345 Z-0.5645 F60
G01 X451.8243 Y13.1813 Z-0.5404 F60
G01 X451.7722 Y13.0353 Z-0.5030 F60
G01 X451.6986 Y12.9002 Z-0.4623 F60
G01 X451.6058 Y12.7796 Z-0.4294 F60
G01 X451.4965 Y12.6768 Z-0.4131 F60
G01 X451.3740 Y12.5942 Z-0.4181 F60
G01 X451.2422 Y12.5339 Z-0.4430 F60
G01 X451.1049 Y12.4972 Z-0.4814 F60
G01 X450.9664 Y12.4845 Z-0.5230 F60
G01 X450.8309 Y12.4959 Z-0.5569 F60
G01 X450.7025 Y12.5303 Z-0.5740 F60
G01 X450.5851 Y12.5862 Z-0.5700 F60
G01 X450.4822 Y12.6614 Z-0.5460 F60
G01 X450.3970 Y12.7530 Z-0.5086 F60
G01 X450.3321 Y12.8578 Z-0.4679 F60
G01 X450.2895 Y12.9720 Z-0.4349 F60
G01 X450.2704 Y13.0916 Z-0.4187 F60
G01 X450.2754 Y13.2124 Z-0.4236 F60
G01 X450.3044 Y13.3303 Z-0.4486 F60
G01 X450.3565 Y13.4410 Z-0.4869 F60
G01 X450.4300 Y13.5408 Z-0.5286 F60
G01 X450.5229 Y13.6260 Z-0.5624 F60
G01 X450.6322 Y13.6935 Z-0.5796 F60
G01 X450.7547 Y13.7408 Z-0.5756 F60
G01 X450.8865 Y13.7658 Z-0.5516 F60
G01 X451.0238 Y13.7672 Z-0.5141 F60
G01 X451.1622 Y13.7445 Z-0.4734 F60
G01 X451.2978 Y13.6979 Z-0.4405 F60
G01 X451.4262 Y13.6281 Z-0.4242 F60
G01 X451.5436 Y13.5369 Z-0.4292 F60
G01 X451.6465 Y13.4264 Z-0.4541 F60
G01 X451.7316 Y13.2994 Z-0.4925 F60
G01 X451.7965 Y13.1593 Z-0.5341 F60
G01 X451.8392 Y13.0098 Z-0.5680 F60
G01 X451.8583 Y12.8549 Z-0.5851 F60
G01 X451.8533 Y12.6987 Z-0.5811 F60
G01 X451.8243 Y12.5456 Z-0.5571 F60
G01 X451.7722 Y12.3995 Z-0.5197 F60
G01 X451.6986 Y12.2644 Z-0.4790 F60
G01 X451.6058 Y12.1439 Z-0.4460 F60
G01 X451.4965 Y12.0410 Z-0.4298 F60
G01 X451.3740 Y11.9585 Z-0.4347 F60
G01 X451.2422 Y11.8982 Z-0.4597 F60
G01 X451.1049 Y11.8614 Z-0.4980 F60
G01 X450.9664 Y11.8487 Z-0.5397 F60
G01 X450.8309 Y11.8601 Z-0.5735 F60
G01 X450.7025 Y11.8945 Z-0.5907 F60
G01 X450.5851 Y11.9504 Z-0.5867 F60
G01 X450.4822 Y12.0256 Z-0.5627 F60
G01 X450.3970 Y12.1173 Z-0.5252 F60
G01 X450.3321 Y12.2220 Z-0.4845 F60
G01 X450.2895 Y12.3362 Z-0.4516 F60
G01 X450.2704 Y12.4558 Z-0.4353 F60
G01 X450.2754 Y12.5767 Z-0.4403 F60
G01 X450.3044 Y12.6945 Z-0.4652 F60
G01 X450.3565 Y12.8053 Z-0.5036 F60
G01 X450.4300 Y12.9050 Z-0.5452 F60
G01 X450.5229 Y12.9902 Z-0.5791 F60
G01 X450.6322 Y13.0577 Z-0.5962 F60
G01 X450.7547 Y13.1050 Z-0.5922 F60
G01 X450.8865 Y13.1300 Z-0.5682 F60
G01 X451.0238 Y13.1314 Z-0.5308 F60
G01 X451.1622 Y13.1087 Z-0.4901 F60
G01 X451.2978 Y13.0621 Z-0.4571 F60
G01 X451.4262 Y12.9924 Z-0.4409 F60
G01 X451.5436 Y12.9011 Z-0.4458 F60
G01 X451.6465 Y12.7906 Z-0.4708 F60
G01 X451.7316 Y12.6636 Z-0.5091 F60
G01 X451.7965 Y12.5235 Z-0.5508 F60
G01 X451.8392 Y12.3740 Z-0.5846 F60
G01 X451.8583 Y12.2191 Z-0.6018 F60
G01 X451.8533 Y12.0629 Z-0.5978 F60
G01 X451.8243 Y11.9098 Z-0.5738 F60
G01 X451.7722 Y11.7637 Z-0.5363 F60
G01 X451.6986 Y11.6286 Z-0.4956 F60
G01 X451.6058 Y11.5081 Z-0.4627 F60
G01 X451.4965 Y11.4052 Z-0.4464 F60
G01 X451.3740 Y11.3227 Z-0.4514 F60
G01 X451.2422 Y11.2624 Z-0.4763 F60
G01 X451.1049 Y11.2256 Z-0.5147 F60
G01 X450.9664 Y11.2130 Z-0.5563 F60
G01 X450.8309 Y11.2243 Z-0.5902 F60
G01 X450.7025 Y11.2587 Z-0.6074 F60
G01 X450.5851 Y11.3146 Z-0.6033 F60
G01 X450.4822 Y11.3898 Z-0.5793 F60
G01 X450.3970 Y11.4815 Z-0.5419 F60
G01 X450.3321 Y11.5863 Z-0.5012 F60
G01 X450.2895 Y11.7005 Z-0.4682 F60
G01 X450.2704 Y11.8200 Z-0.4520 F60
G01 X450.2754 Y11.9409 Z-0.4570 F60
G01 X450.3044 Y12.0587 Z-0.4819 F60
G01 X450.3565 Y12.1695 Z-0.5202 F60
G01 X450.4300 Y12.2692 Z-0.5619 F60
G01 X450.5229 Y12.3544 Z-0.5957 F60
G01 X450.6322 Y12.4220 Z-0.6129 F60
G01 X450.7547 Y12.4692 Z-0.6089 F60
G01 X450.8865 Y12.4942 Z-0.5849 F60
G01 X451.0238 Y12.4956 Z-0.5474 F60
G01 X451.1622 Y12.4730 Z-0.5067 F60
G01 X451.2978 Y12.4263 Z-0.4738 F60
G01 X451.4262 Y12.3566 Z-0.4576 F60
G01 X451.5436 Y12.2653 Z-0.4625 F60
G01 X451.6465 Y12.1548 Z-0.4874 F60
G01 X451.7316 Y12.0278 Z-0.5258 F60
G01 X451.7965 Y11.8877 Z-0.5674 F60
G01 X451.8392 Y11.7382 Z-0.6013 F60
G01 X451.8583 Y11.5833 Z-0.6185 F60
G01 X451.8533 Y11.4272 Z-0.6144 F60
G01 X451.8243 Y11.2740 Z-0.5904 F60
G01 X451.7722 Y11.1279 Z-0.5530 F60
G01 X451.6986 Y10.9928 Z-0.5123 F60
G01 X451.6058 Y10.8723 Z-0.4793 F60
G01 X451.4965 Y10.7695 Z-0.4631 F60
G01 X451.3740 Y10.6869 Z-0.4681 F60
G01 X451.2422 Y10.6266 Z-0.4930 F60
G01 X451.1049 Y10.5898 Z-0.5314 F60
G01 X450.9664 Y10.5772 Z-0.5730 F60
G01 X450.8309 Y10.5885 Z-0.6069 F60
G01 X450.7025 Y10.6229 Z-0.6240 F60
G01 X450.5851 Y10.6788 Z-0.6200 F60
G01 X450.4822 Y10.7540 Z-0.5960 F60
G01 X450.3970 Y10.8457 Z-0.5585 F60
G01 X450.3321 Y10.9505 Z-0.5178 F60
G01 X450.2895 Y11.0647 Z-0.4849 F60
G01 X450.2704 Y11.1843 Z-0.4687 F60
G01 X450.2754 Y11.3051 Z-0.4736 F60
G01 X450.3044 Y11.4229 Z-0.4985 F60
G01 X450.3565 Y11.5337 Z-0.5369 F60
G01 X450.4300 Y11.6335 Z-0.5785 F60
G01 X450.5229 Y11.7187 Z-0.6124 F60
G01 X450.6322 Y11.7862 Z-0.6296 F60
G01 X450.7547 Y11.8334 Z-0.6255 F60
G01 X450.8865 Y11.8584 Z-0.6015 F60
G01 X451.0238 Y11.8599 Z-0.5641 F60
G01 X451.1622 Y11.8372 Z-0.5234 F60
G01 X451.2978 Y11.7905 Z-0.4904 F60
G01 X451.4262 Y11.7208 Z-0.4742 F60
G01 X451.5436 Y11.6295 Z-0.4792 F60
G01 X451.6465 Y11.5190 Z-0.5041 F60
G01 X451.7316 Y11.3921 Z-0.5425 F60
G01 X451.7965 Y11.2520 Z-0.5841 F60
G01 X451.8392 Y11.1024 Z-0.6180 F60
G01 X451.8583 Y10.9475 Z-0.6351 F60
G01 X451.8533 Y10.7914 Z-0.6311 F60
G01 X451.8243 Y10.6382 Z-0.6071 F60
G01 X451.7722 Y10.4921 Z-0.5697 F60
G01 X451.6986 Y10.3570 Z-0.5289 F60
G01 X451.6058 Y10.2365 Z-0.4960 F60
G01 X451.4965 Y10.1337 Z-0.4798 F60
G01 X451.3740 Y10.0511 Z-0.4847 F60
G01 X451.2422 Y9.9908 Z-0.5097 F60
G01 X451.1049 Y9.9540 Z-0.5480 F60
G01 X450.9664 Y9.9414 Z-0.5896 F60
G01 X450.8309 Y9.9527 Z-0.6235 F60
G01 X450.7025 Y9.9871 Z-0.6407 F60
G01 X450.5851 Y10.0431 Z-0.6366 F60
G01 X450.4822 Y10.1183 Z-0.6126 F60
G01 X450.3970 Y10.2099 Z-0.5752 F60
G01 X450.3321 Y10.3147 Z-0.5345 F60
G01 X450.2895 Y10.4289 Z-0.5016 F60
G01 X450.2704 Y10.5485 Z-0.4853 F60
G01 X450.2754 Y10.6693 Z-0.4903 F60
G01 X450.3044 Y10.7872 Z-0.5152 F60
G01 X450.3565 Y10.8979 Z-0.5536 F60
G01 X450.4300 Y10.9977 Z-0.5952 F60
G01 X450.5229 Y11.0829 Z-0.6291 F60
G01 X450.6322 Y11.1504 Z-0.6462 F60
G01 X450.7547 Y11.1976 Z-0.6422 F60
G01 X450.8865 Y11.2226 Z-0.6182 F60
G01 X451.0238 Y11.2241 Z-0.5808 F60
G01 X451.1622 Y11.2014 Z-0.5401 F60
G01 X451.2978 Y11.1548 Z-0.5071 F60
G01 X451.4262 Y11.0850 Z-0.4909 F60
G01 X451.5436 Y10.9938 Z-0.4958 F60
G01 X451.6465 Y10.8832 Z-0.5208 F60
G01 X451.7316 Y10.7563 Z-0.5591 F60
G01 X451.7965 Y10.6162 Z-0.6008 F60
G01 X451.8392 Y10.4667 Z-0.6346 F60
G01 X451.8583 Y10.3117 Z-0.6518 F60
G01 X451.8533 Y10.1556 Z-0.6478 F60
G01 X451.8243 Y10.0024 Z-0.6237 F60
G01 X451.7722 Y9.8563 Z-0.5863 F60
G01 X451.6986 Y9.7213 Z-0.5456 F60
G01 X451.6058 Y9.6007 Z-0.5127 F60
G01 X451.4965 Y9.4979 Z-0.4964 F60
G01 X451.3740 Y9.4153 Z-0.5014 F60
G01 X451.2422 Y9.3550 Z-0.5263 F60
G01 X451.1049 Y9.3183 Z-0.5647 F60
G01 X450.9664 Y9.3056 Z-0.6063 F60
G01 X450.8309 Y9.3169 Z-0.6402 F60
G01 X450.7025 Y9.3514 Z-0.6573 F60
G01 X450.5851 Y9.4073 Z-0.6533 F60
G01 X450.4822 Y9.4825 Z-0.6293 F60
G01 X450.3970 Y9.5741 Z-0.5919 F60
G01 X450.3321 Y9.6789 Z-0.5512 F60
G01 X450.2895 Y9.7931 Z-0.5182 F60
G01 X450.2704 Y9.9127 Z-0.5020 F60
G01 X450.2754 Y10.0335 Z-0.5069 F60
G01 X450.3044 Y10.1514 Z-0.5319 F60
G01 X450.3565 Y10.2621 Z-0.5702 F60
G01 X450.4300 Y10.3619 Z-0.6119 F60
G01 X450.5229 Y10.4471 Z-0.6457 F60
G01 X450.6322 Y10.5146 Z-0.6629 F60
G01 X450.7547 Y10.5619 Z-0.6589 F60
G01 X450.8865 Y10.5868 Z-0.6349 F60
G01 X451.0238 Y10.5883 Z-0.5974 F60
G01 X451.1622 Y10.5656 Z-0.5567 F60
G01 X451.2978 Y10.5190 Z-0.5238 F60
G01 X451.4262 Y10.4492 Z-0.5075 F60
G01 X451.5436 Y10.3580 Z-0.5125 F60
G01 X451.6465 Y10.2475 Z-0.5374 F60
G01 X451.7316 Y10.1205 Z-0.5758 F60
G01 X451.7965 Y9.9804 Z-0.6174 F60
G01 X451.8392 Y9.8309 Z-0.6513 F60
G01 X451.8583 Y9.6760 Z-0.6684 F60
G01 X451.8533 Y9.5198 Z-0.6644 F60
G01 X451.8243 Y9.3666 Z-0.6404 F60
G01 X451.7722 Y9.2206 Z-0.6030 F60
G01 X451.6986 Y9.0855 Z-0.5623 F60
G01 X451.6058 Y8.9650 Z-0.5293 F60
G01 X451.4965 Y8.8621 Z-0.5131 F60
G01 X451.3740 Y8.7796 Z-0.5180 F60
G01 X451.2422 Y8.7192 Z-0.5430 F60
G01 X451.1049 Y8.6825 Z-0.5813 F60
G01 X450.9664 Y8.6698 Z-0.6230 F60
G01 X450.8309 Y8.6812 Z-0.6568 F60
G01 X450.7025 Y8.7156 Z-0.6740 F60
G01 X450.5851 Y8.7715 Z-0.6700 F60
G01 X450.4822 Y8.8467 Z-0.6460 F60
G01 X450.3970 Y8.9384 Z-0.6085 F60
G01 X450.3321 Y9.0431 Z-0.5678 F60
G01 X450.2895 Y9.1573 Z-0.5349 F60
G01 X450.2704 Y9.2769 Z-0.5186 F60
G01 X450.2754 Y9.3977 Z-0.5236 F60
G01 X450.3044 Y9.5156 Z-0.5485 F60
G01 X450.3565 Y9.6264 Z-0.5869 F60
G01 X450.4300 Y9.7261 Z-0.6285 F60
G01 X450.5229 Y9.8113 Z-0.6624 F60
G01 X450.6322 Y9.8788 Z-0.6795 F60
G01 X450.7547 Y9.9261 Z-0.6755 F60
G01 X450.8865 Y9.9511 Z-0.6515 F60
G01 X451.0238 Y9.9525 Z-0.6141 F60
G01 X451.1622 Y9.9298 Z-0.5734 F60
G01 X451.2978 Y9.8832 Z-0.5404 F60
G01 X451.4262 Y9.8135 Z-0.5242 F60
G01 X451.5436 Y9.7222 Z-0.5291 F60
G01 X451.6465 Y9.6117 Z-0.5541 F60
G01 X451.7316 Y9.4847 Z-0.5924 F60
G01 X451.7965 Y9.3446 Z-0.6341 F60
G01 X451.8392 Y9.1951 Z-0.6679 F60
G01 X451.8583 Y9.0402 Z-0.6851 F60
G01 X451.8533 Y8.8840 Z-0.6811 F60
G01 X451.8243 Y8.7309 Z-0.6571 F60
G01 X451.7722 Y8.5848 Z-0.6196 F60
G01 X451.6986 Y8.4497 Z-0.5789 F60
G01 X451.6058 Y8.3292 Z-0.5460 F60
G01 X451.4965 Y8.2263 Z-0.5297 F60
G01 X451.3740 Y8.1438 Z-0.5347 F60
G01 X451.2422 Y8.0835 Z-0.5596 F60
G01 X451.1049 Y8.0467 Z-0.5980 F60
G01 X450.9664 Y8.0341 Z-0.6396 F60
G01 X450.8309 Y8.0454 Z-0.6735 F60
G01 X450.7025 Y8.0798 Z-0.6907 F60
G01 X450.5851 Y8.1357 Z-0.6866 F60
G01 X450.4822 Y8.2109 Z-0.6626 F60
G01 X450.3970 Y8.3026 Z-0.6252 F60
G01 X450.3321 Y8.4074 Z-0.5845 F60
G01 X450.2895 Y8.5215 Z-0.5515 F60
G01 X450.2704 Y8.6411 Z-0.5353 F60
G01 X450.2754 Y8.7620 Z-0.5403 F60
G01 X450.3044 Y8.8798 Z-0.5652 F60
G01 X450.3565 Y8.9906 Z-0.6035 F60
G01 X450.4300 Y9.0903 Z-0.6452 F60
G01 X450.5229 Y9.1755 Z-0.6790 F60
G01 X450.6322 Y9.2431 Z-0.6962 F60
G01 X450.7547 Y9.2903 Z-0.6922 F60
G01 X450.8865 Y9.3153 Z-0.6682 F60
G01 X451.0238 Y9.3167 Z-0.6307 F60
G01 X451.1622 Y9.2941 Z-0.5900 F60
G01 X451.2978 Y9.2474 Z-0.5571 F60
G01 X451.4262 Y9.1777 Z-0.5409 F60
G01 X451.5436 Y9.0864 Z-0.5458 F60
G01 X451.6465 Y8.9759 Z-0.5707 F60
G01 X451.7316 Y8.8489 Z-0.6091 F60
G01 X451.7965 Y8.7088 Z-0.6507 F60
G01 X451.8392 Y8.5593 Z-0.6846 F60
G01 X451.8583 Y8.4044 Z-0.7018 F60
G01 X451.8533 Y8.2483 Z-0.6977 F60
G01 X451.8243 Y8.0951 Z-0.6737 F60
G01 X451.7722 Y7.9490 Z-0.6363 F60
G01 X451.6986 Y7.8139 Z-0.5956 F60
G01 X451.6058 Y7.6934 Z-0.5626 F60
G01 X451.4965 Y7.5906 Z-0.5464 F60
G01 X451.3740 Y7.5080 Z-0.5514 F60
G01 X451.2422 Y7.4477 Z-0.5763 F60
G01 X451.1049 Y7.4109 Z-0.6147 F60
G01 X450.9664 Y7.3983 Z-0.6563 F60
G01 X450.8309 Y7.4096 Z-0.6902 F60
G01 X450.7025 Y7.4440 Z-0.7073 F60
G01 X450.5851 Y7.4999 Z-0.7033 F60
G01 X450.4822 Y7.5751 Z-0.6793 F60
G01 X450.3970 Y7.6668 Z-0.6418 F60
G01 X450.3321 Y7.7716 Z-0.6011 F60
G01 X450.2895 Y7.8858 Z-0.5682 F60
G01 X450.2704 Y8.0054 Z-0.5520 F60
G01 X450.2754 Y8.1262 Z-0.5569 F60
G01 X450.3044 Y8.2440 Z-0.5818 F60
G01 X450.3565 Y8.3548 Z-0.6202 F60
G01 X450.4300 Y8.4546 Z-0.6618 F60
G01 X450.5229 Y8.5398 Z-0.6957 F60
G01 X450.6322 Y8.6073 Z-0.7129 F60
G01 X450.7547 Y8.6545 Z-0.7088 F60
G01 X450.8865 Y8.6795 Z-0.6848 F60
G01 X451.0238 Y8.6810 Z-0.6474 F60
G01 X451.1622 Y8.6583 Z-0.6067 F60
G01 X451.2978 Y8.6116 Z-0.5737 F60
G01 X451.4262 Y8.5419 Z-0.5575 F60
G01 X451.5436 Y8.4506 Z-0.5625 F60
G01 X451.6465 Y8.3401 Z-0.5874 F60
G01 X451.7316 Y8.2131 Z-0.6258 F60
G01 X451.7965 Y8.0730 Z-0.6674 F60
G01 X451.8392 Y7.9235 Z-0.7013 F60
G01 X451.8583 Y7.7686 Z-0.7184 F60
G01 X451.8533 Y7.6125 Z-0.7144 F60
G01 X451.8243 Y7.4593 Z-0.6904 F60
G01 X451.7722 Y7.3132 Z-0.6530 F60
G01 X451.6986 Y7.1781 Z-0.6122 F60
G01 X451.6058 Y7.0576 Z-0.5793 F60
G01 X451.4965 Y6.9548 Z-0.5631 F60
G01 X451.3740 Y6.8722 Z-0.5680 F60
G01 X451.2422 Y6.8119 Z-0.5930 F60
G01 X451.1049 Y6.7751 Z-0.6313 F60
G01 X450.9664 Y6.7625 Z-0.6729 F60
G01 X450.8309 Y6.7738 Z-0.7068 F60
G01 X450.7025 Y6.8082 Z-0.7240 F60
G01 X450.5851 Y6.8642 Z-0.7199 F60
G01 X450.4822 Y6.9394 Z-0.6959 F60
G01 X450.3970 Y7.0310 Z-0.6585 F60
G01 X450.3321 Y7.1358 Z-0.6178 F60
G01 X450.2895 Y7.2500 Z-0.5849 F60
G01 X450.2704 Y7.3696 Z-0.5686 F60
G01 X450.2754 Y7.4904 Z-0.5736 F60
G01 X450.3044 Y7.6083 Z-0.5985 F60
G01 X450.3565 Y7.7190 Z-0.6369 F60
G01 X450.4300 Y7.8188 Z-0.6785 F60
G01 X450.5229 Y7.9040 Z-0.7124 F60
G01 X450.6322 Y7.9715 Z-0.7295 F60
G01 X450.7547 Y8.0187 Z-0.7255 F60
G01 X450.8865 Y8.0437 Z-0.7015 F60
G01 X451.0238 Y8.0452 Z-0.6641 F60
G01 X451.1622 Y8.0225 Z-0.6234 F60
G01 X451.2978 Y7.9758 Z-0.5904 F60
G01 X451.4262 Y7.9061 Z-0.5742 F60
G01 X451.5436 Y7.8149 Z-0.5791 F60
G01 X451.6465 Y7.7043 Z-0.6041 F60
G01 X451.7316 Y7.5774 Z-0.6424 F60
G01 X451.7965 Y7.4373 Z-0.6841 F60
G01 X451.8392 Y7.2878 Z-0.7179 F60
G01 X451.8583 Y7.1328 Z-0.7351 F60
G01 X451.8533 Y6.9767 Z-0.7311 F60
G01 X451.8243 Y6.8235 Z-0.7070 F60
G01 X451.7722 Y6.6774 Z-0.6696 F60
G01 X451.6986 Y6.5424 Z-0.6289 F60
G01 X451.6058 Y6.4218 Z-0.5960 F60
G01 X451.4965 Y6.3190 Z-0.5797 F60
G01 X451.3740 Y6.2364 Z-0.5847 F60
G01 X451.2422 Y6.1761 Z-0.6096 F60
G01 X451.1049 Y6.1394 Z-0.6480 F60
G01 X450.9664 Y6.1267 Z-0.6896 F60
G01 X450.8309 Y6.1380 Z-0.7235 F60
G01 X450.7025 Y6.1725 Z-0.7406 F60
G01 X450.5851 Y6.2284 Z-0.7366 F60
G01 X450.4822 Y6.3036 Z-0.7126 F60
G01 X450.3970 Y6.3952 Z-0.6752 F60
G01 X450.3321 Y6.5000 Z-0.6345 F60
G01 X450.2895 Y6.6142 Z-0.6015 F60
G01 X450.2704 Y6.7338 Z-0.5853 F60
G01 X450.2754 Y6.8546 Z-0.5902 F60
G01 X450.3044 Y6.9725 Z-0.6152 F60
G01 X450.3565 Y7.0832 Z-0.6535 F60
G01 X450.4300 Y7.1830 Z-0.6952 F60
G01 X450.5229 Y7.2682 Z-0.7290 F60
G01 X450.6322 Y7.3357 Z-0.7462 F60
G01 X450.7547 Y7.3829 Z-0.7422 F60
G01 X450.8865 Y7.4079 Z-0.7182 F60
G01 X451.0238 Y7.4094 Z-0.6807 F60
G01 X451.1622 Y7.3867 Z-0.6400 F60
G01 X451.2978 Y7.3401 Z-0.6071 F60
G01 X451.4262 Y7.2703 Z-0.5908 F60
G01 X451.5436 Y7.1791 Z-0.5958 F60
G01 X451.6465 Y7.0686 Z-0.6207 F60
G01 X451.7316 Y6.9416 Z-0.6591 F60
G01 X451.7965 Y6.8015 Z-0.7007 F60
G01 X451.8392 Y6.6520 Z-0.7346 F60
G01 X451.8583 Y6.4971 Z-0.7517 F60
G01 X451.8533 Y6.3409 Z-0.7477 F60
G01 X451.8243 Y6.1877 Z-0.7237 F60
G01 X451.7722 Y6.0417 Z-0.6863 F60
G01 X451.6986 Y5.9066 Z-0.6456 F60
G01 X451.6058 Y5.7860 Z-0.6126 F60
G01 X451.4965 Y5.6832 Z-0.5964 F60
G01 X451.3740 Y5.6007 Z-0.6013 F60
G01 X451.2422 Y5.5403 Z-0.6263 F60
G01 X451.1049 Y5.5036 Z-0.6646 F60
G01 X450.9664 Y5.4909 Z-0.7063 F60
G01 X450.8309 Y5.5023 Z-0.7401 F60
G01 X450.7025 Y5.5367 Z-0.7573 F60
G01 X450.5851 Y5.5926 Z-0.7533 F60
G01 X450.4822 Y5.6678 Z-0.7293 F60
G01 X450.3970 Y5.7594 Z-0.6918 F60
G01 X450.3321 Y5.8642 Z-0.6511 F60
G01 X450.2895 Y5.9784 Z-0.6182 F60
G01 X450.2704 Y6.0980 Z-0.6019 F60
G01 X450.2754 Y6.2188 Z-0.6069 F60
G01 X450.3044 Y6.3367 Z-0.6318 F60
G01 X450.3565 Y6.4474 Z-0.6702 F60
G01 X450.4300 Y6.5472 Z-0.7118 F60
G01 X450.5229 Y6.6324 Z-0.7457 F60
G01 X450.6322 Y6.6999 Z-0.7628 F60
G01 X450.7547 Y6.7472 Z-0.7588 F60
G01 X450.8865 Y6.7722 Z-0.7348 F60
G01 X451.0238 Y6.7736 Z-0.6974 F60
G01 X451.1622 Y6.7509 Z-0.6567 F60
G01 X451.2978 Y6.7043 Z-0.6237 F60
G01 X451.4262 Y6.6345 Z-0.6075 F60
G01 X451.5436 Y6.5433 Z-0.6124 F60
G01 X451.6465 Y6.4328 Z-0.6374 F60
G01 X451.7316 Y6.3058 Z-0.6757 F60
G01 X451.7965 Y6.1657 Z-0.7174 F60
G01 X451.8392 Y6.0162 Z-0.7512 F60
G01 X451.8583 Y5.8613 Z-0.7684 F60
G01 X451.8533 Y5.7051 Z-0.7644 F60
G01 X451.8243 Y5.5520 Z-0.7404 F60
G01 X451.7722 Y5.4059 Z-0.7029 F60
G01 X451.6986 Y5.2708 Z-0.6622 F60
G01 X451.6058 Y5.1503 Z-0.6293 F60
G01 X451.4965 Y5.0474 Z-0.6130 F60
G01 X451.3740 Y4.9649 Z-0.6180 F60
G01 X451.2422 Y4.9046 Z-0.6429 F60
G01 X451.1049 Y4.8678 Z-0.6813 F60
G01 X450.9664 Y4.8551 Z-0.7229 F60
G01 X450.8309 Y4.8665 Z-0.7568 F60
G01 X450.7025 Y4.9009 Z-0.7740 F60
G01 X450.5851 Y4.9568 Z-0.7699 F60
G01 X450.4822 Y5.0320 Z-0.7459 F60
G01 X450.3970 Y5.1237 Z-0.7085 F60
G01 X450.3321 Y5.2284 Z-0.6678 F60
G01 X450.2895 Y5.3426 Z-0.6348 F60
G01 X450.2704 Y5.4622 Z-0.6186 F60
G01 X450.2754 Y5.5831 Z-0.6236 F60
G01 X450.3044 Y5.7009 Z-0.6485 F60
G01 X450.3565 Y5.8117 Z-0.6868 F60
G01 X450.4300 Y5.9114 Z-0.7285 F60
G01 X450.5229 Y5.9966 Z-0.7623 F60
G01 X450.6322 Y6.0641 Z-0.7795 F60
G01 X450.7547 Y6.1114 Z-0.7755 F60
G01 X450.8865 Y6.1364 Z-0.7515 F60
G01 X451.0238 Y6.1378 Z-0.7140 F60
G01 X451.1622 Y6.1151 Z-0.6733 F60
G01 X451.2978 Y6.0685 Z-0.6404 F60
G01 X451.4262 Y5.9988 Z-0.6242 F60
G01 X451.5436 Y5.9075 Z-0.6291 F60
G01 X451.6465 Y5.7970 Z-0.6540 F60
G01 X451.7316 Y5.6700 Z-0.6924 F60
G01 X451.7965 Y5.5299 Z-0.7340 F60
G01 X451.8392 Y5.3804 Z-0.7679 F60
G01 X451.8583 Y5.2255 Z-0.7851 F60
G01 X451.8533 Y5.0693 Z-0.7810 F60
G01 X451.8243 Y4.9162 Z-0.7570 F60
G01 X451.7722 Y4.7701 Z-0.7196 F60
G01 X451.6986 Y4.6350 Z-0.6789 F60
G01 X451.6058 Y4.5145 Z-0.6459 F60
G01 X451.4965 Y4.4116 Z-0.6297 F60
G01 X451.3740 Y4.3291 Z-0.6347 F60
G01 X451.2422 Y4.2688 Z-0.6596 F60
G01 X451.1049 Y4.2320 Z-0.6980 F60
G01 X450.9664 Y4.2194 Z-0.7396 F60
G01 X450.8309 Y4.2307 Z-0.7735 F60
G01 X450.7025 Y4.2651 Z-0.7906 F60
G01 X450.5851 Y4.3210 Z-0.7866 F60
G01 X450.4822 Y4.3962 Z-0.7626 F60
G01 X450.3970 Y4.4879 Z-0.7251 F60
G01 X450.3321 Y4.5927 Z-0.6844 F60
G01 X450.2895 Y4.7069 Z-0.6515 F60
G01 X450.2704 Y4.8264 Z-0.6353 F60
G01 X450.2754 Y4.9473 Z-0.6402 F60
G01 X450.3044 Y5.0651 Z-0.6651 F60
G01 X450.3565 Y5.1759 Z-0.7035 F60
G01 X450.4300 Y5.2756 Z-0.7451 F60
G01 X450.5229 Y5.3608 Z-0.7790 F60
G01 X450.6322 Y5.4284 Z-0.7962 F60
G01 X450.7547 Y5.4756 Z-0.7921 F60
G01 X450.8865 Y5.5006 Z-0.7681 F60
G01 X451.0238 Y5.5020 Z-0.7307 F60
G01 X451.1622 Y5.4794 Z-0.6900 F60
G01 X451.2978 Y5.4327 Z-0.6570 F60
G01 X451.4262 Y5.3630 Z-0.6408 F60
G01 X451.5436 Y5.2717 Z-0.6458 F60
G01 X451.6465 Y5.1612 Z-0.6707 F60
G01 X451.7316 Y5.0342 Z-0.7091 F60
G01 X451.7965 Y4.8941 Z-0.7507 F60
G01 X451.8392 Y4.7446 Z-0.7846 F60
G01 X451.8583 Y4.5897 Z-0.8017 F60
G01 X451.8533 Y4.4336 Z-0.7977 F60
G01 X451.8243 Y4.2804 Z-0.7737 F60
G01 X451.7722 Y4.1343 Z-0.7363 F60
G01 X451.6986 Y3.9992 Z-0.6955 F60
G01 X451.6058 Y3.8787 Z-0.6626 F60
G01 X451.4965 Y3.7759 Z-0.6464 F60
G01 X451.3740 Y3.6933 Z-0.6513 F60
G01 X451.2422 Y3.6330 Z-0.6763 F60
G01 X451.1049 Y3.5962 Z-0.7146 F60
G01 X450.9664 Y3.5836 Z-0.7562 F60
G01 X450.8309 Y3.5949 Z-0.7901 F60
G01 X450.7025 Y3.6293 Z-0.8073 F60
G01 X450.5851 Y3.6853 Z-0.8032 F60
G01 X450.4822 Y3.7604 Z-0.7792 F60
G01 X450.3970 Y3.8521 Z-0.7418 F60
G01 X450.3321 Y3.9569 Z-0.7011 F60
G01 X450.2895 Y4.0711 Z-0.6682 F60
G01 X450.2704 Y4.1907 Z-0.6519 F60
G01 X450.2754 Y4.3115 Z-0.6569 F60
G01 X450.3044 Y4.4293 Z-0.6818 F60
G01 X450.3565 Y4.5401 Z-0.7202 F60
G01 X450.4300 Y4.6399 Z-0.7618 F60
G01 X450.5229 Y4.7251 Z-0.7957 F60
G01 X450.6322 Y4.7926 Z-0.8128 F60
G01 X450.7547 Y4.8398 Z-0.8088 F60
G01 X450.8865 Y4.8648 Z-0.7848 F60
G01 X451.0238 Y4.8663 Z-0.7474 F60
G01 X451.1622 Y4.8436 Z-0.7067 F60
G01 X451.2978 Y4.7969 Z-0.6737 F60
G01 X451.4262 Y4.7272 Z-0.6575 F60
G01 X451.5436 Y4.6359 Z-0.6624 F60
G01 X451.6465 Y4.5254 Z-0.6874 F60
G01 X451.7316 Y4.3985 Z-0.7257 F60
G01 X451.7965 Y4.2584 Z-0.7673 F60
G01 X451.8392 Y4.1088 Z-0.8012 F60
G01 X451.8583 Y3.9539 Z-0.8184 F60
G01 X451.8533 Y3.7978 Z-0.8144 F60
G01 X451.8243 Y3.6446 Z-0.7903 F60
G01 X451.7722 Y3.4985 Z-0.7529 F60
G01 X451.6986 Y3.3634 Z-0.7122 F60
G01 X451.6058 Y3.2429 Z-0.6793 F60
G01 X451.4965 Y3.1401 Z-0.6630 F60
G01 X451.3740 Y3.0575 Z-0.6680 F60
G01 X451.2422 Y2.9972 Z-0.6929 F60
G01 X451.1049 Y2.9604 Z-0.7313 F60
G01 X450.9664 Y2.9478 Z-0.7729 F60
G01 X450.8309 Y2.9591 Z-0.8068 F60
G01 X450.7025 Y2.9935 Z-0.8239 F60
G01 X450.5851 Y3.0495 Z-0.8199 F60
G01 X450.4822 Y3.1247 Z-0.7959 F60
G01 X450.3970 Y3.2163 Z-0.7585 F60
G01 X450.3321 Y3.3211 Z-0.7178 F60
G01 X450.2895 Y3.4353 Z-0.6848 F60
G01 X450.2704 Y3.5549 Z-0.6686 F60
G01 X450.2754 Y3.6757 Z-0.6735 F60
G01 X450.3044 Y3.7936 Z-0.6985 F60
G01 X450.3565 Y3.9043 Z-0.7368 F60
G01 X450.4300 Y4.0041 Z-0.7785 F60
G01 X450.5229 Y4.0893 Z-0.8123 F60
G01 X450.6322 Y4.1568 Z-0.8295 F60
G01 X450.7547 Y4.2040 Z-0.8255 F60
G01 X450.8865 Y4.2290 Z-0.8015 F60
G01 X451.0238 Y4.2305 Z-0.7640 F60
G01 X451.1622 Y4.2078 Z-0.7233 F60
G01 X451.2978 Y4.1612 Z-0.6904 F60
G01 X451.4262 Y4.0914 Z-0.6741 F60
G01 X451.5436 Y4.0002 Z-0.6791 F60
G01 X451.6465 Y3.8896 Z-0.7040 F60
G01 X451.7316 Y3.7627 Z-0.7424 F60
G01 X451.7965 Y3.6226 Z-0.7840 F60
G01 X451.8392 Y3.4731 Z-0.8179 F60
G01 X451.8583 Y3.3181 Z-0.8350 F60
G01 X451.8533 Y3.1620 Z-0.8310 F60
G01 X451.8243 Y3.0088 Z-0.8070 F60
G01 X451.7722 Y2.8627 Z-0.7696 F60
G01 X451.6986 Y2.7277 Z-0.7289 F60
G01 X451.6058 Y2.6071 Z-0.6959 F60
G01 X451.4965 Y2.5043 Z-0.6797 F60
G01 X451.3740 Y2.4217 Z-0.6846 F60
G01 X451.2422 Y2.3614 Z-0.7096 F60
G01 X451.1049 Y2.3247 Z-0.7479 F60
G01 X450.9664 Y2.3120 Z-0.7896 F60
G01 X450.8309 Y2.3233 Z-0.8234 F60
G01 X450.7025 Y2.3578 Z-0.8406 F60
G01 X450.5851 Y2.4137 Z-0.8366 F60
G01 X450.4822 Y2.4889 Z-0.8126 F60
G01 X450.3970 Y2.5805 Z-0.7751 F60
G01 X450.3321 Y2.6853 Z-0.7344 F60
G01 X450.2895 Y2.7995 Z-0.7015 F60
G01 X450.2704 Y2.9191 Z-0.6852 F60
G01 X450.2754 Y3.0399 Z-0.6902 F60
G01 X450.3044 Y3.1578 Z-0.7151 F60
G01 X450.3565 Y3.2685 Z-0.7535 F60
G01 X450.4300 Y3.3683 Z-0.7951 F60
G01 X450.5229 Y3.4535 Z-0.8290 F60
G01 X450.6322 Y3.5210 Z-0.8461 F60
G01 X450.7547 Y3.5683 Z-0.8421 F60
G01 X450.8865 Y3.5932 Z-0.8181 F60
G01 X451.0238 Y3.5947 Z-0.7807 F60
G01 X451.1622 Y3.5720 Z-0.7400 F60
G01 X451.2978 Y3.5254 Z-0.7070 F60
G01 X451.4262 Y3.4556 Z-0.6908 F60
G01 X451.5436 Y3.3644 Z-0.6957 F60
G01 X451.6465 Y3.2539 Z-0.7207 F60
G01 X451.7316 Y3.1269 Z-0.7590 F60
G01 X451.7965 Y2.9868 Z-0.8007 F60
G01 X451.8392 Y2.8373 Z-0.8345 F60
G01 X451.8583 Y2.6824 Z-0.8517 F60
G01 X451.8533 Y2.5262 Z-0.8477 F60
G01 X451.8243 Y2.3730 Z-0.8237 F60
G01 X451.7722 Y2.2270 Z-0.7862 F60
G01 X451.6986 Y2.0919 Z-0.7455 F60
G01 X451.6058 Y1.9714 Z-0.7126 F60
G01 X451.4965 Y1.8685 Z-0.6963 F60
G01 X451.3740 Y1.7860 Z-0.7013 F60
G01 X451.2422 Y1.7256 Z-0.7262 F60
G01 X451.1049 Y1.6889 Z-0.7646 F60
G01 X450.9664 Y1.6762 Z-0.8062 F60
G01 X450.8309 Y1.6876 Z-0.8401 F60
G01 X450.7025 Y1.7220 Z-0.8573 F60
G01 X450.5851 Y1.7779 Z-0.8532 F60
G01 X450.4822 Y1.8531 Z-0.8292 F60
G01 X450.3970 Y1.9448 Z-0.7918 F60
G01 X450.3321 Y2.0495 Z-0.7511 F60
G01 X450.2895 Y2.1637 Z-0.7181 F60
G01 X450.2704 Y2.2833 Z-0.7019 F60
G01 X450.2754 Y2.4041 Z-0.7069 F60
G01 X450.3044 Y2.5220 Z-0.7318 F60
G01 X450.3565 Y2.6328 Z-0.7701 F60
G01 X450.4300 Y2.7325 Z-0.8118 F60
G01 X450.5229 Y2.8177 Z-0.8456 F60
G01 X450.6322 Y2.8852 Z-0.8628 F60
G01 X450.7547 Y2.9325 Z-0.8588 F60
G01 X450.8865 Y2.9575 Z-0.8348 F60
G01 X451.0238 Y2.9589 Z-0.7973 F60
G01 X451.1622 Y2.9362 Z-0.7566 F60
G01 X451.2978 Y2.8896 Z-0.7237 F60
G01 X451.4262 Y2.8199 Z-0.7075 F60
G01 X451.5436 Y2.7286 Z-0.7124 F60
G01 X451.6465 Y2.6181 Z-0.7373 F60
G01 X451.7316 Y2.4911 Z-0.7757 F60
G01 X451.7965 Y2.3510 Z-0.8173 F60
G01 X451.8392 Y2.2015 Z-0.8512 F60
G01 X451.8583 Y2.0466 Z-0.8684 F60
G01 X451.8533 Y1.8904 Z-0.8643 F60
G01 X451.8243 Y1.7373 Z-0.8403 F60
G01 X451.7722 Y1.5912 Z-0.8029 F60
G01 X451.6986 Y1.4561 Z-0.7622 F60
G01 X451.6058 Y1.3356 Z-0.7292 F60
G01 X451.4965 Y1.2327 Z-0.7130 F60
G01 X451.3740 Y1.1502 Z-0.7180 F60
G01 X451.2422 Y1.0899 Z-0.7429 F60
G01 X451.1049 Y1.0531 Z-0.7813 F60
G01 X450.9664 Y1.0405 Z-0.8229 F60
G01 X450.8309 Y1.0518 Z-0.8568 F60
G01 X450.7025 Y1.0862 Z-0.8739 F60
G01 X450.5851 Y1.1421 Z-0.8699 F60
G01 X450.4822 Y1.2173 Z-0.8459 F60
G01 X450.3970 Y1.3090 Z-0.8084 F60
G01 X450.3321 Y1.4138 Z-0.7677 F60
G01 X450.2895 Y1.5279 Z-0.7348 F60
G01 X450.2704 Y1.6475 Z-0.7186 F60
G01 X450.2754 Y1.7684 Z-0.7235 F60
G01 X450.3044 Y1.8862 Z-0.7484 F60
G01 X450.3565 Y1.9970 Z-0.7868 F60
G01 X450.4300 Y2.0967 Z-0.8284 F60
G01 X450.5229 Y2.1819 Z-0.8623 F60
G01 X450.6322 Y2.2495 Z-0.8795 F60
G01 X450.7547 Y2.2967 Z-0.8754 F60
G01 X450.8865 Y2.3217 Z-0.8514 F60
G01 X451.0238 Y2.3231 Z-0.8140 F60
G01 X451.1622 Y2.3005 Z-0.7733 F60
G01 X451.2978 Y2.2538 Z-0.7403 F60
G01 X451.4262 Y2.1841 Z-0.7241 F60
G01 X451.5436 Y2.0928 Z-0.7291 F60
G01 X451.6465 Y1.9823 Z-0.7540 F60
G01 X451.7316 Y1.8553 Z-0.7924 F60
G01 X451.7965 Y1.7152 Z-0.8340 F60
G01 X451.8392 Y1.5657 Z-0.8679 F60
G01 X451.8583 Y1.4108 Z-0.8850 F60
G01 X451.8533 Y1.2547 Z-0.8810 F60
G01 X451.8243 Y1.1015 Z-0.8570 F60
G01 X451.7722 Y0.9554 Z-0.8196 F60
G01 X451.6986 Y0.8203 Z-0.7788 F60
G01 X451.6058 Y0.6998 Z-0.7459 F60
G01 X451.4965 Y0.5970 Z-0.7297 F60
G01 X451.3740 Y0.5144 Z-0.7346 F60
G01 X451.2422 Y0.4541 Z-0.7596 F60
G01 X451.1049 Y0.4173 Z-0.7979 F60
G01 X450.9664 Y0.4047 Z-0.8395 F60
G01 X450.8309 Y0.4160 Z-0.8734 F60
G01 X450.7025 Y0.4504 Z-0.8906 F60
G01 X450.5851 Y0.5063 Z-0.8865 F60
G01 X450.4822 Y0.5815 Z-0.8625 F60
G01 X450.3970 Y0.6732 Z-0.8251 F60
G01 X450.3321 Y0.7780 Z-0.7844 F60
G01 X450.2895 Y0.8922 Z-0.7515 F60
G01 X450.2704 Y1.0118 Z-0.7352 F60
G01 X450.2754 Y1.1326 Z-0.7402 F60
G01 X450.3044 Y1.2504 Z-0.7651 F60
G01 X450.3541 Y1.3573 Z-0.8019 F60
G01 X450.4265 Y1.4575 Z-0.8436 F60
G01 X450.5182 Y1.5433 Z-0.8780 F60
G01 X450.6265 Y1.6116 Z-0.8959 F60
G01 X450.7480 Y1.6596 Z-0.8926 F60
G01 X450.8791 Y1.6854 Z-0.8693 F60
G01 X451.0157 Y1.6878 Z-0.8322 F60
G01 X451.1537 Y1.6660 Z-0.7914 F60
G01 X451.2889 Y1.6202 Z-0.7580 F60
G01 X451.2957 Y1.6172 Z-0.7566 F60
G01 X451.4225 Y1.5472 Z-0.7407 F60
G01 X451.5383 Y1.4557 Z-0.7460 F60
G01 X451.6394 Y1.3450 Z-0.7712 F60
G01 X451.7228 Y1.2179 Z-0.8096 F60
G01 X451.7859 Y1.0777 Z-0.8512 F60
G01 X451.8268 Y0.9281 Z-0.8849 F60
G01 X451.8440 Y0.7732 Z-0.9018 F60
G01 X451.8372 Y0.6171 Z-0.8974 F60
G01 X451.8362 Y0.6091 Z-0.8966 F60
G01 X451.8031 Y0.4565 Z-0.8715 F60
G01 X451.7471 Y0.3112 Z-0.8335 F60
G01 X451.6697 Y0.1771 Z-0.7930 F60
G01 X451.5732 Y0.0579 Z-0.7609 F60
G01 X451.4604 Y-0.0435 Z-0.7460 F60
G01 X451.3348 Y-0.1245 Z-0.7524 F60
G01 X451.2000 Y-0.1831 Z-0.7784 F60
G01 X451.0600 Y-0.2181 Z-0.8174 F60
G01 X451.0528 Y-0.2193 Z-0.8195 F60
G01 X450.9110 Y-0.2287 Z-0.8608 F60
G01 X450.7726 Y-0.2143 Z-0.8931 F60
G01 X450.6419 Y-0.1769 Z-0.9079 F60
G01 X450.5225 Y-0.1182 Z-0.9013 F60
G01 X450.4182 Y-0.0406 Z-0.8753 F60
G01 X450.3318 Y0.0531 Z-0.8369 F60
G01 X450.2660 Y0.1596 Z-0.7966 F60
G01 X450.2226 Y0.2749 Z-0.7652 F60
G01 X450.2210 Y0.2810 Z-0.7640 F60
G01 X450.2016 Y0.4017 Z-0.7512 F60
G01 X450.2062 Y0.5229 Z-0.7598 F60
G01 X450.2348 Y0.6404 Z-0.7876 F60
G01 X450.2863 Y0.7501 Z-0.8273 F60
G01 X450.3589 Y0.8482 Z-0.8683 F60
G01 X450.4503 Y0.9312 Z-0.8999 F60
G01 X450.5577 Y0.9960 Z-0.9136 F60
G01 X450.6776 Y1.0401 Z-0.9060 F60
G01 X450.6840 Y1.0418 Z-0.9050 F60
G01 X450.8121 Y1.0625 Z-0.8773 F60
G01 X450.9446 Y1.0595 Z-0.8382 F60
G01 X451.0774 Y1.0323 Z-0.7983 F60
G01 X451.2063 Y0.9813 Z-0.7684 F60
G01 X451.3273 Y0.9075 Z-0.7567 F60
G01 X451.4364 Y0.8126 Z-0.7663 F60
G01 X451.5303 Y0.6990 Z-0.7950 F60
G01 X451.6058 Y0.5697 Z-0.8350 F60
G01 X451.6092 Y0.5627 Z-0.8372 F60
G01 X451.6619 Y0.4208 Z-0.8777 F60
G01 X451.6919 Y0.2706 Z-0.9078 F60
G01 X451.6982 Y0.1161 Z-0.9194 F60
G01 X451.6803 Y-0.0385 Z-0.9096 F60
G01 X451.6386 Y-0.1890 Z-0.8811 F60
G01 X451.5742 Y-0.3313 Z-0.8416 F60
G01 X451.4888 Y-0.4616 Z-0.8020 F60
G01 X451.3849 Y-0.5764 Z-0.7729 F60
G01 X451.3791 Y-0.5819 Z-0.7718 F60
G01 X451.2579 Y-0.6769 Z-0.7622 F60
G01 X451.1248 Y-0.7509 Z-0.7741 F60
G01 X450.9835 Y-0.8021 Z-0.8043 F60
G01 X450.8382 Y-0.8296 Z-0.8449 F60
G01 X450.6930 Y-0.8329 Z-0.8852 F60
G01 X450.5521 Y-0.8124 Z-0.9144 F60
G01 X450.4196 Y-0.7693 Z-0.9250 F60
G01 X450.2993 Y-0.7053 Z-0.9141 F60
G01 X450.2935 Y-0.7015 Z-0.9130 F60
G01 X450.1889 Y-0.6178 Z-0.8829 F60
G01 X450.1029 Y-0.5188 Z-0.8429 F60
G01 X450.0381 Y-0.4081 Z-0.8039 F60
G01 X449.9960 Y-0.2894 Z-0.7764 F60
G01 X449.9778 Y-0.1669 Z-0.7679 F60
G01 X449.9838 Y-0.0447 Z-0.7808 F60
G01 X450.0135 Y0.0729 Z-0.8117 F60
G01 X450.0658 Y0.1820 Z-0.8526 F60
G01 X450.0690 Y0.1873 Z-0.8548 F60
G01 X450.1422 Y0.2837 Z-0.8944 F60
G01 X450.2335 Y0.3642 Z-0.9220 F60
G01 X450.3399 Y0.4258 Z-0.9304 F60
G01 X450.4578 Y0.4661 Z-0.9173 F60
G01 X450.5835 Y0.4837 Z-0.8865 F60
G01 X450.7128 Y0.4773 Z-0.8464 F60
G01 X450.8416 Y0.4468 Z-0.8077 F60
G01 X450.9656 Y0.3926 Z-0.7810 F60
G01 X450.9718 Y0.3891 Z-0.7801 F60
G01 X451.0856 Y0.3119 Z-0.7738 F60
G01 X451.1866 Y0.2140 Z-0.7888 F60
G01 X451.2716 Y0.0982 Z-0.8212 F60
G01 X451.3375 Y-0.0325 Z-0.8625 F60
G01 X451.3822 Y-0.1746 Z-0.9018 F60
G01 X451.4039 Y-0.3242 Z-0.9285 F60
G01 X451.4017 Y-0.4773 Z-0.9358 F60
G01 X451.3753 Y-0.6295 Z-0.9217 F60
G01 X451.3733 Y-0.6373 Z-0.9204 F60
G01 X451.3213 Y-0.7836 Z-0.8882 F60
G01 X451.2470 Y-0.9208 Z-0.8477 F60
G01 X451.1522 Y-1.0451 Z-0.8098 F60
G01 X451.0397 Y-1.1530 Z-0.7848 F60
G01 X450.9123 Y-1.2418 Z-0.7796 F60
G01 X450.7738 Y-1.3093 Z-0.7956 F60
G01 X450.6280 Y-1.3537 Z-0.8288 F60
G01 X450.4789 Y-1.3741 Z-0.8703 F60
G01 X450.4712 Y-1.3745 Z-0.8724 F60
G01 X450.3226 Y-1.3690 Z-0.9108 F60
G01 X450.1793 Y-1.3399 Z-0.9358 F60
G01 X450.0454 Y-1.2886 Z-0.9409 F60
G01 X449.9246 Y-1.2170 Z-0.9247 F60
G01 X449.8203 Y-1.1277 Z-0.8918 F60
G01 X449.7353 Y-1.0238 Z-0.8511 F60
G01 X449.6717 Y-0.9089 Z-0.8136 F60
G01 X449.6312 Y-0.7869 Z-0.7896 F60
G01 X449.6298 Y-0.7805 Z-0.7888 F60
G01 X449.6138 Y-0.6548 Z-0.7858 F60
G01 X449.6219 Y-0.5306 Z-0.8039 F60
G01 X449.6535 Y-0.4119 Z-0.8384 F60
G01 X449.7073 Y-0.3029 Z-0.8801 F60
G01 X449.7813 Y-0.2071 Z-0.9181 F60
G01 X449.8728 Y-0.1279 Z-0.9422 F60
G01 X449.9787 Y-0.0681 Z-0.9461 F60
G01 X450.0954 Y-0.0300 Z-0.9289 F60
G01 X450.1016 Y-0.0286 Z-0.9275 F60
G01 X450.2248 Y-0.0141 Z-0.8933 F60
G01 X450.3505 Y-0.0236 Z-0.8525 F60
G01 X450.4746 Y-0.0573 Z-0.8159 F60
G01 X450.5928 Y-0.1143 Z-0.7937 F60
G01 X450.7013 Y-0.1935 Z-0.7918 F60
G01 X450.7963 Y-0.2927 Z-0.8109 F60
G01 X450.8745 Y-0.4092 Z-0.8460 F60
G01 X450.9332 Y-0.5401 Z-0.8878 F60
G01 X450.9357 Y-0.5471 Z-0.8900 F60
G01 X450.9709 Y-0.6883 Z-0.9269 F60
G01 X450.9828 Y-0.8359 Z-0.9491 F60
G01 X450.9707 Y-0.9858 Z-0.9508 F60
G01 X450.9345 Y-1.1339 Z-0.9316 F60
G01 X450.8749 Y-1.2760 Z-0.8969 F60
G01 X450.7933 Y-1.4081 Z-0.8559 F60
G01 X450.6918 Y-1.5265 Z-0.8199 F60
G01 X450.5730 Y-1.6280 Z-0.7986 F60
G01 X450.5665 Y-1.6328 Z-0.7981 F60
G01 X450.4324 Y-1.7128 Z-0.7984 F60
G01 X450.2881 Y-1.7709 Z-0.8195 F60
G01 X450.1375 Y-1.8057 Z-0.8558 F60
G01 X449.9849 Y-1.8165 Z-0.8976 F60
G01 X449.8343 Y-1.8031 Z-0.9340 F60
G01 X449.6899 Y-1.7665 Z-0.9553 F60
G01 X449.5557 Y-1.7079 Z-0.9559 F60
G01 X449.4353 Y-1.6296 Z-0.9357 F60
G01 X449.4296 Y-1.6250 Z-0.9342 F60
G01 X449.3267 Y-1.5280 Z-0.8983 F60
G01 X449.2437 Y-1.4172 Z-0.8574 F60
G01 X449.1827 Y-1.2964 Z-0.8225 F60
G01 X449.1450 Y-1.1696 Z-0.8031 F60
G01 X449.1315 Y-1.0408 Z-0.8046 F60
G01 X449.1419 Y-0.9143 Z-0.8266 F60
G01 X449.1757 Y-0.7943 Z-0.8634 F60
G01 X449.2313 Y-0.6847 Z-0.9053 F60
G01 X449.2347 Y-0.6794 Z-0.9074 F60
G01 X449.3104 Y-0.5837 Z-0.9426 F60
G01 X449.4028 Y-0.5055 Z-0.9619 F60
G01 X449.5088 Y-0.4472 Z-0.9602 F60
G01 X449.6246 Y-0.4110 Z-0.9382 F60
G01 X449.7462 Y-0.3983 Z-0.9018 F60
G01 X449.8696 Y-0.4096 Z-0.8609 F60
G01 X449.9904 Y-0.4450 Z-0.8266 F60
G01 X450.1046 Y-0.5036 Z-0.8082 F60
G01 X450.1102 Y-0.5072 Z-0.8078 F60
G01 X450.2127 Y-0.5877 Z-0.8115 F60
G01 X450.3008 Y-0.6876 Z-0.8354 F60
G01 X450.3714 Y-0.8041 Z-0.8732 F60
G01 X450.4218 Y-0.9340 Z-0.9150 F60
G01 X450.4501 Y-1.0735 Z-0.9496 F60
G01 X450.4549 Y-1.2187 Z-0.9679 F60
G01 X450.4356 Y-1.3653 Z-0.9651 F60
G01 X450.3923 Y-1.5092 Z-0.9421 F60
G01 X450.3895 Y-1.5165 Z-0.9405 F60
G01 X450.3214 Y-1.6522 Z-0.9031 F60
G01 X450.2318 Y-1.7769 Z-0.8624 F60
G01 X450.1230 Y-1.8871 Z-0.8294 F60
G01 X449.9976 Y-1.9796 Z-0.8130 F60
G01 X449.8591 Y-2.0519 Z-0.8178 F60
G01 X449.7112 Y-2.1019 Z-0.8426 F60
G01 X449.5579 Y-2.1284 Z-0.8809 F60
G01 X449.4033 Y-2.1307 Z-0.9226 F60
G01 X449.3953 Y-2.1302 Z-0.9246 F60
G01 X449.2436 Y-2.1064 Z-0.9579 F60
G01 X449.0991 Y-2.0597 Z-0.9742 F60
G01 X448.9657 Y-1.9914 Z-0.9692 F60
G01 X448.8471 Y-1.9041 Z-0.9444 F60
G01 X448.7463 Y-1.8004 Z-0.9066 F60
G01 X448.6658 Y-1.6837 Z-0.8660 F60
G01 X448.6077 Y-1.5579 Z-0.8336 F60
G01 X448.5732 Y-1.4268 Z-0.8183 F60
G01 X448.5721 Y-1.4199 Z-0.8181 F60
G01 X448.5626 Y-1.2869 Z-0.8251 F60
G01 X448.5770 Y-1.1573 Z-0.8517 F60
G01 X448.6144 Y-1.0351 Z-0.8908 F60
G01 X448.6732 Y-0.9243 Z-0.9322 F60
G01 X448.7509 Y-0.8284 Z-0.9648 F60
G01 X448.8448 Y-0.7504 Z-0.9800 F60
G01 X448.9515 Y-0.6930 Z-0.9739 F60
G01 X449.0672 Y-0.6579 Z-0.9482 F60
G01 X449.0734 Y-0.6567 Z-0.9465 F60
G01 X449.1940 Y-0.6456 Z-0.9079 F60
G01 X449.3152 Y-0.6586 Z-0.8676 F60
G01 X449.4328 Y-0.6955 Z-0.8367 F60
G01 X449.5427 Y-0.7553 Z-0.8234 F60
G01 X449.6411 Y-0.8363 Z-0.8316 F60
G01 X449.7244 Y-0.9362 Z-0.8590 F60
G01 X449.7896 Y-1.0521 Z-0.8986 F60
G01 X449.8343 Y-1.1805 Z-0.9397 F60
G01 X449.8360 Y-1.1874 Z-0.9417 F60
G01 X449.8567 Y-1.3241 Z-0.9728 F60
G01 X449.8537 Y-1.4654 Z-0.9859 F60
G01 X449.8265 Y-1.6071 Z-0.9776 F60
G01 X449.7755 Y-1.7450 Z-0.9503 F60
G01 X449.7017 Y-1.8749 Z-0.9113 F60
G01 X449.6067 Y-1.9932 Z-0.8713 F60
G01 X449.4930 Y-2.0962 Z-0.8411 F60
G01 X449.3635 Y-2.1809 Z-0.8289 F60
G01 X449.3564 Y-2.1848 Z-0.8288 F60
G01 X449.2138 Y-2.2467 Z-0.8391 F60
G01 X449.0627 Y-2.2860 Z-0.8682 F60
G01 X448.9073 Y-2.3016 Z-0.9085 F60
G01 X448.7516 Y-2.2930 Z-0.9492 F60
G01 X448.6000 Y-2.2605 Z-0.9795 F60
G01 X448.4565 Y-2.2054 Z-0.9916 F60
G01 X448.3250 Y-2.1292 Z-0.9822 F60
G01 X448.2088 Y-2.0344 Z-0.9540 F60
G01 X448.2033 Y-2.0290 Z-0.9522 F60
G01 X448.1064 Y-1.9168 Z-0.9126 F60
G01 X448.0304 Y-1.7926 Z-0.8731 F60
G01 X447.9772 Y-1.6602 Z-0.8444 F60
G01 X447.9478 Y-1.5236 Z-0.8344 F60
G01 X447.9425 Y-1.3871 Z-0.8458 F60
G01 X447.9610 Y-1.2548 Z-0.8757 F60
G01 X448.0022 Y-1.1308 Z-0.9162 F60
G01 X448.0643 Y-1.0189 Z-0.9566 F60
G01 X448.0680 Y-1.0135 Z-0.9585 F60
G01 X448.1494 Y-0.9171 Z-0.9873 F60
G01 X448.2461 Y-0.8393 Z-0.9972 F60
G01 X448.3546 Y-0.7826 Z-0.9856 F60
G01 X448.4712 Y-0.7486 Z-0.9559 F60
G01 X448.5917 Y-0.7385 Z-0.9160 F60
G01 X448.7120 Y-0.7526 Z-0.8768 F60
G01 X448.8278 Y-0.7904 Z-0.8490 F60
G01 X448.9351 Y-0.8508 Z-0.8400 F60
G01 X448.9403 Y-0.8545 Z-0.8401 F60
G01 X449.0699 Y-0.9357 Z-0.8532 F1200
G01 X449.1836 Y-1.0351 Z-0.8842 F1200
G01 X449.2785 Y-1.1497 Z-0.9247 F1200
G01 X449.3522 Y-1.2759 Z-0.9640 F1200
G01 X449.4031 Y-1.4099 Z-0.9915 F1200
G01 X449.4301 Y-1.5477 Z-0.9999 F1200
G01 X449.4330 Y-1.6850 Z-0.9868 F1200
G01 X449.4122 Y-1.8176 Z-0.9558 F1200
G01 X449.4106 Y-1.8239 Z-0.9540 F1200
G01 X449.3661 Y-1.9463 Z-0.9132 F1200
G01 X449.3010 Y-2.0560 Z-0.8743 F1200
G01 X449.2179 Y-2.1497 Z-0.8476 F1200
G01 X449.1198 Y-2.2245 Z-0.8403 F1200
G01 X449.0102 Y-2.2780 Z-0.8543 F1200
G01 X448.8930 Y-2.3086 Z-0.8860 F1200
G01 X448.7723 Y-2.3153 Z-0.9268 F1200
G01 X448.6522 Y-2.2978 Z-0.9657 F1200
G01 X448.6465 Y-2.2964 Z-0.9674 F1200
G01 X448.5315 Y-2.2532 Z-0.9933 F1200
G01 X448.4256 Y-2.1875 Z-0.9995 F1200
G01 X448.3326 Y-2.1015 Z-0.9845 F1200
G01 X448.2558 Y-1.9975 Z-0.9521 F1200
G01 X448.1980 Y-1.8787 Z-0.9112 F1200
G01 X448.1616 Y-1.7485 Z-0.8726 F1200
G01 X448.1482 Y-1.6110 Z-0.8467 F1200
G01 X448.1586 Y-1.4701 Z-0.8405 F1200
G01 X448.1598 Y-1.4632 Z-0.8407 F1200
G01 X448.1954 Y-1.3224 Z-0.8568 F1200
G01 X448.2546 Y-1.1869 Z-0.8897 F1200
G01 X448.3361 Y-1.0606 Z-0.9308 F1200
G01 X448.4380 Y-0.9474 Z-0.9690 F1200
G01 X448.5576 Y-0.8505 Z-0.9941 F1200
G01 X448.6920 Y-0.7727 Z-0.9993 F1200
G01 X448.8374 Y-0.7165 Z-0.9832 F1200
G01 X448.9901 Y-0.6832 Z-0.9503 F1200
G01 X448.9976 Y-0.6822 Z-0.9484 F1200
G01 X449.1532 Y-0.6732 Z-0.9072 F1200
G01 X449.3076 Y-0.6882 Z-0.8694 F1200
G01 X449.4564 Y-0.7268 Z-0.8452 F1200
G01 X449.5958 Y-0.7877 Z-0.8410 F1200
G01 X449.7220 Y-0.8687 Z-0.8580 F1200
G01 X449.8316 Y-0.9674 Z-0.8916 F1200
G01 X449.9220 Y-1.0806 Z-0.9328 F1200
G01 X449.9909 Y-1.2048 Z-0.9706 F1200
G01 X449.9936 Y-1.2110 Z-0.9722 F1200
G01 X450.0379 Y-1.3415 Z-0.9955 F1200
G01 X450.0582 Y-1.4747 Z-0.9986 F1200
G01 X450.0544 Y-1.6063 Z-0.9806 F1200
G01 X450.0271 Y-1.7323 Z-0.9464 F1200
G01 X449.9777 Y-1.8487 Z-0.9051 F1200
G01 X449.9081 Y-1.9517 Z-0.8678 F1200
G01 X449.8211 Y-2.0380 Z-0.8445 F1200
G01 X449.7197 Y-2.1049 Z-0.8414 F1200
G01 X449.7144 Y-2.1076 Z-0.8418 F1200
G01 X449.6015 Y-2.1509 Z-0.8607 F1200
G01 X449.4820 Y-2.1709 Z-0.8955 F1200
G01 X449.3599 Y-2.1669 Z-0.9369 F1200
G01 X449.2396 Y-2.1387 Z-0.9737 F1200
G01 X449.1251 Y-2.0872 Z-0.9962 F1200
G01 X449.0204 Y-2.0136 Z-0.9982 F1200
G01 X448.9293 Y-1.9200 Z-0.9793 F1200
G01 X448.8550 Y-1.8090 Z-0.9445 F1200
G01 X448.8519 Y-1.8032 Z-0.9426 F1200
G01 X448.7978 Y-1.6765 Z-0.9012 F1200
G01 X448.7654 Y-1.5395 Z-0.8648 F1200
G01 X448.7564 Y-1.3960 Z-0.8432 F1200
G01 X448.7714 Y-1.2502 Z-0.8423 F1200
G01 X448.8105 Y-1.1063 Z-0.8621 F1200
G01 X448.8730 Y-0.9685 Z-0.8974 F1200
G01 X448.9575 Y-0.8408 Z-0.9388 F1200
G01 X449.0618 Y-0.7267 Z-0.9752 F1200
G01 X449.0674 Y-0.7215 Z-0.9767 F1200
G01 X449.1893 Y-0.6244 Z-0.9973 F1200
G01 X449.3250 Y-0.5471 Z-0.9972 F1200
G01 X449.4710 Y-0.4916 Z-0.9765 F1200
G01 X449.6231 Y-0.4595 Z-0.9406 F1200
G01 X449.7774 Y-0.4515 Z-0.8992 F1200
G01 X449.9296 Y-0.4675 Z-0.8633 F1200
G01 X450.0755 Y-0.5069 Z-0.8427 F1200
G01 X450.2111 Y-0.5681 Z-0.8428 F1200
G01 X450.2174 Y-0.5716 Z-0.8433 F1200
G01 X450.3380 Y-0.6527 Z-0.8650 F1200
G01 X450.4413 Y-0.7506 Z-0.9014 F1200
G01 X450.5247 Y-0.8623 Z-0.9428 F1200
G01 X450.5862 Y-0.9840 Z-0.9781 F1200
G01 X450.6242 Y-1.1117 Z-0.9978 F1200
G01 X450.6382 Y-1.2413 Z-0.9967 F1200
G01 X450.6281 Y-1.3685 Z-0.9750 F1200
G01 X450.5947 Y-1.4894 Z-0.9386 F1200
G01 X450.5926 Y-1.4950 Z-0.9366 F1200
G01 X450.5359 Y-1.6040 Z-0.8953 F1200
G01 X450.4596 Y-1.6987 Z-0.8605 F1200
G01 X450.3666 Y-1.7761 Z-0.8417 F1200
G01 X450.2601 Y-1.8335 Z-0.8439 F1200
G01 X450.1438 Y-1.8688 Z-0.8665 F1200
G01 X450.0216 Y-1.8806 Z-0.9034 F1200
G01 X449.8977 Y-1.8684 Z-0.9447 F1200
G01 X449.7764 Y-1.8321 Z-0.9795 F1200
G01 X449.7706 Y-1.8297 Z-0.9808 F1200
G01 X449.6558 Y-1.7683 Z-0.9987 F1200
G01 X449.5517 Y-1.6853 Z-0.9954 F1200
G01 X449.4620 Y-1.5829 Z-0.9720 F1200
G01 X449.3899 Y-1.4638 Z-0.9346 F1200
G01 X449.3378 Y-1.3314 Z-0.8933 F1200
G01 X449.3080 Y-1.1894 Z-0.8592 F1200
G01 X449.3016 Y-1.0417 Z-0.8413 F1200
G01 X449.3193 Y-0.8926 Z-0.8446 F1200
G01 X449.3208 Y-0.8853 Z-0.8453 F1200
G01 X449.3630 Y-0.7384 Z-0.8696 F1200
G01 X449.4284 Y-0.5985 Z-0.9074 F1200
G01 X449.5153 Y-0.4695 Z-0.9486 F1200
G01 X449.6215 Y-0.3551 Z-0.9821 F1200
G01 X449.7441 Y-0.2584 Z-0.9990 F1200
G01 X449.8800 Y-0.1819 Z-0.9947 F1200
G01 X450.0253 Y-0.1276 Z-0.9704 F1200
G01 X450.1760 Y-0.0969 Z-0.9326 F1200
G01 X450.1834 Y-0.0960 Z-0.9306 F1200
G01 X450.3347 Y-0.0898 Z-0.8895 F1200
G01 X450.4828 Y-0.1076 Z-0.8566 F1200
G01 X450.6237 Y-0.1484 Z-0.8407 F1200
G01 X450.7535 Y-0.2107 Z-0.8460 F1200
G01 X450.8685 Y-0.2921 Z-0.8712 F1200
G01 X450.9658 Y-0.3898 Z-0.9094 F1200
G01 X451.0427 Y-0.5006 Z-0.9505 F1200
G01 X451.0973 Y-0.6206 Z-0.9834 F1200
G01 X451.0993 Y-0.6266 Z-0.9846 F1200
G01 X451.1285 Y-0.7513 Z-0.9995 F1200
G01 X451.1335 Y-0.8769 Z-0.9932 F1200
G01 X451.1145 Y-0.9991 Z-0.9672 F1200
G01 X451.0726 Y-1.1138 Z-0.9286 F1200
G01 X451.0094 Y-1.2173 Z-0.8876 F1200
G01 X450.9271 Y-1.3059 Z-0.8554 F1200
G01 X450.8286 Y-1.3765 Z-0.8405 F1200
G01 X450.7173 Y-1.4267 Z-0.8468 F1200
G01 X450.7117 Y-1.4286 Z-0.8477 F1200
G01 X450.5902 Y-1.4546 Z-0.8745 F1200
G01 X450.4640 Y-1.4569 Z-0.9135 F1200
G01 X450.3370 Y-1.4351 Z-0.9542 F1200
G01 X450.2136 Y-1.3894 Z-0.9858 F1200
G01 X450.0979 Y-1.3207 Z-0.9997 F1200
G01 X449.9937 Y-1.2309 Z-0.9923 F1200
G01 X449.9044 Y-1.1221 Z-0.9655 F1200
G01 X449.8333 Y-0.9973 Z-0.9265 F1200
G01 X449.8303 Y-0.9908 Z-0.9245 F1200
G01 X449.7801 Y-0.8523 Z-0.8839 F1200
G01 X449.7523 Y-0.7050 Z-0.8531 F1200
G01 X449.7483 Y-0.5531 Z-0.8401 F1200
G01 X449.7684 Y-0.4007 Z-0.8486 F1200
G01 X449.8124 Y-0.2521 Z-0.8762 F1200
G01 X449.8792 Y-0.1113 Z-0.9155 F1200
G01 X449.9672 Y0.0178 Z-0.9561 F1200
G01 X450.0740 Y0.1317 Z-0.9869 F1200
G01 X450.0796 Y0.1368 Z-0.9880 F1200
G01 X450.2021 Y0.2322 Z-1.0000 F1200
G01 X450.3369 Y0.3067 Z-0.9905 F1200
G01 X450.4802 Y0.3586 Z-0.9621 F1200
G01 X450.6279 Y0.3868 Z-0.9224 F1200
G01 X450.7759 Y0.3908 Z-0.8821 F1200
G01 X450.9200 Y0.3710 Z-0.8520 F1200
G01 X451.0560 Y0.3284 Z-0.8400 F1200
G01 X451.1801 Y0.2648 Z-0.8495 F1200
G01 X451.1858 Y0.2612 Z-0.8505 F1200
G01 X451.2929 Y0.1786 Z-0.8797 F1200
G01 X451.3816 Y0.0804 Z-0.9196 F1200
G01 X451.4493 Y-0.0299 Z-0.9597 F1200
G01 X451.4944 Y-0.1485 Z-0.9891 F1200
G01 X451.5157 Y-0.2713 Z-1.0000 F1200
G01 X451.5128 Y-0.3941 Z-0.9895 F1200
G01 X451.4861 Y-0.5128 Z-0.9603 F1200
G01 X451.4367 Y-0.6233 Z-0.9204 F1200
G01 X451.4338 Y-0.6284 Z-0.9184 F1200
