;Project 250x250-panel-ply-right.2
;Created by Estlcam version 11 build 11.245
;Machining time about 00:07:05 hours

G90
M03 S10000
G00 X0.0000 Y0.0000 Z0.0000 F1500
G00 Z4.0000 F480


;No. 1: Hole 42
G00 X10.9100 Y19.8900 F1500
G00 Z0.5000 F480
G01 Z0.0000 F120 S10000
G01 X9.9170 Z-0.8600 F120
G01 X10.9100 Z-1.7200 F120
G01 X9.0900 F1200
G01 Y46.4100 F1200
G01 X10.9100 F1200
G01 Y19.8900 F1200
G00 Z4.0000 F480


;No. 2: Hole 5
G00 X9.6278 Y28.6182 Z4.0000 F1500
G00 Z0.5000 F480
G01 Z0.0000 F120
G02 X8.1161 Y30.1776 Z-2.0000 I0.3756 J1.8764 F120
G03 X9.6278 Y28.6182 Z-4.0000 I1.8872 J0.3170 F120
G02 X8.0900 Y30.5287 I0.3756 J1.8764 F1200
G01 Y35.4506 F1200
G02 X11.9100 I1.9100 J0.0368 F1200
G01 Y30.5287 F1200
G02 X9.6278 Y28.6182 I-1.9106 J-0.0360 F1200
G02 X8.3745 Y29.4901 Z-5.3600 I0.3756 J1.8764 F120
G03 X9.6278 Y28.6182 Z-6.7200 I1.6288 J1.0045 F120
G02 X8.0900 Y30.5287 I0.3756 J1.8764 F1200
G01 Y35.4506 F1200
G02 X11.9100 I1.9100 J0.0368 F1200
G01 Y30.5287 F1200
G02 X9.6278 Y28.6182 I-1.9106 J-0.0360 F1200
G00 Z4.0000 F480


;No. 3: Hole 41
G00 X10.9100 Y86.8900 Z4.0000 F1500
G00 Z0.5000 F480
G01 Z0.0000 F120
G01 X9.9170 Z-0.8600 F120
G01 X10.9100 Z-1.7200 F120
G01 X9.0900 F1200
G01 Y113.4100 F1200
G01 X10.9100 F1200
G01 Y86.8900 F1200
G00 Z4.0000 F480


;No. 4: Hole 4
G00 X9.8130 Y95.5907 Z4.0000 F1500
G00 Z0.5000 F480
G01 Z0.0000 F120
G02 X8.1560 Y96.9945 Z-2.0000 I0.1893 J1.9032 F120
G03 X9.8130 Y95.5907 Z-4.0000 I1.8463 J0.4994 F120
G02 X8.0900 Y97.5287 I0.1893 J1.9032 F1200
G01 Y102.4506 F1200
G02 X11.9100 I1.9100 J0.0368 F1200
G01 Y97.5287 F1200
G02 X9.8130 Y95.5907 I-1.9110 J-0.0356 F1200
G02 X8.4804 Y96.3356 Z-5.3600 I0.1893 J1.9032 F120
G03 X9.8130 Y95.5907 Z-6.7200 I1.5220 J1.1584 F120
G02 X8.0900 Y97.5287 I0.1893 J1.9032 F1200
G01 Y102.4506 F1200
G02 X11.9100 I1.9100 J0.0368 F1200
G01 Y97.5287 F1200
G02 X9.8130 Y95.5907 I-1.9110 J-0.0356 F1200
G00 Z4.0000 F480


;No. 5: Hole 32
G00 X84.9140 Y142.3663 Z4.0000 F1500
G00 Z0.5000 F480
G01 Z0.0000 F120
G02 X84.9271 Y142.6413 Z-0.6734 I0.0860 J0.1337 F120
G02 X85.1588 Y142.4924 Z-1.3468 I0.0729 J-0.1413 F120
G02 X84.9226 Y142.3611 Z-2.0000 I-0.1588 J0.0076 F120
G03 X85.1588 Y142.4924 Z-2.6532 I0.0774 J0.1389 F120
G03 X84.9271 Y142.6413 Z-3.3266 I-0.1588 J0.0076 F120
G03 X84.9140 Y142.3663 Z-4.0000 I0.0729 J-0.1413 F120
G02 X84.9271 Y142.6413 I0.0860 J0.1337 F1200
G02 X85.1588 Y142.4924 I0.0729 J-0.1413 F1200
G02 X84.9140 Y142.3663 I-0.1588 J0.0076 F1200
G02 X84.9271 Y142.6413 Z-4.4579 I0.0860 J0.1337 F120
G02 X85.1588 Y142.4924 Z-4.9158 I0.0729 J-0.1413 F120
G02 X84.9226 Y142.3611 Z-5.3600 I-0.1588 J0.0076 F120
G03 X85.1588 Y142.4924 Z-5.8042 I0.0774 J0.1389 F120
G03 X84.9271 Y142.6413 Z-6.2621 I-0.1588 J0.0076 F120
G03 X84.9140 Y142.3663 Z-6.7200 I0.0729 J-0.1413 F120
G02 X84.9271 Y142.6413 I0.0860 J0.1337 F1200
G02 X85.1588 Y142.4924 I0.0729 J-0.1413 F1200
G02 X84.9140 Y142.3663 I-0.1588 J0.0076 F1200
G00 Z4.0000 F480


;No. 6: Hole 43
G00 X84.9444 Y217.3510 Z4.0000 F1500
G00 Z0.5000 F480
G01 Z0.0000 F120
G02 X84.8988 Y217.6226 Z-0.6734 I0.0556 J0.1490 F120
G02 X85.1568 Y217.5264 Z-1.3468 I0.1012 J-0.1226 F120
G02 X84.9539 Y217.3478 Z-2.0000 I-0.1568 J-0.0264 F120
G03 X85.1568 Y217.5264 Z-2.6532 I0.0461 J0.1522 F120
G03 X84.8988 Y217.6226 Z-3.3266 I-0.1568 J-0.0264 F120
G03 X84.9444 Y217.3510 Z-4.0000 I0.1012 J-0.1226 F120
G02 X84.8988 Y217.6226 I0.0556 J0.1490 F1200
G02 X85.1568 Y217.5264 I0.1012 J-0.1226 F1200
G02 X84.9444 Y217.3510 I-0.1568 J-0.0264 F1200
G02 X84.8988 Y217.6226 Z-4.4579 I0.0556 J0.1490 F120
G02 X85.1568 Y217.5264 Z-4.9158 I0.1012 J-0.1226 F120
G02 X84.9539 Y217.3478 Z-5.3600 I-0.1568 J-0.0264 F120
G03 X85.1568 Y217.5264 Z-5.8042 I0.0461 J0.1522 F120
G03 X84.8988 Y217.6226 Z-6.2621 I-0.1568 J-0.0264 F120
G03 X84.9444 Y217.3510 Z-6.7200 I0.1012 J-0.1226 F120
G02 X84.8988 Y217.6226 I0.0556 J0.1490 F1200
G02 X85.1568 Y217.5264 I0.1012 J-0.1226 F1200
G02 X84.9444 Y217.3510 I-0.1568 J-0.0264 F1200
G00 Z4.0000 F480


;No. 7: Hole 25
G00 X84.9552 Y317.3475 Z4.0000 F1500
G00 Z0.5000 F480
G01 Z0.0000 F120
G02 X84.8903 Y317.6151 Z-0.6734 I0.0448 J0.1525 F120
G02 X85.1545 Y317.5375 Z-1.3468 I0.1097 J-0.1151 F120
G02 X84.9649 Y317.3449 Z-2.0000 I-0.1545 J-0.0375 F120
G03 X85.1545 Y317.5375 Z-2.6532 I0.0351 J0.1551 F120
G03 X84.8903 Y317.6151 Z-3.3266 I-0.1545 J-0.0375 F120
G03 X84.9552 Y317.3475 Z-4.0000 I0.1097 J-0.1151 F120
G02 X84.8903 Y317.6151 I0.0448 J0.1525 F1200
G02 X85.1545 Y317.5375 I0.1097 J-0.1151 F1200
G02 X84.9552 Y317.3475 I-0.1545 J-0.0375 F1200
G02 X84.8903 Y317.6151 Z-4.4579 I0.0448 J0.1525 F120
G02 X85.1545 Y317.5375 Z-4.9158 I0.1097 J-0.1151 F120
G02 X84.9649 Y317.3449 Z-5.3600 I-0.1545 J-0.0375 F120
G03 X85.1545 Y317.5375 Z-5.8042 I0.0351 J0.1551 F120
G03 X84.8903 Y317.6151 Z-6.2621 I-0.1545 J-0.0375 F120
G03 X84.9552 Y317.3475 Z-6.7200 I0.1097 J-0.1151 F120
G02 X84.8903 Y317.6151 I0.0448 J0.1525 F1200
G02 X85.1545 Y317.5375 I0.1097 J-0.1151 F1200
G02 X84.9552 Y317.3475 I-0.1545 J-0.0375 F1200
G00 Z4.0000 F480


;No. 8: Hole 24
G00 X84.9925 Y349.9670 Z4.0000 F1500
G00 Z0.5000 F480
G01 Z0.0000 F120
G02 X85.0124 Y350.0315 Z-1.0992 I0.0075 J0.0330 F120
G02 X85.0024 Y349.9662 Z-2.0000 I-0.0124 J-0.0315 F120
G03 X85.0124 Y350.0315 Z-2.9008 I-0.0024 J0.0338 F120
G03 X84.9925 Y349.9670 Z-4.0000 I-0.0124 J-0.0315 F120
G02 X85.0124 Y350.0315 I0.0075 J0.0330 F1200
G02 X84.9925 Y349.9670 I-0.0124 J-0.0315 F1200
G02 X85.0124 Y350.0315 Z-4.7475 I0.0075 J0.0330 F120
G02 X85.0024 Y349.9662 Z-5.3600 I-0.0124 J-0.0315 F120
G03 X85.0124 Y350.0315 Z-5.9725 I-0.0024 J0.0338 F120
G03 X84.9925 Y349.9670 Z-6.7200 I-0.0124 J-0.0315 F120
G02 X85.0124 Y350.0315 I0.0075 J0.0330 F1200
G02 X84.9925 Y349.9670 I-0.0124 J-0.0315 F1200
G00 Z4.0000 F480


;No. 9: Hole 11
G00 X78.4662 Y384.8446 Z4.0000 F1500
G00 Z0.5000 F480
G01 Z0.0000 F120
G02 X78.3824 Y385.1069 Z-0.6734 I0.0338 J0.1554 F120
G02 X78.6514 Y385.0484 Z-1.3468 I0.1176 J-0.1069 F120
G02 X78.4760 Y384.8428 Z-2.0000 I-0.1514 J-0.0484 F120
G03 X78.6514 Y385.0484 Z-2.6532 I0.0240 J0.1572 F120
G03 X78.3824 Y385.1069 Z-3.3266 I-0.1514 J-0.0484 F120
G03 X78.4662 Y384.8446 Z-4.0000 I0.1176 J-0.1069 F120
G02 X78.3824 Y385.1069 I0.0338 J0.1554 F1200
G02 X78.6514 Y385.0484 I0.1176 J-0.1069 F1200
G02 X78.4662 Y384.8446 I-0.1514 J-0.0484 F1200
G02 X78.3824 Y385.1069 Z-4.4579 I0.0338 J0.1554 F120
G02 X78.6514 Y385.0484 Z-4.9158 I0.1176 J-0.1069 F120
G02 X78.4760 Y384.8428 Z-5.3600 I-0.1514 J-0.0484 F120
G03 X78.6514 Y385.0484 Z-5.8042 I0.0240 J0.1572 F120
G03 X78.3824 Y385.1069 Z-6.2621 I-0.1514 J-0.0484 F120
G03 X78.4662 Y384.8446 Z-6.7200 I0.1176 J-0.1069 F120
G02 X78.3824 Y385.1069 I0.0338 J0.1554 F1200
G02 X78.6514 Y385.0484 I0.1176 J-0.1069 F1200
G02 X78.4662 Y384.8446 I-0.1514 J-0.0484 F1200
G00 Z4.0000 F480


;No. 10: Hole 2
G00 X32.9975 Y384.9662 Z4.0000 F1500
G00 Z0.5000 F480
G01 Z0.0000 F120
G02 X33.0075 Y385.0330 Z-1.0992 I0.0025 J0.0338 F120
G02 X33.0074 Y384.9669 Z-2.0000 I-0.0075 J-0.0330 F120
G03 X33.0075 Y385.0330 Z-2.9008 I-0.0074 J0.0331 F120
G03 X32.9975 Y384.9662 Z-4.0000 I-0.0075 J-0.0330 F120
G02 X33.0075 Y385.0330 I0.0025 J0.0338 F1200
G02 X32.9975 Y384.9662 I-0.0075 J-0.0330 F1200
G02 X33.0075 Y385.0330 Z-4.7475 I0.0025 J0.0338 F120
G02 X33.0074 Y384.9669 Z-5.3600 I-0.0075 J-0.0330 F120
G03 X33.0075 Y385.0330 Z-5.9725 I-0.0074 J0.0331 F120
G03 X32.9975 Y384.9662 Z-6.7200 I-0.0075 J-0.0330 F120
G02 X33.0075 Y385.0330 I0.0025 J0.0338 F1200
G02 X32.9975 Y384.9662 I-0.0075 J-0.0330 F1200
G00 Z4.0000 F480


;No. 11: Hole 1
G00 X10.0000 Y386.4661 Z4.0000 F1500
G00 Z0.5000 F480
G01 Z0.0000 F120
G02 X10.0051 Y386.5335 Z-1.0992 I0.0000 J0.0339 F120
G02 X10.0099 Y386.4676 Z-2.0000 I-0.0051 J-0.0335 F120
G03 X10.0051 Y386.5335 Z-2.9008 I-0.0099 J0.0324 F120
G03 X10.0000 Y386.4661 Z-4.0000 I-0.0051 J-0.0335 F120
G02 X10.0051 Y386.5335 I0.0000 J0.0339 F1200
G02 X10.0000 Y386.4661 I-0.0051 J-0.0335 F1200
G02 X10.0051 Y386.5335 Z-4.7475 I0.0000 J0.0339 F120
G02 X10.0099 Y386.4676 Z-5.3600 I-0.0051 J-0.0335 F120
G03 X10.0051 Y386.5335 Z-5.9725 I-0.0099 J0.0324 F120
G03 X10.0000 Y386.4661 Z-6.7200 I-0.0051 J-0.0335 F120
G02 X10.0051 Y386.5335 I0.0000 J0.0339 F1200
G02 X10.0000 Y386.4661 I-0.0051 J-0.0335 F1200
G00 Z4.0000 F480


;No. 12: Hole 10
G00 X10.0000 Y367.4661 Z4.0000 F1500
G00 Z0.5000 F480
G01 Z0.0000 F120
G02 X10.0051 Y367.5335 Z-1.0992 I0.0000 J0.0339 F120
G02 X10.0099 Y367.4676 Z-2.0000 I-0.0051 J-0.0335 F120
G03 X10.0051 Y367.5335 Z-2.9008 I-0.0099 J0.0324 F120
G03 X10.0000 Y367.4661 Z-4.0000 I-0.0051 J-0.0335 F120
G02 X10.0051 Y367.5335 I0.0000 J0.0339 F1200
G02 X10.0000 Y367.4661 I-0.0051 J-0.0335 F1200
G02 X10.0051 Y367.5335 Z-4.7475 I0.0000 J0.0339 F120
G02 X10.0099 Y367.4676 Z-5.3600 I-0.0051 J-0.0335 F120
G03 X10.0051 Y367.5335 Z-5.9725 I-0.0099 J0.0324 F120
G03 X10.0000 Y367.4661 Z-6.7200 I-0.0051 J-0.0335 F120
G02 X10.0051 Y367.5335 I0.0000 J0.0339 F1200
G02 X10.0000 Y367.4661 I-0.0051 J-0.0335 F1200
G00 Z4.0000 F480


;No. 13: Hole 3
G00 X10.0000 Y357.6023 Z4.0000 F1500
G00 Z0.5000 F480
G01 Z0.0000 F120
G02 X8.2136 Y358.8370 Z-2.0000 I0.0016 J1.9119 F120
G03 X10.0000 Y357.6023 Z-4.0000 I1.7880 J0.6772 F120
G02 X8.0900 Y359.5494 I0.0016 J1.9119 F1200
G01 Y364.4713 F1200
G02 X11.9100 I1.9100 J0.0368 F1200
G01 Y359.5494 F1200
G02 X10.0000 Y357.6023 I-1.9116 J-0.0352 F1200
G02 X8.6008 Y358.2129 Z-5.3600 I0.0016 J1.9119 F120
G03 X10.0000 Y357.6023 Z-6.7200 I1.4008 J1.3013 F120
G02 X8.0900 Y359.5494 I0.0016 J1.9119 F1200
G01 Y364.4713 F1200
G02 X11.9100 I1.9100 J0.0368 F1200
G01 Y359.5494 F1200
G02 X10.0000 Y357.6023 I-1.9116 J-0.0352 F1200
G00 Z4.0000 F480


;No. 14: Hole 40
G00 X10.9100 Y348.5900 Z4.0000 F1500
G00 Z0.5000 F480
G01 Z0.0000 F120
G01 X9.9170 Z-0.8600 F120
G01 X10.9100 Z-1.7200 F120
G01 X9.0900 F1200
G01 Y375.1100 F1200
G01 X10.9100 F1200
G01 Y348.5900 F1200
G00 Z4.0000 F480


;No. 15: Hole 15
G00 X178.4340 Y384.8554 Z4.0000 F1500
G00 Z0.5000 F480
G01 Z0.0000 F120
G02 X178.4078 Y385.1295 Z-0.6734 I0.0660 J0.1446 F120
G02 X178.6583 Y385.0151 Z-1.3468 I0.0922 J-0.1295 F120
G02 X178.4432 Y384.8515 Z-2.0000 I-0.1583 J-0.0151 F120
G03 X178.6583 Y385.0151 Z-2.6532 I0.0568 J0.1485 F120
G03 X178.4078 Y385.1295 Z-3.3266 I-0.1583 J-0.0151 F120
G03 X178.4340 Y384.8554 Z-4.0000 I0.0922 J-0.1295 F120
G02 X178.4078 Y385.1295 I0.0660 J0.1446 F1200
G02 X178.6583 Y385.0151 I0.0922 J-0.1295 F1200
G02 X178.4340 Y384.8554 I-0.1583 J-0.0151 F1200
G02 X178.4078 Y385.1295 Z-4.4579 I0.0660 J0.1446 F120
G02 X178.6583 Y385.0151 Z-4.9158 I0.0922 J-0.1295 F120
G02 X178.4432 Y384.8515 Z-5.3600 I-0.1583 J-0.0151 F120
G03 X178.6583 Y385.0151 Z-5.8042 I0.0568 J0.1485 F120
G03 X178.4078 Y385.1295 Z-6.2621 I-0.1583 J-0.0151 F120
G03 X178.4340 Y384.8554 Z-6.7200 I0.0922 J-0.1295 F120
G02 X178.4078 Y385.1295 I0.0660 J0.1446 F1200
G02 X178.6583 Y385.0151 I0.0922 J-0.1295 F1200
G02 X178.4340 Y384.8554 I-0.1583 J-0.0151 F1200
G00 Z4.0000 F480


;No. 16: Hole 18
G00 X253.4140 Y384.8663 Z4.0000 F1500
G00 Z0.5000 F480
G01 Z0.0000 F120
G02 X253.4271 Y385.1413 Z-0.6734 I0.0860 J0.1337 F120
G02 X253.6588 Y384.9924 Z-1.3468 I0.0729 J-0.1413 F120
G02 X253.4226 Y384.8611 Z-2.0000 I-0.1588 J0.0076 F120
G03 X253.6588 Y384.9924 Z-2.6532 I0.0774 J0.1389 F120
G03 X253.4271 Y385.1413 Z-3.3266 I-0.1588 J0.0076 F120
G03 X253.4140 Y384.8663 Z-4.0000 I0.0729 J-0.1413 F120
G02 X253.4271 Y385.1413 I0.0860 J0.1337 F1200
G02 X253.6588 Y384.9924 I0.0729 J-0.1413 F1200
G02 X253.4140 Y384.8663 I-0.1588 J0.0076 F1200
G02 X253.4271 Y385.1413 Z-4.4579 I0.0860 J0.1337 F120
G02 X253.6588 Y384.9924 Z-4.9158 I0.0729 J-0.1413 F120
G02 X253.4226 Y384.8611 Z-5.3600 I-0.1588 J0.0076 F120
G03 X253.6588 Y384.9924 Z-5.8042 I0.0774 J0.1389 F120
G03 X253.4271 Y385.1413 Z-6.2621 I-0.1588 J0.0076 F120
G03 X253.4140 Y384.8663 Z-6.7200 I0.0729 J-0.1413 F120
G02 X253.4271 Y385.1413 I0.0860 J0.1337 F1200
G02 X253.6588 Y384.9924 I0.0729 J-0.1413 F1200
G02 X253.4140 Y384.8663 I-0.1588 J0.0076 F1200
G00 Z4.0000 F480


;No. 17: Hole 22
G00 X353.3959 Y384.8798 Z4.0000 F1500
G00 Z0.5000 F480
G01 Z0.0000 F120
G02 X353.4480 Y385.1502 Z-0.6734 I0.1041 J0.1202 F120
G02 X353.6561 Y384.9699 Z-1.3468 I0.0520 J-0.1502 F120
G02 X353.4036 Y384.8735 Z-2.0000 I-0.1561 J0.0301 F120
G03 X353.6561 Y384.9699 Z-2.6532 I0.0964 J0.1265 F120
G03 X353.4480 Y385.1502 Z-3.3266 I-0.1561 J0.0301 F120
G03 X353.3959 Y384.8798 Z-4.0000 I0.0520 J-0.1502 F120
G02 X353.4480 Y385.1502 I0.1041 J0.1202 F1200
G02 X353.6561 Y384.9699 I0.0520 J-0.1502 F1200
G02 X353.3959 Y384.8798 I-0.1561 J0.0301 F1200
G02 X353.4480 Y385.1502 Z-4.4579 I0.1041 J0.1202 F120
G02 X353.6561 Y384.9699 Z-4.9158 I0.0520 J-0.1502 F120
G02 X353.4036 Y384.8735 Z-5.3600 I-0.1561 J0.0301 F120
G03 X353.6561 Y384.9699 Z-5.8042 I0.0964 J0.1265 F120
G03 X353.4480 Y385.1502 Z-6.2621 I-0.1561 J0.0301 F120
G03 X353.3959 Y384.8798 Z-6.7200 I0.0520 J-0.1502 F120
G02 X353.4480 Y385.1502 I0.1041 J0.1202 F1200
G02 X353.6561 Y384.9699 I0.0520 J-0.1502 F1200
G02 X353.3959 Y384.8798 I-0.1561 J0.0301 F1200
G00 Z4.0000 F480


;No. 18: Hole 23
G00 X398.9752 Y384.9770 Z4.0000 F1500
G00 Z0.5000 F480
G01 Z0.0000 F120
G02 X399.0280 Y385.0191 Z-1.0992 I0.0248 J0.0230 F120
G02 X398.9829 Y384.9707 Z-2.0000 I-0.0280 J-0.0191 F120
G03 X399.0280 Y385.0191 Z-2.9008 I0.0171 J0.0293 F120
G03 X398.9752 Y384.9770 Z-4.0000 I-0.0280 J-0.0191 F120
G02 X399.0280 Y385.0191 I0.0248 J0.0230 F1200
G02 X398.9752 Y384.9770 I-0.0280 J-0.0191 F1200
G02 X399.0280 Y385.0191 Z-4.7475 I0.0248 J0.0230 F120
G02 X398.9829 Y384.9707 Z-5.3600 I-0.0280 J-0.0191 F120
G03 X399.0280 Y385.0191 Z-5.9725 I0.0171 J0.0293 F120
G03 X398.9752 Y384.9770 Z-6.7200 I-0.0280 J-0.0191 F120
G02 X399.0280 Y385.0191 I0.0248 J0.0230 F1200
G02 X398.9752 Y384.9770 I-0.0280 J-0.0191 F1200
G00 Z4.0000 F480


;No. 19: Hole 9
G00 X423.5250 Y358.2999 Z4.0000 F1500
G00 Z0.5000 F480
G01 Z0.0000 F120
G02 X423.0900 Y359.5494 Z-1.1695 I1.4940 J1.2206 F120
G01 Y360.5083 Z-2.0000 F120
G01 Y359.5494 Z-2.8305 F120
G03 X423.5250 Y358.2999 Z-4.0000 I1.9290 J-0.0289 F120
G02 X423.0900 Y359.5494 I1.4940 J1.2206 F1200
G01 Y364.4713 F1200
G02 X426.9100 I1.9100 J0.0368 F1200
G01 Y359.5494 F1200
G02 X423.5250 Y358.2999 I-1.9094 J-0.0371 F1200
G02 X423.0900 Y359.5494 Z-5.1695 I1.4940 J1.2206 F120
G01 Y359.7693 Z-5.3600 F120
G01 Y359.5494 Z-5.5505 F120
G03 X423.5250 Y358.2999 Z-6.7200 I1.9290 J-0.0289 F120
G02 X423.0900 Y359.5494 I1.4940 J1.2206 F1200
G01 Y364.4713 F1200
G02 X426.9100 I1.9100 J0.0368 F1200
G01 Y359.5494 F1200
G02 X423.5250 Y358.2999 I-1.9094 J-0.0371 F1200
G00 Z4.0000 F480


;No. 20: Hole 39
G00 X425.9100 Y348.5900 Z4.0000 F1500
G00 Z0.5000 F480
G01 Z0.0000 F120
G01 X424.9170 Z-0.8600 F120
G01 X425.9100 Z-1.7200 F120
G01 X424.0900 F1200
G01 Y375.1100 F1200
G01 X425.9100 F1200
G01 Y348.5900 F1200
G00 Z4.0000 F480


;No. 21: Hole 8
G00 X423.1011 Y30.4094 Z4.0000 F1500
G00 Z0.5000 F480
G01 Z0.0000 F120
G01 X423.0900 Y30.6354 Z-0.1960 F120
G01 Y32.7185 Z-2.0000 F120
G01 Y30.6354 Z-3.8040 F120
G01 X423.1011 Y30.4094 Z-4.0000 F120
G01 X423.0900 Y30.6354 F1200
G01 Y35.5573 F1200
G02 X426.9100 I1.9100 J0.0368 F1200
G01 Y30.6354 F1200
G02 X423.1011 Y30.4094 I-1.9089 J-0.0378 F1200
G01 X423.0900 Y30.6354 Z-4.1960 F120
G01 Y31.9795 Z-5.3600 F120
G01 Y30.6354 Z-6.5240 F120
G01 X423.1011 Y30.4094 Z-6.7200 F120
G01 X423.0900 Y30.6354 F1200
G01 Y35.5573 F1200
G02 X426.9100 I1.9100 J0.0368 F1200
G01 Y30.6354 F1200
G02 X423.1011 Y30.4094 I-1.9089 J-0.0378 F1200
G00 Z4.0000 F480


;No. 22: Hole 38
G00 X425.9100 Y19.9968 Z4.0000 F1500
G00 Z0.5000 F480
G01 Z0.0000 F120
G01 X424.9170 Z-0.8600 F120
G01 X425.9100 Z-1.7200 F120
G01 X424.0900 F1200
G01 Y46.5168 F1200
G01 X425.9100 F1200
G01 Y19.9968 F1200
G00 Z4.0000 F480


;No. 23: Hole 6
G00 X84.9665 Y9.9949 Z4.0000 F1500
G00 Z0.5000 F480
G01 Z0.0000 F120
G02 X85.0339 Y10.0000 Z-1.0992 I0.0335 J0.0051 F120
G02 X84.9694 Y9.9854 Z-2.0000 I-0.0339 J0.0000 F120
G03 X85.0339 Y10.0000 Z-2.9008 I0.0306 J0.0146 F120
G03 X84.9665 Y9.9949 Z-4.0000 I-0.0339 J0.0000 F120
G02 X85.0339 Y10.0000 I0.0335 J0.0051 F1200
G02 X84.9665 Y9.9949 I-0.0339 J0.0000 F1200
G02 X85.0339 Y10.0000 Z-4.7475 I0.0335 J0.0051 F120
G02 X84.9694 Y9.9854 Z-5.3600 I-0.0339 J0.0000 F120
G03 X85.0339 Y10.0000 Z-5.9725 I0.0306 J0.0146 F120
G03 X84.9665 Y9.9949 Z-6.7200 I-0.0339 J0.0000 F120
G02 X85.0339 Y10.0000 I0.0335 J0.0051 F1200
G02 X84.9665 Y9.9949 I-0.0339 J0.0000 F1200
G00 Z4.0000 F480


;No. 24: Hole 7
G00 X84.8554 Y42.4340 Z4.0000 F1500
G00 Z0.5000 F480
G01 Z0.0000 F120
G02 X85.0151 Y42.6583 Z-0.6734 I0.1446 J0.0660 F120
G02 X85.1295 Y42.4078 Z-1.3468 I-0.0151 J-0.1583 F120
G02 X84.8598 Y42.4250 Z-2.0000 I-0.1295 J0.0922 F120
G03 X85.1295 Y42.4078 Z-2.6532 I0.1402 J0.0750 F120
G03 X85.0151 Y42.6583 Z-3.3266 I-0.1295 J0.0922 F120
G03 X84.8554 Y42.4340 Z-4.0000 I-0.0151 J-0.1583 F120
G02 X85.0151 Y42.6583 I0.1446 J0.0660 F1200
G02 X85.1295 Y42.4078 I-0.0151 J-0.1583 F1200
G02 X84.8554 Y42.4340 I-0.1295 J0.0922 F1200
G02 X85.0151 Y42.6583 Z-4.4579 I0.1446 J0.0660 F120
G02 X85.1295 Y42.4078 Z-4.9158 I-0.0151 J-0.1583 F120
G02 X84.8598 Y42.4250 Z-5.3600 I-0.1295 J0.0922 F120
G03 X85.1295 Y42.4078 Z-5.8042 I0.1402 J0.0750 F120
G03 X85.0151 Y42.6583 Z-6.2621 I-0.1295 J0.0922 F120
G03 X84.8554 Y42.4340 Z-6.7200 I-0.0151 J-0.1583 F120
G02 X85.0151 Y42.6583 I0.1446 J0.0660 F1200
G02 X85.1295 Y42.4078 I-0.0151 J-0.1583 F1200
G02 X84.8554 Y42.4340 I-0.1295 J0.0922 F1200
G00 Z4.0000 F480


;No. 25: Part 1
G00 X435.0000 Y-1.5900 Z4.0000 F1500
G00 Z0.5000 F480
G01 Z0.0000 F120
G03 X436.5789 Y-0.1877 Z-2.0000 I0.0000 J1.5900 F120
G02 X435.0000 Y-1.5900 Z-4.0000 I-1.5789 J0.1877 F120
G03 X436.5900 Y0.0000 I0.0000 J1.5900 F1200
G01 Y395.0000 F1200
G03 X435.0000 Y396.5900 I-1.5900 J0.0000 F1200
G01 X0.0000 F1200
G03 X-1.5900 Y395.0000 I0.0000 J-1.5900 F1200
G01 Y0.0000 F1200
G03 X0.0000 Y-1.5900 I1.5900 J0.0000 F1200
G01 X435.0000 F1200
G03 X436.3272 Y-0.8755 Z-5.3600 I0.0000 J1.5900 F120
G02 X435.0000 Y-1.5900 Z-6.7200 I-1.3272 J0.8755 F120
G03 X436.5900 Y0.0000 I0.0000 J1.5900 F1200
G01 Y395.0000 F1200
G03 X435.0000 Y396.5900 I-1.5900 J0.0000 F1200
G01 X0.0000 F1200
G03 X-1.5900 Y395.0000 I0.0000 J-1.5900 F1200
G01 Y0.0000 F1200
G03 X0.0000 Y-1.5900 I1.5900 J0.0000 F1200
G01 X435.0000 F1200
G00 Z4.0000 F480
G00 X0.0000 Y0.0000 F1500

M05
