;Project 250x250-poly-panel-right.hotfix
;Created by Estlcam version 11 build 11.245
;Machining time about 00:13:08 hours

G90
M03 S10000
G00 X0.0000 Y0.0000 Z0.0000 F1500
G00 Z4.0000 F480


;No. 1: Hole 2
G00 X57.4100 Y1.7025 F1500
G00 Z0.5000 F480
G01 Z0.0000 F120 S10000
G01 X55.9666 Z-1.2500 F120
G01 X57.4100 Z-2.5000 F120
G01 X48.5900 F1200
G01 Y2.5225 F1200
G01 X57.4100 F1200
G01 Y1.7025 F1200
G00 Z4.0000 F480


;No. 2: Hole 9
G00 X74.9665 Y-9.8926 Z4.0000 F1500
G00 Z0.5000 F480
G01 Z0.0000 F120
G02 X75.0339 Y-9.8875 Z-0.6870 I0.0335 J0.0051 F120
G02 X74.9694 Y-9.9021 Z-1.2500 I-0.0339 J0.0000 F120
G03 X75.0339 Y-9.8875 Z-1.8130 I0.0306 J0.0146 F120
G03 X74.9665 Y-9.8926 Z-2.5000 I-0.0339 J0.0000 F120
G02 X75.0339 Y-9.8875 I0.0335 J0.0051 F1200
G02 X74.9665 Y-9.8926 I-0.0339 J0.0000 F1200
G00 Z4.0000 F480


;No. 3: Hole 10
G00 X74.8554 Y22.5465 Z4.0000 F1500
G00 Z0.5000 F480
G01 Z0.0000 F120
G02 X75.0151 Y22.7708 Z-0.4209 I0.1446 J0.0660 F120
G02 X75.1295 Y22.5203 Z-0.8418 I-0.0151 J-0.1583 F120
G02 X74.8598 Y22.5375 Z-1.2500 I-0.1295 J0.0922 F120
G03 X75.1295 Y22.5203 Z-1.6582 I0.1402 J0.0750 F120
G03 X75.0151 Y22.7708 Z-2.0791 I-0.1295 J0.0922 F120
G03 X74.8554 Y22.5465 Z-2.5000 I-0.0151 J-0.1583 F120
G02 X75.0151 Y22.7708 I0.1446 J0.0660 F1200
G02 X75.1295 Y22.5203 I-0.0151 J-0.1583 F1200
G02 X74.8554 Y22.5465 I-0.1295 J0.0922 F1200
G00 Z4.0000 F480


;No. 4: Hole 11
G00 X74.9140 Y122.4788 Z4.0000 F1500
G00 Z0.5000 F480
G01 Z0.0000 F120
G02 X74.9271 Y122.7538 Z-0.4209 I0.0860 J0.1337 F120
G02 X75.1588 Y122.6049 Z-0.8418 I0.0729 J-0.1413 F120
G02 X74.9226 Y122.4736 Z-1.2500 I-0.1588 J0.0076 F120
G03 X75.1588 Y122.6049 Z-1.6582 I0.0774 J0.1389 F120
G03 X74.9271 Y122.7538 Z-2.0791 I-0.1588 J0.0076 F120
G03 X74.9140 Y122.4788 Z-2.5000 I0.0729 J-0.1413 F120
G02 X74.9271 Y122.7538 I0.0860 J0.1337 F1200
G02 X75.1588 Y122.6049 I0.0729 J-0.1413 F1200
G02 X74.9140 Y122.4788 I-0.1588 J0.0076 F1200
G00 Z4.0000 F480


;No. 5: Hole 12
G00 X74.9444 Y197.4635 Z4.0000 F1500
G00 Z0.5000 F480
G01 Z0.0000 F120
G02 X74.8988 Y197.7351 Z-0.4209 I0.0556 J0.1490 F120
G02 X75.1568 Y197.6389 Z-0.8418 I0.1012 J-0.1226 F120
G02 X74.9539 Y197.4603 Z-1.2500 I-0.1568 J-0.0264 F120
G03 X75.1568 Y197.6389 Z-1.6582 I0.0461 J0.1522 F120
G03 X74.8988 Y197.7351 Z-2.0791 I-0.1568 J-0.0264 F120
G03 X74.9444 Y197.4635 Z-2.5000 I0.1012 J-0.1226 F120
G02 X74.8988 Y197.7351 I0.0556 J0.1490 F1200
G02 X75.1568 Y197.6389 I0.1012 J-0.1226 F1200
G02 X74.9444 Y197.4635 I-0.1568 J-0.0264 F1200
G00 Z4.0000 F480


;No. 6: Hole 13
G00 X74.9552 Y297.4600 Z4.0000 F1500
G00 Z0.5000 F480
G01 Z0.0000 F120
G02 X74.8903 Y297.7276 Z-0.4209 I0.0448 J0.1525 F120
G02 X75.1545 Y297.6500 Z-0.8418 I0.1097 J-0.1151 F120
G02 X74.9649 Y297.4574 Z-1.2500 I-0.1545 J-0.0375 F120
G03 X75.1545 Y297.6500 Z-1.6582 I0.0351 J0.1551 F120
G03 X74.8903 Y297.7276 Z-2.0791 I-0.1545 J-0.0375 F120
G03 X74.9552 Y297.4600 Z-2.5000 I0.1097 J-0.1151 F120
G02 X74.8903 Y297.7276 I0.0448 J0.1525 F1200
G02 X75.1545 Y297.6500 I0.1097 J-0.1151 F1200
G02 X74.9552 Y297.4600 I-0.1545 J-0.0375 F1200
G00 Z4.0000 F480


;No. 7: Hole 8
G00 X74.9925 Y330.0795 Z4.0000 F1500
G00 Z0.5000 F480
G01 Z0.0000 F120
G02 X75.0124 Y330.1440 Z-0.6870 I0.0075 J0.0330 F120
G02 X75.0024 Y330.0787 Z-1.2500 I-0.0124 J-0.0315 F120
G03 X75.0124 Y330.1440 Z-1.8130 I-0.0024 J0.0338 F120
G03 X74.9925 Y330.0795 Z-2.5000 I-0.0124 J-0.0315 F120
G02 X75.0124 Y330.1440 I0.0075 J0.0330 F1200
G02 X74.9925 Y330.0795 I-0.0124 J-0.0315 F1200
G00 Z4.0000 F480


;No. 8: Hole 15
G00 X68.4662 Y364.9571 Z4.0000 F1500
G00 Z0.5000 F480
G01 Z0.0000 F120
G02 X68.3824 Y365.2194 Z-0.4209 I0.0338 J0.1554 F120
G02 X68.6514 Y365.1609 Z-0.8418 I0.1176 J-0.1069 F120
G02 X68.4760 Y364.9553 Z-1.2500 I-0.1514 J-0.0484 F120
G03 X68.6514 Y365.1609 Z-1.6582 I0.0240 J0.1572 F120
G03 X68.3824 Y365.2194 Z-2.0791 I-0.1514 J-0.0484 F120
G03 X68.4662 Y364.9571 Z-2.5000 I0.1176 J-0.1069 F120
G02 X68.3824 Y365.2194 I0.0338 J0.1554 F1200
G02 X68.6514 Y365.1609 I0.1176 J-0.1069 F1200
G02 X68.4662 Y364.9571 I-0.1514 J-0.0484 F1200
G00 Z4.0000 F480


;No. 9: Hole 7
G00 X22.9975 Y365.0787 Z4.0000 F1500
G00 Z0.5000 F480
G01 Z0.0000 F120
G02 X23.0075 Y365.1455 Z-0.6870 I0.0025 J0.0338 F120
G02 X23.0074 Y365.0794 Z-1.2500 I-0.0075 J-0.0330 F120
G03 X23.0075 Y365.1455 Z-1.8130 I-0.0074 J0.0331 F120
G03 X22.9975 Y365.0787 Z-2.5000 I-0.0075 J-0.0330 F120
G02 X23.0075 Y365.1455 I0.0025 J0.0338 F1200
G02 X22.9975 Y365.0787 I-0.0075 J-0.0330 F1200
G00 Z4.0000 F480


;No. 10: Hole 5
G00 X0.0000 Y366.5786 Z4.0000 F1500
G00 Z0.5000 F480
G01 Z0.0000 F120
G02 X0.0051 Y366.6460 Z-0.6870 I0.0000 J0.0339 F120
G02 X0.0099 Y366.5801 Z-1.2500 I-0.0051 J-0.0335 F120
G03 X0.0051 Y366.6460 Z-1.8130 I-0.0099 J0.0324 F120
G03 X0.0000 Y366.5786 Z-2.5000 I-0.0051 J-0.0335 F120
G02 X0.0051 Y366.6460 I0.0000 J0.0339 F1200
G02 X0.0000 Y366.5786 I-0.0051 J-0.0335 F1200
G00 Z4.0000 F480


;No. 11: Hole 6
G00 X0.0000 Y366.5786 Z4.0000 F1500
G00 Z0.5000 F480
G01 Z0.0000 F120
G02 X0.0051 Y366.6460 Z-0.6870 I0.0000 J0.0339 F120
G02 X0.0099 Y366.5801 Z-1.2500 I-0.0051 J-0.0335 F120
G03 X0.0051 Y366.6460 Z-1.8130 I-0.0099 J0.0324 F120
G03 X0.0000 Y366.5786 Z-2.5000 I-0.0051 J-0.0335 F120
G02 X0.0051 Y366.6460 I0.0000 J0.0339 F1200
G02 X0.0000 Y366.5786 I-0.0051 J-0.0335 F1200
G00 Z4.0000 F480


;No. 12: Hole 16
G00 X168.4340 Y364.9679 Z4.0000 F1500
G00 Z0.5000 F480
G01 Z0.0000 F120
G02 X168.4078 Y365.2420 Z-0.4209 I0.0660 J0.1446 F120
G02 X168.6583 Y365.1276 Z-0.8418 I0.0922 J-0.1295 F120
G02 X168.4432 Y364.9640 Z-1.2500 I-0.1583 J-0.0151 F120
G03 X168.6583 Y365.1276 Z-1.6582 I0.0568 J0.1485 F120
G03 X168.4078 Y365.2420 Z-2.0791 I-0.1583 J-0.0151 F120
G03 X168.4340 Y364.9679 Z-2.5000 I0.0922 J-0.1295 F120
G02 X168.4078 Y365.2420 I0.0660 J0.1446 F1200
G02 X168.6583 Y365.1276 I0.0922 J-0.1295 F1200
G02 X168.4340 Y364.9679 I-0.1583 J-0.0151 F1200
G00 Z4.0000 F480


;No. 13: Hole 17
G00 X243.4140 Y364.9788 Z4.0000 F1500
G00 Z0.5000 F480
G01 Z0.0000 F120
G02 X243.4271 Y365.2538 Z-0.4209 I0.0860 J0.1337 F120
G02 X243.6588 Y365.1049 Z-0.8418 I0.0729 J-0.1413 F120
G02 X243.4226 Y364.9736 Z-1.2500 I-0.1588 J0.0076 F120
G03 X243.6588 Y365.1049 Z-1.6582 I0.0774 J0.1389 F120
G03 X243.4271 Y365.2538 Z-2.0791 I-0.1588 J0.0076 F120
G03 X243.4140 Y364.9788 Z-2.5000 I0.0729 J-0.1413 F120
G02 X243.4271 Y365.2538 I0.0860 J0.1337 F1200
G02 X243.6588 Y365.1049 I0.0729 J-0.1413 F1200
G02 X243.4140 Y364.9788 I-0.1588 J0.0076 F1200
G00 Z4.0000 F480


;No. 14: Hole 18
G00 X343.3959 Y364.9923 Z4.0000 F1500
G00 Z0.5000 F480
G01 Z0.0000 F120
G02 X343.4480 Y365.2627 Z-0.4209 I0.1041 J0.1202 F120
G02 X343.6561 Y365.0824 Z-0.8418 I0.0520 J-0.1502 F120
G02 X343.4036 Y364.9860 Z-1.2500 I-0.1561 J0.0301 F120
G03 X343.6561 Y365.0824 Z-1.6582 I0.0964 J0.1265 F120
G03 X343.4480 Y365.2627 Z-2.0791 I-0.1561 J0.0301 F120
G03 X343.3959 Y364.9923 Z-2.5000 I0.0520 J-0.1502 F120
G02 X343.4480 Y365.2627 I0.1041 J0.1202 F1200
G02 X343.6561 Y365.0824 I0.0520 J-0.1502 F1200
G02 X343.3959 Y364.9923 I-0.1561 J0.0301 F1200
G00 Z4.0000 F480


;No. 15: Hole 19
G00 X388.9752 Y365.0895 Z4.0000 F1500
G00 Z0.5000 F480
G01 Z0.0000 F120
G02 X389.0280 Y365.1316 Z-0.6870 I0.0248 J0.0230 F120
G02 X388.9829 Y365.0832 Z-1.2500 I-0.0280 J-0.0191 F120
G03 X389.0280 Y365.1316 Z-1.8130 I0.0171 J0.0293 F120
G03 X388.9752 Y365.0895 Z-2.5000 I-0.0280 J-0.0191 F120
G02 X389.0280 Y365.1316 I0.0248 J0.0230 F1200
G02 X388.9752 Y365.0895 I-0.0280 J-0.0191 F1200
G00 Z4.0000 F480


;No. 16: Part 2
M05
G0 Z60 F2000	
G0 X0 Y0 F4000
M0 ("CHANGE BIT TO: "< n >) ; 
M108
M0 (?SET UP PROBE?)
M108
; Touch off Z
G38.2 Z-20 F300 ; perform z-probe
G92 Z0.5 ; Set Z to thickness of touch plate 6.6mm in my case
G0 Z15 F500 ; raise 15mm
M0 (?Remove probe - READY TO RESUME JOB?)
M108
;Change tool: 1/8" Troch
M03
G00 X-9.4614 Y-20.2485 Z4.0000 F1500
G00 X-8.6785 Y-20.3866 Z0.5107 F480
G01 X-8.7143 Y-20.5204 Z0.5223 F180
G01 X-8.7729 Y-20.6460 Z0.5447 F180
G01 X-8.8524 Y-20.7595 Z0.5670 F180
G01 X-8.9504 Y-20.8575 Z0.5786 F180
G01 X-9.0639 Y-20.9370 Z0.5717 F180
G01 X-9.1895 Y-20.9956 Z0.5433 F180
G01 X-9.3233 Y-21.0314 Z0.4963 F180
G01 X-9.4614 Y-21.0435 Z0.4387 F180
G01 X-9.5994 Y-21.0314 Z0.3810 F180
G01 X-9.7333 Y-20.9956 Z0.3341 F180
G01 X-9.8589 Y-20.9370 Z0.3057 F180
G01 X-9.9724 Y-20.8575 Z0.2987 F180
G01 X-10.0704 Y-20.7595 Z0.3103 F180
G01 X-10.1499 Y-20.6460 Z0.3327 F180
G01 X-10.2084 Y-20.5204 Z0.3550 F180
G01 X-10.2443 Y-20.3866 Z0.3666 F180
G01 X-10.2564 Y-20.2485 Z0.3597 F180
G01 X-10.2443 Y-20.1105 Z0.3313 F180
G01 X-10.2084 Y-19.9766 Z0.2843 F180
G01 X-10.1499 Y-19.8510 Z0.2267 F180
G01 X-10.0704 Y-19.7375 Z0.1690 F180
G01 X-9.9724 Y-19.6395 Z0.1221 F180
G01 X-9.8589 Y-19.5600 Z0.0937 F180
G01 X-9.7333 Y-19.5015 Z0.0867 F180
G01 X-9.5994 Y-19.4656 Z0.0983 F180
G01 X-9.4614 Y-19.4535 Z0.1207 F180
G01 X-9.3233 Y-19.4656 Z0.1430 F180
G01 X-9.1895 Y-19.5015 Z0.1546 F180
G01 X-9.1505 Y-19.5168 Z0.1547 F180
G01 X-9.0178 Y-19.5904 Z0.1474 F180
G01 X-8.8984 Y-19.6842 Z0.1190 F180
G01 X-8.7953 Y-19.7957 Z0.0739 F180
G01 X-8.7116 Y-19.9217 Z0.0211 F180
G01 X-8.6494 Y-20.0587 Z-0.0282 F180
G01 X-8.6104 Y-20.2027 Z-0.0641 F180
G01 X-8.5952 Y-20.3497 Z-0.0800 F180
G01 X-8.6043 Y-20.4954 Z-0.0747 F180
G01 X-8.6368 Y-20.6357 Z-0.0527 F180
G01 X-8.6916 Y-20.7665 Z-0.0231 F180
G01 X-8.7666 Y-20.8841 Z0.0032 F180
G01 X-8.8593 Y-20.9853 Z0.0159 F180
G01 X-8.9665 Y-21.0672 Z0.0086 F180
G01 X-9.0847 Y-21.1275 Z-0.0198 F180
G01 X-9.2100 Y-21.1648 Z-0.0649 F180
G01 X-9.3381 Y-21.1780 Z-0.1176 F180
G01 X-9.4650 Y-21.1672 Z-0.1670 F180
G01 X-9.5865 Y-21.1328 Z-0.2029 F180
G01 X-9.6985 Y-21.0762 Z-0.2188 F180
G01 X-9.7974 Y-20.9993 Z-0.2134 F180
G01 X-9.8797 Y-20.9048 Z-0.1915 F180
G01 X-9.9428 Y-20.7957 Z-0.1619 F180
G01 X-9.9844 Y-20.6757 Z-0.1356 F180
G01 X-10.0028 Y-20.5486 Z-0.1229 F180
G01 X-9.9973 Y-20.4186 Z-0.1301 F180
G01 X-9.9676 Y-20.2898 Z-0.1586 F180
G01 X-9.9145 Y-20.1665 Z-0.2037 F180
G01 X-9.9132 Y-20.1643 Z-0.2046 F180
G01 X-9.8371 Y-20.0502 Z-0.2574 F180
G01 X-9.7407 Y-19.9493 Z-0.3066 F180
G01 X-9.6267 Y-19.8650 Z-0.3422 F180
G01 X-9.4982 Y-19.8000 Z-0.3576 F180
G01 X-9.3589 Y-19.7566 Z-0.3520 F180
G01 X-9.2126 Y-19.7363 Z-0.3298 F180
G01 X-9.0634 Y-19.7400 Z-0.3001 F180
G01 X-8.9156 Y-19.7678 Z-0.2740 F180
G01 X-8.7732 Y-19.8191 Z-0.2616 F180
G01 X-8.6404 Y-19.8926 Z-0.2693 F180
G01 X-8.5209 Y-19.9863 Z-0.2981 F180
G01 X-8.4178 Y-20.0977 Z-0.3434 F180
G01 X-8.3342 Y-20.2235 Z-0.3962 F180
G01 X-8.2720 Y-20.3602 Z-0.4454 F180
G01 X-8.2330 Y-20.5039 Z-0.4810 F180
G01 X-8.2180 Y-20.6504 Z-0.4964 F180
G01 X-8.2271 Y-20.7956 Z-0.4907 F180
G01 X-8.2598 Y-20.9353 Z-0.4686 F180
G01 X-8.3146 Y-21.0654 Z-0.4389 F180
G01 X-8.3896 Y-21.1823 Z-0.4128 F180
G01 X-8.4823 Y-21.2827 Z-0.4004 F180
G01 X-8.5894 Y-21.3637 Z-0.4081 F180
G01 X-8.7074 Y-21.4232 Z-0.4369 F180
G01 X-8.8323 Y-21.4596 Z-0.4822 F180
G01 X-8.9602 Y-21.4719 Z-0.5350 F180
G01 X-9.0867 Y-21.4602 Z-0.5842 F180
G01 X-9.2076 Y-21.4249 Z-0.6198 F180
G01 X-9.2098 Y-21.4240 Z-0.6203 F180
G01 X-9.3207 Y-21.3657 Z-0.6353 F180
G01 X-9.4183 Y-21.2872 Z-0.6293 F180
G01 X-9.4993 Y-21.1911 Z-0.6068 F180
G01 X-9.5609 Y-21.0807 Z-0.5771 F180
G01 X-9.6010 Y-20.9594 Z-0.5512 F180
G01 X-9.6178 Y-20.8312 Z-0.5391 F180
G01 X-9.6107 Y-20.7002 Z-0.5472 F180
G01 X-9.5795 Y-20.5707 Z-0.5764 F180
G01 X-9.5247 Y-20.4468 Z-0.6220 F180
G01 X-9.4478 Y-20.3324 Z-0.6748 F180
G01 X-9.3508 Y-20.2314 Z-0.7238 F180
G01 X-9.2361 Y-20.1469 Z-0.7591 F180
G01 X-9.1071 Y-20.0818 Z-0.7741 F180
G01 X-8.9673 Y-20.0384 Z-0.7680 F180
G01 X-8.8205 Y-20.0181 Z-0.7456 F180
G01 X-8.6710 Y-20.0217 Z-0.7159 F180
G01 X-8.5229 Y-20.0495 Z-0.6900 F180
G01 X-8.3804 Y-20.1008 Z-0.6779 F180
G01 X-8.2475 Y-20.1743 Z-0.6860 F180
G01 X-8.1278 Y-20.2679 Z-0.7152 F180
G01 X-8.0248 Y-20.3791 Z-0.7608 F180
G01 X-7.9412 Y-20.5046 Z-0.8136 F180
G01 X-7.8791 Y-20.6410 Z-0.8626 F180
G01 X-7.8402 Y-20.7843 Z-0.8978 F180
G01 X-7.8253 Y-20.9304 Z-0.9129 F180
G01 X-7.8346 Y-21.0751 Z-0.9068 F180
G01 X-7.8673 Y-21.2141 Z-0.8844 F180
G01 X-7.8681 Y-21.2167 Z-0.8839 F180
G01 X-7.9231 Y-21.3454 Z-0.8542 F180
G01 X-7.9982 Y-21.4608 Z-0.8284 F180
G01 X-8.0908 Y-21.5596 Z-0.8167 F180
G01 X-8.1977 Y-21.6389 Z-0.8252 F180
G01 X-8.3154 Y-21.6966 Z-0.8547 F180
G01 X-8.4399 Y-21.7311 Z-0.9005 F180
G01 X-8.5671 Y-21.7416 Z-0.9534 F180
G01 X-8.6928 Y-21.7280 Z-1.0022 F180
G01 X-8.8128 Y-21.6910 Z-1.0371 F180
G01 X-8.9232 Y-21.6317 Z-1.0518 F180
G01 X-9.0202 Y-21.5524 Z-1.0453 F180
G01 X-9.1006 Y-21.4556 Z-1.0227 F180
G01 X-9.1615 Y-21.3444 Z-0.9929 F180
G01 X-9.2008 Y-21.2225 Z-0.9672 F180
G01 X-9.2169 Y-21.0937 Z-0.9555 F180
G01 X-9.2090 Y-20.9622 Z-0.9640 F180
G01 X-9.1770 Y-20.8323 Z-0.9935 F180
G01 X-9.1215 Y-20.7080 Z-1.0393 F180
G01 X-9.0439 Y-20.5934 Z-1.0922 F180
G01 X-8.9462 Y-20.4922 Z-1.1410 F180
G01 X-8.8309 Y-20.4076 Z-1.1759 F180
G01 X-8.7013 Y-20.3424 Z-1.1906 F180
G01 X-8.5610 Y-20.2989 Z-1.1841 F180
G01 X-8.4139 Y-20.2785 Z-1.1615 F180
G01 X-8.2640 Y-20.2822 Z-1.1317 F180
G01 X-8.1156 Y-20.3099 Z-1.1060 F180
G01 X-7.9730 Y-20.3612 Z-1.0943 F180
G01 X-7.9704 Y-20.3623 Z-1.0942 F180
G01 X-7.8602 Y-20.4219 Z-1.1031 F180
G01 X-7.7635 Y-20.5016 Z-1.1330 F180
G01 X-7.6835 Y-20.5988 Z-1.1791 F180
G01 X-7.6230 Y-20.7102 Z-1.2319 F180
G01 X-7.5841 Y-20.8323 Z-1.2806 F180
G01 X-7.5684 Y-20.9611 Z-1.3152 F180
G01 X-7.5768 Y-21.0926 Z-1.3294 F180
G01 X-7.6092 Y-21.2225 Z-1.3226 F180
G01 X-7.6651 Y-21.3466 Z-1.2997 F180
G01 X-7.7431 Y-21.4610 Z-1.2700 F180
G01 X-7.8412 Y-21.5620 Z-1.2444 F180
G01 X-7.9568 Y-21.6462 Z-1.2330 F180
G01 X-8.0866 Y-21.7110 Z-1.2419 F180
G01 X-8.2271 Y-21.7541 Z-1.2718 F180
G01 X-8.3743 Y-21.7740 Z-1.3178 F180
G01 X-8.5242 Y-21.7699 Z-1.3707 F180
G01 X-8.6725 Y-21.7417 Z-1.4194 F180
G01 X-8.8150 Y-21.6900 Z-1.4540 F180
G01 X-8.9478 Y-21.6163 Z-1.4682 F180
G01 X-9.0672 Y-21.5224 Z-1.4614 F180
G01 X-9.1698 Y-21.4111 Z-1.4385 F180
G01 X-9.2530 Y-21.2856 Z-1.4088 F180
G01 X-9.3145 Y-21.1493 Z-1.3832 F180
G01 X-9.3528 Y-21.0063 Z-1.3718 F180
G01 X-9.3672 Y-20.8607 Z-1.3807 F180
G01 X-9.3574 Y-20.7166 Z-1.4106 F180
G01 X-9.3241 Y-20.5784 Z-1.4566 F180
G01 X-9.3233 Y-20.5758 Z-1.4576 F180
G01 X-9.2672 Y-20.4470 Z-1.5105 F180
G01 X-9.1911 Y-20.3317 Z-1.5590 F180
G01 X-9.0976 Y-20.2331 Z-1.5932 F180
G01 X-8.9898 Y-20.1541 Z-1.6071 F180
G01 X-8.8715 Y-20.0968 Z-1.5999 F180
G01 X-8.7465 Y-20.0627 Z-1.5768 F180
G01 X-8.6190 Y-20.0526 Z-1.5470 F180
G01 X-8.4931 Y-20.0666 Z-1.5216 F180
G01 X-8.3730 Y-20.1041 Z-1.5106 F180
G01 X-8.2628 Y-20.1636 Z-1.5199 F180
G01 X-8.1660 Y-20.2432 Z-1.5501 F180
G01 X-8.0860 Y-20.3401 Z-1.5964 F180
G01 X-8.0256 Y-20.4513 Z-1.6493 F180
G01 X-7.9868 Y-20.5731 Z-1.6978 F180
G01 X-7.9713 Y-20.7015 Z-1.7320 F180
G01 X-7.9798 Y-20.8325 Z-1.7458 F180
G01 X-8.0123 Y-20.9618 Z-1.7387 F180
G01 X-8.0684 Y-21.0853 Z-1.7156 F180
G01 X-8.1465 Y-21.1990 Z-1.6858 F180
G01 X-8.2446 Y-21.2992 Z-1.6604 F180
G01 X-8.3601 Y-21.3827 Z-1.6494 F180
G01 X-8.4899 Y-21.4466 Z-1.6587 F180
G01 X-8.6302 Y-21.4888 Z-1.6889 F180
G01 X-8.7772 Y-21.5078 Z-1.7352 F180
G01 X-8.9268 Y-21.5027 Z-1.7881 F180
G01 X-9.0747 Y-21.4736 Z-1.8366 F180
G01 X-9.2167 Y-21.4210 Z-1.8708 F180
G01 X-9.2193 Y-21.4198 Z-1.8713 F180
G01 X-9.3510 Y-21.3443 Z-1.8847 F180
G01 X-9.4692 Y-21.2488 Z-1.8772 F180
G01 X-9.5705 Y-21.1360 Z-1.8539 F180
G01 X-9.6523 Y-21.0090 Z-1.8241 F180
G01 X-9.7123 Y-20.8715 Z-1.7989 F180
G01 X-9.7491 Y-20.7274 Z-1.7881 F180
G01 X-9.7618 Y-20.5808 Z-1.7978 F180
G01 X-9.7505 Y-20.4359 Z-1.8285 F180
G01 X-9.7157 Y-20.2970 Z-1.8749 F180
G01 X-9.6589 Y-20.1679 Z-1.9279 F180
G01 X-9.5821 Y-20.0524 Z-1.9762 F180
G01 X-9.4880 Y-19.9538 Z-2.0101 F180
G01 X-9.3797 Y-19.8746 Z-2.0235 F180
G01 X-9.2608 Y-19.8173 Z-2.0160 F180
G01 X-9.1354 Y-19.7831 Z-1.9926 F180
G01 X-9.0075 Y-19.7730 Z-1.9628 F180
G01 X-8.8814 Y-19.7870 Z-1.9377 F180
G01 X-8.7611 Y-19.8245 Z-1.9269 F180
G01 X-8.6508 Y-19.8839 Z-1.9366 F180
G01 X-8.5540 Y-19.9634 Z-1.9673 F180
G01 X-8.4740 Y-20.0601 Z-2.0137 F180
G01 X-8.4136 Y-20.1711 Z-2.0667 F180
G01 X-8.3749 Y-20.2926 Z-2.1150 F180
G01 X-8.3595 Y-20.4206 Z-2.1489 F180
G01 X-8.3681 Y-20.5512 Z-2.1623 F180
G01 X-8.4008 Y-20.6800 Z-2.1548 F180
G01 X-8.4569 Y-20.8028 Z-2.1314 F180
G01 X-8.4582 Y-20.8051 Z-2.1309 F180
G01 X-8.5364 Y-20.9174 Z-2.1011 F180
G01 X-8.6345 Y-21.0161 Z-2.0761 F180
G01 X-8.7499 Y-21.0980 Z-2.0657 F180
G01 X-8.8794 Y-21.1602 Z-2.0758 F180
G01 X-9.0194 Y-21.2006 Z-2.1068 F180
G01 X-9.1659 Y-21.2178 Z-2.1535 F180
G01 X-9.3148 Y-21.2109 Z-2.2064 F180
G01 X-9.4619 Y-21.1800 Z-2.2546 F180
G01 X-9.6030 Y-21.1257 Z-2.2881 F180
G01 X-9.7341 Y-21.0493 Z-2.3011 F180
G01 X-9.8516 Y-20.9530 Z-2.2932 F180
G01 X-9.9522 Y-20.8394 Z-2.2697 F180
G01 X-10.0332 Y-20.7117 Z-2.2399 F180
G01 X-10.0925 Y-20.5736 Z-2.2149 F180
G01 X-10.1285 Y-20.4290 Z-2.2045 F180
G01 X-10.1404 Y-20.2819 Z-2.2146 F180
G01 X-10.1283 Y-20.1367 Z-2.2456 F180
G01 X-10.0927 Y-19.9974 Z-2.2923 F180
G01 X-10.0351 Y-19.8681 Z-2.3452 F180
G01 X-9.9576 Y-19.7525 Z-2.3934 F180
G01 X-9.8629 Y-19.6537 Z-2.4269 F180
G01 X-9.7540 Y-19.5745 Z-2.4399 F180
G01 X-9.6346 Y-19.5171 Z-2.4320 F180
G01 X-9.5088 Y-19.4830 Z-2.4085 F180
G01 X-9.3805 Y-19.4729 Z-2.3787 F180
G01 X-9.2541 Y-19.4869 Z-2.3537 F180
G01 X-9.1337 Y-19.5243 Z-2.3433 F180
G01 X-9.1315 Y-19.5252 F180
G01 X-8.9972 Y-19.6046 Z-2.3422 F1200
G01 X-8.8765 Y-19.7038 Z-2.3620 F1200
G01 X-8.7728 Y-19.8204 Z-2.3973 F1200
G01 X-8.6888 Y-19.9509 Z-2.4387 F1200
G01 X-8.6265 Y-20.0918 Z-2.4751 F1200
G01 X-8.5876 Y-20.2392 Z-2.4967 F1200
G01 X-8.5727 Y-20.3889 Z-2.4978 F1200
G01 X-8.5818 Y-20.5366 Z-2.4780 F1200
G01 X-8.6144 Y-20.6784 Z-2.4427 F1200
G01 X-8.6689 Y-20.8101 Z-2.4013 F1200
G01 X-8.7434 Y-20.9281 Z-2.3649 F1200
G01 X-8.8350 Y-21.0291 Z-2.3433 F1200
G01 X-8.9407 Y-21.1106 Z-2.3422 F1200
G01 X-9.0568 Y-21.1702 Z-2.3620 F1200
G01 X-9.1793 Y-21.2065 Z-2.3973 F1200
G01 X-9.3042 Y-21.2188 Z-2.4387 F1200
G01 X-9.4271 Y-21.2069 Z-2.4751 F1200
G01 X-9.5440 Y-21.1718 Z-2.4967 F1200
G01 X-9.6508 Y-21.1146 Z-2.4978 F1200
G01 X-9.7440 Y-21.0375 Z-2.4780 F1200
G01 X-9.8202 Y-20.9432 Z-2.4427 F1200
G01 X-9.8768 Y-20.8349 Z-2.4013 F1200
G01 X-9.9115 Y-20.7162 Z-2.3649 F1200
G01 X-9.9230 Y-20.5910 Z-2.3433 F1200
G01 X-9.9104 Y-20.4636 Z-2.3422 F1200
G01 X-9.8738 Y-20.3380 Z-2.3620 F1200
G01 X-9.8138 Y-20.2185 Z-2.3973 F1200
G01 X-9.7437 Y-20.1227 Z-2.4334 F1200
G01 X-9.6436 Y-20.0241 Z-2.4710 F1200
G01 X-9.5260 Y-19.9420 Z-2.4950 F1200
G01 X-9.3938 Y-19.8793 Z-2.4989 F1200
G01 X-9.2508 Y-19.8381 Z-2.4816 F1200
G01 X-9.1008 Y-19.8200 Z-2.4479 F1200
G01 X-8.9479 Y-19.8260 Z-2.4066 F1200
G01 X-8.7964 Y-19.8560 Z-2.3690 F1200
G01 X-8.6503 Y-19.9096 Z-2.3450 F1200
G01 X-8.5139 Y-19.9854 Z-2.3411 F1200
G01 X-8.3906 Y-20.0814 Z-2.3584 F1200
G01 X-8.2839 Y-20.1949 Z-2.3921 F1200
G01 X-8.1965 Y-20.3230 Z-2.4334 F1200
G01 X-8.1307 Y-20.4620 Z-2.4710 F1200
G01 X-8.0880 Y-20.6079 Z-2.4950 F1200
G01 X-8.0692 Y-20.7567 Z-2.4989 F1200
G01 X-8.0746 Y-20.9041 Z-2.4816 F1200
G01 X-8.1036 Y-21.0461 Z-2.4479 F1200
G01 X-8.1547 Y-21.1785 Z-2.4066 F1200
G01 X-8.2260 Y-21.2976 Z-2.3690 F1200
G01 X-8.3150 Y-21.4003 Z-2.3450 F1200
G01 X-8.4184 Y-21.4836 Z-2.3411 F1200
G01 X-8.5327 Y-21.5453 Z-2.3584 F1200
G01 X-8.6540 Y-21.5839 Z-2.3921 F1200
G01 X-8.7781 Y-21.5986 Z-2.4334 F1200
G01 X-8.9009 Y-21.5891 Z-2.4710 F1200
G01 X-9.0182 Y-21.5561 Z-2.4950 F1200
G01 X-9.1259 Y-21.5009 Z-2.4989 F1200
G01 X-9.2089 Y-21.4364 Z-2.4850 F1200
G01 X-9.2887 Y-21.3447 Z-2.4530 F1200
G01 X-9.3495 Y-21.2380 Z-2.4121 F1200
G01 X-9.3889 Y-21.1200 Z-2.3734 F1200
G01 X-9.4054 Y-20.9944 Z-2.3471 F1200
G01 X-9.3980 Y-20.8655 Z-2.3404 F1200
G01 X-9.3664 Y-20.7373 Z-2.3550 F1200
G01 X-9.3112 Y-20.6142 Z-2.3870 F1200
G01 X-9.2336 Y-20.5000 Z-2.4279 F1200
G01 X-9.1355 Y-20.3986 Z-2.4666 F1200
G01 X-9.0193 Y-20.3133 Z-2.4929 F1200
G01 X-8.8883 Y-20.2470 Z-2.4996 F1200
G01 X-8.7459 Y-20.2020 Z-2.4850 F1200
G01 X-8.5960 Y-20.1800 Z-2.4530 F1200
G01 X-8.4427 Y-20.1819 Z-2.4121 F1200
G01 X-8.2902 Y-20.2080 Z-2.3734 F1200
G01 X-8.1426 Y-20.2577 Z-2.3471 F1200
G01 X-8.0041 Y-20.3298 Z-2.3404 F1200
G01 X-7.8783 Y-20.4224 Z-2.3550 F1200
G01 X-7.7687 Y-20.5329 Z-2.3870 F1200
G01 X-7.6780 Y-20.6584 Z-2.4279 F1200
G01 X-7.6087 Y-20.7953 Z-2.4666 F1200
G01 X-7.5623 Y-20.9397 Z-2.4929 F1200
G01 X-7.5398 Y-21.0875 Z-2.4996 F1200
G01 X-7.5415 Y-21.2345 Z-2.4850 F1200
G01 X-7.5668 Y-21.3765 Z-2.4530 F1200
G01 X-7.6146 Y-21.5095 Z-2.4121 F1200
G01 X-7.6828 Y-21.6298 Z-2.3734 F1200
G01 X-7.7568 Y-21.7213 Z-2.3495 F1200
G01 X-7.8556 Y-21.8082 Z-2.3400 F1200
G01 X-7.9663 Y-21.8740 Z-2.3520 F1200
G01 X-8.0851 Y-21.9170 Z-2.3821 F1200
G01 X-8.2077 Y-21.9363 Z-2.4224 F1200
G01 X-8.3302 Y-21.9313 Z-2.4621 F1200
G01 X-8.4482 Y-21.9026 Z-2.4905 F1200
G01 X-8.5577 Y-21.8514 Z-2.5000 F1200
G01 X-8.6550 Y-21.7793 Z-2.4880 F1200
G01 X-8.7365 Y-21.6888 Z-2.4579 F1200
G01 X-8.7994 Y-21.5830 Z-2.4176 F1200
G01 X-8.8412 Y-21.4654 Z-2.3779 F1200
G01 X-8.8603 Y-21.3397 Z-2.3495 F1200
G01 X-8.8555 Y-21.2101 Z-2.3400 F1200
G01 X-8.8266 Y-21.0807 Z-2.3520 F1200
G01 X-8.7739 Y-20.9557 Z-2.3821 F1200
G01 X-8.6986 Y-20.8393 Z-2.4224 F1200
G01 X-8.6025 Y-20.7351 Z-2.4621 F1200
G01 X-8.4880 Y-20.6466 Z-2.4905 F1200
G01 X-8.3583 Y-20.5768 Z-2.5000 F1200
G01 X-8.2166 Y-20.5280 Z-2.4880 F1200
G01 X-8.0669 Y-20.5020 Z-2.4579 F1200
G01 X-7.9133 Y-20.4999 Z-2.4176 F1200
G01 X-7.7599 Y-20.5219 Z-2.3779 F1200
G01 X-7.6110 Y-20.5676 Z-2.3495 F1200
G01 X-7.4705 Y-20.6360 Z-2.3400 F1200
G01 X-7.3423 Y-20.7251 Z-2.3520 F1200
G01 X-7.2298 Y-20.8326 Z-2.3821 F1200
G01 X-7.1472 Y-20.9386 Z-2.4169 F1200
G01 X-7.0711 Y-21.0710 Z-2.4573 F1200
G01 X-7.0175 Y-21.2120 Z-2.4877 F1200
G01 X-6.9877 Y-21.3575 Z-2.4999 F1200
G01 X-6.9821 Y-21.5033 Z-2.4908 F1200
G01 X-7.0003 Y-21.6452 Z-2.4626 F1200
G01 X-7.0413 Y-21.7791 Z-2.4231 F1200
G01 X-7.1033 Y-21.9013 Z-2.3827 F1200
G01 X-7.1841 Y-22.0081 Z-2.3523 F1200
G01 X-7.2807 Y-22.0967 Z-2.3401 F1200
G01 X-7.3895 Y-22.1645 Z-2.3492 F1200
G01 X-7.5070 Y-22.2097 Z-2.3774 F1200
G01 X-7.6289 Y-22.2311 Z-2.4169 F1200
G01 X-7.7512 Y-22.2284 Z-2.4573 F1200
G01 X-7.8695 Y-22.2019 Z-2.4877 F1200
G01 X-7.9799 Y-22.1526 Z-2.4999 F1200
G01 X-8.0785 Y-22.0822 Z-2.4908 F1200
G01 X-8.1618 Y-21.9931 Z-2.4626 F1200
G01 X-8.2268 Y-21.8882 Z-2.4231 F1200
G01 X-8.2710 Y-21.7710 Z-2.3827 F1200
G01 X-8.2927 Y-21.6452 Z-2.3523 F1200
G01 X-8.2906 Y-21.5149 Z-2.3401 F1200
G01 X-8.2644 Y-21.3843 Z-2.3492 F1200
G01 X-8.2143 Y-21.2576 Z-2.3774 F1200
G01 X-8.1414 Y-21.1389 Z-2.4169 F1200
G01 X-8.0474 Y-21.0320 Z-2.4573 F1200
G01 X-7.9348 Y-20.9404 Z-2.4877 F1200
G01 X-7.8063 Y-20.8670 Z-2.4999 F1200
G01 X-7.6846 Y-20.8201 Z-2.4932 F1200
G01 X-7.5358 Y-20.7861 Z-2.4672 F1200
G01 X-7.3819 Y-20.7758 Z-2.4286 F1200
G01 X-7.2271 Y-20.7896 Z-2.3877 F1200
G01 X-7.0757 Y-20.8273 Z-2.3554 F1200
G01 X-6.9317 Y-20.8880 Z-2.3405 F1200
G01 X-6.7991 Y-20.9700 Z-2.3468 F1200
G01 X-6.6813 Y-21.0711 Z-2.3728 F1200
G01 X-6.5814 Y-21.1883 Z-2.4114 F1200
G01 X-6.5020 Y-21.3184 Z-2.4523 F1200
G01 X-6.4450 Y-21.4576 Z-2.4846 F1200
G01 X-6.4117 Y-21.6017 Z-2.4995 F1200
G01 X-6.4024 Y-21.7468 Z-2.4932 F1200
G01 X-6.4171 Y-21.8885 Z-2.4672 F1200
G01 X-6.4548 Y-22.0228 Z-2.4286 F1200
G01 X-6.5138 Y-22.1457 Z-2.3877 F1200
G01 X-6.5918 Y-22.2538 Z-2.3554 F1200
G01 X-6.6861 Y-22.3440 Z-2.3405 F1200
G01 X-6.7931 Y-22.4137 Z-2.3468 F1200
G01 X-6.9093 Y-22.4610 Z-2.3728 F1200
G01 X-7.0304 Y-22.4846 Z-2.4114 F1200
G01 X-7.1525 Y-22.4842 Z-2.4523 F1200
G01 X-7.2711 Y-22.4598 Z-2.4846 F1200
G01 X-7.3824 Y-22.4124 Z-2.4995 F1200
G01 X-7.4823 Y-22.3437 Z-2.4932 F1200
G01 X-7.5674 Y-22.2559 Z-2.4672 F1200
G01 X-7.6345 Y-22.1520 Z-2.4286 F1200
G01 X-7.6812 Y-22.0353 Z-2.3877 F1200
G01 X-7.7036 Y-21.9263 Z-2.3588 F1200
G01 X-7.7070 Y-21.7949 Z-2.3412 F1200
G01 X-7.6864 Y-21.6621 Z-2.3448 F1200
G01 X-7.6417 Y-21.5321 Z-2.3685 F1200
G01 X-7.5739 Y-21.4089 Z-2.4060 F1200
G01 X-7.4845 Y-21.2966 Z-2.4472 F1200
G01 X-7.3757 Y-21.1987 Z-2.4812 F1200
G01 X-7.2503 Y-21.1184 Z-2.4988 F1200
G01 X-7.1116 Y-21.0583 Z-2.4952 F1200
G01 X-6.9634 Y-21.0203 Z-2.4715 F1200
G01 X-6.8096 Y-21.0058 Z-2.4340 F1200
G01 X-6.6543 Y-21.0155 Z-2.3928 F1200
G01 X-6.5019 Y-21.0491 Z-2.3588 F1200
G01 X-6.3563 Y-21.1059 Z-2.3412 F1200
G01 X-6.2216 Y-21.1843 Z-2.3448 F1200
G01 X-6.1013 Y-21.2820 Z-2.3685 F1200
G01 X-5.9986 Y-21.3964 Z-2.4060 F1200
G01 X-5.9160 Y-21.5240 Z-2.4472 F1200
G01 X-5.8556 Y-21.6612 Z-2.4812 F1200
G01 X-5.8187 Y-21.8040 Z-2.4988 F1200
G01 X-5.8060 Y-21.9482 Z-2.4952 F1200
G01 X-5.8172 Y-22.0896 Z-2.4715 F1200
G01 X-5.8515 Y-22.2241 Z-2.4340 F1200
G01 X-5.9075 Y-22.3478 Z-2.3928 F1200
G01 X-5.9828 Y-22.4571 Z-2.3588 F1200
G01 X-6.0748 Y-22.5488 Z-2.3412 F1200
G01 X-6.1800 Y-22.6203 Z-2.3448 F1200
G01 X-6.2948 Y-22.6697 Z-2.3685 F1200
G01 X-6.3992 Y-22.6935 Z-2.4006 F1200
G01 X-6.5207 Y-22.6974 Z-2.4420 F1200
G01 X-6.6400 Y-22.6773 Z-2.4775 F1200
G01 X-6.7529 Y-22.6339 Z-2.4976 F1200
G01 X-6.8555 Y-22.5686 Z-2.4969 F1200
G01 X-6.9442 Y-22.4836 Z-2.4756 F1200
G01 X-7.0156 Y-22.3817 Z-2.4394 F1200
G01 X-7.0672 Y-22.2660 Z-2.3980 F1200
G01 X-7.0968 Y-22.1402 Z-2.3625 F1200
G01 X-7.1031 Y-22.0083 Z-2.3424 F1200
G01 X-7.0853 Y-21.8744 Z-2.3431 F1200
G01 X-7.0434 Y-21.7428 Z-2.3644 F1200
G01 X-6.9783 Y-21.6175 Z-2.4006 F1200
G01 X-6.8913 Y-21.5026 Z-2.4420 F1200
G01 X-6.7846 Y-21.4016 Z-2.4775 F1200
G01 X-6.6609 Y-21.3179 Z-2.4976 F1200
G01 X-6.5235 Y-21.2539 Z-2.4969 F1200
G01 X-6.3760 Y-21.2120 Z-2.4756 F1200
G01 X-6.2223 Y-21.1934 Z-2.4394 F1200
G01 X-6.0667 Y-21.1989 Z-2.3980 F1200
G01 X-5.9134 Y-21.2284 Z-2.3625 F1200
G01 X-5.7664 Y-21.2812 Z-2.3424 F1200
G01 X-5.6297 Y-21.3559 Z-2.3431 F1200
G01 X-5.5070 Y-21.4502 Z-2.3644 F1200
G01 X-5.4015 Y-21.5616 Z-2.4006 F1200
G01 X-5.3159 Y-21.6867 Z-2.4420 F1200
G01 X-5.2522 Y-21.8219 Z-2.4775 F1200
G01 X-5.2119 Y-21.9632 Z-2.4976 F1200
G01 X-5.1964 Y-22.0877 Z-2.4982 F1200
G01 X-5.2008 Y-22.2282 Z-2.4794 F1200
G01 X-5.2286 Y-22.3629 Z-2.4447 F1200
G01 X-5.2786 Y-22.4878 Z-2.4033 F1200
G01 X-5.3485 Y-22.5992 Z-2.3664 F1200
G01 X-5.4358 Y-22.6938 Z-2.3439 F1200
G01 X-5.5373 Y-22.7689 Z-2.3418 F1200
G01 X-5.6495 Y-22.8222 Z-2.3606 F1200
G01 X-5.7682 Y-22.8523 Z-2.3953 F1200
G01 X-5.8895 Y-22.8584 Z-2.4367 F1200
G01 X-6.0091 Y-22.8404 Z-2.4736 F1200
G01 X-6.1228 Y-22.7990 Z-2.4961 F1200
G01 X-6.2267 Y-22.7355 Z-2.4982 F1200
G01 X-6.3172 Y-22.6519 Z-2.4794 F1200
G01 X-6.3908 Y-22.5510 Z-2.4447 F1200
G01 X-6.4449 Y-22.4359 Z-2.4033 F1200
G01 X-6.4772 Y-22.3102 Z-2.3664 F1200
G01 X-6.4864 Y-22.1779 Z-2.3439 F1200
G01 X-6.4715 Y-22.0430 Z-2.3418 F1200
G01 X-6.4325 Y-21.9099 Z-2.3606 F1200
G01 X-6.3701 Y-21.7825 Z-2.3953 F1200
G01 X-6.2856 Y-21.6650 Z-2.4367 F1200
G01 X-6.1811 Y-21.5610 Z-2.4736 F1200
G01 X-6.0593 Y-21.4738 Z-2.4961 F1200
G01 X-5.9232 Y-21.4062 Z-2.4982 F1200
G01 X-5.7765 Y-21.3602 Z-2.4794 F1200
G01 X-5.6232 Y-21.3375 Z-2.4447 F1200
G01 X-5.4674 Y-21.3388 Z-2.4033 F1200
G01 X-5.3333 Y-21.3595 Z-2.3707 F1200
G01 X-5.1838 Y-21.4043 Z-2.3458 F1200
G01 X-5.0436 Y-21.4713 Z-2.3408 F1200
G01 X-4.9165 Y-21.5587 Z-2.3570 F1200
G01 X-4.8058 Y-21.6639 Z-2.3901 F1200
G01 X-4.7142 Y-21.7837 Z-2.4312 F1200
G01 X-4.6442 Y-21.9146 Z-2.4693 F1200
G01 X-4.5972 Y-22.0527 Z-2.4942 F1200
G01 X-4.5741 Y-22.1938 Z-2.4992 F1200
G01 X-4.5752 Y-22.3338 Z-2.4830 F1200
G01 X-4.5999 Y-22.4685 Z-2.4499 F1200
G01 X-4.6468 Y-22.5939 Z-2.4088 F1200
G01 X-4.7141 Y-22.7062 Z-2.3707 F1200
G01 X-4.7991 Y-22.8022 Z-2.3458 F1200
G01 X-4.8988 Y-22.8789 Z-2.3408 F1200
G01 X-5.0095 Y-22.9342 Z-2.3570 F1200
G01 X-5.1274 Y-22.9664 Z-2.3901 F1200
G01 X-5.2484 Y-22.9746 Z-2.4312 F1200
G01 X-5.3683 Y-22.9588 Z-2.4693 F1200
G01 X-5.4829 Y-22.9193 Z-2.4942 F1200
G01 X-5.5881 Y-22.8576 Z-2.4992 F1200
G01 X-5.6803 Y-22.7755 Z-2.4830 F1200
G01 X-5.7561 Y-22.6757 Z-2.4499 F1200
G01 X-5.8127 Y-22.5613 Z-2.4088 F1200
G01 X-5.8478 Y-22.4357 Z-2.3707 F1200
G01 X-5.8599 Y-22.3030 Z-2.3458 F1200
G01 X-5.8480 Y-22.1672 Z-2.3408 F1200
G01 X-5.8120 Y-22.0326 Z-2.3570 F1200
G01 X-5.7616 Y-21.9198 Z-2.3851 F1200
G01 X-5.6824 Y-21.7973 Z-2.4258 F1200
G01 X-5.5826 Y-21.6873 Z-2.4649 F1200
G01 X-5.4647 Y-21.5934 Z-2.4920 F1200
G01 X-5.3317 Y-21.5183 Z-2.4998 F1200
G01 X-5.1872 Y-21.4644 Z-2.4862 F1200
G01 X-5.0349 Y-21.4334 Z-2.4549 F1200
G01 X-4.8790 Y-21.4263 Z-2.4142 F1200
G01 X-4.7237 Y-21.4434 Z-2.3751 F1200
G01 X-4.5732 Y-21.4841 Z-2.3480 F1200
G01 X-4.4314 Y-21.5473 Z-2.3402 F1200
G01 X-4.3023 Y-21.6312 Z-2.3538 F1200
G01 X-4.1891 Y-21.7331 Z-2.3851 F1200
G01 X-4.0948 Y-21.8502 Z-2.4258 F1200
G01 X-4.0216 Y-21.9788 Z-2.4649 F1200
G01 X-3.9714 Y-22.1151 Z-2.4920 F1200
G01 X-3.9451 Y-22.2551 Z-2.4998 F1200
G01 X-3.9429 Y-22.3944 Z-2.4862 F1200
G01 X-3.9644 Y-22.5290 Z-2.4549 F1200
G01 X-4.0084 Y-22.6548 Z-2.4142 F1200
G01 X-4.0730 Y-22.7680 Z-2.3751 F1200
G01 X-4.1557 Y-22.8653 Z-2.3480 F1200
G01 X-4.2535 Y-22.9436 Z-2.3402 F1200
G01 X-4.3629 Y-23.0008 Z-2.3538 F1200
G01 X-4.4800 Y-23.0351 Z-2.3851 F1200
G01 X-4.6007 Y-23.0455 Z-2.4258 F1200
G01 X-4.7208 Y-23.0317 Z-2.4649 F1200
G01 X-4.8362 Y-22.9943 Z-2.4920 F1200
G01 X-4.9294 Y-22.9435 Z-2.5000 F1200
G01 X-5.0251 Y-22.8645 Z-2.4891 F1200
G01 X-5.1054 Y-22.7670 Z-2.4598 F1200
G01 X-5.1671 Y-22.6540 Z-2.4197 F1200
G01 X-5.2078 Y-22.5289 Z-2.3798 F1200
G01 X-5.2259 Y-22.3956 Z-2.3506 F1200
G01 X-5.2201 Y-22.2582 Z-2.3400 F1200
G01 X-5.1902 Y-22.1208 Z-2.3509 F1200
G01 X-5.1366 Y-21.9876 Z-2.3802 F1200
G01 X-5.0602 Y-21.8627 Z-2.4203 F1200
G01 X-4.9629 Y-21.7498 Z-2.4602 F1200
G01 X-4.8472 Y-21.6526 Z-2.4894 F1200
G01 X-4.7159 Y-21.5738 Z-2.5000 F1200
G01 X-4.5726 Y-21.5160 Z-2.4891 F1200
G01 X-4.4210 Y-21.4809 Z-2.4598 F1200
G01 X-4.2653 Y-21.4696 Z-2.4197 F1200
G01 X-4.1096 Y-21.4825 Z-2.3798 F1200
G01 X-3.9582 Y-21.5191 Z-2.3506 F1200
G01 X-3.8150 Y-21.5784 Z-2.3400 F1200
G01 X-3.6839 Y-21.6587 Z-2.3509 F1200
G01 X-3.5684 Y-21.7574 Z-2.3802 F1200
G01 X-3.4714 Y-21.8716 Z-2.4203 F1200
G01 X-3.3953 Y-21.9979 Z-2.4602 F1200
G01 X-3.3419 Y-22.1324 Z-2.4894 F1200
G01 X-3.3123 Y-22.2711 Z-2.5000 F1200
G01 X-3.3069 Y-22.4097 Z-2.4891 F1200
G01 X-3.3253 Y-22.5441 Z-2.4598 F1200
G01 X-3.3663 Y-22.6703 Z-2.4197 F1200
G01 X-3.4190 Y-22.7701 Z-2.3846 F1200
G01 X-3.4972 Y-22.8702 Z-2.3535 F1200
G01 X-3.5913 Y-22.9522 Z-2.3402 F1200
G01 X-3.6979 Y-23.0135 Z-2.3483 F1200
G01 X-3.8133 Y-23.0522 Z-2.3756 F1200
G01 X-3.9334 Y-23.0673 Z-2.4148 F1200
G01 X-4.0540 Y-23.0582 Z-2.4554 F1200
G01 X-4.1709 Y-23.0253 Z-2.4865 F1200
G01 X-4.2801 Y-22.9695 Z-2.4998 F1200
G01 X-4.3777 Y-22.8925 Z-2.4917 F1200
G01 X-4.4601 Y-22.7967 Z-2.4644 F1200
G01 X-4.5244 Y-22.6849 Z-2.4252 F1200
G01 X-4.5680 Y-22.5606 Z-2.3846 F1200
G01 X-4.5891 Y-22.4276 Z-2.3535 F1200
G01 X-4.5865 Y-22.2898 Z-2.3402 F1200
G01 X-4.5598 Y-22.1515 Z-2.3483 F1200
G01 X-4.5092 Y-22.0169 Z-2.3756 F1200
G01 X-4.4357 Y-21.8901 Z-2.4148 F1200
G01 X-4.3410 Y-21.7749 Z-2.4554 F1200
G01 X-4.2275 Y-21.6748 Z-2.4865 F1200
G01 X-4.0981 Y-21.5928 Z-2.4998 F1200
G01 X-3.9561 Y-21.5315 Z-2.4917 F1200
G01 X-3.8054 Y-21.4928 Z-2.4644 F1200
G01 X-3.6500 Y-21.4777 Z-2.4252 F1200
G01 X-3.4941 Y-21.4868 Z-2.3846 F1200
G01 X-3.3418 Y-21.5197 Z-2.3535 F1200
G01 X-3.1973 Y-21.5755 Z-2.3402 F1200
G01 X-3.0644 Y-21.6525 Z-2.3483 F1200
G01 X-2.9466 Y-21.7483 Z-2.3756 F1200
G01 X-2.8470 Y-21.8601 Z-2.4148 F1200
G01 X-2.7681 Y-21.9844 Z-2.4554 F1200
G01 X-2.7116 Y-22.1174 Z-2.4865 F1200
G01 X-2.6789 Y-22.2552 Z-2.4998 F1200
G01 X-2.6703 Y-22.3935 Z-2.4917 F1200
G01 X-2.6856 Y-22.5281 Z-2.4644 F1200
G01 X-2.7237 Y-22.6549 Z-2.4252 F1200
G01 X-2.7830 Y-22.7701 Z-2.3846 F1200
G01 X-2.8612 Y-22.8702 Z-2.3535 F1200
G01 X-2.9553 Y-22.9522 Z-2.3402 F1200
G01 X-3.0619 Y-23.0135 Z-2.3483 F1200
G01 X-3.1773 Y-23.0522 Z-2.3756 F1200
G01 X-3.2974 Y-23.0673 Z-2.4148 F1200
G01 X-3.4180 Y-23.0582 Z-2.4554 F1200
G01 X-3.5349 Y-23.0253 Z-2.4865 F1200
G01 X-3.6441 Y-22.9695 Z-2.4998 F1200
G01 X-3.7417 Y-22.8925 Z-2.4917 F1200
G01 X-3.8241 Y-22.7967 Z-2.4644 F1200
G01 X-3.8884 Y-22.6849 Z-2.4252 F1200
G01 X-3.9320 Y-22.5606 Z-2.3846 F1200
G01 X-3.9531 Y-22.4276 Z-2.3535 F1200
G01 X-3.9505 Y-22.2898 Z-2.3402 F1200
G01 X-3.9238 Y-22.1515 Z-2.3483 F1200
G01 X-3.8732 Y-22.0169 Z-2.3756 F1200
G01 X-3.7997 Y-21.8901 Z-2.4148 F1200
G01 X-3.7050 Y-21.7749 Z-2.4554 F1200
G01 X-3.5915 Y-21.6748 Z-2.4865 F1200
G01 X-3.4621 Y-21.5928 Z-2.4998 F1200
G01 X-3.3201 Y-21.5315 Z-2.4917 F1200
G01 X-3.1694 Y-21.4928 Z-2.4644 F1200
G01 X-3.0140 Y-21.4777 Z-2.4252 F1200
G01 X-2.8581 Y-21.4868 Z-2.3846 F1200
G01 X-2.7058 Y-21.5197 Z-2.3535 F1200
G01 X-2.5613 Y-21.5755 Z-2.3402 F1200
G01 X-2.4284 Y-21.6525 Z-2.3483 F1200
G01 X-2.3106 Y-21.7483 Z-2.3756 F1200
G01 X-2.2110 Y-21.8601 Z-2.4148 F1200
G01 X-2.1321 Y-21.9844 Z-2.4554 F1200
G01 X-2.0756 Y-22.1174 Z-2.4865 F1200
G01 X-2.0429 Y-22.2552 Z-2.4998 F1200
G01 X-2.0343 Y-22.3935 Z-2.4917 F1200
G01 X-2.0496 Y-22.5281 Z-2.4644 F1200
G01 X-2.0877 Y-22.6549 Z-2.4252 F1200
G01 X-2.1470 Y-22.7701 Z-2.3846 F1200
G01 X-2.2252 Y-22.8702 Z-2.3535 F1200
G01 X-2.3193 Y-22.9522 Z-2.3402 F1200
G01 X-2.4259 Y-23.0135 Z-2.3483 F1200
G01 X-2.5413 Y-23.0522 Z-2.3756 F1200
G01 X-2.6614 Y-23.0673 Z-2.4148 F1200
G01 X-2.7820 Y-23.0582 Z-2.4554 F1200
G01 X-2.8989 Y-23.0253 Z-2.4865 F1200
G01 X-3.0081 Y-22.9695 Z-2.4998 F1200
G01 X-3.1057 Y-22.8925 Z-2.4917 F1200
G01 X-3.1881 Y-22.7967 Z-2.4644 F1200
G01 X-3.2524 Y-22.6849 Z-2.4252 F1200
G01 X-3.2960 Y-22.5606 Z-2.3846 F1200
G01 X-3.3171 Y-22.4276 Z-2.3535 F1200
G01 X-3.3145 Y-22.2898 Z-2.3402 F1200
G01 X-3.2878 Y-22.1515 Z-2.3483 F1200
G01 X-3.2372 Y-22.0169 Z-2.3756 F1200
G01 X-3.1637 Y-21.8901 Z-2.4148 F1200
G01 X-3.0690 Y-21.7749 Z-2.4554 F1200
G01 X-2.9555 Y-21.6748 Z-2.4865 F1200
G01 X-2.8261 Y-21.5928 Z-2.4998 F1200
G01 X-2.6841 Y-21.5315 Z-2.4917 F1200
G01 X-2.5334 Y-21.4928 Z-2.4644 F1200
G01 X-2.3780 Y-21.4777 Z-2.4252 F1200
G01 X-2.2221 Y-21.4868 Z-2.3846 F1200
G01 X-2.0698 Y-21.5197 Z-2.3535 F1200
G01 X-1.9253 Y-21.5755 Z-2.3402 F1200
G01 X-1.7924 Y-21.6525 Z-2.3483 F1200
G01 X-1.6746 Y-21.7483 Z-2.3756 F1200
G01 X-1.5750 Y-21.8601 Z-2.4148 F1200
G01 X-1.4961 Y-21.9844 Z-2.4554 F1200
G01 X-1.4396 Y-22.1174 Z-2.4865 F1200
G01 X-1.4069 Y-22.2552 Z-2.4998 F1200
G01 X-1.3983 Y-22.3935 Z-2.4917 F1200
G01 X-1.4136 Y-22.5281 Z-2.4644 F1200
G01 X-1.4517 Y-22.6549 Z-2.4252 F1200
G01 X-1.5110 Y-22.7701 Z-2.3846 F1200
G01 X-1.5892 Y-22.8702 Z-2.3535 F1200
G01 X-1.6833 Y-22.9522 Z-2.3402 F1200
G01 X-1.7899 Y-23.0135 Z-2.3483 F1200
G01 X-1.9053 Y-23.0522 Z-2.3756 F1200
G01 X-2.0254 Y-23.0673 Z-2.4148 F1200
G01 X-2.1460 Y-23.0582 Z-2.4554 F1200
G01 X-2.2629 Y-23.0253 Z-2.4865 F1200
G01 X-2.3721 Y-22.9695 Z-2.4998 F1200
G01 X-2.4697 Y-22.8925 Z-2.4917 F1200
G01 X-2.5521 Y-22.7967 Z-2.4644 F1200
G01 X-2.6164 Y-22.6849 Z-2.4252 F1200
G01 X-2.6600 Y-22.5606 Z-2.3846 F1200
G01 X-2.6811 Y-22.4276 Z-2.3535 F1200
G01 X-2.6785 Y-22.2898 Z-2.3402 F1200
G01 X-2.6518 Y-22.1515 Z-2.3483 F1200
G01 X-2.6012 Y-22.0169 Z-2.3756 F1200
G01 X-2.5277 Y-21.8901 Z-2.4148 F1200
G01 X-2.4330 Y-21.7749 Z-2.4554 F1200
G01 X-2.3195 Y-21.6748 Z-2.4865 F1200
G01 X-2.1901 Y-21.5928 Z-2.4998 F1200
G01 X-2.0481 Y-21.5315 Z-2.4917 F1200
G01 X-1.8974 Y-21.4928 Z-2.4644 F1200
G01 X-1.7420 Y-21.4777 Z-2.4252 F1200
G01 X-1.5861 Y-21.4868 Z-2.3846 F1200
G01 X-1.4338 Y-21.5197 Z-2.3535 F1200
G01 X-1.2893 Y-21.5755 Z-2.3402 F1200
G01 X-1.1564 Y-21.6525 Z-2.3483 F1200
G01 X-1.0386 Y-21.7483 Z-2.3756 F1200
G01 X-0.9390 Y-21.8601 Z-2.4148 F1200
G01 X-0.8601 Y-21.9844 Z-2.4554 F1200
G01 X-0.8036 Y-22.1174 Z-2.4865 F1200
G01 X-0.7709 Y-22.2552 Z-2.4998 F1200
G01 X-0.7623 Y-22.3935 Z-2.4917 F1200
G01 X-0.7776 Y-22.5281 Z-2.4644 F1200
G01 X-0.8157 Y-22.6549 Z-2.4252 F1200
G01 X-0.8750 Y-22.7701 Z-2.3846 F1200
G01 X-0.9532 Y-22.8702 Z-2.3535 F1200
G01 X-1.0473 Y-22.9522 Z-2.3402 F1200
G01 X-1.1539 Y-23.0135 Z-2.3483 F1200
G01 X-1.2693 Y-23.0522 Z-2.3756 F1200
G01 X-1.3894 Y-23.0673 Z-2.4148 F1200
G01 X-1.5100 Y-23.0582 Z-2.4554 F1200
G01 X-1.6269 Y-23.0253 Z-2.4865 F1200
G01 X-1.7361 Y-22.9695 Z-2.4998 F1200
G01 X-1.8337 Y-22.8925 Z-2.4917 F1200
G01 X-1.9161 Y-22.7967 Z-2.4644 F1200
G01 X-1.9804 Y-22.6849 Z-2.4252 F1200
G01 X-2.0240 Y-22.5606 Z-2.3846 F1200
G01 X-2.0451 Y-22.4276 Z-2.3535 F1200
G01 X-2.0425 Y-22.2898 Z-2.3402 F1200
G01 X-2.0158 Y-22.1515 Z-2.3483 F1200
G01 X-1.9652 Y-22.0169 Z-2.3756 F1200
G01 X-1.8917 Y-21.8901 Z-2.4148 F1200
G01 X-1.7970 Y-21.7749 Z-2.4554 F1200
G01 X-1.6835 Y-21.6748 Z-2.4865 F1200
G01 X-1.5541 Y-21.5928 Z-2.4998 F1200
G01 X-1.4121 Y-21.5315 Z-2.4917 F1200
G01 X-1.2614 Y-21.4928 Z-2.4644 F1200
G01 X-1.1060 Y-21.4777 Z-2.4252 F1200
G01 X-0.9501 Y-21.4868 Z-2.3846 F1200
G01 X-0.7978 Y-21.5197 Z-2.3535 F1200
G01 X-0.6533 Y-21.5755 Z-2.3402 F1200
G01 X-0.5204 Y-21.6525 Z-2.3483 F1200
G01 X-0.4026 Y-21.7483 Z-2.3756 F1200
G01 X-0.3030 Y-21.8601 Z-2.4148 F1200
G01 X-0.2241 Y-21.9844 Z-2.4554 F1200
G01 X-0.1676 Y-22.1174 Z-2.4865 F1200
G01 X-0.1349 Y-22.2552 Z-2.4998 F1200
G01 X-0.1263 Y-22.3935 Z-2.4917 F1200
G01 X-0.1416 Y-22.5281 Z-2.4644 F1200
G01 X-0.1797 Y-22.6549 Z-2.4252 F1200
G01 X-0.2390 Y-22.7701 Z-2.3846 F1200
G01 X-0.3172 Y-22.8702 Z-2.3535 F1200
G01 X-0.4113 Y-22.9522 Z-2.3402 F1200
G01 X-0.5179 Y-23.0135 Z-2.3483 F1200
G01 X-0.6333 Y-23.0522 Z-2.3756 F1200
G01 X-0.7534 Y-23.0673 Z-2.4148 F1200
G01 X-0.8740 Y-23.0582 Z-2.4554 F1200
G01 X-0.9909 Y-23.0253 Z-2.4865 F1200
G01 X-1.1001 Y-22.9695 Z-2.4998 F1200
G01 X-1.1977 Y-22.8925 Z-2.4917 F1200
G01 X-1.2801 Y-22.7967 Z-2.4644 F1200
G01 X-1.3444 Y-22.6849 Z-2.4252 F1200
G01 X-1.3880 Y-22.5606 Z-2.3846 F1200
G01 X-1.4091 Y-22.4276 Z-2.3535 F1200
G01 X-1.4065 Y-22.2898 Z-2.3402 F1200
G01 X-1.3798 Y-22.1515 Z-2.3483 F1200
G01 X-1.3292 Y-22.0169 Z-2.3756 F1200
G01 X-1.2557 Y-21.8901 Z-2.4148 F1200
G01 X-1.1610 Y-21.7749 Z-2.4554 F1200
G01 X-1.0475 Y-21.6748 Z-2.4865 F1200
G01 X-0.9181 Y-21.5928 Z-2.4998 F1200
G01 X-0.7761 Y-21.5315 Z-2.4917 F1200
G01 X-0.6254 Y-21.4928 Z-2.4644 F1200
G01 X-0.4700 Y-21.4777 Z-2.4252 F1200
G01 X-0.3141 Y-21.4868 Z-2.3846 F1200
G01 X-0.1618 Y-21.5197 Z-2.3535 F1200
G01 X-0.0173 Y-21.5755 Z-2.3402 F1200
G01 X0.1156 Y-21.6525 Z-2.3483 F1200
G01 X0.2334 Y-21.7483 Z-2.3756 F1200
G01 X0.3330 Y-21.8601 Z-2.4148 F1200
G01 X0.4119 Y-21.9844 Z-2.4554 F1200
G01 X0.4684 Y-22.1174 Z-2.4865 F1200
G01 X0.5011 Y-22.2552 Z-2.4998 F1200
G01 X0.5097 Y-22.3935 Z-2.4917 F1200
G01 X0.4944 Y-22.5281 Z-2.4644 F1200
G01 X0.4563 Y-22.6549 Z-2.4252 F1200
G01 X0.3970 Y-22.7701 Z-2.3846 F1200
G01 X0.3188 Y-22.8702 Z-2.3535 F1200
G01 X0.2247 Y-22.9522 Z-2.3402 F1200
G01 X0.1181 Y-23.0135 Z-2.3483 F1200
G01 X0.0027 Y-23.0522 Z-2.3756 F1200
G01 X-0.1174 Y-23.0673 Z-2.4148 F1200
G01 X-0.2380 Y-23.0582 Z-2.4554 F1200
G01 X-0.3549 Y-23.0253 Z-2.4865 F1200
G01 X-0.4641 Y-22.9695 Z-2.4998 F1200
G01 X-0.5617 Y-22.8925 Z-2.4917 F1200
G01 X-0.6441 Y-22.7967 Z-2.4644 F1200
G01 X-0.7084 Y-22.6849 Z-2.4252 F1200
G01 X-0.7520 Y-22.5606 Z-2.3846 F1200
G01 X-0.7731 Y-22.4276 Z-2.3535 F1200
G01 X-0.7705 Y-22.2898 Z-2.3402 F1200
G01 X-0.7438 Y-22.1515 Z-2.3483 F1200
G01 X-0.6932 Y-22.0169 Z-2.3756 F1200
G01 X-0.6197 Y-21.8901 Z-2.4148 F1200
G01 X-0.5250 Y-21.7749 Z-2.4554 F1200
G01 X-0.4115 Y-21.6748 Z-2.4865 F1200
G01 X-0.2821 Y-21.5928 Z-2.4998 F1200
G01 X-0.1401 Y-21.5315 Z-2.4917 F1200
G01 X0.0106 Y-21.4928 Z-2.4644 F1200
G01 X0.1660 Y-21.4777 Z-2.4252 F1200
G01 X0.3219 Y-21.4868 Z-2.3846 F1200
G01 X0.4742 Y-21.5197 Z-2.3535 F1200
G01 X0.6187 Y-21.5755 Z-2.3402 F1200
G01 X0.7516 Y-21.6525 Z-2.3483 F1200
G01 X0.8694 Y-21.7483 Z-2.3756 F1200
G01 X0.9690 Y-21.8601 Z-2.4148 F1200
G01 X1.0479 Y-21.9844 Z-2.4554 F1200
G01 X1.1044 Y-22.1174 Z-2.4865 F1200
G01 X1.1371 Y-22.2552 Z-2.4998 F1200
G01 X1.1457 Y-22.3935 Z-2.4917 F1200
G01 X1.1304 Y-22.5281 Z-2.4644 F1200
G01 X1.0923 Y-22.6549 Z-2.4252 F1200
G01 X1.0330 Y-22.7701 Z-2.3846 F1200
G01 X0.9548 Y-22.8702 Z-2.3535 F1200
G01 X0.8607 Y-22.9522 Z-2.3402 F1200
G01 X0.7541 Y-23.0135 Z-2.3483 F1200
G01 X0.6387 Y-23.0522 Z-2.3756 F1200
G01 X0.5186 Y-23.0673 Z-2.4148 F1200
G01 X0.3980 Y-23.0582 Z-2.4554 F1200
G01 X0.2811 Y-23.0253 Z-2.4865 F1200
G01 X0.1719 Y-22.9695 Z-2.4998 F1200
G01 X0.0743 Y-22.8925 Z-2.4917 F1200
G01 X-0.0081 Y-22.7967 Z-2.4644 F1200
G01 X-0.0724 Y-22.6849 Z-2.4252 F1200
G01 X-0.1160 Y-22.5606 Z-2.3846 F1200
G01 X-0.1371 Y-22.4276 Z-2.3535 F1200
G01 X-0.1345 Y-22.2898 Z-2.3402 F1200
G01 X-0.1078 Y-22.1515 Z-2.3483 F1200
G01 X-0.0572 Y-22.0169 Z-2.3756 F1200
G01 X0.0163 Y-21.8901 Z-2.4148 F1200
G01 X0.1110 Y-21.7749 Z-2.4554 F1200
G01 X0.2245 Y-21.6748 Z-2.4865 F1200
G01 X0.3539 Y-21.5928 Z-2.4998 F1200
G01 X0.4959 Y-21.5315 Z-2.4917 F1200
G01 X0.6466 Y-21.4928 Z-2.4644 F1200
G01 X0.8020 Y-21.4777 Z-2.4252 F1200
G01 X0.9579 Y-21.4868 Z-2.3846 F1200
G01 X1.1102 Y-21.5197 Z-2.3535 F1200
G01 X1.2547 Y-21.5755 Z-2.3402 F1200
G01 X1.3876 Y-21.6525 Z-2.3483 F1200
G01 X1.5054 Y-21.7483 Z-2.3756 F1200
G01 X1.6050 Y-21.8601 Z-2.4148 F1200
G01 X1.6839 Y-21.9844 Z-2.4554 F1200
G01 X1.7404 Y-22.1174 Z-2.4865 F1200
G01 X1.7731 Y-22.2552 Z-2.4998 F1200
G01 X1.7817 Y-22.3935 Z-2.4917 F1200
G01 X1.7664 Y-22.5281 Z-2.4644 F1200
G01 X1.7283 Y-22.6549 Z-2.4252 F1200
G01 X1.6690 Y-22.7701 Z-2.3846 F1200
G01 X1.5908 Y-22.8702 Z-2.3535 F1200
G01 X1.4967 Y-22.9522 Z-2.3402 F1200
G01 X1.3901 Y-23.0135 Z-2.3483 F1200
G01 X1.2747 Y-23.0522 Z-2.3756 F1200
G01 X1.1546 Y-23.0673 Z-2.4148 F1200
G01 X1.0340 Y-23.0582 Z-2.4554 F1200
G01 X0.9171 Y-23.0253 Z-2.4865 F1200
G01 X0.8079 Y-22.9695 Z-2.4998 F1200
G01 X0.7103 Y-22.8925 Z-2.4917 F1200
G01 X0.6279 Y-22.7967 Z-2.4644 F1200
G01 X0.5636 Y-22.6849 Z-2.4252 F1200
G01 X0.5200 Y-22.5606 Z-2.3846 F1200
G01 X0.4989 Y-22.4276 Z-2.3535 F1200
G01 X0.5015 Y-22.2898 Z-2.3402 F1200
G01 X0.5282 Y-22.1515 Z-2.3483 F1200
G01 X0.5788 Y-22.0169 Z-2.3756 F1200
G01 X0.6523 Y-21.8901 Z-2.4148 F1200
G01 X0.7470 Y-21.7749 Z-2.4554 F1200
G01 X0.8605 Y-21.6748 Z-2.4865 F1200
G01 X0.9899 Y-21.5928 Z-2.4998 F1200
G01 X1.1319 Y-21.5315 Z-2.4917 F1200
G01 X1.2826 Y-21.4928 Z-2.4644 F1200
G01 X1.4380 Y-21.4777 Z-2.4252 F1200
G01 X1.5939 Y-21.4868 Z-2.3846 F1200
G01 X1.7462 Y-21.5197 Z-2.3535 F1200
G01 X1.8907 Y-21.5755 Z-2.3402 F1200
G01 X2.0236 Y-21.6525 Z-2.3483 F1200
G01 X2.1414 Y-21.7483 Z-2.3756 F1200
G01 X2.2410 Y-21.8601 Z-2.4148 F1200
G01 X2.3199 Y-21.9844 Z-2.4554 F1200
G01 X2.3764 Y-22.1174 Z-2.4865 F1200
G01 X2.4091 Y-22.2552 Z-2.4998 F1200
G01 X2.4177 Y-22.3935 Z-2.4917 F1200
G01 X2.4024 Y-22.5281 Z-2.4644 F1200
G01 X2.3643 Y-22.6549 Z-2.4252 F1200
G01 X2.3050 Y-22.7701 Z-2.3846 F1200
G01 X2.2268 Y-22.8702 Z-2.3535 F1200
G01 X2.1327 Y-22.9522 Z-2.3402 F1200
G01 X2.0261 Y-23.0135 Z-2.3483 F1200
G01 X1.9107 Y-23.0522 Z-2.3756 F1200
G01 X1.7906 Y-23.0673 Z-2.4148 F1200
G01 X1.6700 Y-23.0582 Z-2.4554 F1200
G01 X1.5531 Y-23.0253 Z-2.4865 F1200
G01 X1.4439 Y-22.9695 Z-2.4998 F1200
G01 X1.3463 Y-22.8925 Z-2.4917 F1200
G01 X1.2639 Y-22.7967 Z-2.4644 F1200
G01 X1.1996 Y-22.6849 Z-2.4252 F1200
G01 X1.1560 Y-22.5606 Z-2.3846 F1200
G01 X1.1349 Y-22.4276 Z-2.3535 F1200
G01 X1.1375 Y-22.2898 Z-2.3402 F1200
G01 X1.1642 Y-22.1515 Z-2.3483 F1200
G01 X1.2148 Y-22.0169 Z-2.3756 F1200
G01 X1.2883 Y-21.8901 Z-2.4148 F1200
G01 X1.3830 Y-21.7749 Z-2.4554 F1200
G01 X1.4965 Y-21.6748 Z-2.4865 F1200
G01 X1.6259 Y-21.5928 Z-2.4998 F1200
G01 X1.7679 Y-21.5315 Z-2.4917 F1200
G01 X1.9186 Y-21.4928 Z-2.4644 F1200
G01 X2.0740 Y-21.4777 Z-2.4252 F1200
G01 X2.2299 Y-21.4868 Z-2.3846 F1200
G01 X2.3822 Y-21.5197 Z-2.3535 F1200
G01 X2.5267 Y-21.5755 Z-2.3402 F1200
G01 X2.6596 Y-21.6525 Z-2.3483 F1200
G01 X2.7774 Y-21.7483 Z-2.3756 F1200
G01 X2.8770 Y-21.8601 Z-2.4148 F1200
G01 X2.9559 Y-21.9844 Z-2.4554 F1200
G01 X3.0124 Y-22.1174 Z-2.4865 F1200
G01 X3.0451 Y-22.2552 Z-2.4998 F1200
G01 X3.0537 Y-22.3935 Z-2.4917 F1200
G01 X3.0384 Y-22.5281 Z-2.4644 F1200
G01 X3.0003 Y-22.6549 Z-2.4252 F1200
G01 X2.9410 Y-22.7701 Z-2.3846 F1200
G01 X2.8628 Y-22.8702 Z-2.3535 F1200
G01 X2.7687 Y-22.9522 Z-2.3402 F1200
G01 X2.6621 Y-23.0135 Z-2.3483 F1200
G01 X2.5467 Y-23.0522 Z-2.3756 F1200
G01 X2.4266 Y-23.0673 Z-2.4148 F1200
G01 X2.3060 Y-23.0582 Z-2.4554 F1200
G01 X2.1891 Y-23.0253 Z-2.4865 F1200
G01 X2.0799 Y-22.9695 Z-2.4998 F1200
G01 X1.9823 Y-22.8925 Z-2.4917 F1200
G01 X1.8999 Y-22.7967 Z-2.4644 F1200
G01 X1.8356 Y-22.6849 Z-2.4252 F1200
G01 X1.7920 Y-22.5606 Z-2.3846 F1200
G01 X1.7709 Y-22.4276 Z-2.3535 F1200
G01 X1.7735 Y-22.2898 Z-2.3402 F1200
G01 X1.8002 Y-22.1515 Z-2.3483 F1200
G01 X1.8508 Y-22.0169 Z-2.3756 F1200
G01 X1.9243 Y-21.8901 Z-2.4148 F1200
G01 X2.0190 Y-21.7749 Z-2.4554 F1200
G01 X2.1325 Y-21.6748 Z-2.4865 F1200
G01 X2.2619 Y-21.5928 Z-2.4998 F1200
G01 X2.4039 Y-21.5315 Z-2.4917 F1200
G01 X2.5546 Y-21.4928 Z-2.4644 F1200
G01 X2.7100 Y-21.4777 Z-2.4252 F1200
G01 X2.8659 Y-21.4868 Z-2.3846 F1200
G01 X3.0182 Y-21.5197 Z-2.3535 F1200
G01 X3.1627 Y-21.5755 Z-2.3402 F1200
G01 X3.2956 Y-21.6525 Z-2.3483 F1200
G01 X3.4134 Y-21.7483 Z-2.3756 F1200
G01 X3.5130 Y-21.8601 Z-2.4148 F1200
G01 X3.5919 Y-21.9844 Z-2.4554 F1200
G01 X3.6484 Y-22.1174 Z-2.4865 F1200
G01 X3.6811 Y-22.2552 Z-2.4998 F1200
G01 X3.6897 Y-22.3935 Z-2.4917 F1200
G01 X3.6744 Y-22.5281 Z-2.4644 F1200
G01 X3.6363 Y-22.6549 Z-2.4252 F1200
G01 X3.5770 Y-22.7701 Z-2.3846 F1200
G01 X3.4988 Y-22.8702 Z-2.3535 F1200
G01 X3.4047 Y-22.9522 Z-2.3402 F1200
G01 X3.2981 Y-23.0135 Z-2.3483 F1200
G01 X3.1827 Y-23.0522 Z-2.3756 F1200
G01 X3.0626 Y-23.0673 Z-2.4148 F1200
G01 X2.9420 Y-23.0582 Z-2.4554 F1200
G01 X2.8251 Y-23.0253 Z-2.4865 F1200
G01 X2.7159 Y-22.9695 Z-2.4998 F1200
G01 X2.6183 Y-22.8925 Z-2.4917 F1200
G01 X2.5359 Y-22.7967 Z-2.4644 F1200
G01 X2.4716 Y-22.6849 Z-2.4252 F1200
G01 X2.4280 Y-22.5606 Z-2.3846 F1200
G01 X2.4069 Y-22.4276 Z-2.3535 F1200
G01 X2.4095 Y-22.2898 Z-2.3402 F1200
G01 X2.4362 Y-22.1515 Z-2.3483 F1200
G01 X2.4868 Y-22.0169 Z-2.3756 F1200
G01 X2.5603 Y-21.8901 Z-2.4148 F1200
G01 X2.6550 Y-21.7749 Z-2.4554 F1200
G01 X2.7685 Y-21.6748 Z-2.4865 F1200
G01 X2.8979 Y-21.5928 Z-2.4998 F1200
G01 X3.0399 Y-21.5315 Z-2.4917 F1200
G01 X3.1906 Y-21.4928 Z-2.4644 F1200
G01 X3.3460 Y-21.4777 Z-2.4252 F1200
G01 X3.5019 Y-21.4868 Z-2.3846 F1200
G01 X3.6542 Y-21.5197 Z-2.3535 F1200
G01 X3.7987 Y-21.5755 Z-2.3402 F1200
G01 X3.9316 Y-21.6525 Z-2.3483 F1200
G01 X4.0494 Y-21.7483 Z-2.3756 F1200
G01 X4.1490 Y-21.8601 Z-2.4148 F1200
G01 X4.2279 Y-21.9844 Z-2.4554 F1200
G01 X4.2844 Y-22.1174 Z-2.4865 F1200
G01 X4.3171 Y-22.2552 Z-2.4998 F1200
G01 X4.3257 Y-22.3935 Z-2.4917 F1200
G01 X4.3104 Y-22.5281 Z-2.4644 F1200
G01 X4.2723 Y-22.6549 Z-2.4252 F1200
G01 X4.2130 Y-22.7701 Z-2.3846 F1200
G01 X4.1348 Y-22.8702 Z-2.3535 F1200
G01 X4.0407 Y-22.9522 Z-2.3402 F1200
G01 X3.9341 Y-23.0135 Z-2.3483 F1200
G01 X3.8187 Y-23.0522 Z-2.3756 F1200
G01 X3.6986 Y-23.0673 Z-2.4148 F1200
G01 X3.5780 Y-23.0582 Z-2.4554 F1200
G01 X3.4611 Y-23.0253 Z-2.4865 F1200
G01 X3.3519 Y-22.9695 Z-2.4998 F1200
G01 X3.2543 Y-22.8925 Z-2.4917 F1200
G01 X3.1719 Y-22.7967 Z-2.4644 F1200
G01 X3.1076 Y-22.6849 Z-2.4252 F1200
G01 X3.0640 Y-22.5606 Z-2.3846 F1200
G01 X3.0429 Y-22.4276 Z-2.3535 F1200
G01 X3.0455 Y-22.2898 Z-2.3402 F1200
G01 X3.0722 Y-22.1515 Z-2.3483 F1200
G01 X3.1228 Y-22.0169 Z-2.3756 F1200
G01 X3.1963 Y-21.8901 Z-2.4148 F1200
G01 X3.2910 Y-21.7749 Z-2.4554 F1200
G01 X3.4045 Y-21.6748 Z-2.4865 F1200
G01 X3.5339 Y-21.5928 Z-2.4998 F1200
G01 X3.6759 Y-21.5315 Z-2.4917 F1200
G01 X3.8266 Y-21.4928 Z-2.4644 F1200
G01 X3.9820 Y-21.4777 Z-2.4252 F1200
G01 X4.1379 Y-21.4868 Z-2.3846 F1200
G01 X4.2902 Y-21.5197 Z-2.3535 F1200
G01 X4.4347 Y-21.5755 Z-2.3402 F1200
G01 X4.5676 Y-21.6525 Z-2.3483 F1200
G01 X4.6854 Y-21.7483 Z-2.3756 F1200
G01 X4.7850 Y-21.8601 Z-2.4148 F1200
G01 X4.8639 Y-21.9844 Z-2.4554 F1200
G01 X4.9204 Y-22.1174 Z-2.4865 F1200
G01 X4.9531 Y-22.2552 Z-2.4998 F1200
G01 X4.9617 Y-22.3935 Z-2.4917 F1200
G01 X4.9464 Y-22.5281 Z-2.4644 F1200
G01 X4.9083 Y-22.6549 Z-2.4252 F1200
G01 X4.8490 Y-22.7701 Z-2.3846 F1200
G01 X4.7708 Y-22.8702 Z-2.3535 F1200
G01 X4.6767 Y-22.9522 Z-2.3402 F1200
G01 X4.5701 Y-23.0135 Z-2.3483 F1200
G01 X4.4547 Y-23.0522 Z-2.3756 F1200
G01 X4.3346 Y-23.0673 Z-2.4148 F1200
G01 X4.2140 Y-23.0582 Z-2.4554 F1200
G01 X4.0971 Y-23.0253 Z-2.4865 F1200
G01 X3.9879 Y-22.9695 Z-2.4998 F1200
G01 X3.8903 Y-22.8925 Z-2.4917 F1200
G01 X3.8079 Y-22.7967 Z-2.4644 F1200
G01 X3.7436 Y-22.6849 Z-2.4252 F1200
G01 X3.7000 Y-22.5606 Z-2.3846 F1200
G01 X3.6789 Y-22.4276 Z-2.3535 F1200
G01 X3.6815 Y-22.2898 Z-2.3402 F1200
G01 X3.7082 Y-22.1515 Z-2.3483 F1200
G01 X3.7588 Y-22.0169 Z-2.3756 F1200
G01 X3.8323 Y-21.8901 Z-2.4148 F1200
G01 X3.9270 Y-21.7749 Z-2.4554 F1200
G01 X4.0405 Y-21.6748 Z-2.4865 F1200
G01 X4.1699 Y-21.5928 Z-2.4998 F1200
G01 X4.3119 Y-21.5315 Z-2.4917 F1200
G01 X4.4626 Y-21.4928 Z-2.4644 F1200
G01 X4.6180 Y-21.4777 Z-2.4252 F1200
G01 X4.7739 Y-21.4868 Z-2.3846 F1200
G01 X4.9262 Y-21.5197 Z-2.3535 F1200
G01 X5.0707 Y-21.5755 Z-2.3402 F1200
G01 X5.2036 Y-21.6525 Z-2.3483 F1200
G01 X5.3214 Y-21.7483 Z-2.3756 F1200
G01 X5.4210 Y-21.8601 Z-2.4148 F1200
G01 X5.4999 Y-21.9844 Z-2.4554 F1200
G01 X5.5564 Y-22.1174 Z-2.4865 F1200
G01 X5.5891 Y-22.2552 Z-2.4998 F1200
G01 X5.5977 Y-22.3935 Z-2.4917 F1200
G01 X5.5824 Y-22.5281 Z-2.4644 F1200
G01 X5.5443 Y-22.6549 Z-2.4252 F1200
G01 X5.4850 Y-22.7701 Z-2.3846 F1200
G01 X5.4068 Y-22.8702 Z-2.3535 F1200
G01 X5.3127 Y-22.9522 Z-2.3402 F1200
G01 X5.2061 Y-23.0135 Z-2.3483 F1200
G01 X5.0907 Y-23.0522 Z-2.3756 F1200
G01 X4.9706 Y-23.0673 Z-2.4148 F1200
G01 X4.8500 Y-23.0582 Z-2.4554 F1200
G01 X4.7331 Y-23.0253 Z-2.4865 F1200
G01 X4.6239 Y-22.9695 Z-2.4998 F1200
G01 X4.5263 Y-22.8925 Z-2.4917 F1200
G01 X4.4439 Y-22.7967 Z-2.4644 F1200
G01 X4.3796 Y-22.6849 Z-2.4252 F1200
G01 X4.3360 Y-22.5606 Z-2.3846 F1200
G01 X4.3149 Y-22.4276 Z-2.3535 F1200
G01 X4.3175 Y-22.2898 Z-2.3402 F1200
G01 X4.3442 Y-22.1515 Z-2.3483 F1200
G01 X4.3948 Y-22.0169 Z-2.3756 F1200
G01 X4.4683 Y-21.8901 Z-2.4148 F1200
G01 X4.5630 Y-21.7749 Z-2.4554 F1200
G01 X4.6765 Y-21.6748 Z-2.4865 F1200
G01 X4.8059 Y-21.5928 Z-2.4998 F1200
G01 X4.9479 Y-21.5315 Z-2.4917 F1200
G01 X5.0986 Y-21.4928 Z-2.4644 F1200
G01 X5.2540 Y-21.4777 Z-2.4252 F1200
G01 X5.4099 Y-21.4868 Z-2.3846 F1200
G01 X5.5622 Y-21.5197 Z-2.3535 F1200
G01 X5.7067 Y-21.5755 Z-2.3402 F1200
G01 X5.8396 Y-21.6525 Z-2.3483 F1200
G01 X5.9574 Y-21.7483 Z-2.3756 F1200
G01 X6.0570 Y-21.8601 Z-2.4148 F1200
G01 X6.1359 Y-21.9844 Z-2.4554 F1200
G01 X6.1924 Y-22.1174 Z-2.4865 F1200
G01 X6.2251 Y-22.2552 Z-2.4998 F1200
G01 X6.2337 Y-22.3935 Z-2.4917 F1200
G01 X6.2184 Y-22.5281 Z-2.4644 F1200
G01 X6.1803 Y-22.6549 Z-2.4252 F1200
G01 X6.1210 Y-22.7701 Z-2.3846 F1200
G01 X6.0428 Y-22.8702 Z-2.3535 F1200
G01 X5.9487 Y-22.9522 Z-2.3402 F1200
G01 X5.8421 Y-23.0135 Z-2.3483 F1200
G01 X5.7267 Y-23.0522 Z-2.3756 F1200
G01 X5.6066 Y-23.0673 Z-2.4148 F1200
G01 X5.4860 Y-23.0582 Z-2.4554 F1200
G01 X5.3691 Y-23.0253 Z-2.4865 F1200
G01 X5.2599 Y-22.9695 Z-2.4998 F1200
G01 X5.1623 Y-22.8925 Z-2.4917 F1200
G01 X5.0799 Y-22.7967 Z-2.4644 F1200
G01 X5.0156 Y-22.6849 Z-2.4252 F1200
G01 X4.9720 Y-22.5606 Z-2.3846 F1200
G01 X4.9509 Y-22.4276 Z-2.3535 F1200
G01 X4.9535 Y-22.2898 Z-2.3402 F1200
G01 X4.9802 Y-22.1515 Z-2.3483 F1200
G01 X5.0308 Y-22.0169 Z-2.3756 F1200
G01 X5.1043 Y-21.8901 Z-2.4148 F1200
G01 X5.1990 Y-21.7749 Z-2.4554 F1200
G01 X5.3125 Y-21.6748 Z-2.4865 F1200
G01 X5.4419 Y-21.5928 Z-2.4998 F1200
G01 X5.5839 Y-21.5315 Z-2.4917 F1200
G01 X5.7346 Y-21.4928 Z-2.4644 F1200
G01 X5.8900 Y-21.4777 Z-2.4252 F1200
G01 X6.0459 Y-21.4868 Z-2.3846 F1200
G01 X6.1982 Y-21.5197 Z-2.3535 F1200
G01 X6.3427 Y-21.5755 Z-2.3402 F1200
G01 X6.4756 Y-21.6525 Z-2.3483 F1200
G01 X6.5934 Y-21.7483 Z-2.3756 F1200
G01 X6.6930 Y-21.8601 Z-2.4148 F1200
G01 X6.7719 Y-21.9844 Z-2.4554 F1200
G01 X6.8284 Y-22.1174 Z-2.4865 F1200
G01 X6.8611 Y-22.2552 Z-2.4998 F1200
G01 X6.8697 Y-22.3935 Z-2.4917 F1200
G01 X6.8544 Y-22.5281 Z-2.4644 F1200
G01 X6.8163 Y-22.6549 Z-2.4252 F1200
G01 X6.7570 Y-22.7701 Z-2.3846 F1200
G01 X6.6788 Y-22.8702 Z-2.3535 F1200
G01 X6.5847 Y-22.9522 Z-2.3402 F1200
G01 X6.4781 Y-23.0135 Z-2.3483 F1200
G01 X6.3627 Y-23.0522 Z-2.3756 F1200
G01 X6.2426 Y-23.0673 Z-2.4148 F1200
G01 X6.1220 Y-23.0582 Z-2.4554 F1200
G01 X6.0051 Y-23.0253 Z-2.4865 F1200
G01 X5.8959 Y-22.9695 Z-2.4998 F1200
G01 X5.7983 Y-22.8925 Z-2.4917 F1200
G01 X5.7159 Y-22.7967 Z-2.4644 F1200
G01 X5.6516 Y-22.6849 Z-2.4252 F1200
G01 X5.6080 Y-22.5606 Z-2.3846 F1200
G01 X5.5869 Y-22.4276 Z-2.3535 F1200
G01 X5.5895 Y-22.2898 Z-2.3402 F1200
G01 X5.6162 Y-22.1515 Z-2.3483 F1200
G01 X5.6668 Y-22.0169 Z-2.3756 F1200
G01 X5.7403 Y-21.8901 Z-2.4148 F1200
G01 X5.8350 Y-21.7749 Z-2.4554 F1200
G01 X5.9485 Y-21.6748 Z-2.4865 F1200
G01 X6.0779 Y-21.5928 Z-2.4998 F1200
G01 X6.2199 Y-21.5315 Z-2.4917 F1200
G01 X6.3706 Y-21.4928 Z-2.4644 F1200
G01 X6.5260 Y-21.4777 Z-2.4252 F1200
G01 X6.6819 Y-21.4868 Z-2.3846 F1200
G01 X6.8342 Y-21.5197 Z-2.3535 F1200
G01 X6.9787 Y-21.5755 Z-2.3402 F1200
G01 X7.1116 Y-21.6525 Z-2.3483 F1200
G01 X7.2294 Y-21.7483 Z-2.3756 F1200
G01 X7.3290 Y-21.8601 Z-2.4148 F1200
G01 X7.4079 Y-21.9844 Z-2.4554 F1200
G01 X7.4644 Y-22.1174 Z-2.4865 F1200
G01 X7.4971 Y-22.2552 Z-2.4998 F1200
G01 X7.5057 Y-22.3935 Z-2.4917 F1200
G01 X7.4904 Y-22.5281 Z-2.4644 F1200
G01 X7.4523 Y-22.6549 Z-2.4252 F1200
G01 X7.3930 Y-22.7701 Z-2.3846 F1200
G01 X7.3148 Y-22.8702 Z-2.3535 F1200
G01 X7.2207 Y-22.9522 Z-2.3402 F1200
G01 X7.1141 Y-23.0135 Z-2.3483 F1200
G01 X6.9987 Y-23.0522 Z-2.3756 F1200
G01 X6.8786 Y-23.0673 Z-2.4148 F1200
G01 X6.7580 Y-23.0582 Z-2.4554 F1200
G01 X6.6411 Y-23.0253 Z-2.4865 F1200
G01 X6.5319 Y-22.9695 Z-2.4998 F1200
G01 X6.4343 Y-22.8925 Z-2.4917 F1200
G01 X6.3519 Y-22.7967 Z-2.4644 F1200
G01 X6.2876 Y-22.6849 Z-2.4252 F1200
G01 X6.2440 Y-22.5606 Z-2.3846 F1200
G01 X6.2229 Y-22.4276 Z-2.3535 F1200
G01 X6.2255 Y-22.2898 Z-2.3402 F1200
G01 X6.2522 Y-22.1515 Z-2.3483 F1200
G01 X6.3028 Y-22.0169 Z-2.3756 F1200
G01 X6.3763 Y-21.8901 Z-2.4148 F1200
G01 X6.4710 Y-21.7749 Z-2.4554 F1200
G01 X6.5845 Y-21.6748 Z-2.4865 F1200
G01 X6.7139 Y-21.5928 Z-2.4998 F1200
G01 X6.8559 Y-21.5315 Z-2.4917 F1200
G01 X7.0066 Y-21.4928 Z-2.4644 F1200
G01 X7.1620 Y-21.4777 Z-2.4252 F1200
G01 X7.3179 Y-21.4868 Z-2.3846 F1200
G01 X7.4702 Y-21.5197 Z-2.3535 F1200
G01 X7.6147 Y-21.5755 Z-2.3402 F1200
G01 X7.7476 Y-21.6525 Z-2.3483 F1200
G01 X7.8654 Y-21.7483 Z-2.3756 F1200
G01 X7.9650 Y-21.8601 Z-2.4148 F1200
G01 X8.0439 Y-21.9844 Z-2.4554 F1200
G01 X8.1004 Y-22.1174 Z-2.4865 F1200
G01 X8.1331 Y-22.2552 Z-2.4998 F1200
G01 X8.1417 Y-22.3935 Z-2.4917 F1200
G01 X8.1264 Y-22.5281 Z-2.4644 F1200
G01 X8.0883 Y-22.6549 Z-2.4252 F1200
G01 X8.0290 Y-22.7701 Z-2.3846 F1200
G01 X7.9508 Y-22.8702 Z-2.3535 F1200
G01 X7.8567 Y-22.9522 Z-2.3402 F1200
G01 X7.7501 Y-23.0135 Z-2.3483 F1200
G01 X7.6347 Y-23.0522 Z-2.3756 F1200
G01 X7.5146 Y-23.0673 Z-2.4148 F1200
G01 X7.3940 Y-23.0582 Z-2.4554 F1200
G01 X7.2771 Y-23.0253 Z-2.4865 F1200
G01 X7.1679 Y-22.9695 Z-2.4998 F1200
G01 X7.0703 Y-22.8925 Z-2.4917 F1200
G01 X6.9879 Y-22.7967 Z-2.4644 F1200
G01 X6.9236 Y-22.6849 Z-2.4252 F1200
G01 X6.8800 Y-22.5606 Z-2.3846 F1200
G01 X6.8589 Y-22.4276 Z-2.3535 F1200
G01 X6.8615 Y-22.2898 Z-2.3402 F1200
G01 X6.8882 Y-22.1515 Z-2.3483 F1200
G01 X6.9388 Y-22.0169 Z-2.3756 F1200
G01 X7.0123 Y-21.8901 Z-2.4148 F1200
G01 X7.1070 Y-21.7749 Z-2.4554 F1200
G01 X7.2205 Y-21.6748 Z-2.4865 F1200
G01 X7.3499 Y-21.5928 Z-2.4998 F1200
G01 X7.4919 Y-21.5315 Z-2.4917 F1200
G01 X7.6426 Y-21.4928 Z-2.4644 F1200
G01 X7.7980 Y-21.4777 Z-2.4252 F1200
G01 X7.9539 Y-21.4868 Z-2.3846 F1200
G01 X8.1062 Y-21.5197 Z-2.3535 F1200
G01 X8.2507 Y-21.5755 Z-2.3402 F1200
G01 X8.3836 Y-21.6525 Z-2.3483 F1200
G01 X8.5014 Y-21.7483 Z-2.3756 F1200
G01 X8.6010 Y-21.8601 Z-2.4148 F1200
G01 X8.6799 Y-21.9844 Z-2.4554 F1200
G01 X8.7364 Y-22.1174 Z-2.4865 F1200
G01 X8.7691 Y-22.2552 Z-2.4998 F1200
G01 X8.7777 Y-22.3935 Z-2.4917 F1200
G01 X8.7624 Y-22.5281 Z-2.4644 F1200
G01 X8.7243 Y-22.6549 Z-2.4252 F1200
G01 X8.6650 Y-22.7701 Z-2.3846 F1200
G01 X8.5868 Y-22.8702 Z-2.3535 F1200
G01 X8.4927 Y-22.9522 Z-2.3402 F1200
G01 X8.3861 Y-23.0135 Z-2.3483 F1200
G01 X8.2707 Y-23.0522 Z-2.3756 F1200
G01 X8.1506 Y-23.0673 Z-2.4148 F1200
G01 X8.0300 Y-23.0582 Z-2.4554 F1200
G01 X7.9131 Y-23.0253 Z-2.4865 F1200
G01 X7.8039 Y-22.9695 Z-2.4998 F1200
G01 X7.7063 Y-22.8925 Z-2.4917 F1200
G01 X7.6239 Y-22.7967 Z-2.4644 F1200
G01 X7.5596 Y-22.6849 Z-2.4252 F1200
G01 X7.5160 Y-22.5606 Z-2.3846 F1200
G01 X7.4949 Y-22.4276 Z-2.3535 F1200
G01 X7.4975 Y-22.2898 Z-2.3402 F1200
G01 X7.5242 Y-22.1515 Z-2.3483 F1200
G01 X7.5748 Y-22.0169 Z-2.3756 F1200
G01 X7.6483 Y-21.8901 Z-2.4148 F1200
G01 X7.7430 Y-21.7749 Z-2.4554 F1200
G01 X7.8565 Y-21.6748 Z-2.4865 F1200
G01 X7.9859 Y-21.5928 Z-2.4998 F1200
G01 X8.1279 Y-21.5315 Z-2.4917 F1200
G01 X8.2786 Y-21.4928 Z-2.4644 F1200
G01 X8.4340 Y-21.4777 Z-2.4252 F1200
G01 X8.5899 Y-21.4868 Z-2.3846 F1200
G01 X8.7422 Y-21.5197 Z-2.3535 F1200
G01 X8.8867 Y-21.5755 Z-2.3402 F1200
G01 X9.0196 Y-21.6525 Z-2.3483 F1200
G01 X9.1374 Y-21.7483 Z-2.3756 F1200
G01 X9.2370 Y-21.8601 Z-2.4148 F1200
G01 X9.3159 Y-21.9844 Z-2.4554 F1200
G01 X9.3724 Y-22.1174 Z-2.4865 F1200
G01 X9.4051 Y-22.2552 Z-2.4998 F1200
G01 X9.4137 Y-22.3935 Z-2.4917 F1200
G01 X9.3984 Y-22.5281 Z-2.4644 F1200
G01 X9.3603 Y-22.6549 Z-2.4252 F1200
G01 X9.3010 Y-22.7701 Z-2.3846 F1200
G01 X9.2228 Y-22.8702 Z-2.3535 F1200
G01 X9.1287 Y-22.9522 Z-2.3402 F1200
G01 X9.0221 Y-23.0135 Z-2.3483 F1200
G01 X8.9067 Y-23.0522 Z-2.3756 F1200
G01 X8.7866 Y-23.0673 Z-2.4148 F1200
G01 X8.6660 Y-23.0582 Z-2.4554 F1200
G01 X8.5491 Y-23.0253 Z-2.4865 F1200
G01 X8.4399 Y-22.9695 Z-2.4998 F1200
G01 X8.3423 Y-22.8925 Z-2.4917 F1200
G01 X8.2599 Y-22.7967 Z-2.4644 F1200
G01 X8.1956 Y-22.6849 Z-2.4252 F1200
G01 X8.1520 Y-22.5606 Z-2.3846 F1200
G01 X8.1309 Y-22.4276 Z-2.3535 F1200
G01 X8.1335 Y-22.2898 Z-2.3402 F1200
G01 X8.1602 Y-22.1515 Z-2.3483 F1200
G01 X8.2108 Y-22.0169 Z-2.3756 F1200
G01 X8.2843 Y-21.8901 Z-2.4148 F1200
G01 X8.3790 Y-21.7749 Z-2.4554 F1200
G01 X8.4925 Y-21.6748 Z-2.4865 F1200
G01 X8.6219 Y-21.5928 Z-2.4998 F1200
G01 X8.7639 Y-21.5315 Z-2.4917 F1200
G01 X8.9146 Y-21.4928 Z-2.4644 F1200
G01 X9.0700 Y-21.4777 Z-2.4252 F1200
G01 X9.2259 Y-21.4868 Z-2.3846 F1200
G01 X9.3782 Y-21.5197 Z-2.3535 F1200
G01 X9.5227 Y-21.5755 Z-2.3402 F1200
G01 X9.6556 Y-21.6525 Z-2.3483 F1200
G01 X9.7734 Y-21.7483 Z-2.3756 F1200
G01 X9.8730 Y-21.8601 Z-2.4148 F1200
G01 X9.9519 Y-21.9844 Z-2.4554 F1200
G01 X10.0084 Y-22.1174 Z-2.4865 F1200
G01 X10.0411 Y-22.2552 Z-2.4998 F1200
G01 X10.0497 Y-22.3935 Z-2.4917 F1200
G01 X10.0344 Y-22.5281 Z-2.4644 F1200
G01 X9.9963 Y-22.6549 Z-2.4252 F1200
G01 X9.9370 Y-22.7701 Z-2.3846 F1200
G01 X9.8588 Y-22.8702 Z-2.3535 F1200
G01 X9.7647 Y-22.9522 Z-2.3402 F1200
G01 X9.6581 Y-23.0135 Z-2.3483 F1200
G01 X9.5427 Y-23.0522 Z-2.3756 F1200
G01 X9.4226 Y-23.0673 Z-2.4148 F1200
G01 X9.3020 Y-23.0582 Z-2.4554 F1200
G01 X9.1851 Y-23.0253 Z-2.4865 F1200
G01 X9.0759 Y-22.9695 Z-2.4998 F1200
G01 X8.9783 Y-22.8925 Z-2.4917 F1200
G01 X8.8959 Y-22.7967 Z-2.4644 F1200
G01 X8.8316 Y-22.6849 Z-2.4252 F1200
G01 X8.7880 Y-22.5606 Z-2.3846 F1200
G01 X8.7669 Y-22.4276 Z-2.3535 F1200
G01 X8.7695 Y-22.2898 Z-2.3402 F1200
G01 X8.7962 Y-22.1515 Z-2.3483 F1200
G01 X8.8468 Y-22.0169 Z-2.3756 F1200
G01 X8.9203 Y-21.8901 Z-2.4148 F1200
G01 X9.0150 Y-21.7749 Z-2.4554 F1200
G01 X9.1285 Y-21.6748 Z-2.4865 F1200
G01 X9.2579 Y-21.5928 Z-2.4998 F1200
G01 X9.3999 Y-21.5315 Z-2.4917 F1200
G01 X9.5506 Y-21.4928 Z-2.4644 F1200
G01 X9.7060 Y-21.4777 Z-2.4252 F1200
G01 X9.8619 Y-21.4868 Z-2.3846 F1200
G01 X10.0142 Y-21.5197 Z-2.3535 F1200
G01 X10.1587 Y-21.5755 Z-2.3402 F1200
G01 X10.2916 Y-21.6525 Z-2.3483 F1200
G01 X10.4094 Y-21.7483 Z-2.3756 F1200
G01 X10.5090 Y-21.8601 Z-2.4148 F1200
G01 X10.5879 Y-21.9844 Z-2.4554 F1200
G01 X10.6444 Y-22.1174 Z-2.4865 F1200
G01 X10.6771 Y-22.2552 Z-2.4998 F1200
G01 X10.6857 Y-22.3935 Z-2.4917 F1200
G01 X10.6704 Y-22.5281 Z-2.4644 F1200
G01 X10.6323 Y-22.6549 Z-2.4252 F1200
G01 X10.5730 Y-22.7701 Z-2.3846 F1200
G01 X10.4948 Y-22.8702 Z-2.3535 F1200
G01 X10.4007 Y-22.9522 Z-2.3402 F1200
G01 X10.2941 Y-23.0135 Z-2.3483 F1200
G01 X10.1787 Y-23.0522 Z-2.3756 F1200
G01 X10.0586 Y-23.0673 Z-2.4148 F1200
G01 X9.9380 Y-23.0582 Z-2.4554 F1200
G01 X9.8211 Y-23.0253 Z-2.4865 F1200
G01 X9.7119 Y-22.9695 Z-2.4998 F1200
G01 X9.6143 Y-22.8925 Z-2.4917 F1200
G01 X9.5319 Y-22.7967 Z-2.4644 F1200
G01 X9.4676 Y-22.6849 Z-2.4252 F1200
G01 X9.4240 Y-22.5606 Z-2.3846 F1200
G01 X9.4029 Y-22.4276 Z-2.3535 F1200
G01 X9.4055 Y-22.2898 Z-2.3402 F1200
G01 X9.4322 Y-22.1515 Z-2.3483 F1200
G01 X9.4828 Y-22.0169 Z-2.3756 F1200
G01 X9.5563 Y-21.8901 Z-2.4148 F1200
G01 X9.6510 Y-21.7749 Z-2.4554 F1200
G01 X9.7645 Y-21.6748 Z-2.4865 F1200
G01 X9.8939 Y-21.5928 Z-2.4998 F1200
G01 X10.0359 Y-21.5315 Z-2.4917 F1200
G01 X10.1866 Y-21.4928 Z-2.4644 F1200
G01 X10.3420 Y-21.4777 Z-2.4252 F1200
G01 X10.4979 Y-21.4868 Z-2.3846 F1200
G01 X10.6502 Y-21.5197 Z-2.3535 F1200
G01 X10.7947 Y-21.5755 Z-2.3402 F1200
G01 X10.9276 Y-21.6525 Z-2.3483 F1200
G01 X11.0454 Y-21.7483 Z-2.3756 F1200
G01 X11.1450 Y-21.8601 Z-2.4148 F1200
G01 X11.2239 Y-21.9844 Z-2.4554 F1200
G01 X11.2804 Y-22.1174 Z-2.4865 F1200
G01 X11.3131 Y-22.2552 Z-2.4998 F1200
G01 X11.3217 Y-22.3935 Z-2.4917 F1200
G01 X11.3064 Y-22.5281 Z-2.4644 F1200
G01 X11.2683 Y-22.6549 Z-2.4252 F1200
G01 X11.2090 Y-22.7701 Z-2.3846 F1200
G01 X11.1308 Y-22.8702 Z-2.3535 F1200
G01 X11.0367 Y-22.9522 Z-2.3402 F1200
G01 X10.9301 Y-23.0135 Z-2.3483 F1200
G01 X10.8147 Y-23.0522 Z-2.3756 F1200
G01 X10.6946 Y-23.0673 Z-2.4148 F1200
G01 X10.5740 Y-23.0582 Z-2.4554 F1200
G01 X10.4571 Y-23.0253 Z-2.4865 F1200
G01 X10.3479 Y-22.9695 Z-2.4998 F1200
G01 X10.2503 Y-22.8925 Z-2.4917 F1200
G01 X10.1679 Y-22.7967 Z-2.4644 F1200
G01 X10.1036 Y-22.6849 Z-2.4252 F1200
G01 X10.0600 Y-22.5606 Z-2.3846 F1200
G01 X10.0389 Y-22.4276 Z-2.3535 F1200
G01 X10.0415 Y-22.2898 Z-2.3402 F1200
G01 X10.0682 Y-22.1515 Z-2.3483 F1200
G01 X10.1188 Y-22.0169 Z-2.3756 F1200
G01 X10.1923 Y-21.8901 Z-2.4148 F1200
G01 X10.2870 Y-21.7749 Z-2.4554 F1200
G01 X10.4005 Y-21.6748 Z-2.4865 F1200
G01 X10.5299 Y-21.5928 Z-2.4998 F1200
G01 X10.6719 Y-21.5315 Z-2.4917 F1200
G01 X10.8226 Y-21.4928 Z-2.4644 F1200
G01 X10.9780 Y-21.4777 Z-2.4252 F1200
G01 X11.1339 Y-21.4868 Z-2.3846 F1200
G01 X11.2862 Y-21.5197 Z-2.3535 F1200
G01 X11.4307 Y-21.5755 Z-2.3402 F1200
G01 X11.5636 Y-21.6525 Z-2.3483 F1200
G01 X11.6814 Y-21.7483 Z-2.3756 F1200
G01 X11.7810 Y-21.8601 Z-2.4148 F1200
G01 X11.8599 Y-21.9844 Z-2.4554 F1200
G01 X11.9164 Y-22.1174 Z-2.4865 F1200
G01 X11.9491 Y-22.2552 Z-2.4998 F1200
G01 X11.9577 Y-22.3935 Z-2.4917 F1200
G01 X11.9424 Y-22.5281 Z-2.4644 F1200
G01 X11.9043 Y-22.6549 Z-2.4252 F1200
G01 X11.8450 Y-22.7701 Z-2.3846 F1200
G01 X11.7668 Y-22.8702 Z-2.3535 F1200
G01 X11.6727 Y-22.9522 Z-2.3402 F1200
G01 X11.5661 Y-23.0135 Z-2.3483 F1200
G01 X11.4507 Y-23.0522 Z-2.3756 F1200
G01 X11.3306 Y-23.0673 Z-2.4148 F1200
G01 X11.2100 Y-23.0582 Z-2.4554 F1200
G01 X11.0931 Y-23.0253 Z-2.4865 F1200
G01 X10.9839 Y-22.9695 Z-2.4998 F1200
G01 X10.8863 Y-22.8925 Z-2.4917 F1200
G01 X10.8039 Y-22.7967 Z-2.4644 F1200
G01 X10.7396 Y-22.6849 Z-2.4252 F1200
G01 X10.6960 Y-22.5606 Z-2.3846 F1200
G01 X10.6749 Y-22.4276 Z-2.3535 F1200
G01 X10.6775 Y-22.2898 Z-2.3402 F1200
G01 X10.7042 Y-22.1515 Z-2.3483 F1200
G01 X10.7548 Y-22.0169 Z-2.3756 F1200
G01 X10.8283 Y-21.8901 Z-2.4148 F1200
G01 X10.9230 Y-21.7749 Z-2.4554 F1200
G01 X11.0365 Y-21.6748 Z-2.4865 F1200
G01 X11.1659 Y-21.5928 Z-2.4998 F1200
G01 X11.3079 Y-21.5315 Z-2.4917 F1200
G01 X11.4586 Y-21.4928 Z-2.4644 F1200
G01 X11.6140 Y-21.4777 Z-2.4252 F1200
G01 X11.7699 Y-21.4868 Z-2.3846 F1200
G01 X11.9222 Y-21.5197 Z-2.3535 F1200
G01 X12.0667 Y-21.5755 Z-2.3402 F1200
G01 X12.1996 Y-21.6525 Z-2.3483 F1200
G01 X12.3174 Y-21.7483 Z-2.3756 F1200
G01 X12.4170 Y-21.8601 Z-2.4148 F1200
G01 X12.4959 Y-21.9844 Z-2.4554 F1200
G01 X12.5524 Y-22.1174 Z-2.4865 F1200
G01 X12.5851 Y-22.2552 Z-2.4998 F1200
G01 X12.5937 Y-22.3935 Z-2.4917 F1200
G01 X12.5784 Y-22.5281 Z-2.4644 F1200
G01 X12.5403 Y-22.6549 Z-2.4252 F1200
G01 X12.4810 Y-22.7701 Z-2.3846 F1200
G01 X12.4028 Y-22.8702 Z-2.3535 F1200
G01 X12.3087 Y-22.9522 Z-2.3402 F1200
G01 X12.2021 Y-23.0135 Z-2.3483 F1200
G01 X12.0867 Y-23.0522 Z-2.3756 F1200
G01 X11.9666 Y-23.0673 Z-2.4148 F1200
G01 X11.8460 Y-23.0582 Z-2.4554 F1200
G01 X11.7291 Y-23.0253 Z-2.4865 F1200
G01 X11.6199 Y-22.9695 Z-2.4998 F1200
G01 X11.5223 Y-22.8925 Z-2.4917 F1200
G01 X11.4399 Y-22.7967 Z-2.4644 F1200
G01 X11.3756 Y-22.6849 Z-2.4252 F1200
G01 X11.3320 Y-22.5606 Z-2.3846 F1200
G01 X11.3109 Y-22.4276 Z-2.3535 F1200
G01 X11.3135 Y-22.2898 Z-2.3402 F1200
G01 X11.3402 Y-22.1515 Z-2.3483 F1200
G01 X11.3908 Y-22.0169 Z-2.3756 F1200
G01 X11.4643 Y-21.8901 Z-2.4148 F1200
G01 X11.5590 Y-21.7749 Z-2.4554 F1200
G01 X11.6725 Y-21.6748 Z-2.4865 F1200
G01 X11.8019 Y-21.5928 Z-2.4998 F1200
G01 X11.9439 Y-21.5315 Z-2.4917 F1200
G01 X12.0946 Y-21.4928 Z-2.4644 F1200
G01 X12.2500 Y-21.4777 Z-2.4252 F1200
G01 X12.4059 Y-21.4868 Z-2.3846 F1200
G01 X12.5582 Y-21.5197 Z-2.3535 F1200
G01 X12.7027 Y-21.5755 Z-2.3402 F1200
G01 X12.8356 Y-21.6525 Z-2.3483 F1200
G01 X12.9534 Y-21.7483 Z-2.3756 F1200
G01 X13.0530 Y-21.8601 Z-2.4148 F1200
G01 X13.1319 Y-21.9844 Z-2.4554 F1200
G01 X13.1884 Y-22.1174 Z-2.4865 F1200
G01 X13.2211 Y-22.2552 Z-2.4998 F1200
G01 X13.2297 Y-22.3935 Z-2.4917 F1200
G01 X13.2144 Y-22.5281 Z-2.4644 F1200
G01 X13.1763 Y-22.6549 Z-2.4252 F1200
G01 X13.1170 Y-22.7701 Z-2.3846 F1200
G01 X13.0388 Y-22.8702 Z-2.3535 F1200
G01 X12.9447 Y-22.9522 Z-2.3402 F1200
G01 X12.8381 Y-23.0135 Z-2.3483 F1200
G01 X12.7227 Y-23.0522 Z-2.3756 F1200
G01 X12.6026 Y-23.0673 Z-2.4148 F1200
G01 X12.4820 Y-23.0582 Z-2.4554 F1200
G01 X12.3651 Y-23.0253 Z-2.4865 F1200
G01 X12.2559 Y-22.9695 Z-2.4998 F1200
G01 X12.1583 Y-22.8925 Z-2.4917 F1200
G01 X12.0759 Y-22.7967 Z-2.4644 F1200
G01 X12.0116 Y-22.6849 Z-2.4252 F1200
G01 X11.9680 Y-22.5606 Z-2.3846 F1200
G01 X11.9469 Y-22.4276 Z-2.3535 F1200
G01 X11.9495 Y-22.2898 Z-2.3402 F1200
G01 X11.9762 Y-22.1515 Z-2.3483 F1200
G01 X12.0268 Y-22.0169 Z-2.3756 F1200
G01 X12.1003 Y-21.8901 Z-2.4148 F1200
G01 X12.1950 Y-21.7749 Z-2.4554 F1200
G01 X12.3085 Y-21.6748 Z-2.4865 F1200
G01 X12.4379 Y-21.5928 Z-2.4998 F1200
G01 X12.5799 Y-21.5315 Z-2.4917 F1200
G01 X12.7306 Y-21.4928 Z-2.4644 F1200
G01 X12.8860 Y-21.4777 Z-2.4252 F1200
G01 X13.0419 Y-21.4868 Z-2.3846 F1200
G01 X13.1942 Y-21.5197 Z-2.3535 F1200
G01 X13.3387 Y-21.5755 Z-2.3402 F1200
G01 X13.4716 Y-21.6525 Z-2.3483 F1200
G01 X13.5894 Y-21.7483 Z-2.3756 F1200
G01 X13.6890 Y-21.8601 Z-2.4148 F1200
G01 X13.7679 Y-21.9844 Z-2.4554 F1200
G01 X13.8244 Y-22.1174 Z-2.4865 F1200
G01 X13.8571 Y-22.2552 Z-2.4998 F1200
G01 X13.8657 Y-22.3935 Z-2.4917 F1200
G01 X13.8504 Y-22.5281 Z-2.4644 F1200
G01 X13.8123 Y-22.6549 Z-2.4252 F1200
G01 X13.7530 Y-22.7701 Z-2.3846 F1200
G01 X13.6748 Y-22.8702 Z-2.3535 F1200
G01 X13.5807 Y-22.9522 Z-2.3402 F1200
G01 X13.4741 Y-23.0135 Z-2.3483 F1200
G01 X13.3587 Y-23.0522 Z-2.3756 F1200
G01 X13.2386 Y-23.0673 Z-2.4148 F1200
G01 X13.1180 Y-23.0582 Z-2.4554 F1200
G01 X13.0011 Y-23.0253 Z-2.4865 F1200
G01 X12.8919 Y-22.9695 Z-2.4998 F1200
G01 X12.7943 Y-22.8925 Z-2.4917 F1200
G01 X12.7119 Y-22.7967 Z-2.4644 F1200
G01 X12.6476 Y-22.6849 Z-2.4252 F1200
G01 X12.6040 Y-22.5606 Z-2.3846 F1200
G01 X12.5829 Y-22.4276 Z-2.3535 F1200
G01 X12.5855 Y-22.2898 Z-2.3402 F1200
G01 X12.6122 Y-22.1515 Z-2.3483 F1200
G01 X12.6628 Y-22.0169 Z-2.3756 F1200
G01 X12.7363 Y-21.8901 Z-2.4148 F1200
G01 X12.8310 Y-21.7749 Z-2.4554 F1200
G01 X12.9445 Y-21.6748 Z-2.4865 F1200
G01 X13.0739 Y-21.5928 Z-2.4998 F1200
G01 X13.2159 Y-21.5315 Z-2.4917 F1200
G01 X13.3666 Y-21.4928 Z-2.4644 F1200
G01 X13.5220 Y-21.4777 Z-2.4252 F1200
G01 X13.6779 Y-21.4868 Z-2.3846 F1200
G01 X13.8302 Y-21.5197 Z-2.3535 F1200
G01 X13.9747 Y-21.5755 Z-2.3402 F1200
G01 X14.1076 Y-21.6525 Z-2.3483 F1200
G01 X14.2254 Y-21.7483 Z-2.3756 F1200
G01 X14.3250 Y-21.8601 Z-2.4148 F1200
G01 X14.4039 Y-21.9844 Z-2.4554 F1200
G01 X14.4604 Y-22.1174 Z-2.4865 F1200
G01 X14.4931 Y-22.2552 Z-2.4998 F1200
G01 X14.5017 Y-22.3935 Z-2.4917 F1200
G01 X14.4864 Y-22.5281 Z-2.4644 F1200
G01 X14.4483 Y-22.6549 Z-2.4252 F1200
G01 X14.3890 Y-22.7701 Z-2.3846 F1200
G01 X14.3108 Y-22.8702 Z-2.3535 F1200
G01 X14.2167 Y-22.9522 Z-2.3402 F1200
G01 X14.1101 Y-23.0135 Z-2.3483 F1200
G01 X13.9947 Y-23.0522 Z-2.3756 F1200
G01 X13.8746 Y-23.0673 Z-2.4148 F1200
G01 X13.7540 Y-23.0582 Z-2.4554 F1200
G01 X13.6371 Y-23.0253 Z-2.4865 F1200
G01 X13.5279 Y-22.9695 Z-2.4998 F1200
G01 X13.4303 Y-22.8925 Z-2.4917 F1200
G01 X13.3479 Y-22.7967 Z-2.4644 F1200
G01 X13.2836 Y-22.6849 Z-2.4252 F1200
G01 X13.2400 Y-22.5606 Z-2.3846 F1200
G01 X13.2189 Y-22.4276 Z-2.3535 F1200
G01 X13.2215 Y-22.2898 Z-2.3402 F1200
G01 X13.2482 Y-22.1515 Z-2.3483 F1200
G01 X13.2988 Y-22.0169 Z-2.3756 F1200
G01 X13.3723 Y-21.8901 Z-2.4148 F1200
G01 X13.4670 Y-21.7749 Z-2.4554 F1200
G01 X13.5805 Y-21.6748 Z-2.4865 F1200
G01 X13.7099 Y-21.5928 Z-2.4998 F1200
G01 X13.8519 Y-21.5315 Z-2.4917 F1200
G01 X14.0026 Y-21.4928 Z-2.4644 F1200
G01 X14.1580 Y-21.4777 Z-2.4252 F1200
G01 X14.3139 Y-21.4868 Z-2.3846 F1200
G01 X14.4662 Y-21.5197 Z-2.3535 F1200
G01 X14.6107 Y-21.5755 Z-2.3402 F1200
G01 X14.7436 Y-21.6525 Z-2.3483 F1200
G01 X14.8614 Y-21.7483 Z-2.3756 F1200
G01 X14.9610 Y-21.8601 Z-2.4148 F1200
G01 X15.0399 Y-21.9844 Z-2.4554 F1200
G01 X15.0964 Y-22.1174 Z-2.4865 F1200
G01 X15.1291 Y-22.2552 Z-2.4998 F1200
G01 X15.1377 Y-22.3935 Z-2.4917 F1200
G01 X15.1224 Y-22.5281 Z-2.4644 F1200
G01 X15.0843 Y-22.6549 Z-2.4252 F1200
G01 X15.0250 Y-22.7701 Z-2.3846 F1200
G01 X14.9468 Y-22.8702 Z-2.3535 F1200
G01 X14.8527 Y-22.9522 Z-2.3402 F1200
G01 X14.7461 Y-23.0135 Z-2.3483 F1200
G01 X14.6307 Y-23.0522 Z-2.3756 F1200
G01 X14.5106 Y-23.0673 Z-2.4148 F1200
G01 X14.3900 Y-23.0582 Z-2.4554 F1200
G01 X14.2731 Y-23.0253 Z-2.4865 F1200
G01 X14.1639 Y-22.9695 Z-2.4998 F1200
G01 X14.0663 Y-22.8925 Z-2.4917 F1200
G01 X13.9839 Y-22.7967 Z-2.4644 F1200
G01 X13.9196 Y-22.6849 Z-2.4252 F1200
G01 X13.8760 Y-22.5606 Z-2.3846 F1200
G01 X13.8549 Y-22.4276 Z-2.3535 F1200
G01 X13.8575 Y-22.2898 Z-2.3402 F1200
G01 X13.8842 Y-22.1515 Z-2.3483 F1200
G01 X13.9348 Y-22.0169 Z-2.3756 F1200
G01 X14.0083 Y-21.8901 Z-2.4148 F1200
G01 X14.1030 Y-21.7749 Z-2.4554 F1200
G01 X14.2165 Y-21.6748 Z-2.4865 F1200
G01 X14.3459 Y-21.5928 Z-2.4998 F1200
G01 X14.4879 Y-21.5315 Z-2.4917 F1200
G01 X14.6386 Y-21.4928 Z-2.4644 F1200
G01 X14.7940 Y-21.4777 Z-2.4252 F1200
G01 X14.9499 Y-21.4868 Z-2.3846 F1200
G01 X15.1022 Y-21.5197 Z-2.3535 F1200
G01 X15.2467 Y-21.5755 Z-2.3402 F1200
G01 X15.3796 Y-21.6525 Z-2.3483 F1200
G01 X15.4974 Y-21.7483 Z-2.3756 F1200
G01 X15.5970 Y-21.8601 Z-2.4148 F1200
G01 X15.6759 Y-21.9844 Z-2.4554 F1200
G01 X15.7324 Y-22.1174 Z-2.4865 F1200
G01 X15.7651 Y-22.2552 Z-2.4998 F1200
G01 X15.7737 Y-22.3935 Z-2.4917 F1200
G01 X15.7584 Y-22.5281 Z-2.4644 F1200
G01 X15.7203 Y-22.6549 Z-2.4252 F1200
G01 X15.6610 Y-22.7701 Z-2.3846 F1200
G01 X15.5828 Y-22.8702 Z-2.3535 F1200
G01 X15.4887 Y-22.9522 Z-2.3402 F1200
G01 X15.3821 Y-23.0135 Z-2.3483 F1200
G01 X15.2667 Y-23.0522 Z-2.3756 F1200
G01 X15.1466 Y-23.0673 Z-2.4148 F1200
G01 X15.0260 Y-23.0582 Z-2.4554 F1200
G01 X14.9091 Y-23.0253 Z-2.4865 F1200
G01 X14.7999 Y-22.9695 Z-2.4998 F1200
G01 X14.7023 Y-22.8925 Z-2.4917 F1200
G01 X14.6199 Y-22.7967 Z-2.4644 F1200
G01 X14.5556 Y-22.6849 Z-2.4252 F1200
G01 X14.5120 Y-22.5606 Z-2.3846 F1200
G01 X14.4909 Y-22.4276 Z-2.3535 F1200
G01 X14.4935 Y-22.2898 Z-2.3402 F1200
G01 X14.5202 Y-22.1515 Z-2.3483 F1200
G01 X14.5708 Y-22.0169 Z-2.3756 F1200
G01 X14.6443 Y-21.8901 Z-2.4148 F1200
G01 X14.7390 Y-21.7749 Z-2.4554 F1200
G01 X14.8525 Y-21.6748 Z-2.4865 F1200
G01 X14.9819 Y-21.5928 Z-2.4998 F1200
G01 X15.1239 Y-21.5315 Z-2.4917 F1200
G01 X15.2746 Y-21.4928 Z-2.4644 F1200
G01 X15.4300 Y-21.4777 Z-2.4252 F1200
G01 X15.5859 Y-21.4868 Z-2.3846 F1200
G01 X15.7382 Y-21.5197 Z-2.3535 F1200
G01 X15.8827 Y-21.5755 Z-2.3402 F1200
G01 X16.0156 Y-21.6525 Z-2.3483 F1200
G01 X16.1334 Y-21.7483 Z-2.3756 F1200
G01 X16.2330 Y-21.8601 Z-2.4148 F1200
G01 X16.3119 Y-21.9844 Z-2.4554 F1200
G01 X16.3684 Y-22.1174 Z-2.4865 F1200
G01 X16.4011 Y-22.2552 Z-2.4998 F1200
G01 X16.4097 Y-22.3935 Z-2.4917 F1200
G01 X16.3944 Y-22.5281 Z-2.4644 F1200
G01 X16.3563 Y-22.6549 Z-2.4252 F1200
G01 X16.2970 Y-22.7701 Z-2.3846 F1200
G01 X16.2188 Y-22.8702 Z-2.3535 F1200
G01 X16.1247 Y-22.9522 Z-2.3402 F1200
G01 X16.0181 Y-23.0135 Z-2.3483 F1200
G01 X15.9027 Y-23.0522 Z-2.3756 F1200
G01 X15.7826 Y-23.0673 Z-2.4148 F1200
G01 X15.6620 Y-23.0582 Z-2.4554 F1200
G01 X15.5451 Y-23.0253 Z-2.4865 F1200
G01 X15.4359 Y-22.9695 Z-2.4998 F1200
G01 X15.3383 Y-22.8925 Z-2.4917 F1200
G01 X15.2559 Y-22.7967 Z-2.4644 F1200
G01 X15.1916 Y-22.6849 Z-2.4252 F1200
G01 X15.1480 Y-22.5606 Z-2.3846 F1200
G01 X15.1269 Y-22.4276 Z-2.3535 F1200
G01 X15.1295 Y-22.2898 Z-2.3402 F1200
G01 X15.1562 Y-22.1515 Z-2.3483 F1200
G01 X15.2068 Y-22.0169 Z-2.3756 F1200
G01 X15.2803 Y-21.8901 Z-2.4148 F1200
G01 X15.3750 Y-21.7749 Z-2.4554 F1200
G01 X15.4885 Y-21.6748 Z-2.4865 F1200
G01 X15.6179 Y-21.5928 Z-2.4998 F1200
G01 X15.7599 Y-21.5315 Z-2.4917 F1200
G01 X15.9106 Y-21.4928 Z-2.4644 F1200
G01 X16.0660 Y-21.4777 Z-2.4252 F1200
G01 X16.2219 Y-21.4868 Z-2.3846 F1200
G01 X16.3742 Y-21.5197 Z-2.3535 F1200
G01 X16.5187 Y-21.5755 Z-2.3402 F1200
G01 X16.6516 Y-21.6525 Z-2.3483 F1200
G01 X16.7694 Y-21.7483 Z-2.3756 F1200
G01 X16.8690 Y-21.8601 Z-2.4148 F1200
G01 X16.9479 Y-21.9844 Z-2.4554 F1200
G01 X17.0044 Y-22.1174 Z-2.4865 F1200
G01 X17.0371 Y-22.2552 Z-2.4998 F1200
G01 X17.0457 Y-22.3935 Z-2.4917 F1200
G01 X17.0304 Y-22.5281 Z-2.4644 F1200
G01 X16.9923 Y-22.6549 Z-2.4252 F1200
G01 X16.9330 Y-22.7701 Z-2.3846 F1200
G01 X16.8548 Y-22.8702 Z-2.3535 F1200
G01 X16.7607 Y-22.9522 Z-2.3402 F1200
G01 X16.6541 Y-23.0135 Z-2.3483 F1200
G01 X16.5387 Y-23.0522 Z-2.3756 F1200
G01 X16.4186 Y-23.0673 Z-2.4148 F1200
G01 X16.2980 Y-23.0582 Z-2.4554 F1200
G01 X16.1811 Y-23.0253 Z-2.4865 F1200
G01 X16.0719 Y-22.9695 Z-2.4998 F1200
G01 X15.9743 Y-22.8925 Z-2.4917 F1200
G01 X15.8919 Y-22.7967 Z-2.4644 F1200
G01 X15.8276 Y-22.6849 Z-2.4252 F1200
G01 X15.7840 Y-22.5606 Z-2.3846 F1200
G01 X15.7629 Y-22.4276 Z-2.3535 F1200
G01 X15.7655 Y-22.2898 Z-2.3402 F1200
G01 X15.7922 Y-22.1515 Z-2.3483 F1200
G01 X15.8428 Y-22.0169 Z-2.3756 F1200
G01 X15.9163 Y-21.8901 Z-2.4148 F1200
G01 X16.0110 Y-21.7749 Z-2.4554 F1200
G01 X16.1245 Y-21.6748 Z-2.4865 F1200
G01 X16.2539 Y-21.5928 Z-2.4998 F1200
G01 X16.3959 Y-21.5315 Z-2.4917 F1200
G01 X16.5466 Y-21.4928 Z-2.4644 F1200
G01 X16.7020 Y-21.4777 Z-2.4252 F1200
G01 X16.8579 Y-21.4868 Z-2.3846 F1200
G01 X17.0102 Y-21.5197 Z-2.3535 F1200
G01 X17.1547 Y-21.5755 Z-2.3402 F1200
G01 X17.2876 Y-21.6525 Z-2.3483 F1200
G01 X17.4054 Y-21.7483 Z-2.3756 F1200
G01 X17.5050 Y-21.8601 Z-2.4148 F1200
G01 X17.5839 Y-21.9844 Z-2.4554 F1200
G01 X17.6404 Y-22.1174 Z-2.4865 F1200
G01 X17.6731 Y-22.2552 Z-2.4998 F1200
G01 X17.6817 Y-22.3935 Z-2.4917 F1200
G01 X17.6664 Y-22.5281 Z-2.4644 F1200
G01 X17.6283 Y-22.6549 Z-2.4252 F1200
G01 X17.5690 Y-22.7701 Z-2.3846 F1200
G01 X17.4908 Y-22.8702 Z-2.3535 F1200
G01 X17.3967 Y-22.9522 Z-2.3402 F1200
G01 X17.2901 Y-23.0135 Z-2.3483 F1200
G01 X17.1747 Y-23.0522 Z-2.3756 F1200
G01 X17.0546 Y-23.0673 Z-2.4148 F1200
G01 X16.9340 Y-23.0582 Z-2.4554 F1200
G01 X16.8171 Y-23.0253 Z-2.4865 F1200
G01 X16.7079 Y-22.9695 Z-2.4998 F1200
G01 X16.6103 Y-22.8925 Z-2.4917 F1200
G01 X16.5279 Y-22.7967 Z-2.4644 F1200
G01 X16.4636 Y-22.6849 Z-2.4252 F1200
G01 X16.4200 Y-22.5606 Z-2.3846 F1200
G01 X16.3989 Y-22.4276 Z-2.3535 F1200
G01 X16.4015 Y-22.2898 Z-2.3402 F1200
G01 X16.4282 Y-22.1515 Z-2.3483 F1200
G01 X16.4788 Y-22.0169 Z-2.3756 F1200
G01 X16.5523 Y-21.8901 Z-2.4148 F1200
G01 X16.6470 Y-21.7749 Z-2.4554 F1200
G01 X16.7605 Y-21.6748 Z-2.4865 F1200
G01 X16.8899 Y-21.5928 Z-2.4998 F1200
G01 X17.0319 Y-21.5315 Z-2.4917 F1200
G01 X17.1826 Y-21.4928 Z-2.4644 F1200
G01 X17.3380 Y-21.4777 Z-2.4252 F1200
G01 X17.4939 Y-21.4868 Z-2.3846 F1200
G01 X17.6462 Y-21.5197 Z-2.3535 F1200
G01 X17.7907 Y-21.5755 Z-2.3402 F1200
G01 X17.9236 Y-21.6525 Z-2.3483 F1200
G01 X18.0414 Y-21.7483 Z-2.3756 F1200
G01 X18.1410 Y-21.8601 Z-2.4148 F1200
G01 X18.2199 Y-21.9844 Z-2.4554 F1200
G01 X18.2764 Y-22.1174 Z-2.4865 F1200
G01 X18.3091 Y-22.2552 Z-2.4998 F1200
G01 X18.3177 Y-22.3935 Z-2.4917 F1200
G01 X18.3024 Y-22.5281 Z-2.4644 F1200
G01 X18.2643 Y-22.6549 Z-2.4252 F1200
G01 X18.2050 Y-22.7701 Z-2.3846 F1200
G01 X18.1268 Y-22.8702 Z-2.3535 F1200
G01 X18.0327 Y-22.9522 Z-2.3402 F1200
G01 X17.9261 Y-23.0135 Z-2.3483 F1200
G01 X17.8107 Y-23.0522 Z-2.3756 F1200
G01 X17.6906 Y-23.0673 Z-2.4148 F1200
G01 X17.5700 Y-23.0582 Z-2.4554 F1200
G01 X17.4531 Y-23.0253 Z-2.4865 F1200
G01 X17.3439 Y-22.9695 Z-2.4998 F1200
G01 X17.2463 Y-22.8925 Z-2.4917 F1200
G01 X17.1639 Y-22.7967 Z-2.4644 F1200
G01 X17.0996 Y-22.6849 Z-2.4252 F1200
G01 X17.0560 Y-22.5606 Z-2.3846 F1200
G01 X17.0349 Y-22.4276 Z-2.3535 F1200
G01 X17.0375 Y-22.2898 Z-2.3402 F1200
G01 X17.0642 Y-22.1515 Z-2.3483 F1200
G01 X17.1148 Y-22.0169 Z-2.3756 F1200
G01 X17.1883 Y-21.8901 Z-2.4148 F1200
G01 X17.2830 Y-21.7749 Z-2.4554 F1200
G01 X17.3965 Y-21.6748 Z-2.4865 F1200
G01 X17.5259 Y-21.5928 Z-2.4998 F1200
G01 X17.6679 Y-21.5315 Z-2.4917 F1200
G01 X17.8186 Y-21.4928 Z-2.4644 F1200
G01 X17.9740 Y-21.4777 Z-2.4252 F1200
G01 X18.1299 Y-21.4868 Z-2.3846 F1200
G01 X18.2822 Y-21.5197 Z-2.3535 F1200
G01 X18.4267 Y-21.5755 Z-2.3402 F1200
G01 X18.5596 Y-21.6525 Z-2.3483 F1200
G01 X18.6774 Y-21.7483 Z-2.3756 F1200
G01 X18.7770 Y-21.8601 Z-2.4148 F1200
G01 X18.8559 Y-21.9844 Z-2.4554 F1200
G01 X18.9124 Y-22.1174 Z-2.4865 F1200
G01 X18.9451 Y-22.2552 Z-2.4998 F1200
G01 X18.9537 Y-22.3935 Z-2.4917 F1200
G01 X18.9384 Y-22.5281 Z-2.4644 F1200
G01 X18.9003 Y-22.6549 Z-2.4252 F1200
G01 X18.8410 Y-22.7701 Z-2.3846 F1200
G01 X18.7628 Y-22.8702 Z-2.3535 F1200
G01 X18.6687 Y-22.9522 Z-2.3402 F1200
G01 X18.5621 Y-23.0135 Z-2.3483 F1200
G01 X18.4467 Y-23.0522 Z-2.3756 F1200
G01 X18.3266 Y-23.0673 Z-2.4148 F1200
G01 X18.2060 Y-23.0582 Z-2.4554 F1200
G01 X18.0891 Y-23.0253 Z-2.4865 F1200
G01 X17.9799 Y-22.9695 Z-2.4998 F1200
G01 X17.8823 Y-22.8925 Z-2.4917 F1200
G01 X17.7999 Y-22.7967 Z-2.4644 F1200
G01 X17.7356 Y-22.6849 Z-2.4252 F1200
G01 X17.6920 Y-22.5606 Z-2.3846 F1200
G01 X17.6709 Y-22.4276 Z-2.3535 F1200
G01 X17.6735 Y-22.2898 Z-2.3402 F1200
G01 X17.7002 Y-22.1515 Z-2.3483 F1200
G01 X17.7508 Y-22.0169 Z-2.3756 F1200
G01 X17.8243 Y-21.8901 Z-2.4148 F1200
G01 X17.9190 Y-21.7749 Z-2.4554 F1200
G01 X18.0325 Y-21.6748 Z-2.4865 F1200
G01 X18.1619 Y-21.5928 Z-2.4998 F1200
G01 X18.3039 Y-21.5315 Z-2.4917 F1200
G01 X18.4546 Y-21.4928 Z-2.4644 F1200
G01 X18.6100 Y-21.4777 Z-2.4252 F1200
G01 X18.7659 Y-21.4868 Z-2.3846 F1200
G01 X18.9182 Y-21.5197 Z-2.3535 F1200
G01 X19.0627 Y-21.5755 Z-2.3402 F1200
G01 X19.1956 Y-21.6525 Z-2.3483 F1200
G01 X19.3134 Y-21.7483 Z-2.3756 F1200
G01 X19.4130 Y-21.8601 Z-2.4148 F1200
G01 X19.4919 Y-21.9844 Z-2.4554 F1200
G01 X19.5484 Y-22.1174 Z-2.4865 F1200
G01 X19.5811 Y-22.2552 Z-2.4998 F1200
G01 X19.5897 Y-22.3935 Z-2.4917 F1200
G01 X19.5744 Y-22.5281 Z-2.4644 F1200
G01 X19.5363 Y-22.6549 Z-2.4252 F1200
G01 X19.4770 Y-22.7701 Z-2.3846 F1200
G01 X19.3988 Y-22.8702 Z-2.3535 F1200
G01 X19.3047 Y-22.9522 Z-2.3402 F1200
G01 X19.1981 Y-23.0135 Z-2.3483 F1200
G01 X19.0827 Y-23.0522 Z-2.3756 F1200
G01 X18.9626 Y-23.0673 Z-2.4148 F1200
G01 X18.8420 Y-23.0582 Z-2.4554 F1200
G01 X18.7251 Y-23.0253 Z-2.4865 F1200
G01 X18.6159 Y-22.9695 Z-2.4998 F1200
G01 X18.5183 Y-22.8925 Z-2.4917 F1200
G01 X18.4359 Y-22.7967 Z-2.4644 F1200
G01 X18.3716 Y-22.6849 Z-2.4252 F1200
G01 X18.3280 Y-22.5606 Z-2.3846 F1200
G01 X18.3069 Y-22.4276 Z-2.3535 F1200
G01 X18.3095 Y-22.2898 Z-2.3402 F1200
G01 X18.3362 Y-22.1515 Z-2.3483 F1200
G01 X18.3868 Y-22.0169 Z-2.3756 F1200
G01 X18.4603 Y-21.8901 Z-2.4148 F1200
G01 X18.5550 Y-21.7749 Z-2.4554 F1200
G01 X18.6685 Y-21.6748 Z-2.4865 F1200
G01 X18.7979 Y-21.5928 Z-2.4998 F1200
G01 X18.9399 Y-21.5315 Z-2.4917 F1200
G01 X19.0906 Y-21.4928 Z-2.4644 F1200
G01 X19.2460 Y-21.4777 Z-2.4252 F1200
G01 X19.4019 Y-21.4868 Z-2.3846 F1200
G01 X19.5542 Y-21.5197 Z-2.3535 F1200
G01 X19.6987 Y-21.5755 Z-2.3402 F1200
G01 X19.8316 Y-21.6525 Z-2.3483 F1200
G01 X19.9494 Y-21.7483 Z-2.3756 F1200
G01 X20.0490 Y-21.8601 Z-2.4148 F1200
G01 X20.1279 Y-21.9844 Z-2.4554 F1200
G01 X20.1844 Y-22.1174 Z-2.4865 F1200
G01 X20.2171 Y-22.2552 Z-2.4998 F1200
G01 X20.2257 Y-22.3935 Z-2.4917 F1200
G01 X20.2104 Y-22.5281 Z-2.4644 F1200
G01 X20.1723 Y-22.6549 Z-2.4252 F1200
G01 X20.1130 Y-22.7701 Z-2.3846 F1200
G01 X20.0348 Y-22.8702 Z-2.3535 F1200
G01 X19.9407 Y-22.9522 Z-2.3402 F1200
G01 X19.8341 Y-23.0135 Z-2.3483 F1200
G01 X19.7187 Y-23.0522 Z-2.3756 F1200
G01 X19.5986 Y-23.0673 Z-2.4148 F1200
G01 X19.4780 Y-23.0582 Z-2.4554 F1200
G01 X19.3611 Y-23.0253 Z-2.4865 F1200
G01 X19.2519 Y-22.9695 Z-2.4998 F1200
G01 X19.1543 Y-22.8925 Z-2.4917 F1200
G01 X19.0719 Y-22.7967 Z-2.4644 F1200
G01 X19.0076 Y-22.6849 Z-2.4252 F1200
G01 X18.9640 Y-22.5606 Z-2.3846 F1200
G01 X18.9429 Y-22.4276 Z-2.3535 F1200
G01 X18.9455 Y-22.2898 Z-2.3402 F1200
G01 X18.9722 Y-22.1515 Z-2.3483 F1200
G01 X19.0228 Y-22.0169 Z-2.3756 F1200
G01 X19.0963 Y-21.8901 Z-2.4148 F1200
G01 X19.1910 Y-21.7749 Z-2.4554 F1200
G01 X19.3045 Y-21.6748 Z-2.4865 F1200
G01 X19.4339 Y-21.5928 Z-2.4998 F1200
G01 X19.5759 Y-21.5315 Z-2.4917 F1200
G01 X19.7266 Y-21.4928 Z-2.4644 F1200
G01 X19.8820 Y-21.4777 Z-2.4252 F1200
G01 X20.0379 Y-21.4868 Z-2.3846 F1200
G01 X20.1902 Y-21.5197 Z-2.3535 F1200
G01 X20.3347 Y-21.5755 Z-2.3402 F1200
G01 X20.4676 Y-21.6525 Z-2.3483 F1200
G01 X20.5854 Y-21.7483 Z-2.3756 F1200
G01 X20.6850 Y-21.8601 Z-2.4148 F1200
G01 X20.7639 Y-21.9844 Z-2.4554 F1200
G01 X20.8204 Y-22.1174 Z-2.4865 F1200
G01 X20.8531 Y-22.2552 Z-2.4998 F1200
G01 X20.8617 Y-22.3935 Z-2.4917 F1200
G01 X20.8464 Y-22.5281 Z-2.4644 F1200
G01 X20.8083 Y-22.6549 Z-2.4252 F1200
G01 X20.7490 Y-22.7701 Z-2.3846 F1200
G01 X20.6708 Y-22.8702 Z-2.3535 F1200
G01 X20.5767 Y-22.9522 Z-2.3402 F1200
G01 X20.4701 Y-23.0135 Z-2.3483 F1200
G01 X20.3547 Y-23.0522 Z-2.3756 F1200
G01 X20.2346 Y-23.0673 Z-2.4148 F1200
G01 X20.1140 Y-23.0582 Z-2.4554 F1200
G01 X19.9971 Y-23.0253 Z-2.4865 F1200
G01 X19.8879 Y-22.9695 Z-2.4998 F1200
G01 X19.7903 Y-22.8925 Z-2.4917 F1200
G01 X19.7079 Y-22.7967 Z-2.4644 F1200
G01 X19.6436 Y-22.6849 Z-2.4252 F1200
G01 X19.6000 Y-22.5606 Z-2.3846 F1200
G01 X19.5789 Y-22.4276 Z-2.3535 F1200
G01 X19.5815 Y-22.2898 Z-2.3402 F1200
G01 X19.6082 Y-22.1515 Z-2.3483 F1200
G01 X19.6588 Y-22.0169 Z-2.3756 F1200
G01 X19.7323 Y-21.8901 Z-2.4148 F1200
G01 X19.8270 Y-21.7749 Z-2.4554 F1200
G01 X19.9405 Y-21.6748 Z-2.4865 F1200
G01 X20.0699 Y-21.5928 Z-2.4998 F1200
G01 X20.2119 Y-21.5315 Z-2.4917 F1200
G01 X20.3626 Y-21.4928 Z-2.4644 F1200
G01 X20.5180 Y-21.4777 Z-2.4252 F1200
G01 X20.6739 Y-21.4868 Z-2.3846 F1200
G01 X20.8262 Y-21.5197 Z-2.3535 F1200
G01 X20.9707 Y-21.5755 Z-2.3402 F1200
G01 X21.1036 Y-21.6525 Z-2.3483 F1200
G01 X21.2214 Y-21.7483 Z-2.3756 F1200
G01 X21.3210 Y-21.8601 Z-2.4148 F1200
G01 X21.3999 Y-21.9844 Z-2.4554 F1200
G01 X21.4564 Y-22.1174 Z-2.4865 F1200
G01 X21.4891 Y-22.2552 Z-2.4998 F1200
G01 X21.4977 Y-22.3935 Z-2.4917 F1200
G01 X21.4824 Y-22.5281 Z-2.4644 F1200
G01 X21.4443 Y-22.6549 Z-2.4252 F1200
G01 X21.3850 Y-22.7701 Z-2.3846 F1200
G01 X21.3068 Y-22.8702 Z-2.3535 F1200
G01 X21.2127 Y-22.9522 Z-2.3402 F1200
G01 X21.1061 Y-23.0135 Z-2.3483 F1200
G01 X20.9907 Y-23.0522 Z-2.3756 F1200
G01 X20.8706 Y-23.0673 Z-2.4148 F1200
G01 X20.7500 Y-23.0582 Z-2.4554 F1200
G01 X20.6331 Y-23.0253 Z-2.4865 F1200
G01 X20.5239 Y-22.9695 Z-2.4998 F1200
G01 X20.4263 Y-22.8925 Z-2.4917 F1200
G01 X20.3439 Y-22.7967 Z-2.4644 F1200
G01 X20.2796 Y-22.6849 Z-2.4252 F1200
G01 X20.2360 Y-22.5606 Z-2.3846 F1200
G01 X20.2149 Y-22.4276 Z-2.3535 F1200
G01 X20.2175 Y-22.2898 Z-2.3402 F1200
G01 X20.2442 Y-22.1515 Z-2.3483 F1200
G01 X20.2948 Y-22.0169 Z-2.3756 F1200
G01 X20.3683 Y-21.8901 Z-2.4148 F1200
G01 X20.4630 Y-21.7749 Z-2.4554 F1200
G01 X20.5765 Y-21.6748 Z-2.4865 F1200
G01 X20.7059 Y-21.5928 Z-2.4998 F1200
G01 X20.8479 Y-21.5315 Z-2.4917 F1200
G01 X20.9986 Y-21.4928 Z-2.4644 F1200
G01 X21.1540 Y-21.4777 Z-2.4252 F1200
G01 X21.3099 Y-21.4868 Z-2.3846 F1200
G01 X21.4622 Y-21.5197 Z-2.3535 F1200
G01 X21.6067 Y-21.5755 Z-2.3402 F1200
G01 X21.7396 Y-21.6525 Z-2.3483 F1200
G01 X21.8574 Y-21.7483 Z-2.3756 F1200
G01 X21.9570 Y-21.8601 Z-2.4148 F1200
G01 X22.0359 Y-21.9844 Z-2.4554 F1200
G01 X22.0924 Y-22.1174 Z-2.4865 F1200
G01 X22.1251 Y-22.2552 Z-2.4998 F1200
G01 X22.1337 Y-22.3935 Z-2.4917 F1200
G01 X22.1184 Y-22.5281 Z-2.4644 F1200
G01 X22.0803 Y-22.6549 Z-2.4252 F1200
G01 X22.0210 Y-22.7701 Z-2.3846 F1200
G01 X21.9428 Y-22.8702 Z-2.3535 F1200
G01 X21.8487 Y-22.9522 Z-2.3402 F1200
G01 X21.7421 Y-23.0135 Z-2.3483 F1200
G01 X21.6267 Y-23.0522 Z-2.3756 F1200
G01 X21.5066 Y-23.0673 Z-2.4148 F1200
G01 X21.3860 Y-23.0582 Z-2.4554 F1200
G01 X21.2691 Y-23.0253 Z-2.4865 F1200
G01 X21.1599 Y-22.9695 Z-2.4998 F1200
G01 X21.0623 Y-22.8925 Z-2.4917 F1200
G01 X20.9799 Y-22.7967 Z-2.4644 F1200
G01 X20.9156 Y-22.6849 Z-2.4252 F1200
G01 X20.8720 Y-22.5606 Z-2.3846 F1200
G01 X20.8509 Y-22.4276 Z-2.3535 F1200
G01 X20.8535 Y-22.2898 Z-2.3402 F1200
G01 X20.8802 Y-22.1515 Z-2.3483 F1200
G01 X20.9308 Y-22.0169 Z-2.3756 F1200
G01 X21.0043 Y-21.8901 Z-2.4148 F1200
G01 X21.0990 Y-21.7749 Z-2.4554 F1200
G01 X21.2125 Y-21.6748 Z-2.4865 F1200
G01 X21.3419 Y-21.5928 Z-2.4998 F1200
G01 X21.4839 Y-21.5315 Z-2.4917 F1200
G01 X21.6346 Y-21.4928 Z-2.4644 F1200
G01 X21.7900 Y-21.4777 Z-2.4252 F1200
G01 X21.9459 Y-21.4868 Z-2.3846 F1200
G01 X22.0982 Y-21.5197 Z-2.3535 F1200
G01 X22.2427 Y-21.5755 Z-2.3402 F1200
G01 X22.3756 Y-21.6525 Z-2.3483 F1200
G01 X22.4934 Y-21.7483 Z-2.3756 F1200
G01 X22.5930 Y-21.8601 Z-2.4148 F1200
G01 X22.6719 Y-21.9844 Z-2.4554 F1200
G01 X22.7284 Y-22.1174 Z-2.4865 F1200
G01 X22.7611 Y-22.2552 Z-2.4998 F1200
G01 X22.7697 Y-22.3935 Z-2.4917 F1200
G01 X22.7544 Y-22.5281 Z-2.4644 F1200
G01 X22.7163 Y-22.6549 Z-2.4252 F1200
G01 X22.6570 Y-22.7701 Z-2.3846 F1200
G01 X22.5788 Y-22.8702 Z-2.3535 F1200
G01 X22.4847 Y-22.9522 Z-2.3402 F1200
G01 X22.3781 Y-23.0135 Z-2.3483 F1200
G01 X22.2627 Y-23.0522 Z-2.3756 F1200
G01 X22.1426 Y-23.0673 Z-2.4148 F1200
G01 X22.0220 Y-23.0582 Z-2.4554 F1200
G01 X21.9051 Y-23.0253 Z-2.4865 F1200
G01 X21.7959 Y-22.9695 Z-2.4998 F1200
G01 X21.6983 Y-22.8925 Z-2.4917 F1200
G01 X21.6159 Y-22.7967 Z-2.4644 F1200
G01 X21.5516 Y-22.6849 Z-2.4252 F1200
G01 X21.5080 Y-22.5606 Z-2.3846 F1200
G01 X21.4869 Y-22.4276 Z-2.3535 F1200
G01 X21.4895 Y-22.2898 Z-2.3402 F1200
G01 X21.5162 Y-22.1515 Z-2.3483 F1200
G01 X21.5668 Y-22.0169 Z-2.3756 F1200
G01 X21.6403 Y-21.8901 Z-2.4148 F1200
G01 X21.7350 Y-21.7749 Z-2.4554 F1200
G01 X21.8485 Y-21.6748 Z-2.4865 F1200
G01 X21.9779 Y-21.5928 Z-2.4998 F1200
G01 X22.1199 Y-21.5315 Z-2.4917 F1200
G01 X22.2706 Y-21.4928 Z-2.4644 F1200
G01 X22.4260 Y-21.4777 Z-2.4252 F1200
G01 X22.5819 Y-21.4868 Z-2.3846 F1200
G01 X22.7342 Y-21.5197 Z-2.3535 F1200
G01 X22.8787 Y-21.5755 Z-2.3402 F1200
G01 X23.0116 Y-21.6525 Z-2.3483 F1200
G01 X23.1294 Y-21.7483 Z-2.3756 F1200
G01 X23.2290 Y-21.8601 Z-2.4148 F1200
G01 X23.3079 Y-21.9844 Z-2.4554 F1200
G01 X23.3644 Y-22.1174 Z-2.4865 F1200
G01 X23.3971 Y-22.2552 Z-2.4998 F1200
G01 X23.4057 Y-22.3935 Z-2.4917 F1200
G01 X23.3904 Y-22.5281 Z-2.4644 F1200
G01 X23.3523 Y-22.6549 Z-2.4252 F1200
G01 X23.2930 Y-22.7701 Z-2.3846 F1200
G01 X23.2148 Y-22.8702 Z-2.3535 F1200
G01 X23.1207 Y-22.9522 Z-2.3402 F1200
G01 X23.0141 Y-23.0135 Z-2.3483 F1200
G01 X22.8987 Y-23.0522 Z-2.3756 F1200
G01 X22.7786 Y-23.0673 Z-2.4148 F1200
G01 X22.6580 Y-23.0582 Z-2.4554 F1200
G01 X22.5411 Y-23.0253 Z-2.4865 F1200
G01 X22.4319 Y-22.9695 Z-2.4998 F1200
G01 X22.3343 Y-22.8925 Z-2.4917 F1200
G01 X22.2519 Y-22.7967 Z-2.4644 F1200
G01 X22.1876 Y-22.6849 Z-2.4252 F1200
G01 X22.1440 Y-22.5606 Z-2.3846 F1200
G01 X22.1229 Y-22.4276 Z-2.3535 F1200
G01 X22.1255 Y-22.2898 Z-2.3402 F1200
G01 X22.1522 Y-22.1515 Z-2.3483 F1200
G01 X22.2028 Y-22.0169 Z-2.3756 F1200
G01 X22.2763 Y-21.8901 Z-2.4148 F1200
G01 X22.3710 Y-21.7749 Z-2.4554 F1200
G01 X22.4845 Y-21.6748 Z-2.4865 F1200
G01 X22.6139 Y-21.5928 Z-2.4998 F1200
G01 X22.7559 Y-21.5315 Z-2.4917 F1200
G01 X22.9066 Y-21.4928 Z-2.4644 F1200
G01 X23.0620 Y-21.4777 Z-2.4252 F1200
G01 X23.2179 Y-21.4868 Z-2.3846 F1200
G01 X23.3702 Y-21.5197 Z-2.3535 F1200
G01 X23.5147 Y-21.5755 Z-2.3402 F1200
G01 X23.6476 Y-21.6525 Z-2.3483 F1200
G01 X23.7654 Y-21.7483 Z-2.3756 F1200
G01 X23.8650 Y-21.8601 Z-2.4148 F1200
G01 X23.9439 Y-21.9844 Z-2.4554 F1200
G01 X24.0004 Y-22.1174 Z-2.4865 F1200
G01 X24.0331 Y-22.2552 Z-2.4998 F1200
G01 X24.0417 Y-22.3935 Z-2.4917 F1200
G01 X24.0264 Y-22.5281 Z-2.4644 F1200
G01 X23.9883 Y-22.6549 Z-2.4252 F1200
G01 X23.9290 Y-22.7701 Z-2.3846 F1200
G01 X23.8508 Y-22.8702 Z-2.3535 F1200
G01 X23.7567 Y-22.9522 Z-2.3402 F1200
G01 X23.6501 Y-23.0135 Z-2.3483 F1200
G01 X23.5347 Y-23.0522 Z-2.3756 F1200
G01 X23.4146 Y-23.0673 Z-2.4148 F1200
G01 X23.2940 Y-23.0582 Z-2.4554 F1200
G01 X23.1771 Y-23.0253 Z-2.4865 F1200
G01 X23.0679 Y-22.9695 Z-2.4998 F1200
G01 X22.9703 Y-22.8925 Z-2.4917 F1200
G01 X22.8879 Y-22.7967 Z-2.4644 F1200
G01 X22.8236 Y-22.6849 Z-2.4252 F1200
G01 X22.7800 Y-22.5606 Z-2.3846 F1200
G01 X22.7589 Y-22.4276 Z-2.3535 F1200
G01 X22.7615 Y-22.2898 Z-2.3402 F1200
G01 X22.7882 Y-22.1515 Z-2.3483 F1200
G01 X22.8388 Y-22.0169 Z-2.3756 F1200
G01 X22.9123 Y-21.8901 Z-2.4148 F1200
G01 X23.0070 Y-21.7749 Z-2.4554 F1200
G01 X23.1205 Y-21.6748 Z-2.4865 F1200
G01 X23.2499 Y-21.5928 Z-2.4998 F1200
G01 X23.3919 Y-21.5315 Z-2.4917 F1200
G01 X23.5426 Y-21.4928 Z-2.4644 F1200
G01 X23.6980 Y-21.4777 Z-2.4252 F1200
G01 X23.8539 Y-21.4868 Z-2.3846 F1200
G01 X24.0062 Y-21.5197 Z-2.3535 F1200
G01 X24.1507 Y-21.5755 Z-2.3402 F1200
G01 X24.2836 Y-21.6525 Z-2.3483 F1200
G01 X24.4014 Y-21.7483 Z-2.3756 F1200
G01 X24.5010 Y-21.8601 Z-2.4148 F1200
G01 X24.5799 Y-21.9844 Z-2.4554 F1200
G01 X24.6364 Y-22.1174 Z-2.4865 F1200
G01 X24.6691 Y-22.2552 Z-2.4998 F1200
G01 X24.6777 Y-22.3935 Z-2.4917 F1200
G01 X24.6624 Y-22.5281 Z-2.4644 F1200
G01 X24.6243 Y-22.6549 Z-2.4252 F1200
G01 X24.5650 Y-22.7701 Z-2.3846 F1200
G01 X24.4868 Y-22.8702 Z-2.3535 F1200
G01 X24.3927 Y-22.9522 Z-2.3402 F1200
G01 X24.2861 Y-23.0135 Z-2.3483 F1200
G01 X24.1707 Y-23.0522 Z-2.3756 F1200
G01 X24.0506 Y-23.0673 Z-2.4148 F1200
G01 X23.9300 Y-23.0582 Z-2.4554 F1200
G01 X23.8131 Y-23.0253 Z-2.4865 F1200
G01 X23.7039 Y-22.9695 Z-2.4998 F1200
G01 X23.6063 Y-22.8925 Z-2.4917 F1200
G01 X23.5239 Y-22.7967 Z-2.4644 F1200
G01 X23.4596 Y-22.6849 Z-2.4252 F1200
G01 X23.4160 Y-22.5606 Z-2.3846 F1200
G01 X23.3949 Y-22.4276 Z-2.3535 F1200
G01 X23.3975 Y-22.2898 Z-2.3402 F1200
G01 X23.4242 Y-22.1515 Z-2.3483 F1200
G01 X23.4748 Y-22.0169 Z-2.3756 F1200
G01 X23.5483 Y-21.8901 Z-2.4148 F1200
G01 X23.6430 Y-21.7749 Z-2.4554 F1200
G01 X23.7565 Y-21.6748 Z-2.4865 F1200
G01 X23.8859 Y-21.5928 Z-2.4998 F1200
G01 X24.0279 Y-21.5315 Z-2.4917 F1200
G01 X24.1786 Y-21.4928 Z-2.4644 F1200
G01 X24.3340 Y-21.4777 Z-2.4252 F1200
G01 X24.4899 Y-21.4868 Z-2.3846 F1200
G01 X24.6422 Y-21.5197 Z-2.3535 F1200
G01 X24.7867 Y-21.5755 Z-2.3402 F1200
G01 X24.9196 Y-21.6525 Z-2.3483 F1200
G01 X25.0374 Y-21.7483 Z-2.3756 F1200
G01 X25.1370 Y-21.8601 Z-2.4148 F1200
G01 X25.2159 Y-21.9844 Z-2.4554 F1200
G01 X25.2724 Y-22.1174 Z-2.4865 F1200
G01 X25.3051 Y-22.2552 Z-2.4998 F1200
G01 X25.3137 Y-22.3935 Z-2.4917 F1200
G01 X25.2984 Y-22.5281 Z-2.4644 F1200
G01 X25.2603 Y-22.6549 Z-2.4252 F1200
G01 X25.2010 Y-22.7701 Z-2.3846 F1200
G01 X25.1228 Y-22.8702 Z-2.3535 F1200
G01 X25.0287 Y-22.9522 Z-2.3402 F1200
G01 X24.9221 Y-23.0135 Z-2.3483 F1200
G01 X24.8067 Y-23.0522 Z-2.3756 F1200
G01 X24.6866 Y-23.0673 Z-2.4148 F1200
G01 X24.5660 Y-23.0582 Z-2.4554 F1200
G01 X24.4491 Y-23.0253 Z-2.4865 F1200
G01 X24.3399 Y-22.9695 Z-2.4998 F1200
G01 X24.2423 Y-22.8925 Z-2.4917 F1200
G01 X24.1599 Y-22.7967 Z-2.4644 F1200
G01 X24.0956 Y-22.6849 Z-2.4252 F1200
G01 X24.0520 Y-22.5606 Z-2.3846 F1200
G01 X24.0309 Y-22.4276 Z-2.3535 F1200
G01 X24.0335 Y-22.2898 Z-2.3402 F1200
G01 X24.0602 Y-22.1515 Z-2.3483 F1200
G01 X24.1108 Y-22.0169 Z-2.3756 F1200
G01 X24.1843 Y-21.8901 Z-2.4148 F1200
G01 X24.2790 Y-21.7749 Z-2.4554 F1200
G01 X24.3925 Y-21.6748 Z-2.4865 F1200
G01 X24.5219 Y-21.5928 Z-2.4998 F1200
G01 X24.6639 Y-21.5315 Z-2.4917 F1200
G01 X24.8146 Y-21.4928 Z-2.4644 F1200
G01 X24.9700 Y-21.4777 Z-2.4252 F1200
G01 X25.1259 Y-21.4868 Z-2.3846 F1200
G01 X25.2782 Y-21.5197 Z-2.3535 F1200
G01 X25.4227 Y-21.5755 Z-2.3402 F1200
G01 X25.5556 Y-21.6525 Z-2.3483 F1200
G01 X25.6734 Y-21.7483 Z-2.3756 F1200
G01 X25.7730 Y-21.8601 Z-2.4148 F1200
G01 X25.8519 Y-21.9844 Z-2.4554 F1200
G01 X25.9084 Y-22.1174 Z-2.4865 F1200
G01 X25.9411 Y-22.2552 Z-2.4998 F1200
G01 X25.9497 Y-22.3935 Z-2.4917 F1200
G01 X25.9344 Y-22.5281 Z-2.4644 F1200
G01 X25.8963 Y-22.6549 Z-2.4252 F1200
G01 X25.8370 Y-22.7701 Z-2.3846 F1200
G01 X25.7588 Y-22.8702 Z-2.3535 F1200
G01 X25.6647 Y-22.9522 Z-2.3402 F1200
G01 X25.5581 Y-23.0135 Z-2.3483 F1200
G01 X25.4427 Y-23.0522 Z-2.3756 F1200
G01 X25.3226 Y-23.0673 Z-2.4148 F1200
G01 X25.2020 Y-23.0582 Z-2.4554 F1200
G01 X25.0851 Y-23.0253 Z-2.4865 F1200
G01 X24.9759 Y-22.9695 Z-2.4998 F1200
G01 X24.8783 Y-22.8925 Z-2.4917 F1200
G01 X24.7959 Y-22.7967 Z-2.4644 F1200
G01 X24.7316 Y-22.6849 Z-2.4252 F1200
G01 X24.6880 Y-22.5606 Z-2.3846 F1200
G01 X24.6669 Y-22.4276 Z-2.3535 F1200
G01 X24.6695 Y-22.2898 Z-2.3402 F1200
G01 X24.6962 Y-22.1515 Z-2.3483 F1200
G01 X24.7468 Y-22.0169 Z-2.3756 F1200
G01 X24.8203 Y-21.8901 Z-2.4148 F1200
G01 X24.9150 Y-21.7749 Z-2.4554 F1200
G01 X25.0285 Y-21.6748 Z-2.4865 F1200
G01 X25.1579 Y-21.5928 Z-2.4998 F1200
G01 X25.2999 Y-21.5315 Z-2.4917 F1200
G01 X25.4506 Y-21.4928 Z-2.4644 F1200
G01 X25.6060 Y-21.4777 Z-2.4252 F1200
G01 X25.7619 Y-21.4868 Z-2.3846 F1200
G01 X25.9142 Y-21.5197 Z-2.3535 F1200
G01 X26.0587 Y-21.5755 Z-2.3402 F1200
G01 X26.1916 Y-21.6525 Z-2.3483 F1200
G01 X26.3094 Y-21.7483 Z-2.3756 F1200
G01 X26.4090 Y-21.8601 Z-2.4148 F1200
G01 X26.4879 Y-21.9844 Z-2.4554 F1200
G01 X26.5444 Y-22.1174 Z-2.4865 F1200
G01 X26.5771 Y-22.2552 Z-2.4998 F1200
G01 X26.5857 Y-22.3935 Z-2.4917 F1200
G01 X26.5704 Y-22.5281 Z-2.4644 F1200
G01 X26.5323 Y-22.6549 Z-2.4252 F1200
G01 X26.4730 Y-22.7701 Z-2.3846 F1200
G01 X26.3948 Y-22.8702 Z-2.3535 F1200
G01 X26.3007 Y-22.9522 Z-2.3402 F1200
G01 X26.1941 Y-23.0135 Z-2.3483 F1200
G01 X26.0787 Y-23.0522 Z-2.3756 F1200
G01 X25.9586 Y-23.0673 Z-2.4148 F1200
G01 X25.8380 Y-23.0582 Z-2.4554 F1200
G01 X25.7211 Y-23.0253 Z-2.4865 F1200
G01 X25.6119 Y-22.9695 Z-2.4998 F1200
G01 X25.5143 Y-22.8925 Z-2.4917 F1200
G01 X25.4319 Y-22.7967 Z-2.4644 F1200
G01 X25.3676 Y-22.6849 Z-2.4252 F1200
G01 X25.3240 Y-22.5606 Z-2.3846 F1200
G01 X25.3029 Y-22.4276 Z-2.3535 F1200
G01 X25.3055 Y-22.2898 Z-2.3402 F1200
G01 X25.3322 Y-22.1515 Z-2.3483 F1200
G01 X25.3828 Y-22.0169 Z-2.3756 F1200
G01 X25.4563 Y-21.8901 Z-2.4148 F1200
G01 X25.5510 Y-21.7749 Z-2.4554 F1200
G01 X25.6645 Y-21.6748 Z-2.4865 F1200
G01 X25.7939 Y-21.5928 Z-2.4998 F1200
G01 X25.9359 Y-21.5315 Z-2.4917 F1200
G01 X26.0866 Y-21.4928 Z-2.4644 F1200
G01 X26.2420 Y-21.4777 Z-2.4252 F1200
G01 X26.3979 Y-21.4868 Z-2.3846 F1200
G01 X26.5502 Y-21.5197 Z-2.3535 F1200
G01 X26.6947 Y-21.5755 Z-2.3402 F1200
G01 X26.8276 Y-21.6525 Z-2.3483 F1200
G01 X26.9454 Y-21.7483 Z-2.3756 F1200
G01 X27.0450 Y-21.8601 Z-2.4148 F1200
G01 X27.1239 Y-21.9844 Z-2.4554 F1200
G01 X27.1804 Y-22.1174 Z-2.4865 F1200
G01 X27.2131 Y-22.2552 Z-2.4998 F1200
G01 X27.2217 Y-22.3935 Z-2.4917 F1200
G01 X27.2064 Y-22.5281 Z-2.4644 F1200
G01 X27.1683 Y-22.6549 Z-2.4252 F1200
G01 X27.1090 Y-22.7701 Z-2.3846 F1200
G01 X27.0308 Y-22.8702 Z-2.3535 F1200
G01 X26.9367 Y-22.9522 Z-2.3402 F1200
G01 X26.8301 Y-23.0135 Z-2.3483 F1200
G01 X26.7147 Y-23.0522 Z-2.3756 F1200
G01 X26.5946 Y-23.0673 Z-2.4148 F1200
G01 X26.4740 Y-23.0582 Z-2.4554 F1200
G01 X26.3571 Y-23.0253 Z-2.4865 F1200
G01 X26.2479 Y-22.9695 Z-2.4998 F1200
G01 X26.1503 Y-22.8925 Z-2.4917 F1200
G01 X26.0679 Y-22.7967 Z-2.4644 F1200
G01 X26.0036 Y-22.6849 Z-2.4252 F1200
G01 X25.9600 Y-22.5606 Z-2.3846 F1200
G01 X25.9389 Y-22.4276 Z-2.3535 F1200
G01 X25.9415 Y-22.2898 Z-2.3402 F1200
G01 X25.9682 Y-22.1515 Z-2.3483 F1200
G01 X26.0188 Y-22.0169 Z-2.3756 F1200
G01 X26.0923 Y-21.8901 Z-2.4148 F1200
G01 X26.1870 Y-21.7749 Z-2.4554 F1200
G01 X26.3005 Y-21.6748 Z-2.4865 F1200
G01 X26.4299 Y-21.5928 Z-2.4998 F1200
G01 X26.5719 Y-21.5315 Z-2.4917 F1200
G01 X26.7226 Y-21.4928 Z-2.4644 F1200
G01 X26.8780 Y-21.4777 Z-2.4252 F1200
G01 X27.0339 Y-21.4868 Z-2.3846 F1200
G01 X27.1862 Y-21.5197 Z-2.3535 F1200
G01 X27.3307 Y-21.5755 Z-2.3402 F1200
G01 X27.4636 Y-21.6525 Z-2.3483 F1200
G01 X27.5814 Y-21.7483 Z-2.3756 F1200
G01 X27.6810 Y-21.8601 Z-2.4148 F1200
G01 X27.7599 Y-21.9844 Z-2.4554 F1200
G01 X27.8164 Y-22.1174 Z-2.4865 F1200
G01 X27.8491 Y-22.2552 Z-2.4998 F1200
G01 X27.8577 Y-22.3935 Z-2.4917 F1200
G01 X27.8424 Y-22.5281 Z-2.4644 F1200
G01 X27.8043 Y-22.6549 Z-2.4252 F1200
G01 X27.7450 Y-22.7701 Z-2.3846 F1200
G01 X27.6668 Y-22.8702 Z-2.3535 F1200
G01 X27.5727 Y-22.9522 Z-2.3402 F1200
G01 X27.4661 Y-23.0135 Z-2.3483 F1200
G01 X27.3507 Y-23.0522 Z-2.3756 F1200
G01 X27.2306 Y-23.0673 Z-2.4148 F1200
G01 X27.1100 Y-23.0582 Z-2.4554 F1200
G01 X26.9931 Y-23.0253 Z-2.4865 F1200
G01 X26.8839 Y-22.9695 Z-2.4998 F1200
G01 X26.7863 Y-22.8925 Z-2.4917 F1200
G01 X26.7039 Y-22.7967 Z-2.4644 F1200
G01 X26.6396 Y-22.6849 Z-2.4252 F1200
G01 X26.5960 Y-22.5606 Z-2.3846 F1200
G01 X26.5749 Y-22.4276 Z-2.3535 F1200
G01 X26.5775 Y-22.2898 Z-2.3402 F1200
G01 X26.6042 Y-22.1515 Z-2.3483 F1200
G01 X26.6548 Y-22.0169 Z-2.3756 F1200
G01 X26.7283 Y-21.8901 Z-2.4148 F1200
G01 X26.8230 Y-21.7749 Z-2.4554 F1200
G01 X26.9365 Y-21.6748 Z-2.4865 F1200
G01 X27.0659 Y-21.5928 Z-2.4998 F1200
G01 X27.2079 Y-21.5315 Z-2.4917 F1200
G01 X27.3586 Y-21.4928 Z-2.4644 F1200
G01 X27.5140 Y-21.4777 Z-2.4252 F1200
G01 X27.6699 Y-21.4868 Z-2.3846 F1200
G01 X27.8222 Y-21.5197 Z-2.3535 F1200
G01 X27.9667 Y-21.5755 Z-2.3402 F1200
G01 X28.0996 Y-21.6525 Z-2.3483 F1200
G01 X28.2174 Y-21.7483 Z-2.3756 F1200
G01 X28.3170 Y-21.8601 Z-2.4148 F1200
G01 X28.3959 Y-21.9844 Z-2.4554 F1200
G01 X28.4524 Y-22.1174 Z-2.4865 F1200
G01 X28.4851 Y-22.2552 Z-2.4998 F1200
G01 X28.4937 Y-22.3935 Z-2.4917 F1200
G01 X28.4784 Y-22.5281 Z-2.4644 F1200
G01 X28.4403 Y-22.6549 Z-2.4252 F1200
G01 X28.3810 Y-22.7701 Z-2.3846 F1200
G01 X28.3028 Y-22.8702 Z-2.3535 F1200
G01 X28.2087 Y-22.9522 Z-2.3402 F1200
G01 X28.1021 Y-23.0135 Z-2.3483 F1200
G01 X27.9867 Y-23.0522 Z-2.3756 F1200
G01 X27.8666 Y-23.0673 Z-2.4148 F1200
G01 X27.7460 Y-23.0582 Z-2.4554 F1200
G01 X27.6291 Y-23.0253 Z-2.4865 F1200
G01 X27.5199 Y-22.9695 Z-2.4998 F1200
G01 X27.4223 Y-22.8925 Z-2.4917 F1200
G01 X27.3399 Y-22.7967 Z-2.4644 F1200
G01 X27.2756 Y-22.6849 Z-2.4252 F1200
G01 X27.2320 Y-22.5606 Z-2.3846 F1200
G01 X27.2109 Y-22.4276 Z-2.3535 F1200
G01 X27.2135 Y-22.2898 Z-2.3402 F1200
G01 X27.2402 Y-22.1515 Z-2.3483 F1200
G01 X27.2908 Y-22.0169 Z-2.3756 F1200
G01 X27.3643 Y-21.8901 Z-2.4148 F1200
G01 X27.4590 Y-21.7749 Z-2.4554 F1200
G01 X27.5725 Y-21.6748 Z-2.4865 F1200
G01 X27.7019 Y-21.5928 Z-2.4998 F1200
G01 X27.8439 Y-21.5315 Z-2.4917 F1200
G01 X27.9946 Y-21.4928 Z-2.4644 F1200
G01 X28.1500 Y-21.4777 Z-2.4252 F1200
G01 X28.3059 Y-21.4868 Z-2.3846 F1200
G01 X28.4582 Y-21.5197 Z-2.3535 F1200
G01 X28.6027 Y-21.5755 Z-2.3402 F1200
G01 X28.7356 Y-21.6525 Z-2.3483 F1200
G01 X28.8534 Y-21.7483 Z-2.3756 F1200
G01 X28.9530 Y-21.8601 Z-2.4148 F1200
G01 X29.0319 Y-21.9844 Z-2.4554 F1200
G01 X29.0884 Y-22.1174 Z-2.4865 F1200
G01 X29.1211 Y-22.2552 Z-2.4998 F1200
G01 X29.1297 Y-22.3935 Z-2.4917 F1200
G01 X29.1144 Y-22.5281 Z-2.4644 F1200
G01 X29.0763 Y-22.6549 Z-2.4252 F1200
G01 X29.0170 Y-22.7701 Z-2.3846 F1200
G01 X28.9388 Y-22.8702 Z-2.3535 F1200
G01 X28.8447 Y-22.9522 Z-2.3402 F1200
G01 X28.7381 Y-23.0135 Z-2.3483 F1200
G01 X28.6227 Y-23.0522 Z-2.3756 F1200
G01 X28.5026 Y-23.0673 Z-2.4148 F1200
G01 X28.3820 Y-23.0582 Z-2.4554 F1200
G01 X28.2651 Y-23.0253 Z-2.4865 F1200
G01 X28.1559 Y-22.9695 Z-2.4998 F1200
G01 X28.0583 Y-22.8925 Z-2.4917 F1200
G01 X27.9759 Y-22.7967 Z-2.4644 F1200
G01 X27.9116 Y-22.6849 Z-2.4252 F1200
G01 X27.8680 Y-22.5606 Z-2.3846 F1200
G01 X27.8469 Y-22.4276 Z-2.3535 F1200
G01 X27.8495 Y-22.2898 Z-2.3402 F1200
G01 X27.8762 Y-22.1515 Z-2.3483 F1200
G01 X27.9268 Y-22.0169 Z-2.3756 F1200
G01 X28.0003 Y-21.8901 Z-2.4148 F1200
G01 X28.0950 Y-21.7749 Z-2.4554 F1200
G01 X28.2085 Y-21.6748 Z-2.4865 F1200
G01 X28.3379 Y-21.5928 Z-2.4998 F1200
G01 X28.4799 Y-21.5315 Z-2.4917 F1200
G01 X28.6306 Y-21.4928 Z-2.4644 F1200
