;Project 250x250-bed-support
;Created by Estlcam version 11 build 11.245
;Machining time about 00:11:12 hours

G90
M03 S10000
G00 X0.0000 Y0.0000 Z0.0000 F1500
G00 Z5.0000 F480


;No. 1: Hole 1
G00 X7.6397 Y51.9897 F1500
G00 Z0.5000 F480
G01 Z0.0000 F120 S10000
G02 X7.3092 Y53.6351 Z-1.9119 I0.1107 J0.8781 F120
G01 X8.3814 Y54.2901 Z-3.0000 F120
G01 X7.3092 Y53.6351 Z-4.0881 F120
G03 X7.6397 Y51.9897 Z-6.0000 I0.4412 J-0.7673 F120
G02 X7.3092 Y53.6351 I0.1107 J0.8781 F900
G01 X11.1076 Y55.9556 F900
G02 X12.0304 Y54.4452 I0.4814 J-0.7430 F900
G01 X8.2319 Y52.1246 F900
G02 X7.6397 Y51.9897 I-0.4826 J0.7508 F900
G02 X7.2542 Y52.1349 Z-6.3600 I0.1107 J0.8781 F120
G03 X7.6397 Y51.9897 Z-6.7200 I0.4961 J0.7329 F120
G02 X7.3092 Y53.6351 I0.1107 J0.8781 F900
G01 X11.1076 Y55.9556 F900
G02 X12.0304 Y54.4452 I0.4814 J-0.7430 F900
G01 X8.2319 Y52.1246 F900
G02 X7.6397 Y51.9897 I-0.4826 J0.7508 F900
G00 Z5.0000 F480


;No. 2: Hole 1
G00 X7.6397 Y51.9897 Z5.0000 F1500
G00 Z0.5000 F480
G01 Z-6.0000 F120
G01 X7.6210 Y51.8408 F900
G02 X7.2292 Y53.7620 I0.1293 J1.0269 F900
G01 X11.0312 Y56.0847 F900
G02 X12.1104 Y54.3183 I0.5579 J-0.8720 F900
G01 X8.3084 Y51.9955 F900
G02 X7.6210 Y51.8408 I-0.5589 J0.8788 F900
G01 X7.6397 Y51.9897 F900
G00 Z0.0000 F480
G01 Z-6.7200 F120
G01 X7.6210 Y51.8408 F900
G02 X7.2292 Y53.7620 I0.1293 J1.0269 F900
G01 X11.0312 Y56.0847 F900
G02 X12.1104 Y54.3183 I0.5579 J-0.8720 F900
G01 X8.3084 Y51.9955 F900
G02 X7.6210 Y51.8408 I-0.5589 J0.8788 F900
G01 X7.6397 Y51.9897 F900
G00 Z0.0000 F480
G00 Z5.0000 F480


;No. 3: Hole 5
G00 X29.8855 Y106.7060 Z5.0000 F1500
G00 Z0.5000 F480
G01 Z0.0000 F120
G01 X29.8823 Y106.7156 Z-0.0088 F120
G01 X29.8902 Y106.7220 Z-0.0176 F120
G01 X29.9219 Y106.7231 Z-0.0450 F120
G01 X33.3340 Z-3.0000 F120
G01 X29.9219 Z-5.9550 F120
G01 X29.8902 Y106.7220 Z-5.9824 F120
G01 X29.8823 Y106.7156 Z-5.9912 F120
G01 X29.8855 Y106.7060 Z-6.0000 F120
G01 X29.8823 Y106.7156 F900
G01 X29.8902 Y106.7220 F900
G01 X29.9219 Y106.7231 F900
G01 X35.8598 F900
G01 X35.8962 Y106.7202 F900
G01 X35.8994 Y106.7106 F900
G01 X35.8915 Y106.7043 F900
G01 X35.8598 Y106.7031 F900
G01 X29.9219 F900
G01 X29.8855 Y106.7060 F900
G01 X29.8823 Y106.7156 Z-6.0088 F120
G01 X29.8902 Y106.7220 Z-6.0176 F120
G01 X29.9219 Y106.7231 Z-6.0450 F120
G01 X30.2856 Z-6.3600 F120
G01 X29.9219 Z-6.6750 F120
G01 X29.8902 Y106.7220 Z-6.7024 F120
G01 X29.8823 Y106.7156 Z-6.7112 F120
G01 X29.8855 Y106.7060 Z-6.7200 F120
G01 X29.8823 Y106.7156 F900
G01 X29.8902 Y106.7220 F900
G01 X29.9219 Y106.7231 F900
G01 X35.8598 F900
G01 X35.8962 Y106.7202 F900
G01 X35.8994 Y106.7106 F900
G01 X35.8915 Y106.7043 F900
G01 X35.8598 Y106.7031 F900
G01 X29.9219 F900
G01 X29.8855 Y106.7060 F900
G00 Z5.0000 F480


;No. 4: Hole 5
G00 X29.8855 Y106.7060 Z5.0000 F1500
G00 Z0.5000 F480
G01 Z-6.0000 F120
G01 X29.8571 Y106.5578 F900
G02 X29.9192 Y106.8731 I0.0358 J0.1567 F900
G01 X35.8625 F900
G02 Y106.5531 I0.0254 J-0.1600 F900
G01 X29.9192 F900
G02 X29.8571 Y106.5578 I-0.0129 J0.2459 F900
G01 X29.8855 Y106.7060 F900
G00 Z0.0000 F480
G01 Z-6.7200 F120
G01 X29.8571 Y106.5578 F900
G02 X29.9192 Y106.8731 I0.0358 J0.1567 F900
G01 X35.8625 F900
G02 Y106.5531 I0.0254 J-0.1600 F900
G01 X29.9192 F900
G02 X29.8571 Y106.5578 I-0.0129 J0.2459 F900
G01 X29.8855 Y106.7060 F900
G00 Z0.0000 F480
G00 Z5.0000 F480


;No. 5: Hole 6
G00 X29.8855 Y120.7060 Z5.0000 F1500
G00 Z0.5000 F480
G01 Z0.0000 F120
G01 X29.8823 Y120.7156 Z-0.0088 F120
G01 X29.8902 Y120.7220 Z-0.0176 F120
G01 X29.9219 Y120.7231 Z-0.0450 F120
G01 X33.3340 Z-3.0000 F120
G01 X29.9219 Z-5.9550 F120
G01 X29.8902 Y120.7220 Z-5.9824 F120
G01 X29.8823 Y120.7156 Z-5.9912 F120
G01 X29.8855 Y120.7060 Z-6.0000 F120
G01 X29.8823 Y120.7156 F900
G01 X29.8902 Y120.7220 F900
G01 X29.9219 Y120.7231 F900
G01 X35.8598 F900
G01 X35.8962 Y120.7202 F900
G01 X35.8994 Y120.7106 F900
G01 X35.8915 Y120.7043 F900
G01 X35.8598 Y120.7031 F900
G01 X29.9219 F900
G01 X29.8855 Y120.7060 F900
G01 X29.8823 Y120.7156 Z-6.0088 F120
G01 X29.8902 Y120.7220 Z-6.0176 F120
G01 X29.9219 Y120.7231 Z-6.0450 F120
G01 X30.2856 Z-6.3600 F120
G01 X29.9219 Z-6.6750 F120
G01 X29.8902 Y120.7220 Z-6.7024 F120
G01 X29.8823 Y120.7156 Z-6.7112 F120
G01 X29.8855 Y120.7060 Z-6.7200 F120
G01 X29.8823 Y120.7156 F900
G01 X29.8902 Y120.7220 F900
G01 X29.9219 Y120.7231 F900
G01 X35.8598 F900
G01 X35.8962 Y120.7202 F900
G01 X35.8994 Y120.7106 F900
G01 X35.8915 Y120.7043 F900
G01 X35.8598 Y120.7031 F900
G01 X29.9219 F900
G01 X29.8855 Y120.7060 F900
G00 Z5.0000 F480


;No. 6: Hole 6
G00 X29.8855 Y120.7060 Z5.0000 F1500
G00 Z0.5000 F480
G01 Z-6.0000 F120
G01 X29.8571 Y120.5578 F900
G02 X29.9192 Y120.8731 I0.0358 J0.1567 F900
G01 X35.8625 F900
G02 Y120.5531 I0.0254 J-0.1600 F900
G01 X29.9192 F900
G02 X29.8571 Y120.5578 I-0.0129 J0.2459 F900
G01 X29.8855 Y120.7060 F900
G00 Z0.0000 F480
G01 Z-6.7200 F120
G01 X29.8571 Y120.5578 F900
G02 X29.9192 Y120.8731 I0.0358 J0.1567 F900
G01 X35.8625 F900
G02 Y120.5531 I0.0254 J-0.1600 F900
G01 X29.9192 F900
G02 X29.8571 Y120.5578 I-0.0129 J0.2459 F900
G01 X29.8855 Y120.7060 F900
G00 Z0.0000 F480
G00 Z5.0000 F480


;No. 7: Hole 8
G00 X131.7320 Y141.7688 Z5.0000 F1500
G00 Z0.5000 F480
G01 Z0.0000 F120
G01 X131.7352 Y141.7785 Z-0.0088 F120
G01 X131.7611 Y141.7967 Z-0.0362 F120
G01 X134.6280 Y143.6656 Z-3.0000 F120
G01 X131.7611 Y141.7967 Z-5.9638 F120
G01 X131.7352 Y141.7785 Z-5.9912 F120
G01 X131.7320 Y141.7688 Z-6.0000 F120
G01 X131.7352 Y141.7785 F900
G01 X131.7611 Y141.7967 F900
G01 X136.7354 Y145.0394 F900
G01 X136.7674 Y145.0569 F900
G01 X136.7754 Y145.0506 F900
G01 X136.7722 Y145.0409 F900
G01 X136.7463 Y145.0227 F900
G01 X131.7720 Y141.7800 F900
G01 X131.7449 Y141.7636 F900
G01 X131.7320 Y141.7688 F900
G01 X131.7352 Y141.7785 Z-6.0088 F120
G01 X131.7611 Y141.7967 Z-6.0362 F120
G01 X132.0743 Y142.0009 Z-6.3600 F120
G01 X131.7611 Y141.7967 Z-6.6838 F120
G01 X131.7352 Y141.7785 Z-6.7112 F120
G01 X131.7320 Y141.7688 Z-6.7200 F120
G01 X131.7352 Y141.7785 F900
G01 X131.7611 Y141.7967 F900
G01 X136.7354 Y145.0394 F900
G01 X136.7674 Y145.0569 F900
G01 X136.7754 Y145.0506 F900
G01 X136.7722 Y145.0409 F900
G01 X136.7463 Y145.0227 F900
G01 X131.7720 Y141.7800 F900
G01 X131.7449 Y141.7636 F900
G01 X131.7320 Y141.7688 F900
G00 Z5.0000 F480


;No. 8: Hole 8
G00 X131.7320 Y141.7688 Z5.0000 F1500
G00 Z0.5000 F480
G01 Z-6.0000 F120
G01 X131.6372 Y141.6506 F900
G02 X131.6770 Y141.9209 I0.1073 J0.1223 F900
G01 X136.6557 Y145.1665 F900
G02 X136.8305 Y144.8985 I0.1086 J-0.1202 F900
G01 X131.8517 Y141.6528 F900
G02 X131.6372 Y141.6506 I-0.1086 J0.1243 F900
G01 X131.7320 Y141.7688 F900
G00 Z0.0000 F480
G01 Z-6.7200 F120
G01 X131.6372 Y141.6506 F900
G02 X131.6770 Y141.9209 I0.1073 J0.1223 F900
G01 X136.6557 Y145.1665 F900
G02 X136.8305 Y144.8985 I0.1086 J-0.1202 F900
G01 X131.8517 Y141.6528 F900
G02 X131.6372 Y141.6506 I-0.1086 J0.1243 F900
G01 X131.7320 Y141.7688 F900
G00 Z0.0000 F480
G00 Z5.0000 F480


;No. 9: Hole 7
G00 X139.3672 Y130.0390 Z5.0000 F1500
G00 Z0.5000 F480
G01 Z0.0000 F120
G01 X139.3704 Y130.0486 Z-0.0088 F120
G01 X139.3963 Y130.0668 Z-0.0362 F120
G01 X142.2658 Y131.9318 Z-3.0000 F120
G01 X139.3963 Y130.0668 Z-5.9638 F120
G01 X139.3704 Y130.0486 Z-5.9912 F120
G01 X139.3672 Y130.0390 Z-6.0000 F120
G01 X139.3704 Y130.0486 F900
G01 X139.3963 Y130.0668 F900
G01 X144.3750 Y133.3027 F900
G01 X144.4071 Y133.3202 F900
G01 X144.4150 Y133.3138 F900
G01 X144.4119 Y133.3042 F900
G01 X144.3859 Y133.2860 F900
G01 X139.4072 Y130.0501 F900
G01 X139.3789 Y130.0332 F900
G01 X139.3672 Y130.0390 F900
G01 X139.3704 Y130.0486 Z-6.0088 F120
G01 X139.3963 Y130.0668 Z-6.0362 F120
G01 X139.7098 Y130.2706 Z-6.3600 F120
G01 X139.3963 Y130.0668 Z-6.6838 F120
G01 X139.3704 Y130.0486 Z-6.7112 F120
G01 X139.3672 Y130.0390 Z-6.7200 F120
G01 X139.3704 Y130.0486 F900
G01 X139.3963 Y130.0668 F900
G01 X144.3750 Y133.3027 F900
G01 X144.4071 Y133.3202 F900
G01 X144.4150 Y133.3138 F900
G01 X144.4119 Y133.3042 F900
G01 X144.3859 Y133.2860 F900
G01 X139.4072 Y130.0501 F900
G01 X139.3789 Y130.0332 F900
G01 X139.3672 Y130.0390 F900
G00 Z5.0000 F480


;No. 10: Hole 7
G00 X139.3672 Y130.0390 Z5.0000 F1500
G00 Z0.5000 F480
G01 Z-6.0000 F120
G01 X139.2561 Y129.9368 F900
G02 X139.3123 Y130.1912 I0.1239 J0.1060 F900
G01 X144.2955 Y133.4300 F900
G02 X144.4699 Y133.1617 I0.1085 J-0.1203 F900
G01 X139.4867 Y129.9229 F900
G02 X139.2561 Y129.9368 I-0.1082 J0.1238 F900
G01 X139.3672 Y130.0390 F900
G00 Z0.0000 F480
G01 Z-6.7200 F120
G01 X139.2561 Y129.9368 F900
G02 X139.3123 Y130.1912 I0.1239 J0.1060 F900
G01 X144.2955 Y133.4300 F900
G02 X144.4699 Y133.1617 I0.1085 J-0.1203 F900
G01 X139.4867 Y129.9229 F900
G02 X139.2561 Y129.9368 I-0.1082 J0.1238 F900
G01 X139.3672 Y130.0390 F900
G00 Z0.0000 F480
G00 Z5.0000 F480


;No. 11: Hole 27
G00 X156.7469 Y147.6667 Z5.0000 F1500
G00 Z0.5000 F480
G01 Z0.0000 F120
G02 X154.8709 Y150.5617 Z-3.0000 I8.1444 J7.3333 F120
G03 X156.7469 Y147.6667 Z-6.0000 I10.0205 J4.4383 F120
G02 X162.6128 Y165.7199 I8.1444 J7.3333 F900
G02 X175.3144 Y151.6134 I2.2786 J-10.7199 F900
G02 X156.7469 Y147.6667 I-10.4230 J3.3866 F900
G02 X156.4747 Y147.9808 Z-6.3600 I8.1444 J7.3333 F120
G03 X156.7469 Y147.6667 Z-6.7200 I8.4167 J7.0192 F120
G02 X162.6128 Y165.7199 I8.1444 J7.3333 F900
G02 X175.3144 Y151.6134 I2.2786 J-10.7199 F900
G02 X156.7469 Y147.6667 I-10.4230 J3.3866 F900
G00 Z5.0000 F480


;No. 12: Hole 27
G00 X156.7469 Y147.6667 Z5.0000 F1500
G00 Z0.5000 F480
G01 Z-6.0000 F120
G01 X156.6354 Y147.5663 F900
G02 X162.5816 Y165.8667 I8.2559 J7.4337 F900
G02 X175.4571 Y151.5670 I2.3098 J-10.8667 F900
G02 X156.6354 Y147.5663 I-10.5657 J3.4330 F900
G01 X156.7469 Y147.6667 F900
G00 Z0.0000 F480
G01 Z-6.7200 F120
G01 X156.6354 Y147.5663 F900
G02 X162.5816 Y165.8667 I8.2559 J7.4337 F900
G02 X175.4571 Y151.5670 I2.3098 J-10.8667 F900
G02 X156.6354 Y147.5663 I-10.5657 J3.4330 F900
G01 X156.7469 Y147.6667 F900
G00 Z0.0000 F480
G00 Z5.0000 F480


;No. 13: Hole 9
G00 X185.3678 Y133.3082 Z5.0000 F1500
G00 Z0.5000 F480
G01 Z0.0000 F120
G01 X185.3704 Y133.3180 Z-0.0088 F120
G01 X185.3805 Y133.3191 Z-0.0176 F120
G01 X185.4077 Y133.3027 Z-0.0450 F120
G01 X188.2686 Y131.4433 Z-3.0000 F120
G01 X185.4077 Y133.3027 Z-5.9550 F120
G01 X185.3805 Y133.3191 Z-5.9824 F120
G01 X185.3704 Y133.3180 Z-5.9912 F120
G01 X185.3678 Y133.3082 Z-6.0000 F120
G01 X185.3704 Y133.3180 F900
G01 X185.3805 Y133.3191 F900
G01 X185.4077 Y133.3027 F900
G01 X190.3864 Y130.0668 F900
G01 X190.4153 Y130.0446 F900
G01 X190.4127 Y130.0348 F900
G01 X190.4027 Y130.0338 F900
G01 X190.3755 Y130.0501 F900
G01 X185.3968 Y133.2860 F900
G01 X185.3678 Y133.3082 F900
G01 X185.3704 Y133.3180 Z-6.0088 F120
G01 X185.3805 Y133.3191 Z-6.0176 F120
G01 X185.4077 Y133.3027 Z-6.0450 F120
G01 X185.7126 Y133.1045 Z-6.3600 F120
G01 X185.4077 Y133.3027 Z-6.6750 F120
G01 X185.3805 Y133.3191 Z-6.7024 F120
G01 X185.3704 Y133.3180 Z-6.7112 F120
G01 X185.3678 Y133.3082 Z-6.7200 F120
G01 X185.3704 Y133.3180 F900
G01 X185.3805 Y133.3191 F900
G01 X185.4077 Y133.3027 F900
G01 X190.3864 Y130.0668 F900
G01 X190.4153 Y130.0446 F900
G01 X190.4127 Y130.0348 F900
G01 X190.4027 Y130.0338 F900
G01 X190.3755 Y130.0501 F900
G01 X185.3968 Y133.2860 F900
G01 X185.3678 Y133.3082 F900
G00 Z5.0000 F480


;No. 14: Hole 9
G00 X185.3678 Y133.3082 Z5.0000 F1500
G00 Z0.5000 F480
G01 Z-6.0000 F120
G01 X185.2555 Y133.2078 F900
G02 X185.4872 Y133.4300 I0.1231 J0.1035 F900
G01 X190.4704 Y130.1912 F900
G02 X190.2960 Y129.9229 I-0.0659 J-0.1480 F900
G01 X185.3128 Y133.1617 F900
G02 X185.2555 Y133.2078 I0.1119 J0.1976 F900
G01 X185.3678 Y133.3082 F900
G00 Z0.0000 F480
G01 Z-6.7200 F120
G01 X185.2555 Y133.2078 F900
G02 X185.4872 Y133.4300 I0.1231 J0.1035 F900
G01 X190.4704 Y130.1912 F900
G02 X190.2960 Y129.9229 I-0.0659 J-0.1480 F900
G01 X185.3128 Y133.1617 F900
G02 X185.2555 Y133.2078 I0.1119 J0.1976 F900
G01 X185.3678 Y133.3082 F900
G00 Z0.0000 F480
G00 Z5.0000 F480


;No. 15: Hole 10
G00 X193.0075 Y145.0449 Z5.0000 F1500
G00 Z0.5000 F480
G01 Z0.0000 F120
G01 X193.0100 Y145.0548 Z-0.0088 F120
G01 X193.0201 Y145.0558 Z-0.0176 F120
G01 X193.0473 Y145.0394 Z-0.0450 F120
G01 X195.9057 Y143.1761 Z-3.0000 F120
G01 X193.0473 Y145.0394 Z-5.9550 F120
G01 X193.0201 Y145.0558 Z-5.9824 F120
G01 X193.0100 Y145.0548 Z-5.9912 F120
G01 X193.0075 Y145.0449 Z-6.0000 F120
G01 X193.0100 Y145.0548 F900
G01 X193.0201 Y145.0558 F900
G01 X193.0473 Y145.0394 F900
G01 X198.0216 Y141.7967 F900
G01 X198.0505 Y141.7744 F900
G01 X198.0479 Y141.7646 F900
G01 X198.0378 Y141.7636 F900
G01 X198.0107 Y141.7800 F900
G01 X193.0364 Y145.0227 F900
G01 X193.0075 Y145.0449 F900
G01 X193.0100 Y145.0548 Z-6.0088 F120
G01 X193.0201 Y145.0558 Z-6.0176 F120
G01 X193.0473 Y145.0394 Z-6.0450 F120
G01 X193.3520 Y144.8408 Z-6.3600 F120
G01 X193.0473 Y145.0394 Z-6.6750 F120
G01 X193.0201 Y145.0558 Z-6.7024 F120
G01 X193.0100 Y145.0548 Z-6.7112 F120
G01 X193.0075 Y145.0449 Z-6.7200 F120
G01 X193.0100 Y145.0548 F900
G01 X193.0201 Y145.0558 F900
G01 X193.0473 Y145.0394 F900
G01 X198.0216 Y141.7967 F900
G01 X198.0505 Y141.7744 F900
G01 X198.0479 Y141.7646 F900
G01 X198.0378 Y141.7636 F900
G01 X198.0107 Y141.7800 F900
G01 X193.0364 Y145.0227 F900
G01 X193.0075 Y145.0449 F900
G00 Z5.0000 F480


;No. 16: Hole 10
G00 X193.0075 Y145.0449 Z5.0000 F1500
G00 Z0.5000 F480
G01 Z-6.0000 F120
G01 X192.8879 Y144.9535 F900
G02 X193.1270 Y145.1665 I0.1304 J0.0942 F900
G01 X198.1057 Y141.9209 F900
G02 X197.9310 Y141.6528 I-0.0661 J-0.1479 F900
G01 X192.9522 Y144.8985 F900
G02 X192.8879 Y144.9535 I0.0965 J0.1776 F900
G01 X193.0075 Y145.0449 F900
G00 Z0.0000 F480
G01 Z-6.7200 F120
G01 X192.8879 Y144.9535 F900
G02 X193.1270 Y145.1665 I0.1304 J0.0942 F900
G01 X198.1057 Y141.9209 F900
G02 X197.9310 Y141.6528 I-0.0661 J-0.1479 F900
G01 X192.9522 Y144.8985 F900
G02 X192.8879 Y144.9535 I0.0965 J0.1776 F900
G01 X193.0075 Y145.0449 F900
G00 Z0.0000 F480
G00 Z5.0000 F480


;No. 17: Hole 26
G00 X173.6327 Y188.7494 Z5.0000 F1500
G00 Z0.5000 F480
G01 Z0.0000 F120
G01 X173.6316 Y188.7811 Z-0.0275 F120
G01 X173.6320 Y192.2134 Z-3.0000 F120
G01 X173.6316 Y188.7811 Z-5.9725 F120
G01 X173.6327 Y188.7494 Z-6.0000 F120
G01 X173.6316 Y188.7811 F900
G01 X173.6323 Y194.7189 F900
G01 X173.6352 Y194.7553 F900
G01 X173.6448 Y194.7585 F900
G01 X173.6511 Y194.7506 F900
G01 X173.6523 Y194.7189 F900
G01 X173.6516 Y188.7811 F900
G01 X173.6458 Y188.7422 F900
G01 X173.6327 Y188.7494 F900
G01 X173.6316 Y188.7811 Z-6.0275 F120
G01 Y189.1650 Z-6.3600 F120
G01 Y188.7811 Z-6.6925 F120
G01 X173.6327 Y188.7494 Z-6.7200 F120
G01 X173.6316 Y188.7811 F900
G01 X173.6323 Y194.7189 F900
G01 X173.6352 Y194.7553 F900
G01 X173.6448 Y194.7585 F900
G01 X173.6511 Y194.7506 F900
G01 X173.6523 Y194.7189 F900
G01 X173.6516 Y188.7811 F900
G01 X173.6458 Y188.7422 F900
G01 X173.6327 Y188.7494 F900
G00 Z5.0000 F480


;No. 18: Hole 26
G00 X173.6327 Y188.7494 Z5.0000 F1500
G00 Z0.5000 F480
G01 Z-6.0000 F120
G01 X173.5374 Y188.6299 F900
G02 X173.4816 Y188.7784 I0.1143 J0.1278 F900
G01 X173.4823 Y194.7216 F900
G02 X173.8023 I0.1600 J0.0254 F900
G01 X173.8016 Y188.7784 F900
G02 X173.5374 Y188.6299 I-0.1596 J-0.0253 F900
G01 X173.6327 Y188.7494 F900
G00 Z0.0000 F480
G01 Z-6.7200 F120
G01 X173.5374 Y188.6299 F900
G02 X173.4816 Y188.7784 I0.1143 J0.1278 F900
G01 X173.4823 Y194.7216 F900
G02 X173.8023 I0.1600 J0.0254 F900
G01 X173.8016 Y188.7784 F900
G02 X173.5374 Y188.6299 I-0.1596 J-0.0253 F900
G01 X173.6327 Y188.7494 F900
G00 Z0.0000 F480
G00 Z5.0000 F480


;No. 19: Hole 25
G00 X156.1323 Y188.7494 Z5.0000 F1500
G00 Z0.5000 F480
G01 Z0.0000 F120
G01 X156.1311 Y188.7811 Z-0.0275 F120
G01 X156.1307 Y192.2134 Z-3.0000 F120
G01 X156.1311 Y188.7811 Z-5.9725 F120
G01 X156.1323 Y188.7494 Z-6.0000 F120
G01 X156.1311 Y188.7811 F900
G01 X156.1304 Y194.7189 F900
G01 X156.1333 Y194.7553 F900
G01 X156.1429 Y194.7585 F900
G01 X156.1493 Y194.7506 F900
G01 X156.1504 Y194.7189 F900
G01 X156.1511 Y188.7811 F900
G01 X156.1454 Y188.7422 F900
G01 X156.1323 Y188.7494 F900
G01 X156.1311 Y188.7811 Z-6.0275 F120
G01 Y189.1650 Z-6.3600 F120
G01 Y188.7811 Z-6.6925 F120
G01 X156.1323 Y188.7494 Z-6.7200 F120
G01 X156.1311 Y188.7811 F900
G01 X156.1304 Y194.7189 F900
G01 X156.1333 Y194.7553 F900
G01 X156.1429 Y194.7585 F900
G01 X156.1493 Y194.7506 F900
G01 X156.1504 Y194.7189 F900
G01 X156.1511 Y188.7811 F900
G01 X156.1454 Y188.7422 F900
G01 X156.1323 Y188.7494 F900
G00 Z5.0000 F480


;No. 20: Hole 25
G00 X156.1323 Y188.7494 Z5.0000 F1500
G00 Z0.5000 F480
G01 Z-6.0000 F120
G01 X156.0370 Y188.6298 F900
G02 X155.9811 Y188.7784 I0.1143 J0.1278 F900
G01 X155.9804 Y194.7216 F900
G02 X156.3004 I0.1600 J0.0254 F900
G01 X156.3011 Y188.7784 F900
G02 X156.0370 Y188.6298 I-0.1596 J-0.0254 F900
G01 X156.1323 Y188.7494 F900
G00 Z0.0000 F480
G01 Z-6.7200 F120
G01 X156.0370 Y188.6298 F900
G02 X155.9811 Y188.7784 I0.1143 J0.1278 F900
G01 X155.9804 Y194.7216 F900
G02 X156.3004 I0.1600 J0.0254 F900
G01 X156.3011 Y188.7784 F900
G02 X156.0370 Y188.6298 I-0.1596 J-0.0254 F900
G01 X156.1323 Y188.7494 F900
G00 Z0.0000 F480
G00 Z5.0000 F480


;No. 21: Hole 20
G00 X126.8860 Y274.2429 Z5.0000 F1500
G00 Z0.5000 F480
G01 Z0.0000 F120
G01 X126.8828 Y274.2525 Z-0.0088 F120
G01 X126.8907 Y274.2589 Z-0.0176 F120
G01 X126.9224 Y274.2600 Z-0.0450 F120
G01 X130.3345 Z-3.0000 F120
G01 X126.9224 Z-5.9550 F120
G01 X126.8907 Y274.2589 Z-5.9824 F120
G01 X126.8828 Y274.2525 Z-5.9912 F120
G01 X126.8860 Y274.2429 Z-6.0000 F120
G01 X126.8828 Y274.2525 F900
G01 X126.8907 Y274.2589 F900
G01 X126.9224 Y274.2600 F900
G01 X132.8603 F900
G01 X132.8967 Y274.2571 F900
G01 X132.8999 Y274.2475 F900
G01 X132.8920 Y274.2411 F900
G01 X132.8603 Y274.2400 F900
G01 X126.9224 F900
G01 X126.8860 Y274.2429 F900
G01 X126.8828 Y274.2525 Z-6.0088 F120
G01 X126.8907 Y274.2589 Z-6.0176 F120
G01 X126.9224 Y274.2600 Z-6.0450 F120
G01 X127.2861 Z-6.3600 F120
G01 X126.9224 Z-6.6750 F120
G01 X126.8907 Y274.2589 Z-6.7024 F120
G01 X126.8828 Y274.2525 Z-6.7112 F120
G01 X126.8860 Y274.2429 Z-6.7200 F120
G01 X126.8828 Y274.2525 F900
G01 X126.8907 Y274.2589 F900
G01 X126.9224 Y274.2600 F900
G01 X132.8603 F900
G01 X132.8967 Y274.2571 F900
G01 X132.8999 Y274.2475 F900
G01 X132.8920 Y274.2411 F900
G01 X132.8603 Y274.2400 F900
G01 X126.9224 F900
G01 X126.8860 Y274.2429 F900
G00 Z5.0000 F480


;No. 22: Hole 20
G00 X126.8860 Y274.2429 Z5.0000 F1500
G00 Z0.5000 F480
G01 Z-6.0000 F120
G01 X126.8253 Y274.1054 F900
G02 X126.9197 Y274.4100 I0.0685 J0.1457 F900
G01 X132.8630 F900
G02 Y274.0900 I0.0254 J-0.1600 F900
G01 X126.9197 F900
G02 X126.8253 Y274.1054 I-0.0178 J0.1885 F900
G01 X126.8860 Y274.2429 F900
G00 Z0.0000 F480
G01 Z-6.7200 F120
G01 X126.8253 Y274.1054 F900
G02 X126.9197 Y274.4100 I0.0685 J0.1457 F900
G01 X132.8630 F900
G02 Y274.0900 I0.0254 J-0.1600 F900
G01 X126.9197 F900
G02 X126.8253 Y274.1054 I-0.0178 J0.1885 F900
G01 X126.8860 Y274.2429 F900
G00 Z0.0000 F480
G00 Z5.0000 F480


;No. 23: Hole 19
G00 X126.8860 Y288.2429 Z5.0000 F1500
G00 Z0.5000 F480
G01 Z0.0000 F120
G01 X126.8828 Y288.2525 Z-0.0088 F120
G01 X126.8907 Y288.2589 Z-0.0176 F120
G01 X126.9224 Y288.2600 Z-0.0450 F120
G01 X130.3345 Z-3.0000 F120
G01 X126.9224 Z-5.9550 F120
G01 X126.8907 Y288.2589 Z-5.9824 F120
G01 X126.8828 Y288.2525 Z-5.9912 F120
G01 X126.8860 Y288.2429 Z-6.0000 F120
G01 X126.8828 Y288.2525 F900
G01 X126.8907 Y288.2589 F900
G01 X126.9224 Y288.2600 F900
G01 X132.8603 F900
G01 X132.8967 Y288.2571 F900
G01 X132.8999 Y288.2475 F900
G01 X132.8920 Y288.2411 F900
G01 X132.8603 Y288.2400 F900
G01 X126.9224 F900
G01 X126.8860 Y288.2429 F900
G01 X126.8828 Y288.2525 Z-6.0088 F120
G01 X126.8907 Y288.2589 Z-6.0176 F120
G01 X126.9224 Y288.2600 Z-6.0450 F120
G01 X127.2861 Z-6.3600 F120
G01 X126.9224 Z-6.6750 F120
G01 X126.8907 Y288.2589 Z-6.7024 F120
G01 X126.8828 Y288.2525 Z-6.7112 F120
G01 X126.8860 Y288.2429 Z-6.7200 F120
G01 X126.8828 Y288.2525 F900
G01 X126.8907 Y288.2589 F900
G01 X126.9224 Y288.2600 F900
G01 X132.8603 F900
G01 X132.8967 Y288.2571 F900
G01 X132.8999 Y288.2475 F900
G01 X132.8920 Y288.2411 F900
G01 X132.8603 Y288.2400 F900
G01 X126.9224 F900
G01 X126.8860 Y288.2429 F900
G00 Z5.0000 F480


;No. 24: Hole 19
G00 X126.8860 Y288.2429 Z5.0000 F1500
G00 Z0.5000 F480
G01 Z-6.0000 F120
G01 X126.8253 Y288.1054 F900
G02 X126.9197 Y288.4100 I0.0685 J0.1457 F900
G01 X132.8630 F900
G02 Y288.0900 I0.0254 J-0.1600 F900
G01 X126.9197 F900
G02 X126.8253 Y288.1054 I-0.0178 J0.1885 F900
G01 X126.8860 Y288.2429 F900
G00 Z0.0000 F480
G01 Z-6.7200 F120
G01 X126.8253 Y288.1054 F900
G02 X126.9197 Y288.4100 I0.0685 J0.1457 F900
G01 X132.8630 F900
G02 Y288.0900 I0.0254 J-0.1600 F900
G01 X126.9197 F900
G02 X126.8253 Y288.1054 I-0.0178 J0.1885 F900
G01 X126.8860 Y288.2429 F900
G00 Z0.0000 F480
G00 Z5.0000 F480


;No. 25: Hole 24
G00 X157.0138 Y301.1315 Z5.0000 F1500
G00 Z0.5000 F480
G01 Z0.0000 F120
G02 X156.9845 Y301.5793 Z-1.0062 I0.1146 J0.2324 F120
G02 X157.3869 Y301.3808 Z-2.0124 I0.1439 J-0.2154 F120
G02 X157.0229 Y301.1273 Z-3.0000 I-0.2585 J-0.0169 F120
G03 X157.3869 Y301.3808 Z-3.9876 I0.1055 J0.2366 F120
G03 X156.9845 Y301.5793 Z-4.9938 I-0.2585 J-0.0169 F120
G03 X157.0138 Y301.1315 Z-6.0000 I0.1439 J-0.2154 F120
G02 X156.9845 Y301.5793 I0.1146 J0.2324 F900
G02 X157.3869 Y301.3808 I0.1439 J-0.2154 F900
G02 X157.0138 Y301.1315 I-0.2585 J-0.0169 F900
G02 X156.9000 Y301.4862 Z-6.3600 I0.1146 J0.2324 F120
G03 X157.0138 Y301.1315 Z-6.7200 I0.2283 J-0.1224 F120
G02 X156.9845 Y301.5793 I0.1146 J0.2324 F900
G02 X157.3869 Y301.3808 I0.1439 J-0.2154 F900
G02 X157.0138 Y301.1315 I-0.2585 J-0.0169 F900
G00 Z5.0000 F480


;No. 26: Hole 24
G00 X157.0138 Y301.1315 Z5.0000 F1500
G00 Z0.5000 F480
G01 Z-6.0000 F120
G01 X156.9474 Y300.9969 F900
G02 X156.9011 Y301.7041 I0.1810 J0.3670 F900
G02 X157.5367 Y301.3906 I0.2273 J-0.3402 F900
G02 X156.9474 Y300.9969 I-0.4083 J-0.0268 F900
G01 X157.0138 Y301.1315 F900
G00 Z0.0000 F480
G01 Z-6.7200 F120
G01 X156.9474 Y300.9969 F900
G02 X156.9011 Y301.7041 I0.1810 J0.3670 F900
G02 X157.5367 Y301.3906 I0.2273 J-0.3402 F900
G02 X156.9474 Y300.9969 I-0.4083 J-0.0268 F900
G01 X157.0138 Y301.1315 F900
G00 Z0.0000 F480
G00 Z5.0000 F480


;No. 27: Hole 23
G00 X164.7618 Y291.9888 Z5.0000 F1500
G00 Z0.5000 F480
G01 Z0.0000 F120
G02 Y292.4375 Z-1.0062 I0.1295 J0.2244 F120
G02 X165.1504 Y292.2131 Z-2.0124 I0.1295 J-0.2244 F120
G02 X164.7706 Y291.9839 Z-3.0000 I-0.2591 J0.0000 F120
G03 X165.1504 Y292.2131 Z-3.9876 I0.1208 J0.2292 F120
G03 X164.7618 Y292.4375 Z-4.9938 I-0.2591 J0.0000 F120
G03 Y291.9888 Z-6.0000 I0.1295 J-0.2244 F120
G02 Y292.4375 I0.1295 J0.2244 F900
G02 X165.1504 Y292.2131 I0.1295 J-0.2244 F900
G02 X164.7618 Y291.9888 I-0.2591 J0.0000 F900
G02 X164.6715 Y292.3502 Z-6.3600 I0.1295 J0.2244 F120
G03 X164.7618 Y291.9888 Z-6.7200 I0.2199 J-0.1370 F120
G02 Y292.4375 I0.1295 J0.2244 F900
G02 X165.1504 Y292.2131 I0.1295 J-0.2244 F900
G02 X164.7618 Y291.9888 I-0.2591 J0.0000 F900
G00 Z5.0000 F480


;No. 28: Hole 23
G00 X164.7618 Y291.9888 Z5.0000 F1500
G00 Z0.5000 F480
G01 Z-6.0000 F120
G01 X164.6868 Y291.8588 F900
G02 Y292.5675 I0.2046 J0.3543 F900
G02 X165.3005 Y292.2131 I0.2046 J-0.3543 F900
G02 X164.6868 Y291.8588 I-0.4091 J0.0000 F900
G01 X164.7618 Y291.9888 F900
G00 Z0.0000 F480
G01 Z-6.7200 F120
G01 X164.6868 Y291.8588 F900
G02 Y292.5675 I0.2046 J0.3543 F900
G02 X165.3005 Y292.2131 I0.2046 J-0.3543 F900
G02 X164.6868 Y291.8588 I-0.4091 J0.0000 F900
G01 X164.7618 Y291.9888 F900
G00 Z0.0000 F480
G00 Z5.0000 F480


;No. 29: Hole 22
G00 X172.5248 Y301.1395 Z5.0000 F1500
G00 Z0.5000 F480
G01 Z0.0000 F120
G02 Y301.5882 Z-1.0062 I0.1295 J0.2244 F120
G02 X172.9134 Y301.3639 Z-2.0124 I0.1295 J-0.2244 F120
G02 X172.5335 Y301.1347 Z-3.0000 I-0.2591 J0.0000 F120
G03 X172.9134 Y301.3639 Z-3.9876 I0.1208 J0.2292 F120
G03 X172.5248 Y301.5882 Z-4.9938 I-0.2591 J0.0000 F120
G03 Y301.1395 Z-6.0000 I0.1295 J-0.2244 F120
G02 Y301.5882 I0.1295 J0.2244 F900
G02 X172.9134 Y301.3639 I0.1295 J-0.2244 F900
G02 X172.5248 Y301.1395 I-0.2591 J0.0000 F900
G02 X172.4345 Y301.5009 Z-6.3600 I0.1295 J0.2244 F120
G03 X172.5248 Y301.1395 Z-6.7200 I0.2199 J-0.1370 F120
G02 Y301.5882 I0.1295 J0.2244 F900
G02 X172.9134 Y301.3639 I0.1295 J-0.2244 F900
G02 X172.5248 Y301.1395 I-0.2591 J0.0000 F900
G00 Z5.0000 F480


;No. 30: Hole 22
G00 X172.5248 Y301.1395 Z5.0000 F1500
G00 Z0.5000 F480
G01 Z-6.0000 F120
G01 X172.4497 Y301.0095 F900
G02 Y301.7182 I0.2046 J0.3543 F900
G02 X173.0635 Y301.3639 I0.2046 J-0.3543 F900
G02 X172.4497 Y301.0095 I-0.4091 J0.0000 F900
G01 X172.5248 Y301.1395 F900
G00 Z0.0000 F480
G01 Z-6.7200 F120
G01 X172.4497 Y301.0095 F900
G02 Y301.7182 I0.2046 J0.3543 F900
G02 X173.0635 Y301.3639 I0.2046 J-0.3543 F900
G02 X172.4497 Y301.0095 I-0.4091 J0.0000 F900
G01 X172.5248 Y301.1395 F900
G00 Z0.0000 F480
G00 Z5.0000 F480


;No. 31: Hole 21
G00 X164.7768 Y310.2823 Z5.0000 F1500
G00 Z0.5000 F480
G01 Z0.0000 F120
G02 X164.7474 Y310.7300 Z-1.0062 I0.1146 J0.2324 F120
G02 X165.1499 Y310.5316 Z-2.0124 I0.1439 J-0.2154 F120
G02 X164.7858 Y310.2780 Z-3.0000 I-0.2585 J-0.0169 F120
G03 X165.1499 Y310.5316 Z-3.9876 I0.1055 J0.2366 F120
G03 X164.7474 Y310.7300 Z-4.9938 I-0.2585 J-0.0169 F120
G03 X164.7768 Y310.2823 Z-6.0000 I0.1439 J-0.2154 F120
G02 X164.7474 Y310.7300 I0.1146 J0.2324 F900
G02 X165.1499 Y310.5316 I0.1439 J-0.2154 F900
G02 X164.7768 Y310.2823 I-0.2585 J-0.0169 F900
G02 X164.6630 Y310.6370 Z-6.3600 I0.1146 J0.2324 F120
G03 X164.7768 Y310.2823 Z-6.7200 I0.2283 J-0.1224 F120
G02 X164.7474 Y310.7300 I0.1146 J0.2324 F900
G02 X165.1499 Y310.5316 I0.1439 J-0.2154 F900
G02 X164.7768 Y310.2823 I-0.2585 J-0.0169 F900
G00 Z5.0000 F480


;No. 32: Hole 21
G00 X164.7768 Y310.2823 Z5.0000 F1500
G00 Z0.5000 F480
G01 Z-6.0000 F120
G01 X164.7104 Y310.1477 F900
G02 X164.6640 Y310.8548 I0.1810 J0.3670 F900
G02 X165.2996 Y310.5414 I0.2273 J-0.3402 F900
G02 X164.7104 Y310.1477 I-0.4083 J-0.0268 F900
G01 X164.7768 Y310.2823 F900
G00 Z0.0000 F480
G01 Z-6.7200 F120
G01 X164.7104 Y310.1477 F900
G02 X164.6640 Y310.8548 I0.1810 J0.3670 F900
G02 X165.2996 Y310.5414 I0.2273 J-0.3402 F900
G02 X164.7104 Y310.1477 I-0.4083 J-0.0268 F900
G01 X164.7768 Y310.2823 F900
G00 Z0.0000 F480
G00 Z5.0000 F480


;No. 33: Hole 4
G00 X164.4945 Y327.7244 Z5.0000 F1500
G00 Z0.5000 F480
G01 Z0.0000 F120
G02 X165.2882 Y329.3048 Z-2.4058 I0.3969 J0.7902 F120
G02 X165.7281 Y328.8007 Z-3.0000 I-0.3968 J-0.7902 F120
G03 X165.2882 Y329.3048 Z-3.5942 I-0.8367 J-0.2861 F120
G03 X164.4945 Y327.7244 Z-6.0000 I-0.3969 J-0.7902 F120
G02 X165.2882 Y329.3048 I0.3969 J0.7902 F900
G02 X164.4636 Y327.7407 I-0.3968 J-0.7902 F900
G02 X164.0068 Y328.5235 I0.4285 J0.7748 F900
G01 X164.0063 Y332.9902 F900
G02 X165.7763 Y333.0046 I0.8849 J0.0235 F900
G01 Y332.7946 F900
G01 X165.7741 Y328.4632 F900
G02 X164.4945 Y327.7244 I-0.8828 J0.0514 F900
G02 X164.1796 Y327.9899 Z-6.3600 I0.3969 J0.7902 F120
G03 X164.4945 Y327.7244 Z-6.7200 I0.7118 J0.5247 F120
G02 X165.2882 Y329.3048 I0.3969 J0.7902 F900
G02 X164.4636 Y327.7407 I-0.3968 J-0.7902 F900
G02 X164.0068 Y328.5235 I0.4285 J0.7748 F900
G01 X164.0063 Y332.9902 F900
G02 X165.7763 Y333.0046 I0.8849 J0.0235 F900
G01 Y332.7946 F900
G01 X165.7741 Y328.4632 F900
G02 X164.4945 Y327.7244 I-0.8828 J0.0514 F900
G00 Z5.0000 F480


;No. 34: Hole 4
G00 X164.4945 Y327.7244 Z5.0000 F1500
G00 Z0.5000 F480
G01 Z-6.0000 F120
G01 X164.4271 Y327.5903 F900
G02 X165.4085 Y329.4104 I0.4642 J0.9243 F900
G02 X164.3410 Y327.6388 I-0.5172 J-0.8958 F900
G02 X163.8586 Y328.4566 I0.5503 J0.8758 F900
G01 X163.8590 Y328.4420 F900
G01 X163.8566 Y328.5292 F900
G01 X163.8563 Y332.9923 F900
G02 X165.9263 Y333.0046 I1.0349 J0.0215 F900
G01 Y328.5246 F900
G02 X164.4271 Y327.5903 I-1.0350 J-0.0092 F900
G01 X164.4945 Y327.7244 F900
G00 Z0.0000 F480
G01 Z-6.7200 F120
G01 X164.4271 Y327.5903 F900
G02 X165.4085 Y329.4104 I0.4642 J0.9243 F900
G02 X164.3410 Y327.6388 I-0.5172 J-0.8958 F900
G02 X163.8586 Y328.4566 I0.5503 J0.8758 F900
G01 X163.8590 Y328.4420 F900
G01 X163.8566 Y328.5292 F900
G01 X163.8563 Y332.9923 F900
G02 X165.9263 Y333.0046 I1.0349 J0.0215 F900
G01 Y328.5246 F900
G02 X164.4271 Y327.5903 I-1.0350 J-0.0092 F900
G01 X164.4945 Y327.7244 F900
G00 Z0.0000 F480
G00 Z5.0000 F480


;No. 35: Hole 12
G00 X293.8833 Y120.7156 Z5.0000 F1500
G00 Z0.5000 F480
G01 Z0.0000 F120
G01 X293.8912 Y120.7220 Z-0.0088 F120
G01 X293.9229 Y120.7231 Z-0.0362 F120
G01 X297.3451 Z-3.0000 F120
G01 X293.9229 Z-5.9638 F120
G01 X293.8912 Y120.7220 Z-5.9912 F120
G01 X293.8833 Y120.7156 Z-6.0000 F120
G01 X293.8912 Y120.7220 F900
G01 X293.9229 Y120.7231 F900
G01 X299.8608 F900
G01 X299.8972 Y120.7202 F900
G01 X299.9004 Y120.7106 F900
G01 X299.8925 Y120.7043 F900
G01 X299.8608 Y120.7031 F900
G01 X293.9229 F900
G01 X293.8833 Y120.7156 F900
G01 X293.8912 Y120.7220 Z-6.0088 F120
G01 X293.9229 Y120.7231 Z-6.0362 F120
G01 X294.2967 Z-6.3600 F120
G01 X293.9229 Z-6.6838 F120
G01 X293.8912 Y120.7220 Z-6.7112 F120
G01 X293.8833 Y120.7156 Z-6.7200 F120
G01 X293.8912 Y120.7220 F900
G01 X293.9229 Y120.7231 F900
G01 X299.8608 F900
G01 X299.8972 Y120.7202 F900
G01 X299.9004 Y120.7106 F900
G01 X299.8925 Y120.7043 F900
G01 X299.8608 Y120.7031 F900
G01 X293.9229 F900
G01 X293.8833 Y120.7156 F900
G00 Z5.0000 F480


;No. 36: Hole 12
G00 X293.8833 Y120.7156 Z5.0000 F1500
G00 Z0.5000 F480
G01 Z-6.0000 F120
G01 X293.7472 Y120.6471 F900
G02 X293.9202 Y120.8731 I0.1482 J0.0658 F900
G01 X299.8635 F900
G02 Y120.5531 I0.0254 J-0.1600 F900
G01 X293.9202 F900
G02 X293.7472 Y120.6471 I-0.0222 J0.1653 F900
G01 X293.8833 Y120.7156 F900
G00 Z0.0000 F480
G01 Z-6.7200 F120
G01 X293.7472 Y120.6471 F900
G02 X293.9202 Y120.8731 I0.1482 J0.0658 F900
G01 X299.8635 F900
G02 Y120.5531 I0.0254 J-0.1600 F900
G01 X293.9202 F900
G02 X293.7472 Y120.6471 I-0.0222 J0.1653 F900
G01 X293.8833 Y120.7156 F900
G00 Z0.0000 F480
G00 Z5.0000 F480


;No. 37: Hole 11
G00 X293.8833 Y106.7156 Z5.0000 F1500
G00 Z0.5000 F480
G01 Z0.0000 F120
G01 X293.8912 Y106.7220 Z-0.0088 F120
G01 X293.9229 Y106.7231 Z-0.0362 F120
G01 X297.3451 Z-3.0000 F120
G01 X293.9229 Z-5.9638 F120
G01 X293.8912 Y106.7220 Z-5.9912 F120
G01 X293.8833 Y106.7156 Z-6.0000 F120
G01 X293.8912 Y106.7220 F900
G01 X293.9229 Y106.7231 F900
G01 X299.8608 F900
G01 X299.8972 Y106.7202 F900
G01 X299.9004 Y106.7106 F900
G01 X299.8925 Y106.7043 F900
G01 X299.8608 Y106.7031 F900
G01 X293.9229 F900
G01 X293.8833 Y106.7156 F900
G01 X293.8912 Y106.7220 Z-6.0088 F120
G01 X293.9229 Y106.7231 Z-6.0362 F120
G01 X294.2967 Z-6.3600 F120
G01 X293.9229 Z-6.6838 F120
G01 X293.8912 Y106.7220 Z-6.7112 F120
G01 X293.8833 Y106.7156 Z-6.7200 F120
G01 X293.8912 Y106.7220 F900
G01 X293.9229 Y106.7231 F900
G01 X299.8608 F900
G01 X299.8972 Y106.7202 F900
G01 X299.9004 Y106.7106 F900
G01 X299.8925 Y106.7043 F900
G01 X299.8608 Y106.7031 F900
G01 X293.9229 F900
G01 X293.8833 Y106.7156 F900
G00 Z5.0000 F480


;No. 38: Hole 11
G00 X293.8833 Y106.7156 Z5.0000 F1500
G00 Z0.5000 F480
G01 Z-6.0000 F120
G01 X293.7429 Y106.6576 F900
G02 X293.9202 Y106.8731 I0.1528 J0.0550 F900
G01 X299.8635 F900
G02 Y106.5531 I0.0254 J-0.1600 F900
G01 X293.9202 F900
G02 X293.7429 Y106.6576 I-0.0227 J0.1643 F900
G01 X293.8833 Y106.7156 F900
G00 Z0.0000 F480
G01 Z-6.7200 F120
G01 X293.7429 Y106.6576 F900
G02 X293.9202 Y106.8731 I0.1528 J0.0550 F900
G01 X299.8635 F900
G02 Y106.5531 I0.0254 J-0.1600 F900
G01 X293.9202 F900
G02 X293.7429 Y106.6576 I-0.0227 J0.1643 F900
G01 X293.8833 Y106.7156 F900
G00 Z0.0000 F480
G00 Z5.0000 F480


;No. 39: Hole 2
G00 X317.3333 Y55.0055 Z5.0000 F1500
G00 Z0.5000 F480
G01 Z0.0000 F120
G02 X318.6751 Y55.9556 Z-1.8259 I0.8605 J0.2072 F120
G01 X319.8320 Y55.2488 Z-3.0000 F120
G01 X318.6751 Y55.9556 Z-4.1741 F120
G03 X317.3333 Y55.0055 Z-6.0000 I-0.4813 J-0.7429 F120
G02 X318.6751 Y55.9556 I0.8605 J0.2072 F900
G01 X322.4735 Y53.6351 F900
G02 X321.5507 Y52.1246 I-0.4414 J-0.7674 F900
G01 X317.7523 Y54.4452 F900
G02 X317.3333 Y55.0055 I0.4456 J0.7701 F900
G02 X317.3326 Y55.4174 Z-6.3600 I0.8605 J0.2072 F120
G03 X317.3333 Y55.0055 Z-6.7200 I0.8612 J-0.2046 F120
G02 X318.6751 Y55.9556 I0.8605 J0.2072 F900
G01 X322.4735 Y53.6351 F900
G02 X321.5507 Y52.1246 I-0.4414 J-0.7674 F900
G01 X317.7523 Y54.4452 F900
G02 X317.3333 Y55.0055 I0.4456 J0.7701 F900
G00 Z5.0000 F480


;No. 40: Hole 2
G00 X317.3333 Y55.0055 Z5.0000 F1500
G00 Z0.5000 F480
G01 Z-6.0000 F120
G01 X317.1874 Y54.9703 F900
G02 X318.7515 Y56.0847 I1.0063 J0.2425 F900
G01 X322.5535 Y53.7620 F900
G02 X321.4743 Y51.9955 I-0.5213 J-0.8944 F900
G01 X317.6723 Y54.3183 F900
G02 X317.1874 Y54.9703 I0.5249 J0.8967 F900
G01 X317.3333 Y55.0055 F900
G00 Z0.0000 F480
G01 Z-6.7200 F120
G01 X317.1874 Y54.9703 F900
G02 X318.7515 Y56.0847 I1.0063 J0.2425 F900
G01 X322.5535 Y53.7620 F900
G02 X321.4743 Y51.9955 I-0.5213 J-0.8944 F900
G01 X317.6723 Y54.3183 F900
G02 X317.1874 Y54.9703 I0.5249 J0.8967 F900
G01 X317.3333 Y55.0055 F900
G00 Z0.0000 F480
G00 Z5.0000 F480


;No. 41: Part 1
G00 X9.1550 Y3.6917 Z5.0000 F1500
G00 Z0.5000 F480
G01 Z0.0000 F120
G03 X11.2015 Y0.9194 Z-3.0000 I8.7340 J4.3061 F120
G02 X9.1550 Y3.6917 Z-6.0000 I6.6874 J7.0783 F120
G03 X17.8629 Y-1.7400 I8.7340 J4.3061 F900
G01 X311.9198 F900
G03 X321.6313 Y7.9715 I-0.0263 J9.7378 F900
G01 Y38.2213 F900
G02 X325.6118 Y44.0785 I6.2667 J0.0224 F900
G03 X328.6919 Y59.6243 I-3.5732 J8.7860 F900
G01 X322.8594 Y67.5661 F900
G02 X321.6313 Y71.3130 I5.0441 J3.7279 F900
G01 Y302.0285 F900
G03 X311.9198 Y311.7400 I-9.7378 J-0.0263 F900
G01 X202.6017 F900
G02 X177.4200 Y327.1561 I-0.0103 J28.2580 F900
G01 X173.9922 Y335.5118 F900
G03 X155.8063 Y335.5692 I-9.1009 J-2.4922 F900
G01 X152.3678 Y327.1661 F900
G02 X127.1764 Y311.7400 I-25.1763 J12.8314 F900
G01 X17.8629 F900
G03 X8.1513 Y302.0285 I0.0263 J-9.7378 F900
G01 Y71.3871 F900
G02 X6.8985 Y67.6067 I-6.2721 J-0.0192 F900
G01 X0.2971 Y58.7410 F900
G03 X4.1693 Y44.0792 I7.4485 J-5.8751 F900
G02 X8.1513 Y38.2213 I-2.2848 J-5.8356 F900
G01 Y7.9715 F900
G03 X9.1550 Y3.6917 I9.7257 J0.0231 F900
G03 X9.3467 Y3.3229 Z-6.3600 I8.7340 J4.3061 F120
G02 X9.1550 Y3.6917 Z-6.7200 I8.5423 J4.6749 F120
G03 X17.8629 Y-1.7400 I8.7340 J4.3061 F900
G01 X311.9198 F900
G03 X321.6313 Y7.9715 I-0.0263 J9.7378 F900
G01 Y38.2213 F900
G02 X325.6118 Y44.0785 I6.2667 J0.0224 F900
G03 X328.6919 Y59.6243 I-3.5732 J8.7860 F900
G01 X322.8594 Y67.5661 F900
G02 X321.6313 Y71.3130 I5.0441 J3.7279 F900
G01 Y302.0285 F900
G03 X311.9198 Y311.7400 I-9.7378 J-0.0263 F900
G01 X202.6017 F900
G02 X177.4200 Y327.1561 I-0.0103 J28.2580 F900
G01 X173.9922 Y335.5118 F900
G03 X155.8063 Y335.5692 I-9.1009 J-2.4922 F900
G01 X152.3678 Y327.1661 F900
G02 X127.1764 Y311.7400 I-25.1763 J12.8314 F900
G01 X17.8629 F900
G03 X8.1513 Y302.0285 I0.0263 J-9.7378 F900
G01 Y71.3871 F900
G02 X6.8985 Y67.6067 I-6.2721 J-0.0192 F900
G01 X0.2971 Y58.7410 F900
G03 X4.1693 Y44.0792 I7.4485 J-5.8751 F900
G02 X8.1513 Y38.2213 I-2.2848 J-5.8356 F900
G01 Y7.9715 F900
G03 X9.1550 Y3.6917 I9.7257 J0.0231 F900
G00 Z5.0000 F480


;No. 42: Part 1
G00 X9.1550 Y3.6917 Z5.0000 F1500
G00 Z0.5000 F480
G01 Z-6.0000 F120
G01 X9.2896 Y3.7581 F900
G03 X17.8653 Y-1.5900 I8.5996 J4.2399 F900
G01 X311.9174 F900
G03 X321.4813 Y7.9740 I-0.0240 J9.5880 F900
G01 Y38.2236 F900
G02 X325.5518 Y44.2160 I6.4160 J0.0205 F900
G03 X328.5775 Y59.5266 I-3.5135 J8.6486 F900
G01 X322.7374 Y67.4789 F900
G02 X321.4813 Y71.3110 I5.1650 J3.8148 F900
G01 Y302.0260 F900
G03 X311.9174 Y311.5900 I-9.5880 J-0.0240 F900
G01 X202.6008 F900
G02 X177.2840 Y327.0923 I-0.0094 J28.4081 F900
G01 X173.8505 Y335.4621 F900
G03 X155.9479 Y335.5191 I-8.9592 J-2.4428 F900
G01 X152.5038 Y327.1025 F900
G02 X127.1777 Y311.5900 I-25.3123 J12.8953 F900
G01 X17.8653 F900
G03 X8.3013 Y302.0260 I0.0240 J-9.5880 F900
G01 Y71.3851 F900
G02 X7.0200 Y67.5187 I-6.4210 J-0.0175 F900
G01 X0.4174 Y58.6514 F900
G03 X4.2294 Y44.2166 I7.3286 J-5.7854 F900
G02 X8.3013 Y38.2236 I-2.3443 J-5.9726 F900
G01 Y7.9740 F900
G03 X9.2896 Y3.7581 I9.5769 J0.0211 F900
G01 X9.1550 Y3.6917 F900
G00 Z0.0000 F480
G01 Z-6.7200 F120
G01 X9.2896 Y3.7581 F900
G03 X17.8653 Y-1.5900 I8.5996 J4.2399 F900
G01 X311.9174 F900
G03 X321.4813 Y7.9740 I-0.0240 J9.5880 F900
G01 Y38.2236 F900
G02 X325.5518 Y44.2160 I6.4160 J0.0205 F900
G03 X328.5775 Y59.5266 I-3.5135 J8.6486 F900
G01 X322.7374 Y67.4789 F900
G02 X321.4813 Y71.3110 I5.1650 J3.8148 F900
G01 Y302.0260 F900
G03 X311.9174 Y311.5900 I-9.5880 J-0.0240 F900
G01 X202.6008 F900
G02 X177.2840 Y327.0923 I-0.0094 J28.4081 F900
G01 X173.8505 Y335.4621 F900
G03 X155.9479 Y335.5191 I-8.9592 J-2.4428 F900
G01 X152.5038 Y327.1025 F900
G02 X127.1777 Y311.5900 I-25.3123 J12.8953 F900
G01 X17.8653 F900
G03 X8.3013 Y302.0260 I0.0240 J-9.5880 F900
G01 Y71.3851 F900
G02 X7.0200 Y67.5187 I-6.4210 J-0.0175 F900
G01 X0.4174 Y58.6514 F900
G03 X4.2294 Y44.2166 I7.3286 J-5.7854 F900
G02 X8.3013 Y38.2236 I-2.3443 J-5.9726 F900
G01 Y7.9740 F900
G03 X9.2896 Y3.7581 I9.5769 J0.0211 F900
G01 X9.1550 Y3.6917 F900
G00 Z0.0000 F480
G00 Z5.0000 F480
G00 X0.0000 Y0.0000 F1500

M05
