;Project 250x250-panel-rear
;Created by Estlcam version 11 build 11.245
;Machining time about 00:08:36 hours

G90
M03 S10000
G00 X0.0000 Y0.0000 Z0.0000 F1500
G00 Z5.0000 F480


;No. 1: Hole 27
G00 X9.9853 Y19.9695 F1500
G00 Z0.5000 F480
G01 Z0.0000 F120 S10000
G02 X10.0191 Y20.0280 Z-1.6489 I0.0147 J0.0305 F120
G02 X9.9948 Y19.9665 Z-3.0000 I-0.0191 J-0.0280 F120
G03 X10.0191 Y20.0280 Z-4.3511 I0.0052 J0.0335 F120
G03 X9.9853 Y19.9695 Z-6.0000 I-0.0191 J-0.0280 F120
G02 X10.0191 Y20.0280 I0.0147 J0.0305 F900
G02 X9.9853 Y19.9695 I-0.0191 J-0.0280 F900
G02 X10.0191 Y20.0280 Z-6.1979 I0.0147 J0.0305 F120
G02 X9.9948 Y19.9665 Z-6.3600 I-0.0191 J-0.0280 F120
G03 X10.0191 Y20.0280 Z-6.5221 I0.0052 J0.0335 F120
G03 X9.9853 Y19.9695 Z-6.7200 I-0.0191 J-0.0280 F120
G02 X10.0191 Y20.0280 I0.0147 J0.0305 F900
G02 X9.9853 Y19.9695 I-0.0191 J-0.0280 F900
G00 Z5.0000 F480


;No. 2: Hole 26
G00 X41.5545 Y9.9925 Z5.0000 F1500
G00 Z0.5000 F480
G01 Z0.0000 F120
G02 X41.6213 Y10.0025 Z-1.6489 I0.0330 J0.0075 F120
G02 X41.5581 Y9.9832 Z-3.0000 I-0.0338 J-0.0025 F120
G03 X41.6213 Y10.0025 Z-4.3511 I0.0294 J0.0168 F120
G03 X41.5545 Y9.9925 Z-6.0000 I-0.0338 J-0.0025 F120
G02 X41.6213 Y10.0025 I0.0330 J0.0075 F900
G02 X41.5545 Y9.9925 I-0.0338 J-0.0025 F900
G02 X41.6213 Y10.0025 Z-6.1979 I0.0330 J0.0075 F120
G02 X41.5581 Y9.9832 Z-6.3600 I-0.0338 J-0.0025 F120
G03 X41.6213 Y10.0025 Z-6.5221 I0.0294 J0.0168 F120
G03 X41.5545 Y9.9925 Z-6.7200 I-0.0338 J-0.0025 F120
G02 X41.6213 Y10.0025 I0.0330 J0.0075 F900
G02 X41.5545 Y9.9925 I-0.0338 J-0.0025 F900
G00 Z5.0000 F480


;No. 3: Hole 46
G00 X41.5545 Y9.9925 Z5.0000 F1500
G00 Z0.5000 F480
G01 Z0.0000 F120
G02 X41.6213 Y10.0025 Z-1.6489 I0.0330 J0.0075 F120
G02 X41.5581 Y9.9832 Z-3.0000 I-0.0338 J-0.0025 F120
G03 X41.6213 Y10.0025 Z-4.3511 I0.0294 J0.0168 F120
G03 X41.5545 Y9.9925 Z-6.0000 I-0.0338 J-0.0025 F120
G02 X41.6213 Y10.0025 I0.0330 J0.0075 F900
G02 X41.5545 Y9.9925 I-0.0338 J-0.0025 F900
G02 X41.6213 Y10.0025 Z-6.1979 I0.0330 J0.0075 F120
G02 X41.5581 Y9.9832 Z-6.3600 I-0.0338 J-0.0025 F120
G03 X41.6213 Y10.0025 Z-6.5221 I0.0294 J0.0168 F120
G03 X41.5545 Y9.9925 Z-6.7200 I-0.0338 J-0.0025 F120
G02 X41.6213 Y10.0025 I0.0330 J0.0075 F900
G02 X41.5545 Y9.9925 I-0.0338 J-0.0025 F900
G00 Z5.0000 F480


;No. 4: Hole 45
G00 X136.5537 Y9.9975 Z5.0000 F1500
G00 Z0.5000 F480
G01 Z0.0000 F120
G02 X136.6213 Z-1.6489 I0.0338 J0.0025 F120
G02 X136.5559 Y9.9877 Z-3.0000 I-0.0338 J0.0025 F120
G03 X136.6213 Y9.9975 Z-4.3511 I0.0316 J0.0123 F120
G03 X136.5537 Z-6.0000 I-0.0338 J0.0025 F120
G02 X136.6213 I0.0338 J0.0025 F900
G02 X136.5537 I-0.0338 J0.0025 F900
G02 X136.6213 Z-6.1979 I0.0338 J0.0025 F120
G02 X136.5559 Y9.9877 Z-6.3600 I-0.0338 J0.0025 F120
G03 X136.6213 Y9.9975 Z-6.5221 I0.0316 J0.0123 F120
G03 X136.5537 Z-6.7200 I-0.0338 J0.0025 F120
G02 X136.6213 I0.0338 J0.0025 F900
G02 X136.5537 I-0.0338 J0.0025 F900
G00 Z5.0000 F480


;No. 5: Hole 44
G00 X231.5537 Y9.9975 Z5.0000 F1500
G00 Z0.5000 F480
G01 Z0.0000 F120
G02 X231.6213 Z-1.6489 I0.0338 J0.0025 F120
G02 X231.5559 Y9.9877 Z-3.0000 I-0.0338 J0.0025 F120
G03 X231.6213 Y9.9975 Z-4.3511 I0.0316 J0.0123 F120
G03 X231.5537 Z-6.0000 I-0.0338 J0.0025 F120
G02 X231.6213 I0.0338 J0.0025 F900
G02 X231.5537 I-0.0338 J0.0025 F900
G02 X231.6213 Z-6.1979 I0.0338 J0.0025 F120
G02 X231.5559 Y9.9877 Z-6.3600 I-0.0338 J0.0025 F120
G03 X231.6213 Y9.9975 Z-6.5221 I0.0316 J0.0123 F120
G03 X231.5537 Z-6.7200 I-0.0338 J0.0025 F120
G02 X231.6213 I0.0338 J0.0025 F900
G02 X231.5537 I-0.0338 J0.0025 F900
G00 Z5.0000 F480


;No. 6: Hole 47
G00 X231.4321 Y42.4662 Z5.0000 F1500
G00 Z0.5000 F480
G01 Z0.0000 F120
G02 X231.6359 Y42.6514 Z-1.0101 I0.1554 J0.0338 F120
G02 X231.6944 Y42.3824 Z-2.0202 I-0.0484 J-0.1514 F120
G02 X231.4346 Y42.4565 Z-3.0000 I-0.1069 J0.1176 F120
G03 X231.6944 Y42.3824 Z-3.9798 I0.1529 J0.0435 F120
G03 X231.6359 Y42.6514 Z-4.9899 I-0.1069 J0.1176 F120
G03 X231.4321 Y42.4662 Z-6.0000 I-0.0484 J-0.1514 F120
G02 X231.6359 Y42.6514 I0.1554 J0.0338 F900
G02 X231.6944 Y42.3824 I-0.0484 J-0.1514 F900
G02 X231.4321 Y42.4662 I-0.1069 J0.1176 F900
G02 X231.6359 Y42.6514 Z-6.2884 I0.1554 J0.0338 F120
G02 X231.7048 Y42.6073 Z-6.3600 I-0.0484 J-0.1514 F120
G03 X231.6359 Y42.6514 Z-6.4316 I-0.1173 J-0.1073 F120
G03 X231.4321 Y42.4662 Z-6.7200 I-0.0484 J-0.1514 F120
G02 X231.6359 Y42.6514 I0.1554 J0.0338 F900
G02 X231.6944 Y42.3824 I-0.0484 J-0.1514 F900
G02 X231.4321 Y42.4662 I-0.1069 J0.1176 F900
G00 Z5.0000 F480


;No. 7: Hole 48
G00 X231.4538 Y142.4140 Z5.0000 F1500
G00 Z0.5000 F480
G01 Z0.0000 F120
G02 X231.5799 Y142.6588 Z-1.0101 I0.1337 J0.0860 F120
G02 X231.7288 Y142.4271 Z-2.0202 I0.0076 J-0.1588 F120
G02 X231.4594 Y142.4058 Z-3.0000 I-0.1413 J0.0729 F120
G03 X231.7288 Y142.4271 Z-3.9798 I0.1281 J0.0942 F120
G03 X231.5799 Y142.6588 Z-4.9899 I-0.1413 J0.0729 F120
G03 X231.4538 Y142.4140 Z-6.0000 I0.0076 J-0.1588 F120
G02 X231.5799 Y142.6588 I0.1337 J0.0860 F900
G02 X231.7288 Y142.4271 I0.0076 J-0.1588 F900
G02 X231.4538 Y142.4140 I-0.1413 J0.0729 F900
G02 X231.5799 Y142.6588 Z-6.2884 I0.1337 J0.0860 F120
G02 X231.6599 Y142.6416 Z-6.3600 I0.0076 J-0.1588 F120
G03 X231.5799 Y142.6588 Z-6.4316 I-0.0724 J-0.1416 F120
G03 X231.4538 Y142.4140 Z-6.7200 I0.0076 J-0.1588 F120
G02 X231.5799 Y142.6588 I0.1337 J0.0860 F900
G02 X231.7288 Y142.4271 I0.0076 J-0.1588 F900
G02 X231.4538 Y142.4140 I-0.1413 J0.0729 F900
G00 Z5.0000 F480


;No. 8: Hole 49
G00 X231.4751 Y217.3876 Z5.0000 F1500
G00 Z0.5000 F480
G01 Z0.0000 F120
G02 X231.5464 Y217.6536 Z-1.0101 I0.1124 J0.1124 F120
G02 X231.7411 Y217.4589 Z-2.0202 I0.0411 J-0.1536 F120
G02 X231.4824 Y217.3807 Z-3.0000 I-0.1536 J0.0411 F120
G03 X231.7411 Y217.4589 Z-3.9798 I0.1051 J0.1193 F120
G03 X231.5464 Y217.6536 Z-4.9899 I-0.1536 J0.0411 F120
G03 X231.4751 Y217.3876 Z-6.0000 I0.0411 J-0.1536 F120
G02 X231.5464 Y217.6536 I0.1124 J0.1124 F900
G02 X231.7411 Y217.4589 I0.0411 J-0.1536 F900
G02 X231.4751 Y217.3876 I-0.1536 J0.0411 F900
G02 X231.5464 Y217.6536 Z-6.2884 I0.1124 J0.1124 F120
G02 X231.6281 Y217.6537 Z-6.3600 I0.0411 J-0.1536 F120
G03 X231.5464 Y217.6536 Z-6.4316 I-0.0406 J-0.1537 F120
G03 X231.4751 Y217.3876 Z-6.7200 I0.0411 J-0.1536 F120
G02 X231.5464 Y217.6536 I0.1124 J0.1124 F900
G02 X231.7411 Y217.4589 I0.0411 J-0.1536 F900
G02 X231.4751 Y217.3876 I-0.1536 J0.0411 F900
G00 Z5.0000 F480


;No. 9: Hole 50
G00 X231.4922 Y317.3727 Z5.0000 F1500
G00 Z0.5000 F480
G01 Z0.0000 F120
G02 X231.5249 Y317.6461 Z-1.0101 I0.0953 J0.1273 F120
G02 X231.7454 Y317.4811 Z-2.0202 I0.0626 J-0.1461 F120
G02 X231.5004 Y317.3670 Z-3.0000 I-0.1579 J0.0189 F120
G03 X231.7454 Y317.4811 Z-3.9798 I0.0871 J0.1330 F120
G03 X231.5249 Y317.6461 Z-4.9899 I-0.1579 J0.0189 F120
G03 X231.4922 Y317.3727 Z-6.0000 I0.0626 J-0.1461 F120
G02 X231.5249 Y317.6461 I0.0953 J0.1273 F900
G02 X231.7454 Y317.4811 I0.0626 J-0.1461 F900
G02 X231.4922 Y317.3727 I-0.1579 J0.0189 F900
G02 X231.5249 Y317.6461 Z-6.2884 I0.0953 J0.1273 F120
G02 X231.6058 Y317.6579 Z-6.3600 I0.0626 J-0.1461 F120
G03 X231.5249 Y317.6461 Z-6.4316 I-0.0183 J-0.1579 F120
G03 X231.4922 Y317.3727 Z-6.7200 I0.0626 J-0.1461 F120
G02 X231.5249 Y317.6461 I0.0953 J0.1273 F900
G02 X231.7454 Y317.4811 I0.0626 J-0.1461 F900
G02 X231.4922 Y317.3727 I-0.1579 J0.0189 F900
G00 Z5.0000 F480


;No. 10: Hole 51
G00 X231.5684 Y349.9720 Z5.0000 F1500
G00 Z0.5000 F480
G01 Z0.0000 F120
G02 X231.6105 Y350.0248 Z-1.6489 I0.0191 J0.0280 F120
G02 X231.5774 Y349.9677 Z-3.0000 I-0.0230 J-0.0248 F120
G03 X231.6105 Y350.0248 Z-4.3511 I0.0101 J0.0323 F120
G03 X231.5684 Y349.9720 Z-6.0000 I-0.0230 J-0.0248 F120
G02 X231.6105 Y350.0248 I0.0191 J0.0280 F900
G02 X231.5684 Y349.9720 I-0.0230 J-0.0248 F900
G02 X231.6105 Y350.0248 Z-6.1979 I0.0191 J0.0280 F120
G02 X231.5774 Y349.9677 Z-6.3600 I-0.0230 J-0.0248 F120
G03 X231.6105 Y350.0248 Z-6.5221 I0.0101 J0.0323 F120
G03 X231.5684 Y349.9720 Z-6.7200 I-0.0230 J-0.0248 F120
G02 X231.6105 Y350.0248 I0.0191 J0.0280 F900
G02 X231.5684 Y349.9720 I-0.0230 J-0.0248 F900
G00 Z5.0000 F480


;No. 11: Hole 34
G00 X231.6074 Y384.9710 Z5.0000 F1500
G00 Z0.5000 F480
G01 Z0.0000 F120
G02 X231.6455 Y385.0269 Z-1.6489 I0.0169 J0.0293 F120
G02 X231.6167 Y384.9674 Z-3.0000 I-0.0211 J-0.0265 F120
G03 X231.6455 Y385.0269 Z-4.3511 I0.0077 J0.0330 F120
G03 X231.6074 Y384.9710 Z-6.0000 I-0.0211 J-0.0265 F120
G02 X231.6455 Y385.0269 I0.0169 J0.0293 F900
G02 X231.6074 Y384.9710 I-0.0211 J-0.0265 F900
G02 X231.6455 Y385.0269 Z-6.1979 I0.0169 J0.0293 F120
G02 X231.6167 Y384.9674 Z-6.3600 I-0.0211 J-0.0265 F120
G03 X231.6455 Y385.0269 Z-6.5221 I0.0077 J0.0330 F120
G03 X231.6074 Y384.9710 Z-6.7200 I-0.0211 J-0.0265 F120
G02 X231.6455 Y385.0269 I0.0169 J0.0293 F900
G02 X231.6074 Y384.9710 I-0.0211 J-0.0265 F900
G00 Z5.0000 F480


;No. 12: Hole 35
G00 X326.6033 Y384.9735 Z5.0000 F1500
G00 Z0.5000 F480
G01 Z0.0000 F120
G02 X326.6492 Y385.0230 Z-1.6489 I0.0211 J0.0265 F120
G02 X326.6119 Y384.9685 Z-3.0000 I-0.0248 J-0.0230 F120
G03 X326.6492 Y385.0230 Z-4.3511 I0.0125 J0.0315 F120
G03 X326.6033 Y384.9735 Z-6.0000 I-0.0248 J-0.0230 F120
G02 X326.6492 Y385.0230 I0.0211 J0.0265 F900
G02 X326.6033 Y384.9735 I-0.0248 J-0.0230 F900
G02 X326.6492 Y385.0230 Z-6.1979 I0.0211 J0.0265 F120
G02 X326.6119 Y384.9685 Z-6.3600 I-0.0248 J-0.0230 F120
G03 X326.6492 Y385.0230 Z-6.5221 I0.0125 J0.0315 F120
G03 X326.6033 Y384.9735 Z-6.7200 I-0.0248 J-0.0230 F120
G02 X326.6492 Y385.0230 I0.0211 J0.0265 F900
G02 X326.6033 Y384.9735 I-0.0248 J-0.0230 F900
G00 Z5.0000 F480


;No. 13: Hole 36
G00 X421.5995 Y384.9770 Z5.0000 F1500
G00 Z0.5000 F480
G01 Z0.0000 F120
G02 X421.6524 Y385.0191 Z-1.6489 I0.0248 J0.0230 F120
G02 X421.6073 Y384.9707 Z-3.0000 I-0.0280 J-0.0191 F120
G03 X421.6524 Y385.0191 Z-4.3511 I0.0171 J0.0293 F120
G03 X421.5995 Y384.9770 Z-6.0000 I-0.0280 J-0.0191 F120
G02 X421.6524 Y385.0191 I0.0248 J0.0230 F900
G02 X421.5995 Y384.9770 I-0.0280 J-0.0191 F900
G02 X421.6524 Y385.0191 Z-6.1979 I0.0248 J0.0230 F120
G02 X421.6073 Y384.9707 Z-6.3600 I-0.0280 J-0.0191 F120
G03 X421.6524 Y385.0191 Z-6.5221 I0.0171 J0.0293 F120
G03 X421.5995 Y384.9770 Z-6.7200 I-0.0280 J-0.0191 F120
G02 X421.6524 Y385.0191 I0.0248 J0.0230 F900
G02 X421.5995 Y384.9770 I-0.0280 J-0.0191 F900
G00 Z5.0000 F480


;No. 14: Hole 37
G00 X453.1485 Y374.9789 Z5.0000 F1500
G00 Z0.5000 F480
G01 Z0.0000 F120
G02 X453.2043 Y375.0169 Z-1.6489 I0.0265 J0.0211 F120
G02 X453.1558 Y374.9721 Z-3.0000 I-0.0293 J-0.0169 F120
G03 X453.2043 Y375.0169 Z-4.3511 I0.0192 J0.0279 F120
G03 X453.1485 Y374.9789 Z-6.0000 I-0.0293 J-0.0169 F120
G02 X453.2043 Y375.0169 I0.0265 J0.0211 F900
G02 X453.1485 Y374.9789 I-0.0293 J-0.0169 F900
G02 X453.2043 Y375.0169 Z-6.1979 I0.0265 J0.0211 F120
G02 X453.1558 Y374.9721 Z-6.3600 I-0.0293 J-0.0169 F120
G03 X453.2043 Y375.0169 Z-6.5221 I0.0192 J0.0279 F120
G03 X453.1485 Y374.9789 Z-6.7200 I-0.0293 J-0.0169 F120
G02 X453.2043 Y375.0169 I0.0265 J0.0211 F900
G02 X453.1485 Y374.9789 I-0.0293 J-0.0169 F900
G00 Z5.0000 F480


;No. 15: Hole 38
G00 X453.1470 Y286.2309 Z5.0000 F1500
G00 Z0.5000 F480
G01 Z0.0000 F120
G02 X453.2055 Y286.2647 Z-1.6489 I0.0280 J0.0191 F120
G02 X453.1538 Y286.2236 Z-3.0000 I-0.0305 J-0.0147 F120
G03 X453.2055 Y286.2647 Z-4.3511 I0.0212 J0.0264 F120
G03 X453.1470 Y286.2309 Z-6.0000 I-0.0305 J-0.0147 F120
G02 X453.2055 Y286.2647 I0.0280 J0.0191 F900
G02 X453.1470 Y286.2309 I-0.0305 J-0.0147 F900
G02 X453.2055 Y286.2647 Z-6.1979 I0.0280 J0.0191 F120
G02 X453.1538 Y286.2236 Z-6.3600 I-0.0305 J-0.0147 F120
G03 X453.2055 Y286.2647 Z-6.5221 I0.0212 J0.0264 F120
G03 X453.1470 Y286.2309 Z-6.7200 I-0.0305 J-0.0147 F120
G02 X453.2055 Y286.2647 I0.0280 J0.0191 F900
G02 X453.1470 Y286.2309 I-0.0305 J-0.0147 F900
G00 Z5.0000 F480


;No. 16: Hole 39
G00 X453.1435 Y197.4876 Z5.0000 F1500
G00 Z0.5000 F480
G01 Z0.0000 F120
G02 X453.2080 Y197.5075 Z-1.6489 I0.0315 J0.0124 F120
G02 X453.1484 Y197.4790 Z-3.0000 I-0.0330 J-0.0075 F120
G03 X453.2080 Y197.5075 Z-4.3511 I0.0266 J0.0210 F120
G03 X453.1435 Y197.4876 Z-6.0000 I-0.0330 J-0.0075 F120
G02 X453.2080 Y197.5075 I0.0315 J0.0124 F900
G02 X453.1435 Y197.4876 I-0.0330 J-0.0075 F900
G02 X453.2080 Y197.5075 Z-6.1979 I0.0315 J0.0124 F120
G02 X453.1484 Y197.4790 Z-6.3600 I-0.0330 J-0.0075 F120
G03 X453.2080 Y197.5075 Z-6.5221 I0.0266 J0.0210 F120
G03 X453.1435 Y197.4876 Z-6.7200 I-0.0330 J-0.0075 F120
G02 X453.2080 Y197.5075 I0.0315 J0.0124 F900
G02 X453.1435 Y197.4876 I-0.0330 J-0.0075 F900
G00 Z5.0000 F480


;No. 17: Hole 40
G00 X453.1420 Y108.7425 Z5.0000 F1500
G00 Z0.5000 F480
G01 Z0.0000 F120
G02 X453.2088 Y108.7525 Z-1.6489 I0.0330 J0.0075 F120
G02 X453.1456 Y108.7332 Z-3.0000 I-0.0338 J-0.0025 F120
G03 X453.2088 Y108.7525 Z-4.3511 I0.0294 J0.0168 F120
G03 X453.1420 Y108.7425 Z-6.0000 I-0.0338 J-0.0025 F120
G02 X453.2088 Y108.7525 I0.0330 J0.0075 F900
G02 X453.1420 Y108.7425 I-0.0338 J-0.0025 F900
G02 X453.2088 Y108.7525 Z-6.1979 I0.0330 J0.0075 F120
G02 X453.1456 Y108.7332 Z-6.3600 I-0.0338 J-0.0025 F120
G03 X453.2088 Y108.7525 Z-6.5221 I0.0294 J0.0168 F120
G03 X453.1420 Y108.7425 Z-6.7200 I-0.0338 J-0.0025 F120
G02 X453.2088 Y108.7525 I0.0330 J0.0075 F900
G02 X453.1420 Y108.7425 I-0.0338 J-0.0025 F900
G00 Z5.0000 F480


;No. 18: Hole 41
G00 X453.1412 Y19.9975 Z5.0000 F1500
G00 Z0.5000 F480
G01 Z0.0000 F120
G02 X453.2088 Z-1.6489 I0.0338 J0.0025 F120
G02 X453.1434 Y19.9877 Z-3.0000 I-0.0338 J0.0025 F120
G03 X453.2088 Y19.9975 Z-4.3511 I0.0316 J0.0123 F120
G03 X453.1412 Z-6.0000 I-0.0338 J0.0025 F120
G02 X453.2088 I0.0338 J0.0025 F900
G02 X453.1412 I-0.0338 J0.0025 F900
G02 X453.2088 Z-6.1979 I0.0338 J0.0025 F120
G02 X453.1434 Y19.9877 Z-6.3600 I-0.0338 J0.0025 F120
G03 X453.2088 Y19.9975 Z-6.5221 I0.0316 J0.0123 F120
G03 X453.1412 Z-6.7200 I-0.0338 J0.0025 F120
G02 X453.2088 I0.0338 J0.0025 F900
G02 X453.1412 I-0.0338 J0.0025 F900
G00 Z5.0000 F480


;No. 19: Hole 42
G00 X421.5536 Y10.0000 Z5.0000 F1500
G00 Z0.5000 F480
G01 Z0.0000 F120
G02 X421.6210 Y9.9949 Z-1.6489 I0.0339 J0.0000 F120
G02 X421.5551 Y9.9901 Z-3.0000 I-0.0335 J0.0051 F120
G03 X421.6210 Y9.9949 Z-4.3511 I0.0324 J0.0099 F120
G03 X421.5536 Y10.0000 Z-6.0000 I-0.0335 J0.0051 F120
G02 X421.6210 Y9.9949 I0.0339 J0.0000 F900
G02 X421.5536 Y10.0000 I-0.0335 J0.0051 F900
G02 X421.6210 Y9.9949 Z-6.1979 I0.0339 J0.0000 F120
G02 X421.5551 Y9.9901 Z-6.3600 I-0.0335 J0.0051 F120
G03 X421.6210 Y9.9949 Z-6.5221 I0.0324 J0.0099 F120
G03 X421.5536 Y10.0000 Z-6.7200 I-0.0335 J0.0051 F120
G02 X421.6210 Y9.9949 I0.0339 J0.0000 F900
G02 X421.5536 Y10.0000 I-0.0335 J0.0051 F900
G00 Z5.0000 F480


;No. 20: Hole 43
G00 X326.5536 Y10.0000 Z5.0000 F1500
G00 Z0.5000 F480
G01 Z0.0000 F120
G02 X326.6210 Y9.9949 Z-1.6489 I0.0339 J0.0000 F120
G02 X326.5551 Y9.9901 Z-3.0000 I-0.0335 J0.0051 F120
G03 X326.6210 Y9.9949 Z-4.3511 I0.0324 J0.0099 F120
G03 X326.5536 Y10.0000 Z-6.0000 I-0.0335 J0.0051 F120
G02 X326.6210 Y9.9949 I0.0339 J0.0000 F900
G02 X326.5536 Y10.0000 I-0.0335 J0.0051 F900
G02 X326.6210 Y9.9949 Z-6.1979 I0.0339 J0.0000 F120
G02 X326.5551 Y9.9901 Z-6.3600 I-0.0335 J0.0051 F120
G03 X326.6210 Y9.9949 Z-6.5221 I0.0324 J0.0099 F120
G03 X326.5536 Y10.0000 Z-6.7200 I-0.0335 J0.0051 F120
G02 X326.6210 Y9.9949 I0.0339 J0.0000 F900
G02 X326.5536 Y10.0000 I-0.0335 J0.0051 F900
G00 Z5.0000 F480


;No. 21: Hole 28
G00 X9.9975 Y108.7162 Z5.0000 F1500
G00 Z0.5000 F480
G01 Z0.0000 F120
G02 X10.0075 Y108.7830 Z-1.6489 I0.0025 J0.0338 F120
G02 X10.0074 Y108.7169 Z-3.0000 I-0.0075 J-0.0330 F120
G03 X10.0075 Y108.7830 Z-4.3511 I-0.0074 J0.0331 F120
G03 X9.9975 Y108.7162 Z-6.0000 I-0.0075 J-0.0330 F120
G02 X10.0075 Y108.7830 I0.0025 J0.0338 F900
G02 X9.9975 Y108.7162 I-0.0075 J-0.0330 F900
G02 X10.0075 Y108.7830 Z-6.1979 I0.0025 J0.0338 F120
G02 X10.0074 Y108.7169 Z-6.3600 I-0.0075 J-0.0330 F120
G03 X10.0075 Y108.7830 Z-6.5221 I-0.0074 J0.0331 F120
G03 X9.9975 Y108.7162 Z-6.7200 I-0.0075 J-0.0330 F120
G02 X10.0075 Y108.7830 I0.0025 J0.0338 F900
G02 X9.9975 Y108.7162 I-0.0075 J-0.0330 F900
G00 Z5.0000 F480


;No. 22: Hole 29
G00 X9.9975 Y197.4662 Z5.0000 F1500
G00 Z0.5000 F480
G01 Z0.0000 F120
G02 X10.0075 Y197.5330 Z-1.6489 I0.0025 J0.0338 F120
G02 X10.0074 Y197.4669 Z-3.0000 I-0.0075 J-0.0330 F120
G03 X10.0075 Y197.5330 Z-4.3511 I-0.0074 J0.0331 F120
G03 X9.9975 Y197.4662 Z-6.0000 I-0.0075 J-0.0330 F120
G02 X10.0075 Y197.5330 I0.0025 J0.0338 F900
G02 X9.9975 Y197.4662 I-0.0075 J-0.0330 F900
G02 X10.0075 Y197.5330 Z-6.1979 I0.0025 J0.0338 F120
G02 X10.0074 Y197.4669 Z-6.3600 I-0.0075 J-0.0330 F120
G03 X10.0075 Y197.5330 Z-6.5221 I-0.0074 J0.0331 F120
G03 X9.9975 Y197.4662 Z-6.7200 I-0.0075 J-0.0330 F120
G02 X10.0075 Y197.5330 I0.0025 J0.0338 F900
G02 X9.9975 Y197.4662 I-0.0075 J-0.0330 F900
G00 Z5.0000 F480


;No. 23: Hole 30
G00 X10.0000 Y286.2161 Z5.0000 F1500
G00 Z0.5000 F480
G01 Z0.0000 F120
G02 X10.0051 Y286.2835 Z-1.6489 I0.0000 J0.0339 F120
G02 X10.0099 Y286.2176 Z-3.0000 I-0.0051 J-0.0335 F120
G03 X10.0051 Y286.2835 Z-4.3511 I-0.0099 J0.0324 F120
G03 X10.0000 Y286.2161 Z-6.0000 I-0.0051 J-0.0335 F120
G02 X10.0051 Y286.2835 I0.0000 J0.0339 F900
G02 X10.0000 Y286.2161 I-0.0051 J-0.0335 F900
G02 X10.0051 Y286.2835 Z-6.1979 I0.0000 J0.0339 F120
G02 X10.0099 Y286.2176 Z-6.3600 I-0.0051 J-0.0335 F120
G03 X10.0051 Y286.2835 Z-6.5221 I-0.0099 J0.0324 F120
G03 X10.0000 Y286.2161 Z-6.7200 I-0.0051 J-0.0335 F120
G02 X10.0051 Y286.2835 I0.0000 J0.0339 F900
G02 X10.0000 Y286.2161 I-0.0051 J-0.0335 F900
G00 Z5.0000 F480


;No. 24: Hole 31
G00 X10.0000 Y374.9661 Z5.0000 F1500
G00 Z0.5000 F480
G01 Z0.0000 F120
G02 X10.0051 Y375.0335 Z-1.6489 I0.0000 J0.0339 F120
G02 X10.0099 Y374.9676 Z-3.0000 I-0.0051 J-0.0335 F120
G03 X10.0051 Y375.0335 Z-4.3511 I-0.0099 J0.0324 F120
G03 X10.0000 Y374.9661 Z-6.0000 I-0.0051 J-0.0335 F120
G02 X10.0051 Y375.0335 I0.0000 J0.0339 F900
G02 X10.0000 Y374.9661 I-0.0051 J-0.0335 F900
G02 X10.0051 Y375.0335 Z-6.1979 I0.0000 J0.0339 F120
G02 X10.0099 Y374.9676 Z-6.3600 I-0.0051 J-0.0335 F120
G03 X10.0051 Y375.0335 Z-6.5221 I-0.0099 J0.0324 F120
G03 X10.0000 Y374.9661 Z-6.7200 I-0.0051 J-0.0335 F120
G02 X10.0051 Y375.0335 I0.0000 J0.0339 F900
G02 X10.0000 Y374.9661 I-0.0051 J-0.0335 F900
G00 Z5.0000 F480


;No. 25: Hole 32
G00 X41.5481 Y384.9662 Z5.0000 F1500
G00 Z0.5000 F480
G01 Z0.0000 F120
G02 X41.5582 Y385.0330 Z-1.6489 I0.0025 J0.0338 F120
G02 X41.5580 Y384.9669 Z-3.0000 I-0.0075 J-0.0330 F120
G03 X41.5582 Y385.0330 Z-4.3511 I-0.0074 J0.0331 F120
G03 X41.5481 Y384.9662 Z-6.0000 I-0.0075 J-0.0330 F120
G02 X41.5582 Y385.0330 I0.0025 J0.0338 F900
G02 X41.5481 Y384.9662 I-0.0075 J-0.0330 F900
G02 X41.5582 Y385.0330 Z-6.1979 I0.0025 J0.0338 F120
G02 X41.5580 Y384.9669 Z-6.3600 I-0.0075 J-0.0330 F120
G03 X41.5582 Y385.0330 Z-6.5221 I-0.0074 J0.0331 F120
G03 X41.5481 Y384.9662 Z-6.7200 I-0.0075 J-0.0330 F120
G02 X41.5582 Y385.0330 I0.0025 J0.0338 F900
G02 X41.5481 Y384.9662 I-0.0075 J-0.0330 F900
G00 Z5.0000 F480


;No. 26: Hole 33
G00 X136.5382 Y384.9685 Z5.0000 F1500
G00 Z0.5000 F480
G01 Z0.0000 F120
G02 X136.5676 Y385.0293 Z-1.6489 I0.0124 J0.0315 F120
G02 X136.5479 Y384.9662 Z-3.0000 I-0.0169 J-0.0293 F120
G03 X136.5676 Y385.0293 Z-4.3511 I0.0027 J0.0338 F120
G03 X136.5382 Y384.9685 Z-6.0000 I-0.0169 J-0.0293 F120
G02 X136.5676 Y385.0293 I0.0124 J0.0315 F900
G02 X136.5382 Y384.9685 I-0.0169 J-0.0293 F900
G02 X136.5676 Y385.0293 Z-6.1979 I0.0124 J0.0315 F120
G02 X136.5479 Y384.9662 Z-6.3600 I-0.0169 J-0.0293 F120
G03 X136.5676 Y385.0293 Z-6.5221 I0.0027 J0.0338 F120
G03 X136.5382 Y384.9685 Z-6.7200 I-0.0169 J-0.0293 F120
G02 X136.5676 Y385.0293 I0.0124 J0.0315 F900
G02 X136.5382 Y384.9685 I-0.0169 J-0.0293 F900
G00 Z5.0000 F480


;No. 27: Part 3
G00 X1.3925 Y1.2901 Z5.0000 F1500
G00 Z0.5000 F480
G01 Z0.0000 F120
G03 X4.3785 Y-0.3865 Z-3.0000 I4.6125 J4.7176 F120
G02 X1.3925 Y1.2901 Z-6.0000 I1.6266 J6.3942 F120
G03 X5.9688 Y-0.5900 I4.6125 J4.7176 F900
G01 X457.2062 F900
G03 X463.7650 Y5.9688 I-0.0344 J6.5932 F900
G01 Y389.0312 F900
G03 X457.2062 Y395.5900 I-6.5932 J-0.0344 F900
G01 X5.9688 F900
G03 X-0.5900 Y389.0312 I0.0344 J-6.5932 F900
G01 Y5.9688 F900
G03 X1.3925 Y1.2901 I6.5960 J0.0356 F900
G03 X1.6987 Y1.0090 Z-6.3600 I4.6125 J4.7176 F120
G02 X1.3925 Y1.2901 Z-6.7200 I4.3063 J4.9987 F120
G03 X5.9688 Y-0.5900 I4.6125 J4.7176 F900
G01 X457.2062 F900
G03 X463.7650 Y5.9688 I-0.0344 J6.5932 F900
G01 Y389.0312 F900
G03 X457.2062 Y395.5900 I-6.5932 J-0.0344 F900
G01 X5.9688 F900
G03 X-0.5900 Y389.0312 I0.0344 J-6.5932 F900
G01 Y5.9688 F900
G03 X1.3925 Y1.2901 I6.5960 J0.0356 F900
G00 Z5.0000 F480
G00 X0.0000 Y0.0000 F1500

M05
