;Project 250x250-bed-support
;Created by Estlcam version 11 build 11.245
;Machining time about 00:00:27 hours

G90
M03 S10000
G00 X0.0000 Y0.0000 Z0.0000 F1500
G00 Z8.0000 F480


;No. 1: Hole 5
G00 F1500
G00 X-0.0053 Y-0.0071 F1500
G00 Z0.5000 F480
G01 Z0.0000 F120 S10000
G01 X-0.0085 Y0.0025 Z-0.0088 F120
G01 X-0.0006 Y0.0089 Z-0.0176 F120
G01 X0.0311 Y0.0100 Z-0.0450 F120
G01 X3.4432 Z-3.0000 F120
G01 X0.0311 Z-5.9550 F120
G01 X-0.0006 Y0.0089 Z-5.9824 F120
G01 X-0.0085 Y0.0025 Z-5.9912 F120
G01 X-0.0053 Y-0.0071 Z-6.0000 F120
G01 X-0.0085 Y0.0025 F900
G01 X-0.0006 Y0.0089 F900
G01 X0.0311 Y0.0100 F900
G01 X5.9689 F900
G01 X6.0053 Y0.0071 F900
G01 X6.0085 Y-0.0025 F900
G01 X6.0006 Y-0.0089 F900
G01 X5.9689 Y-0.0100 F900
G01 X0.0311 F900
G01 X-0.0053 Y-0.0071 F900
G01 X-0.0085 Y0.0025 Z-6.0088 F120
G01 X-0.0006 Y0.0089 Z-6.0176 F120
G01 X0.0311 Y0.0100 Z-6.0450 F120
G01 X0.4121 Z-6.3750 F120
G01 X0.0311 Z-6.7050 F120
G01 X-0.0006 Y0.0089 Z-6.7324 F120
G01 X-0.0085 Y0.0025 Z-6.7412 F120
G01 X-0.0053 Y-0.0071 Z-6.7500 F120
G01 X-0.0085 Y0.0025 F900
G01 X-0.0006 Y0.0089 F900
G01 X0.0311 Y0.0100 F900
G01 X5.9689 F900
G01 X6.0053 Y0.0071 F900
G01 X6.0085 Y-0.0025 F900
G01 X6.0006 Y-0.0089 F900
G01 X5.9689 Y-0.0100 F900
G01 X0.0311 F900
G01 X-0.0053 Y-0.0071 F900
G00 Z8.0000 F480


;No. 2: Hole 5
G00 X-0.0053 Y-0.0071 Z8.0000 F1500
G00 Z0.5000 F480
G01 Z-6.0000 F120
G01 X-0.0338 Y-0.1554 F900
G02 X0.0284 Y0.1600 I0.0358 J0.1567 F900
G01 X5.9716 F900
G02 Y-0.1600 I0.0254 J-0.1600 F900
G01 X0.0284 F900
G02 X-0.0338 Y-0.1554 I-0.0129 J0.2459 F900
G01 X-0.0053 Y-0.0071 F900
G00 Z0.0000 F480
G01 Z-6.7500 F120
G01 X-0.0338 Y-0.1554 F900
G02 X0.0284 Y0.1600 I0.0358 J0.1567 F900
G01 X5.9716 F900
G02 Y-0.1600 I0.0254 J-0.1600 F900
G01 X0.0284 F900
G02 X-0.0338 Y-0.1554 I-0.0129 J0.2459 F900
G01 X-0.0053 Y-0.0071 F900
G00 Z0.0000 F480
G00 Z8.0000 F480


;No. 3: Hole 6
G00 X-0.0053 Y13.9929 Z8.0000 F1500
G00 Z0.5000 F480
G01 Z0.0000 F120
G01 X-0.0085 Y14.0025 Z-0.0088 F120
G01 X-0.0006 Y14.0089 Z-0.0176 F120
G01 X0.0311 Y14.0100 Z-0.0450 F120
G01 X3.4432 Z-3.0000 F120
G01 X0.0311 Z-5.9550 F120
G01 X-0.0006 Y14.0089 Z-5.9824 F120
G01 X-0.0085 Y14.0025 Z-5.9912 F120
G01 X-0.0053 Y13.9929 Z-6.0000 F120
G01 X-0.0085 Y14.0025 F900
G01 X-0.0006 Y14.0089 F900
G01 X0.0311 Y14.0100 F900
G01 X5.9689 F900
G01 X6.0053 Y14.0071 F900
G01 X6.0085 Y13.9975 F900
G01 X6.0006 Y13.9911 F900
G01 X5.9689 Y13.9900 F900
G01 X0.0311 F900
G01 X-0.0053 Y13.9929 F900
G01 X-0.0085 Y14.0025 Z-6.0088 F120
G01 X-0.0006 Y14.0089 Z-6.0176 F120
G01 X0.0311 Y14.0100 Z-6.0450 F120
G01 X0.4121 Z-6.3750 F120
G01 X0.0311 Z-6.7050 F120
G01 X-0.0006 Y14.0089 Z-6.7324 F120
G01 X-0.0085 Y14.0025 Z-6.7412 F120
G01 X-0.0053 Y13.9929 Z-6.7500 F120
G01 X-0.0085 Y14.0025 F900
G01 X-0.0006 Y14.0089 F900
G01 X0.0311 Y14.0100 F900
G01 X5.9689 F900
G01 X6.0053 Y14.0071 F900
G01 X6.0085 Y13.9975 F900
G01 X6.0006 Y13.9911 F900
G01 X5.9689 Y13.9900 F900
G01 X0.0311 F900
G01 X-0.0053 Y13.9929 F900
G00 Z8.0000 F480


;No. 4: Hole 6
G00 X-0.0053 Y13.9929 Z8.0000 F1500
G00 Z0.5000 F480
G01 Z-6.0000 F120
G01 X-0.0338 Y13.8446 F900
G02 X0.0284 Y14.1600 I0.0358 J0.1567 F900
G01 X5.9716 F900
G02 Y13.8400 I0.0254 J-0.1600 F900
G01 X0.0284 F900
G02 X-0.0338 Y13.8446 I-0.0129 J0.2459 F900
G01 X-0.0053 Y13.9929 F900
G00 Z0.0000 F480
G01 Z-6.7500 F120
G01 X-0.0338 Y13.8446 F900
G02 X0.0284 Y14.1600 I0.0358 J0.1567 F900
G01 X5.9716 F900
G02 Y13.8400 I0.0254 J-0.1600 F900
G01 X0.0284 F900
G02 X-0.0338 Y13.8446 I-0.0129 J0.2459 F900
G01 X-0.0053 Y13.9929 F900
G00 Z0.0000 F480
G00 Z8.0000 F480
G00 X0.0000 Y0.0000 F1500

M05
