;FLAVOR:Marlin
;TIME:518
;Filament used: 0.816344m
;Layer height: 0.32
;MINX:126.555
;MINY:121.555
;MINZ:0.24
;MAXX:173.43
;MAXY:168.445
;MAXZ:7.28
;Generated with Cura_SteamEngine 5.0.0
M140 S70
M105
M190 S70
M104 S240
M105
M109 S240
M82 ;absolute extrusion mode
; Ender 3 Max Custom Start G-code
G92 E0 ; Reset Extruder
G28 ; Home all axes
G1 Z2.0 F3000 ; Move Z Axis up little to prevent scratching of Heat Bed
G1 X0.1 Y20 Z0.3 F5000.0 ; Move to start position
G1 X0.1 Y200.0 Z0.3 F1500.0 E15 ; Draw the first line
G1 X0.4 Y200.0 Z0.3 F5000.0 ; Move to side a little
G1 X0.4 Y20 Z0.3 F1500.0 E30 ; Draw the second line
G92 E0 ; Reset Extruder
G1 Z2.0 F3000 ; Move Z Axis up little to prevent scratching of Heat Bed
G1 X5 Y20 Z0.3 F5000.0 ; Move over to prevent blob squish
G92 E0
G92 E0
G1 F1800 E-4
;LAYER_COUNT:23
;LAYER:0
M107
G1 F300 Z0.56
G0 F9000 X129.645 Y125.143 Z0.56
G1 F300 Z0.56
G0 F9000 X126.557 Y133.413
;TYPE:SKIRT
G1 F300 Z0.24
G1 F1800 E0
G1 X126.569 Y132.699 E0.04713
G1 X126.624 Y131.765 E0.10889
G1 X126.759 Y130.84 E0.17059
G1 X126.973 Y129.929 E0.23236
G1 X127.235 Y129.112 E0.28899
G1 X127.577 Y128.241 E0.35075
G1 X127.993 Y127.403 E0.4125
G1 X128.479 Y126.604 E0.47423
G1 X129.031 Y125.849 E0.53596
G1 X129.645 Y125.143 E0.59772
G1 X130.631 Y124.225 E0.68664
G1 X130.794 Y124.091 E0.70057
G1 X131.542 Y123.529 E0.76232
G1 X132.335 Y123.032 E0.8241
G1 X133.167 Y122.605 E0.88582
G1 X134 Y122.261 E0.94531
G1 X134.89 Y121.974 E1.00703
G1 X135.802 Y121.763 E1.06882
G1 X136.728 Y121.631 E1.13055
G1 X137.584 Y121.58 E1.18716
G1 X138.938 Y121.555 E1.27654
G1 X149.417 Y121.558 E1.9682
G1 X150.855 Y121.586 E2.06314
G1 X151.556 Y121.622 E2.10947
G1 X152.379 Y121.691 E2.16398
G1 X153.069 Y121.771 E2.20983
G1 X153.771 Y121.875 E2.25667
G1 X154.375 Y121.982 E2.29716
G1 X155.108 Y122.133 E2.34655
G1 X155.699 Y122.272 E2.38663
G1 X156.251 Y122.418 E2.42432
G1 X156.79 Y122.575 E2.46137
G1 X157.502 Y122.803 E2.51072
G1 X158.133 Y123.027 E2.55491
G1 X158.85 Y123.306 E2.60569
G1 X159.449 Y123.56 E2.64864
G1 X160.124 Y123.87 E2.69767
G1 X160.726 Y124.169 E2.74203
G1 X161.394 Y124.527 E2.79206
G1 X161.955 Y124.849 E2.83475
G1 X162.91 Y125.445 E2.90905
G1 X163.384 Y125.768 E2.94691
G1 X163.881 Y126.124 E2.98726
G1 X164.291 Y126.433 E3.02115
G1 X164.805 Y126.839 E3.06438
G1 X165.31 Y127.261 E3.10782
G1 X165.636 Y127.552 E3.13667
G1 X166.278 Y128.149 E3.19453
G1 X166.768 Y128.634 E3.24004
G1 X167.206 Y129.096 E3.28206
G1 X167.62 Y129.558 E3.323
G1 X168.168 Y130.206 E3.37902
G1 X168.601 Y130.752 E3.42501
G1 X169.015 Y131.31 E3.47088
G1 X169.375 Y131.826 E3.5124
G1 X169.799 Y132.472 E3.56341
G1 X170.138 Y133.024 E3.60616
G1 X170.503 Y133.659 E3.65451
G1 X170.832 Y134.275 E3.7006
G1 X171.173 Y134.967 E3.75152
G1 X171.441 Y135.554 E3.79411
G1 X171.736 Y136.254 E3.84425
G1 X171.97 Y136.86 E3.88713
G1 X172.213 Y137.548 E3.93529
G1 X172.418 Y138.192 E3.9799
G1 X172.633 Y138.946 E4.03165
G1 X172.793 Y139.574 E4.07442
G1 X172.95 Y140.281 E4.12223
G1 X173.078 Y140.959 E4.16777
G1 X173.212 Y141.814 E4.22489
G1 X173.295 Y142.476 E4.26893
G1 X173.353 Y143.088 E4.3095
G1 X173.394 Y143.707 E4.35045
G1 X173.425 Y144.526 E4.40455
G1 X173.43 Y145.205 E4.44937
G1 X173.413 Y145.906 E4.49565
G1 X173.378 Y146.553 E4.53842
G1 X173.31 Y147.366 E4.59227
G1 X173.231 Y148.051 E4.63778
G1 X173.126 Y148.763 E4.68528
G1 X173.019 Y149.369 E4.7259
G1 X172.868 Y150.104 E4.77543
G1 X172.728 Y150.7 E4.81584
G1 X172.582 Y151.252 E4.85352
G1 X172.425 Y151.791 E4.89058
G1 X172.197 Y152.503 E4.93993
G1 X171.975 Y153.128 E4.9837
G1 X171.693 Y153.854 E5.03511
G1 X171.426 Y154.484 E5.08027
G1 X171.113 Y155.161 E5.1295
G1 X170.812 Y155.763 E5.17393
G1 X170.441 Y156.451 E5.22552
G1 X170.133 Y156.984 E5.26615
G1 X169.77 Y157.575 E5.31193
G1 X169.379 Y158.169 E5.35887
G1 X168.9 Y158.846 E5.41361
G1 X168.545 Y159.319 E5.45265
G1 X168.149 Y159.819 E5.49474
G1 X167.691 Y160.361 E5.54158
G1 X167.102 Y161.013 E5.59958
G1 X166.669 Y161.466 E5.64094
G1 X166.206 Y161.923 E5.68388
G1 X165.687 Y162.402 E5.73049
G1 X165.01 Y162.989 E5.78964
G1 X164.497 Y163.408 E5.83336
G1 X164.005 Y163.785 E5.87427
G1 X163.491 Y164.156 E5.91611
G1 X162.82 Y164.611 E5.96962
G1 X162.266 Y164.962 E6.01291
G1 X161.638 Y165.335 E6.06112
G1 X161.057 Y165.657 E6.10497
G1 X160.408 Y165.991 E6.15314
G1 X159.817 Y166.273 E6.19636
G1 X159.071 Y166.602 E6.25018
G1 X158.44 Y166.857 E6.2951
G1 X157.751 Y167.111 E6.34357
G1 X157.102 Y167.328 E6.38874
G1 X156.37 Y167.547 E6.43917
G1 X155.768 Y167.708 E6.4803
G1 X155.054 Y167.878 E6.52875
G1 X154.381 Y168.017 E6.5741
G1 X153.622 Y168.148 E6.62494
G1 X153.004 Y168.236 E6.66615
G1 X151.879 Y168.357 E6.74083
G1 X151.275 Y168.397 E6.78078
G1 X150.507 Y168.427 E6.83151
G1 X149.232 Y168.445 E6.91568
G1 X138.426 Y168.443 E7.62893
G1 X137.687 Y168.43 E7.67771
G1 X136.754 Y168.374 E7.7394
G1 X135.828 Y168.238 E7.80118
G1 X134.917 Y168.023 E7.86296
G1 X134.227 Y167.806 E7.9107
G1 X133.353 Y167.473 E7.97244
G1 X132.51 Y167.066 E8.03423
G1 X131.706 Y166.589 E8.09593
G1 X130.945 Y166.044 E8.15771
G1 X130.233 Y165.437 E8.21947
G1 X129.312 Y164.469 E8.30766
G1 X129.169 Y164.299 E8.32232
G1 X128.598 Y163.558 E8.38407
G1 X128.092 Y162.77 E8.44588
G1 X127.656 Y161.943 E8.50759
G1 X127.208 Y160.851 E8.58549
G1 X126.933 Y159.957 E8.64723
G1 X126.736 Y159.042 E8.70901
G1 X126.617 Y158.114 E8.77076
G1 X126.58 Y157.411 E8.81723
G1 X126.555 Y156.048 E8.90721
G1 X126.557 Y133.413 E10.40123
G0 F9000 X127.186 Y133.424
G1 F1800 X127.198 Y132.71 E10.44836
G1 X127.254 Y131.803 E10.50834
G1 X127.388 Y130.905 E10.56827
G1 X127.602 Y130.022 E10.62824
G1 X127.83 Y129.317 E10.67714
G1 X128.164 Y128.473 E10.73706
G1 X128.571 Y127.661 E10.79701
G1 X129.047 Y126.887 E10.85698
G1 X129.59 Y126.159 E10.91693
G1 X130.194 Y125.481 E10.97686
G1 X131.032 Y124.712 E11.05193
G1 X131.195 Y124.578 E11.06586
G1 X131.921 Y124.033 E11.12578
G1 X132.692 Y123.553 E11.18573
G1 X133.503 Y123.144 E11.24568
G1 X134.219 Y122.852 E11.29672
G1 X135.084 Y122.574 E11.35669
G1 X135.97 Y122.373 E11.41665
G1 X136.87 Y122.251 E11.4766
G1 X137.597 Y122.21 E11.52466
G1 X138.938 Y122.185 E11.61319
G1 X149.405 Y122.188 E12.30406
G1 X150.843 Y122.216 E12.39899
G1 X151.504 Y122.25 E12.44268
G1 X152.327 Y122.319 E12.49719
G1 X152.977 Y122.394 E12.54038
G1 X153.679 Y122.498 E12.58722
G1 X154.248 Y122.599 E12.62537
G1 X154.981 Y122.75 E12.67476
G1 X155.538 Y122.881 E12.71253
G1 X156.09 Y123.027 E12.75022
G1 X156.598 Y123.175 E12.78514
G1 X157.31 Y123.403 E12.83449
G1 X157.905 Y123.614 E12.87616
G1 X158.622 Y123.893 E12.92694
G1 X159.186 Y124.132 E12.96737
G1 X159.861 Y124.442 E13.0164
G1 X160.428 Y124.724 E13.0582
G1 X161.096 Y125.082 E13.10822
G1 X161.625 Y125.386 E13.14849
G1 X162.561 Y125.969 E13.22128
G1 X163.017 Y126.28 E13.25771
G1 X163.514 Y126.636 E13.29806
G1 X163.901 Y126.928 E13.33006
G1 X164.415 Y127.334 E13.37329
G1 X164.9 Y127.739 E13.415
G1 X165.207 Y128.013 E13.44216
G1 X165.849 Y128.61 E13.50002
G1 X166.311 Y129.067 E13.54292
G1 X166.749 Y129.529 E13.58494
G1 X167.139 Y129.965 E13.62355
G1 X167.687 Y130.613 E13.67956
G1 X168.095 Y131.128 E13.72293
G1 X168.509 Y131.686 E13.76879
G1 X168.848 Y132.172 E13.8079
G1 X169.272 Y132.818 E13.85891
G1 X169.592 Y133.338 E13.89921
G1 X169.957 Y133.973 E13.94755
G1 X170.267 Y134.554 E13.99102
G1 X170.608 Y135.246 E14.04194
G1 X170.86 Y135.799 E14.08205
G1 X171.155 Y136.499 E14.13219
G1 X171.376 Y137.07 E14.1726
G1 X171.619 Y137.758 E14.22076
G1 X171.813 Y138.364 E14.26276
G1 X172.028 Y139.118 E14.31451
G1 X172.178 Y139.711 E14.35488
G1 X172.335 Y140.418 E14.40268
G1 X172.456 Y141.057 E14.44561
G1 X172.59 Y141.912 E14.50273
G1 X172.668 Y142.536 E14.54424
G1 X172.726 Y143.148 E14.58482
G1 X172.765 Y143.731 E14.62338
G1 X172.796 Y144.55 E14.67748
G1 X172.8 Y145.19 E14.71972
G1 X172.783 Y145.891 E14.76601
G1 X172.75 Y146.501 E14.80633
G1 X172.682 Y147.314 E14.86018
G1 X172.608 Y147.959 E14.90303
G1 X172.503 Y148.671 E14.95053
G1 X172.402 Y149.242 E14.98881
G1 X172.251 Y149.977 E15.03834
G1 X172.119 Y150.539 E15.07644
G1 X171.973 Y151.091 E15.11413
G1 X171.825 Y151.599 E15.14905
G1 X171.597 Y152.311 E15.1984
G1 X171.388 Y152.9 E15.23965
G1 X171.106 Y153.626 E15.29106
G1 X170.854 Y154.22 E15.33365
G1 X170.541 Y154.897 E15.38288
G1 X170.257 Y155.464 E15.42473
G1 X169.886 Y156.152 E15.47633
G1 X169.596 Y156.655 E15.51465
G1 X169.233 Y157.246 E15.56043
G1 X168.864 Y157.805 E15.60464
G1 X168.385 Y158.482 E15.65938
G1 X168.051 Y158.928 E15.69616
G1 X167.655 Y159.428 E15.73825
G1 X167.223 Y159.939 E15.78242
G1 X166.634 Y160.591 E15.84042
G1 X166.226 Y161.017 E15.87935
G1 X165.763 Y161.474 E15.92229
G1 X165.274 Y161.926 E15.96624
G1 X164.597 Y162.513 E16.02539
G1 X164.114 Y162.908 E16.06657
G1 X163.622 Y163.285 E16.10748
G1 X163.137 Y163.634 E16.14692
G1 X162.466 Y164.089 E16.20043
G1 X161.945 Y164.421 E16.24121
G1 X161.317 Y164.794 E16.28942
G1 X160.769 Y165.097 E16.33075
G1 X160.12 Y165.431 E16.37893
G1 X159.562 Y165.697 E16.41973
G1 X158.816 Y166.026 E16.47354
G1 X158.222 Y166.266 E16.51583
G1 X157.533 Y166.52 E16.5643
G1 X156.922 Y166.724 E16.60682
G1 X156.19 Y166.943 E16.65725
G1 X155.622 Y167.095 E16.69606
G1 X154.908 Y167.265 E16.7445
G1 X154.273 Y167.396 E16.7873
G1 X153.514 Y167.527 E16.83814
G1 X152.932 Y167.61 E16.87694
G1 X151.831 Y167.729 E16.95003
G1 X151.247 Y167.768 E16.98867
G1 X150.497 Y167.797 E17.03821
G1 X149.232 Y167.815 E17.12171
G1 X138.438 Y167.813 E17.83417
G1 X137.699 Y167.8 E17.88295
G1 X136.792 Y167.744 E17.94293
G1 X135.894 Y167.609 E18.00287
G1 X134.618 Y167.273 E18.08996
G1 X134.426 Y167.209 E18.10332
G1 X133.578 Y166.884 E18.16326
G1 X132.762 Y166.486 E18.22319
G1 X131.984 Y166.017 E18.28315
G1 X131.25 Y165.482 E18.3431
G1 X130.566 Y164.885 E18.40303
G1 X129.794 Y164.063 E18.47746
G1 X129.651 Y163.893 E18.49212
G1 X129.098 Y163.173 E18.55204
G1 X128.61 Y162.407 E18.61199
G1 X128.191 Y161.601 E18.67195
G1 X127.802 Y160.64 E18.74038
G1 X127.536 Y159.772 E18.8003
G1 X127.348 Y158.884 E18.86022
G1 X127.238 Y157.982 E18.92019
G1 X127.21 Y157.399 E18.95872
G1 X127.185 Y156.048 E19.04791
G1 X127.186 Y133.424 E20.5412
G1 F1800 E16.5412
G1 F300 Z0.56
;MESH:shim-lip-4mm.stl
G0 F9000 X137.815 Y132.971 Z0.56
;TYPE:WALL-OUTER
G1 F300 Z0.24
G1 F1800 E20.5412
G1 X137.816 Y139.507 E20.91508
G1 X137.815 Y156.982 E21.91472
G1 X137.857 Y157.134 E21.92375
G1 X138.018 Y157.185 E21.93341
G1 X149.988 Y157.185 E22.61814
G1 X150.704 Y157.163 E22.65912
G1 X151.428 Y157.099 E22.70069
G1 X152.159 Y156.988 E22.74299
G1 X152.86 Y156.841 E22.78396
G1 X153.597 Y156.639 E22.82768
G1 X154.284 Y156.404 E22.86921
G1 X154.972 Y156.122 E22.91175
G1 X155.637 Y155.8 E22.95401
G1 X156.172 Y155.501 E22.98907
G1 X156.726 Y155.152 E23.02653
G1 X156.997 Y154.97 E23.0452
G1 X157.485 Y154.611 E23.07986
G1 X158.05 Y154.145 E23.12175
G1 X158.595 Y153.633 E23.16453
G1 X159.101 Y153.099 E23.20661
G1 X159.565 Y152.544 E23.24799
G1 X160.012 Y151.944 E23.29079
G1 X160.357 Y151.409 E23.32721
G1 X160.55 Y151.082 E23.34893
G1 X160.771 Y150.694 E23.37447
G1 X161.097 Y150.027 E23.41694
G1 X161.382 Y149.346 E23.45917
G1 X161.621 Y148.659 E23.50078
G1 X161.829 Y147.92 E23.54469
G1 X161.976 Y147.234 E23.58483
G1 X162.091 Y146.494 E23.62767
G1 X162.159 Y145.771 E23.66921
G1 X162.183 Y145.025 E23.7119
G1 X162.166 Y144.386 E23.74847
G1 X162.139 Y144.016 E23.76969
G1 X162.099 Y143.571 E23.79525
G1 X161.989 Y142.842 E23.83742
G1 X161.84 Y142.135 E23.87876
G1 X161.639 Y141.401 E23.92229
G1 X161.405 Y140.718 E23.96359
G1 X161.12 Y140.024 E24.00651
G1 X160.8 Y139.363 E24.04852
G1 X160.439 Y138.72 E24.0907
G1 X160.042 Y138.101 E24.13277
G1 X159.608 Y137.51 E24.17471
G1 X159.145 Y136.95 E24.21628
G1 X158.633 Y136.405 E24.25905
G1 X158.099 Y135.899 E24.30113
G1 X157.544 Y135.435 E24.34252
G1 X156.951 Y134.994 E24.38479
G1 X156.333 Y134.594 E24.4269
G1 X155.697 Y134.231 E24.46879
G1 X155.033 Y133.906 E24.51108
G1 X154.346 Y133.618 E24.55369
G1 X153.659 Y133.379 E24.5953
G1 X153.058 Y133.21 E24.63102
G1 X152.782 Y133.142 E24.64728
G1 X152.234 Y133.024 E24.67934
G1 X151.494 Y132.909 E24.72218
G1 X150.771 Y132.841 E24.76372
G1 X150.023 Y132.816 E24.80654
G1 X137.926 Y132.817 E25.49853
G1 X137.815 Y132.971 E25.50939
G0 F9000 X137.815 Y133.251
G1 F1800 E21.50939
G1 F300 Z0.56
G0 F9000 X149.458 Y144.619 Z0.56
G1 F300 Z0.24
G1 F1800 E25.50939
G1 X149.532 Y144.217 E25.53278
G1 X149.656 Y143.821 E25.55651
G1 X149.829 Y143.445 E25.58019
G1 X150.055 Y143.087 E25.60441
G1 X150.322 Y142.765 E25.62834
G1 X150.625 Y142.482 E25.65205
G1 X150.965 Y142.235 E25.67609
G1 X151.334 Y142.036 E25.70008
G1 X151.607 Y141.931 E25.71681
G1 X151.995 Y141.818 E25.73992
G1 X152.312 Y141.765 E25.75831
G1 X152.589 Y141.737 E25.77424
G1 X152.984 Y141.748 E25.79684
G1 X153.4 Y141.811 E25.82091
G1 X153.787 Y141.924 E25.84397
G1 X154.165 Y142.085 E25.86747
G1 X154.527 Y142.295 E25.89141
G1 X154.845 Y142.541 E25.91441
G1 X155.151 Y142.844 E25.93905
G1 X155.419 Y143.192 E25.96417
G1 X155.618 Y143.537 E25.98696
G1 X155.781 Y143.92 E26.01077
G1 X155.863 Y144.213 E26.02817
G1 X155.953 Y144.737 E26.05859
G1 X155.958 Y145.042 E26.07604
G1 X155.911 Y145.577 E26.10676
G1 X155.832 Y145.903 E26.12595
G1 X155.662 Y146.371 E26.15443
G1 X155.522 Y146.631 E26.17132
G1 X155.219 Y147.077 E26.20216
G1 X154.932 Y147.383 E26.22616
G1 X154.625 Y147.633 E26.24881
G1 X154.256 Y147.869 E26.27387
G1 X153.885 Y148.04 E26.29724
G1 X153.556 Y148.145 E26.31699
G1 X153.084 Y148.239 E26.34452
G1 X152.652 Y148.263 E26.36927
G1 X152.228 Y148.229 E26.3936
G1 X151.869 Y148.153 E26.4146
G1 X151.49 Y148.027 E26.43744
G1 X151.054 Y147.818 E26.4651
G1 X150.703 Y147.58 E26.48936
G1 X150.393 Y147.308 E26.51295
G1 X150.116 Y146.994 E26.53691
G1 X149.881 Y146.643 E26.56107
G1 X149.692 Y146.27 E26.58499
G1 X149.556 Y145.875 E26.60889
G1 X149.465 Y145.446 E26.63397
G1 X149.436 Y145.05 E26.65669
G1 X149.458 Y144.619 E26.68137
G0 F9000 X149.508 Y144.344
G0 X148.808 Y145.091
;TYPE:WALL-INNER
G1 F1800 X148.829 Y144.584 E26.71104
G1 X148.913 Y144.099 E26.73981
G1 X149.056 Y143.629 E26.76853
G1 X149.258 Y143.178 E26.79742
G1 X149.524 Y142.747 E26.82703
G1 X149.84 Y142.359 E26.85629
G1 X150.197 Y142.019 E26.88511
G1 X150.597 Y141.723 E26.9142
G1 X151.04 Y141.479 E26.94377
G1 X151.385 Y141.341 E26.96549
G1 X151.615 Y141.262 E26.97971
G1 X151.98 Y141.174 E27.00166
G1 X152.248 Y141.138 E27.01747
G1 X152.509 Y141.111 E27.03281
G1 X152.987 Y141.118 E27.06075
G1 X153.302 Y141.158 E27.07932
G1 X153.54 Y141.197 E27.09342
G1 X153.848 Y141.284 E27.11213
G1 X154.411 Y141.505 E27.14748
G1 X154.846 Y141.751 E27.1767
G1 X155.074 Y141.92 E27.19329
G1 X155.296 Y142.098 E27.20993
G1 X155.597 Y142.399 E27.23481
G1 X155.909 Y142.796 E27.26433
G1 X156.126 Y143.156 E27.28891
G1 X156.363 Y143.677 E27.32237
G1 X156.472 Y144.05 E27.34508
G1 X156.526 Y144.297 E27.35987
G1 X156.583 Y144.697 E27.38349
G1 X156.588 Y145.037 E27.40337
G1 X156.537 Y145.653 E27.4395
G1 X156.443 Y146.056 E27.46369
G1 X156.248 Y146.602 E27.49759
G1 X156.074 Y146.935 E27.51955
G1 X155.949 Y147.145 E27.53384
G1 X155.694 Y147.494 E27.55911
G1 X155.389 Y147.817 E27.58508
G1 X155.018 Y148.125 E27.61327
G1 X154.59 Y148.403 E27.64311
G1 X154.315 Y148.536 E27.66096
G1 X154.076 Y148.642 E27.67625
G1 X153.663 Y148.771 E27.70154
G1 X153.191 Y148.86 E27.72962
G1 X152.675 Y148.893 E27.75985
G1 X152.171 Y148.856 E27.7894
G1 X151.733 Y148.768 E27.81551
G1 X151.28 Y148.621 E27.84336
G1 X150.769 Y148.38 E27.87639
G1 X150.345 Y148.099 E27.90612
G1 X149.975 Y147.78 E27.93468
G1 X149.641 Y147.408 E27.96391
G1 X149.5 Y147.209 E27.97817
G1 X149.355 Y146.99 E27.99352
G1 X149.128 Y146.55 E28.02247
G1 X148.959 Y146.077 E28.05183
G1 X148.848 Y145.574 E28.08194
G1 X148.808 Y145.091 E28.11028
G0 F9000 X148.2 Y144.548
G1 F1800 X148.295 Y143.98 E28.14395
G1 X148.456 Y143.437 E28.17706
G1 X148.688 Y142.911 E28.21067
G1 X148.994 Y142.408 E28.24509
G1 X149.358 Y141.954 E28.2791
G1 X149.77 Y141.556 E28.31259
G1 X150.229 Y141.212 E28.34613
G1 X150.745 Y140.922 E28.38073
G1 X151.163 Y140.752 E28.40711
G1 X151.402 Y140.666 E28.42196
G1 X151.832 Y140.561 E28.44784
G1 X152.184 Y140.511 E28.46862
