;FLAVOR:Marlin
;TIME:656
;Filament used: 0.757057m
;Layer height: 0.2
;MINX:48.365
;MINY:137.413
;MINZ:0.24
;MAXX:100.064
;MAXY:174.098
;MAXZ:7.04
;Generated with Cura_SteamEngine 5.0.0
M140 S80
M105
M190 S80
M104 S250
M105
M109 S250
M82 ;absolute extrusion mode
; Ender 3 Max Custom Start G-code
G92 E0 ; Reset Extruder
G28 ; Home all axes
G1 Z2.0 F3000 ; Move Z Axis up little to prevent scratching of Heat Bed
G1 X0.1 Y20 Z0.3 F5000.0 ; Move to start position
G1 X0.1 Y200.0 Z0.3 F1500.0 E15 ; Draw the first line
G1 X0.4 Y200.0 Z0.3 F5000.0 ; Move to side a little
G1 X0.4 Y20 Z0.3 F1500.0 E30 ; Draw the second line
G92 E0 ; Reset Extruder
G1 Z2.0 F3000 ; Move Z Axis up little to prevent scratching of Heat Bed
G1 X5 Y20 Z0.3 F5000.0 ; Move over to prevent blob squish
G92 E0
G92 E0
G1 F1800 E-6
;LAYER_COUNT:35
;LAYER:0
M107
G1 F300 Z0.72
G0 F6000 X59.047 Y139.085 Z0.72
G1 F300 Z0.72
G0 F6000 X49.024 Y150.911
;TYPE:SKIRT
G1 F300 Z0.24
G1 F1800 E0
G1 X49.199 Y150.313 E0.04514
G1 X49.496 Y149.438 E0.11207
G1 X49.76 Y148.755 E0.16512
G1 X50.101 Y147.966 E0.22738
G1 X50.484 Y147.194 E0.28981
G1 X50.889 Y146.47 E0.34991
G1 X51.255 Y145.883 E0.40002
G1 X51.674 Y145.253 E0.45483
G1 X52.19 Y144.541 E0.51853
G1 X52.627 Y144.005 E0.56862
G1 X52.975 Y143.603 E0.60714
G1 X53.455 Y143.081 E0.65851
G1 X53.854 Y142.681 E0.69944
G1 X54.309 Y142.248 E0.74494
G1 X54.981 Y141.658 E0.80972
G1 X55.443 Y141.285 E0.85273
G1 X56.247 Y140.694 E0.92502
G1 X56.779 Y140.339 E0.97135
G1 X57.56 Y139.864 E1.03757
G1 X58.229 Y139.494 E1.09295
G1 X59.047 Y139.085 E1.1592
G1 X59.695 Y138.809 E1.21022
G1 X60.327 Y138.562 E1.25937
G1 X61.23 Y138.253 E1.32851
G1 X62.11 Y138.005 E1.39474
G1 X62.626 Y137.877 E1.43325
G1 X63.599 Y137.682 E1.50514
G1 X64.352 Y137.566 E1.56033
G1 X65.374 Y137.457 E1.63479
G1 X65.829 Y137.43 E1.6678
G1 X66.688 Y137.413 E1.73004
G1 X67.884 Y137.443 E1.81671
G1 X70.078 Y137.565 E1.97589
G1 X72.614 Y137.649 E2.1597
G1 X75.138 Y137.659 E2.34254
G1 X77.631 Y137.6 E2.52319
G1 X80.506 Y137.443 E2.73176
G1 X81.79 Y137.413 E2.8248
G1 X82.745 Y137.437 E2.894
G1 X83.18 Y137.467 E2.92559
G1 X84.09 Y137.568 E2.99192
G1 X84.827 Y137.681 E3.04593
G1 X85.837 Y137.885 E3.12057
G1 X86.716 Y138.113 E3.18635
G1 X87.183 Y138.249 E3.22159
G1 X88.119 Y138.568 E3.29322
G1 X88.775 Y138.825 E3.34426
G1 X89.581 Y139.179 E3.40803
G1 X90.23 Y139.511 E3.46084
G1 X90.883 Y139.871 E3.51486
G1 X91.678 Y140.354 E3.58224
G1 X92.144 Y140.665 E3.62283
G1 X92.947 Y141.255 E3.69501
G1 X93.685 Y141.858 E3.76405
G1 X94.295 Y142.406 E3.82345
G1 X94.654 Y142.751 E3.85952
G1 X95.337 Y143.469 E3.9313
G1 X95.812 Y144.016 E3.98378
G1 X96.336 Y144.668 E4.04438
G1 X96.802 Y145.321 E4.10249
G1 X97.21 Y145.936 E4.15595
G1 X97.643 Y146.646 E4.2162
G1 X97.803 Y146.932 E4.23994
G1 X98.198 Y147.704 E4.30276
G1 X98.371 Y148.076 E4.33248
G1 X98.675 Y148.767 E4.38716
G1 X99 Y149.596 E4.45167
G1 X99.242 Y150.326 E4.50738
G1 X99.466 Y151.111 E4.56651
G1 X99.643 Y151.848 E4.62142
G1 X99.804 Y152.674 E4.68238
G1 X99.919 Y153.451 E4.73928
G1 X100.001 Y154.231 E4.7961
G1 X100.051 Y155.063 E4.85648
G1 X100.064 Y155.829 E4.91197
G1 X100.06 Y156.151 E4.9353
G1 X100.036 Y156.755 E4.97909
G1 X100.007 Y157.184 E5.01024
G1 X99.896 Y158.165 E5.08175
G1 X99.748 Y159.098 E5.15019
G1 X99.447 Y160.444 E5.2501
G1 X99.199 Y161.297 E5.31445
G1 X98.88 Y162.235 E5.38622
G1 X98.716 Y162.654 E5.41882
G1 X98.347 Y163.492 E5.48515
G1 X97.989 Y164.221 E5.54398
G1 X97.557 Y165.017 E5.60959
G1 X97.163 Y165.65 E5.6636
G1 X96.806 Y166.187 E5.71031
G1 X96.385 Y166.777 E5.76282
G1 X96.213 Y167.002 E5.78333
G1 X95.803 Y167.507 E5.83045
G1 X95.476 Y167.886 E5.86672
G1 X95.088 Y168.313 E5.90851
G1 X94.739 Y168.677 E5.94504
G1 X94.024 Y169.358 E6.01657
G1 X93.466 Y169.844 E6.07017
G1 X92.791 Y170.387 E6.13293
G1 X92.212 Y170.8 E6.18445
G1 X91.61 Y171.202 E6.23689
G1 X90.758 Y171.717 E6.30901
G1 X90.131 Y172.058 E6.36071
G1 X89.307 Y172.462 E6.42719
G1 X88.948 Y172.62 E6.4556
G1 X88.351 Y172.862 E6.50227
G1 X87.953 Y173.01 E6.53303
G1 X87.185 Y173.264 E6.59162
G1 X86.43 Y173.483 E6.64857
G1 X85.556 Y173.699 E6.71379
G1 X84.858 Y173.825 E6.76517
G1 X83.94 Y173.961 E6.8324
G1 X82.59 Y174.077 E6.93055
G1 X81.833 Y174.095 E6.98541
G1 X80.869 Y174.075 E7.05525
G1 X80.126 Y174.027 E7.10919
G1 X77.436 Y173.894 E7.30429
G1 X74.974 Y173.841 E7.48268
G1 X72.414 Y173.858 E7.66813
G1 X69.922 Y173.945 E7.84877
G1 X67.625 Y174.082 E8.01546
G1 X66.708 Y174.098 E8.0819
G1 X65.835 Y174.077 E8.14515
G1 X64.895 Y174.014 E8.2134
G1 X64.315 Y173.941 E8.25575
G1 X63.491 Y173.814 E8.31614
G1 X62.581 Y173.634 E8.38334
G1 X61.823 Y173.436 E8.44009
G1 X61.129 Y173.23 E8.49254
G1 X60.237 Y172.924 E8.56085
G1 X59.674 Y172.693 E8.60493
G1 X58.944 Y172.37 E8.66276
G1 X58.101 Y171.953 E8.73089
G1 X57.653 Y171.707 E8.76791
G1 X56.828 Y171.206 E8.83783
G1 X56.159 Y170.758 E8.89616
G1 X55.342 Y170.155 E8.96972
G1 X54.911 Y169.795 E9.0104
G1 X54.273 Y169.234 E9.07194
G1 X53.621 Y168.612 E9.13722
G1 X53.089 Y168.038 E9.19391
G1 X52.594 Y167.467 E9.24865
G1 X51.965 Y166.672 E9.32209
G1 X51.654 Y166.227 E9.36142
G1 X51.204 Y165.549 E9.42037
G1 X50.769 Y164.835 E9.48093
G1 X50.613 Y164.556 E9.50409
G1 X50.303 Y163.96 E9.55275
G1 X50.096 Y163.53 E9.58733
G1 X49.739 Y162.703 E9.65258
G1 X49.489 Y162.052 E9.70309
G1 X49.197 Y161.188 E9.76916
G1 X48.99 Y160.478 E9.82273
G1 X48.752 Y159.499 E9.89572
G1 X48.652 Y158.948 E9.93629
G1 X48.539 Y158.222 E9.98951
G1 X48.429 Y157.212 E10.06311
G1 X48.385 Y156.502 E10.11464
G1 X48.365 Y155.699 E10.17283
G1 X48.39 Y154.919 E10.22936
G1 X48.435 Y154.237 E10.27887
G1 X48.539 Y153.29 E10.34789
G1 X48.688 Y152.388 E10.41411
G0 F1620 X48.791 Y151.867
G0 X49.024 Y150.911
G1 F1800 E4.41411
G1 F300 Z0.72
G0 F6000 X49.025 Y155.707 Z0.72
G1 F300 Z0.24
G1 F1800 E10.41411
G1 X49.048 Y154.963 E10.46803
G1 X49.093 Y154.281 E10.51755
G1 X49.191 Y153.39 E10.58248
G1 X49.335 Y152.516 E10.64665
G1 X49.438 Y151.995 E10.68512
G1 X49.658 Y151.097 E10.75209
G1 X49.833 Y150.499 E10.79723
G1 X50.112 Y149.676 E10.86018
G1 X50.376 Y148.993 E10.91323
G1 X50.696 Y148.252 E10.9717
G1 X51.066 Y147.507 E11.03195
G1 X51.454 Y146.81 E11.08974
G1 X51.805 Y146.248 E11.13774
G1 X52.224 Y145.618 E11.19255
G1 X52.708 Y144.949 E11.25237
G1 X53.126 Y144.437 E11.30025
G1 X53.474 Y144.035 E11.33876
G1 X53.933 Y143.535 E11.38793
G1 X54.309 Y143.159 E11.42645
G1 X54.764 Y142.726 E11.47195
G1 X55.396 Y142.172 E11.53283
G1 X55.858 Y141.799 E11.57585
G1 X56.613 Y141.243 E11.64377
G1 X57.145 Y140.888 E11.6901
G1 X57.88 Y140.441 E11.75242
G1 X58.549 Y140.071 E11.8078
G1 X59.317 Y139.687 E11.87
G1 X59.935 Y139.424 E11.91865
G1 X60.567 Y139.177 E11.96781
G1 X61.416 Y138.887 E12.0328
G1 X62.269 Y138.646 E12.09701
G1 X62.785 Y138.518 E12.13552
G1 X63.699 Y138.334 E12.20306
G1 X64.452 Y138.218 E12.25825
G1 X65.413 Y138.116 E12.32826
G1 X65.868 Y138.089 E12.36128
G1 X66.675 Y138.073 E12.41975
G1 X67.847 Y138.102 E12.50467
G1 X70.062 Y138.225 E12.66538
G1 X72.59 Y138.309 E12.84861
G1 X75.15 Y138.319 E13.03406
G1 X77.651 Y138.26 E13.21528
G1 X80.542 Y138.102 E13.42502
G1 X81.802 Y138.073 E13.51632
G1 X82.7 Y138.095 E13.58139
G1 X83.135 Y138.125 E13.61298
G1 X83.99 Y138.22 E13.67529
G1 X84.727 Y138.333 E13.72931
G1 X85.676 Y138.525 E13.79945
G1 X86.531 Y138.747 E13.86344
G1 X86.998 Y138.883 E13.89867
G1 X87.878 Y139.183 E13.96602
G1 X88.534 Y139.44 E14.01706
G1 X89.291 Y139.772 E14.07694
G1 X89.911 Y140.089 E14.12738
G1 X90.564 Y140.449 E14.1814
G1 X91.311 Y140.903 E14.24472
G1 X91.777 Y141.214 E14.28531
G1 X92.532 Y141.769 E14.35319
G1 X93.253 Y142.358 E14.42063
G1 X93.838 Y142.882 E14.47752
G1 X94.197 Y143.227 E14.51359
G1 X94.839 Y143.902 E14.58107
G1 X95.314 Y144.449 E14.63355
G1 X95.806 Y145.062 E14.69049
G1 X96.252 Y145.686 E14.74605
G1 X96.66 Y146.301 E14.79952
G1 X97.067 Y146.969 E14.85618
G1 X97.227 Y147.255 E14.87992
G1 X97.604 Y147.992 E14.93989
G1 X98.07 Y149.033 E15.02251
G1 X98.376 Y149.812 E15.08314
G1 X98.61 Y150.515 E15.13681
G1 X98.826 Y151.273 E15.19391
G1 X98.997 Y151.983 E15.24681
G1 X99.152 Y152.779 E15.30556
G1 X99.264 Y153.529 E15.36049
G1 X99.343 Y154.28 E15.41519
G1 X99.392 Y155.082 E15.4734
G1 X99.404 Y155.82 E15.52687
G1 X99.4 Y156.142 E15.5502
G1 X99.377 Y156.711 E15.59145
G1 X99.348 Y157.14 E15.6226
G1 X99.244 Y158.061 E15.68974
G1 X99.096 Y158.994 E15.75817
G1 X98.813 Y160.26 E15.85214
G1 X98.565 Y161.113 E15.91649
G1 X98.265 Y161.994 E15.98391
G1 X98.101 Y162.413 E16.01651
G1 X97.754 Y163.201 E16.07888
G1 X97.396 Y163.93 E16.13771
G1 X96.99 Y164.678 E16.19937
G1 X96.613 Y165.285 E16.25113
G1 X96.256 Y165.822 E16.29784
G1 X95.861 Y166.377 E16.34719
G1 X95.689 Y166.602 E16.3677
G1 X95.303 Y167.076 E16.41199
G1 X94.976 Y167.455 E16.44825
G1 X94.611 Y167.856 E16.48753
G1 X94.262 Y168.22 E16.52406
G1 X93.591 Y168.861 E16.59128
G1 X93.033 Y169.347 E16.64488
G1 X92.398 Y169.857 E16.70388
G1 X91.846 Y170.251 E16.75301
G1 X91.244 Y170.653 E16.80545
G1 X90.442 Y171.137 E16.87331
G1 X89.815 Y171.478 E16.92501
G1 X89.041 Y171.858 E16.98747
G1 X88.682 Y172.016 E17.01589
G1 X88.121 Y172.243 E17.05973
G1 X87.723 Y172.391 E17.09049
G1 X87.001 Y172.63 E17.14558
G1 X86.246 Y172.849 E17.20253
G1 X85.417 Y173.053 E17.26437
G1 X84.761 Y173.172 E17.31267
G1 X83.843 Y173.308 E17.37989
G1 X82.575 Y173.417 E17.47209
G1 X81.818 Y173.435 E17.52694
G1 X80.911 Y173.417 E17.59266
G1 X80.061 Y173.362 E17.65436
G1 X77.519 Y173.236 E17.83873
G1 X74.948 Y173.181 E18.02502
G1 X72.423 Y173.198 E18.20793
G1 X69.858 Y173.288 E18.39386
G1 X67.585 Y173.423 E18.55881
G1 X66.724 Y173.438 E18.62119
G1 X65.851 Y173.417 E18.68445
G1 X64.961 Y173.358 E18.74906
G1 X64.415 Y173.288 E18.78894
G1 X63.591 Y173.161 E18.84933
G1 X62.737 Y172.993 E18.91238
G1 X62.011 Y172.803 E18.96674
G1 X61.317 Y172.597 E19.01919
G1 X60.47 Y172.306 E19.08406
G1 X59.941 Y172.09 E19.12546
G1 X59.211 Y171.767 E19.18328
G1 X58.419 Y171.375 E19.2473
G1 X57.971 Y171.129 E19.28432
G1 X57.195 Y170.657 E19.35012
G1 X56.526 Y170.209 E19.40844
G1 X55.752 Y169.638 E19.47812
G1 X55.347 Y169.3 E19.51633
G1 X54.709 Y168.739 E19.57788
G1 X54.096 Y168.153 E19.63931
G1 X53.588 Y167.605 E19.69344
G1 X53.093 Y167.034 E19.74818
G1 X52.497 Y166.28 E19.8178
G1 X52.204 Y165.862 E19.85478
G1 X51.754 Y165.184 E19.91373
G1 X51.345 Y164.513 E19.97066
G1 X51.189 Y164.234 E19.99381
G1 X50.897 Y163.674 E20.03956
G1 X50.69 Y163.244 E20.07413
G1 X50.355 Y162.466 E20.1355
G1 X50.105 Y161.815 E20.18601
G1 X49.831 Y161.003 E20.24809
G1 X49.624 Y160.293 E20.30167
G1 X49.398 Y159.365 E20.37086
G1 X49.304 Y158.847 E20.40899
G1 X49.191 Y158.121 E20.46222
G1 X49.093 Y157.22 E20.52787
G0 F1620 X49.088 Y157.171
G0 X49.044 Y156.461
G0 X49.025 Y155.707
G1 F1800 E14.52787
G1 F300 Z0.72
;MESH:Spange.stl
G0 F6000 X70.497 Y152.633 Z0.72
;TYPE:WALL-INNER
G1 F300 Z0.24
G1 F1800 E20.52787
G1 F1538.9 X70.63 Y152.868 E20.54938
G1 F1706.9 X70.807 Y153.188 E20.57564
G1 F1800 X70.949 Y153.43 E20.59475
G1 X71.132 Y153.8 E20.62285
G1 X71.235 Y154.055 E20.64158
G1 X71.329 Y154.326 E20.66111
G1 X71.424 Y154.675 E20.68574
G1 X71.488 Y155.011 E20.70903
G1 X71.524 Y155.327 E20.73069
G1 X71.542 Y155.581 E20.74803
G1 X71.543 Y155.93 E20.77179
G1 X71.515 Y156.292 E20.79652
G1 X71.453 Y156.698 E20.82448
G1 X71.348 Y157.119 E20.85403
G1 X71.219 Y157.5 E20.88142
G1 X71.119 Y157.738 E20.899
G1 X71.008 Y157.974 E20.91676
G1 X70.846 Y158.259 E20.93908
G1 X70.684 Y158.505 E20.95914
G1 F1709.4 X70.558 Y158.738 E20.97813
G1 F1555 X70.402 Y158.983 E21.00103
G1 F1507.6 X70.208 Y159.176 E21.02328
G1 F1532.9 X70.028 Y159.352 E21.0434
G1 F1538.9 X69.705 Y159.624 E21.07704
G1 X69.366 Y159.864 E21.11012
G1 F1536.9 X69.054 Y160.048 E21.13901
G1 F1534.9 X68.696 Y160.225 E21.1709
G1 X68.288 Y160.382 E21.20581
G1 F1532.9 X67.882 Y160.502 E21.23966
G1 F1534.9 X67.463 Y160.586 E21.27379
G1 X67.018 Y160.633 E21.30952
G1 F1532.9 X66.617 Y160.641 E21.34159
G1 F1534.9 X66.191 Y160.615 E21.37567
G1 F1536.9 X65.77 Y160.551 E21.40963
G1 X65.337 Y160.444 E21.44521
G1 X64.956 Y160.315 E21.47729
G1 F1534.9 X64.561 Y160.144 E21.51166
G1 F1536.9 X64.181 Y159.934 E21.54628
G1 X63.829 Y159.7 E21.57999
G1 X63.502 Y159.439 E21.61336
G1 X63.185 Y159.136 E21.64834
G1 F1534.9 X62.909 Y158.824 E21.6816
G1 X62.654 Y158.477 E21.71599
G1 X62.431 Y158.111 E21.75021
G1 X62.242 Y157.725 E21.78453
G1 X62.087 Y157.327 E21.81864
G1 F1536.9 X61.97 Y156.923 E21.85219
G1 X61.886 Y156.508 E21.88595
G1 F1534.9 X61.839 Y156.077 E21.92058
G1 F1532.9 X61.83 Y155.657 E21.95417
G1 X61.856 Y155.232 E21.98821
G1 F1534.9 X61.92 Y154.811 E22.02222
G1 F1536.9 X62.024 Y154.388 E22.05696
G1 F1534.9 X62.142 Y154.036 E22.0866
G1 X62.247 Y153.781 E22.10863
G1 X62.368 Y153.519 E22.13167
G1 X62.539 Y153.215 E22.15953
G1 X62.774 Y152.865 E22.19319
G1 X63.034 Y152.54 E22.22643
G1 X63.33 Y152.231 E22.2606
G1 X63.647 Y151.951 E22.29437
G1 F1536.9 X63.999 Y151.694 E22.32913
G1 X64.356 Y151.475 E22.36253
G1 F1534.9 X64.736 Y151.286 E22.39642
G1 F1536.9 X65.142 Y151.13 E22.43111
G1 X65.548 Y151.01 E22.46488
G1 X65.963 Y150.927 E22.49863
G1 F1534.9 X66.394 Y150.88 E22.53325
G1 X66.814 Y150.871 E22.5668
G1 X67.239 Y150.897 E22.6008
G1 F1536.9 X67.66 Y150.96 E22.63475
G1 X68.075 Y151.063 E22.66885
G1 X68.474 Y151.197 E22.70242
G1 X68.875 Y151.372 E22.73731
G1 X69.257 Y151.582 E22.77208
G1 F1534.9 X69.6 Y151.812 E22.80506
G1 X69.928 Y152.073 E22.83853
G1 F1527 X70.244 Y152.369 E22.87329
G1 F1492.5 X70.497 Y152.633 E22.90332
G0 F6000 X70.841 Y155.581
G0 X70.742 Y156.666
G0 X70.371 Y157.677
G0 X69.869 Y158.388
G0 X69.323 Y159.034
G0 X69.308 Y159.023
G1 F1800 X69.01 Y159.24 E22.92842
G1 X68.698 Y159.426 E22.95315
G1 X68.376 Y159.585 E22.97761
G1 X67.994 Y159.727 E23.00536
G1 X67.691 Y159.811 E23.02677
G1 X67.334 Y159.88 E23.05153
G1 X66.955 Y159.918 E23.07746
G1 X66.611 Y159.924 E23.10089
G1 X66.249 Y159.9 E23.1256
G1 X65.883 Y159.844 E23.15081
G1 X65.527 Y159.753 E23.17583
G1 X65.193 Y159.639 E23.19986
G1 X64.857 Y159.491 E23.22486
G1 X64.536 Y159.312 E23.24989
G1 X64.235 Y159.109 E23.27461
G1 X63.956 Y158.885 E23.29897
G1 X63.689 Y158.626 E23.3243
G1 X63.454 Y158.357 E23.34863
G1 X63.238 Y158.061 E23.37358
G1 X63.05 Y157.748 E23.39844
G1 X62.89 Y157.419 E23.42335
G1 X62.76 Y157.078 E23.4482
G1 X62.66 Y156.732 E23.47273
G1 X62.591 Y156.378 E23.49729
G1 X62.553 Y156.01 E23.52248
G1 X62.547 Y155.652 E23.54686
G1 X62.571 Y155.29 E23.57156
G1 X62.627 Y154.924 E23.59678
G1 X62.715 Y154.58 E23.62096
G1 X62.82 Y154.268 E23.64337
G1 X62.975 Y153.909 E23.67
G1 X63.157 Y153.579 E23.69566
G1 X63.363 Y153.273 E23.72078
G1 X63.587 Y152.996 E23.74504
G1 X63.841 Y152.734 E23.76989
G1 X64.114 Y152.495 E23.79459
G1 X64.412 Y152.278 E23.81969
G1 X64.72 Y152.093 E23.84416
G1 X65.046 Y151.933 E23.86889
G1 X65.39 Y151.802 E23.89395
G1 X65.739 Y151.701 E23.91869
G1 X66.093 Y151.632 E23.94325
G1 X66.461 Y151.594 E23.96844
G1 X66.819 Y151.588 E23.99283
G1 X67.181 Y151.612 E24.01753
G1 X67.547 Y151.667 E24.04273
G1 X67.884 Y151.754 E24.06643
G1 X68.237 Y151.873 E24.0918
G1 X68.58 Y152.024 E24.11732
G1 X68.898 Y152.202 E24.14213
G1 X69.194 Y152.403 E24.1665
G1 X69.473 Y152.627 E24.19086
G1 X69.738 Y152.883 E24.21595
G1 X69.938 Y153.111 E24.2366
G1 X70.17 Y153.422 E24.26302
G1 X70.379 Y153.764 E24.29032
G1 X70.537 Y154.085 E24.31468
G1 X70.665 Y154.418 E24.33897
G1 X70.769 Y154.781 E24.36468
G1 X70.824 Y155.057 E24.38385
G1 X70.867 Y155.389 E24.40664
G1 X70.882 Y155.73 E24.42989
G1 X70.858 Y156.224 E24.46356
G1 X70.801 Y156.592 E24.48892
G1 X70.711 Y156.947 E24.51386
G1 X70.597 Y157.28 E24.53783
G1 X70.45 Y157.612 E24.56255
G1 X70.272 Y157.933 E24.58754
G1 F1802.7 X70.068 Y158.236 E24.61238
G1 X69.84 Y158.519 E24.63709
G1 F1800 X69.587 Y158.78 E24.66184
G1 X69.372 Y158.968 E24.68129
G0 F1620 X69.308 Y159.023
G1 F1800 E18.68129
G0 F6000 X69.323 Y159.034
G0 X70.219 Y157.944
G0 X70.668 Y156.951
G0 X70.842 Y155.896
G0 X70.733 Y154.805
G0 X70.519 Y154.238
G0 X70.186 Y153.414
G1 F1800 E24.68129
G0 F6000 X69.633 Y153.805
;TYPE:WALL-OUTER
G1 F1800 X69.81 Y154.098 E24.7046
G1 X69.945 Y154.377 E24.7257
G1 X70.05 Y154.657 E24.74607
G1 X70.133 Y154.956 E24.7672
