;FLAVOR:Marlin
;TIME:451
;Filament used: 0.450791m
;Layer height: 0.32
;MINX:109.592
;MINY:122.073
;MINZ:0.24
;MAXX:149.875
;MAXY:160.473
;MAXZ:7.6
;Generated with Cura_SteamEngine 5.0.0
M140 S70
M105
M190 S70
M104 S245
M105
M109 S245
M82 ;absolute extrusion mode
; Ender 3 Max Custom Start G-code
G92 E0 ; Reset Extruder
G28 ; Home all axes
G1 Z2.0 F3000 ; Move Z Axis up little to prevent scratching of Heat Bed
G1 X0.1 Y20 Z0.3 F5000.0 ; Move to start position
G1 X0.1 Y200.0 Z0.3 F1500.0 E15 ; Draw the first line
G1 X0.4 Y200.0 Z0.3 F5000.0 ; Move to side a little
G1 X0.4 Y20 Z0.3 F1500.0 E30 ; Draw the second line
G92 E0 ; Reset Extruder
G1 Z2.0 F3000 ; Move Z Axis up little to prevent scratching of Heat Bed
G1 X5 Y20 Z0.3 F5000.0 ; Move over to prevent blob squish
G92 E0
G92 E0
G1 F2100 E-5
;LAYER_COUNT:23
;LAYER:0
M107
G1 F300 Z0.56
G0 F6000 X115.417 Y128.158 Z0.56
G1 F300 Z0.56
G0 F6000 X109.593 Y139.328
;TYPE:SKIRT
G1 F300 Z0.24
G1 F2100 E0
G1 F1800 X109.603 Y138.626 E0.05086
G1 X109.657 Y137.662 E0.1208
G1 X109.79 Y136.706 E0.19072
G1 X110.002 Y135.765 E0.2606
G1 X110.291 Y134.844 E0.33052
G1 X110.656 Y133.95 E0.40047
G1 X111.093 Y133.09 E0.47035
G1 X111.6 Y132.268 E0.54032
G1 X112.173 Y131.492 E0.61019
G1 X112.854 Y130.718 E0.68488
G1 X113.391 Y130.162 E0.74087
G1 X114.913 Y128.644 E0.89659
G1 X115.417 Y128.158 E0.94731
G1 X116.139 Y127.517 E1.01725
G1 X116.912 Y126.939 E1.08717
G1 X117.73 Y126.426 E1.15711
G1 X118.587 Y125.983 E1.227
G1 X119.849 Y125.482 E1.32536
G1 X122.694 Y124.504 E1.54329
G1 X125.019 Y123.626 E1.72332
G1 X126.088 Y123.19 E1.80696
G1 X126.864 Y122.886 E1.86733
G1 X127.776 Y122.571 E1.93723
G1 X128.711 Y122.333 E2.00712
G1 X129.663 Y122.174 E2.07704
G1 X130.904 Y122.085 E2.16717
G1 X131.669 Y122.073 E2.22259
G1 X137.518 Y122.073 E2.64629
G1 X138.383 Y122.084 E2.70896
G1 X139.347 Y122.138 E2.7789
G1 X140.303 Y122.271 E2.84882
G1 X141.244 Y122.483 E2.9187
G1 X142.165 Y122.773 E2.98864
G1 X143.059 Y123.137 E3.05857
G1 X143.919 Y123.574 E3.12845
G1 X144.74 Y124.081 E3.19835
G1 X145.517 Y124.655 E3.26833
G1 X146.243 Y125.29 E3.3382
G1 X146.915 Y125.984 E3.40818
G1 X147.526 Y126.73 E3.47803
G1 X148.074 Y127.525 E3.54798
G1 X148.554 Y128.362 E3.61787
G1 X148.963 Y129.237 E3.68784
G1 X149.299 Y130.142 E3.75777
G1 X149.558 Y131.071 E3.82764
G1 X149.739 Y132.019 E3.89755
G1 X149.861 Y133.405 E3.99834
G1 X149.875 Y134.053 E4.0453
G1 X149.874 Y148.231 E5.07236
G1 X149.865 Y148.958 E5.12503
G1 X149.813 Y149.922 E5.19496
G1 X149.682 Y150.878 E5.26486
G1 X149.471 Y151.82 E5.33479
G1 X149.184 Y152.742 E5.40474
G1 X148.821 Y153.636 E5.47464
G1 X148.386 Y154.497 E5.54452
G1 X147.88 Y155.32 E5.6145
G1 X147.309 Y156.097 E5.68435
G1 X146.674 Y156.825 E5.75433
G1 X145.982 Y157.498 E5.82426
G1 X145.237 Y158.111 E5.89415
G1 X144.443 Y158.66 E5.96408
G1 X143.607 Y159.142 E6.03398
G1 X142.733 Y159.553 E6.10395
G1 X141.829 Y159.89 E6.17384
G1 X140.9 Y160.151 E6.24374
G1 X139.952 Y160.334 E6.31368
G1 X138.543 Y160.459 E6.41615
G1 X137.895 Y160.473 E6.4631
G1 X131.602 Y160.471 E6.91897
G1 X130.889 Y160.458 E6.97063
G1 X129.925 Y160.401 E7.04058
G1 X128.97 Y160.263 E7.11048
G1 X128.029 Y160.048 E7.18041
G1 X126.759 Y159.62 E7.27749
G1 X125.668 Y159.181 E7.36268
G1 X124.994 Y158.9 E7.41558
G1 X122.675 Y158.008 E7.59557
G1 X120.294 Y157.168 E7.77847
G1 X119.697 Y156.966 E7.82412
G1 X118.796 Y156.62 E7.89404
G1 X117.927 Y156.2 E7.96396
G1 X117.096 Y155.71 E8.03384
G1 X116.308 Y155.152 E8.10379
G1 X115.351 Y154.328 E8.19527
G1 X114.851 Y153.844 E8.24568
G1 X113.357 Y152.348 E8.39884
G1 X112.886 Y151.862 E8.44786
G1 X112.244 Y151.141 E8.5178
G1 X111.663 Y150.37 E8.58773
G1 X111.148 Y149.554 E8.65763
G1 X110.703 Y148.698 E8.72752
G1 X110.33 Y147.807 E8.79749
G1 X110.032 Y146.889 E8.86741
G1 X109.811 Y145.95 E8.93729
G1 X109.668 Y144.995 E9.00724
G1 X109.604 Y143.963 E9.08214
G1 X109.592 Y143.197 E9.13764
G1 X109.593 Y140.691 E9.31918
G0 F1620 X109.593 Y139.328
G1 F2100 E4.31918
G1 F300 Z0.56
G0 F6000 X110.252 Y143.197 Z0.56
G1 F300 Z0.24
G1 F2100 E9.31918
G1 F1800 X110.253 Y139.337 E9.5988
G1 X110.263 Y138.635 E9.64965
G1 X110.316 Y137.7 E9.7175
G1 X110.449 Y136.772 E9.78541
G1 X110.661 Y135.858 E9.85338
G1 X110.949 Y134.966 E9.92128
G1 X111.313 Y134.102 E9.98919
G1 X111.749 Y133.272 E10.05711
G1 X112.254 Y132.482 E10.12503
G1 X112.824 Y131.739 E10.19287
G1 X113.33 Y131.175 E10.24776
G1 X113.858 Y130.629 E10.30278
G1 X115.371 Y129.119 E10.45763
G1 X115.875 Y128.633 E10.50835
G1 X116.577 Y128.012 E10.57624
G1 X117.33 Y127.452 E10.64422
G1 X118.127 Y126.959 E10.71211
G1 X118.963 Y126.536 E10.77998
G1 X120.056 Y126.109 E10.86499
G1 X122.915 Y125.126 E11.08399
G1 X125.288 Y124.23 E11.26774
G1 X126.328 Y123.804 E11.34915
G1 X127.104 Y123.5 E11.40953
G1 X127.991 Y123.196 E11.47745
G1 X128.9 Y122.968 E11.54534
G1 X129.826 Y122.819 E11.61328
G1 X130.915 Y122.745 E11.69235
G1 X131.669 Y122.733 E11.74698
G1 X137.518 Y122.733 E12.17068
G1 X138.373 Y122.744 E12.23263
G1 X139.309 Y122.798 E12.30054
G1 X140.237 Y122.93 E12.36844
G1 X141.151 Y123.142 E12.43641
G1 X142.042 Y123.431 E12.50427
G1 X142.907 Y123.794 E12.57222
G1 X143.736 Y124.23 E12.64007
G1 X144.526 Y124.735 E12.708
G1 X145.27 Y125.306 E12.77594
G1 X145.963 Y125.938 E12.84388
G1 X146.599 Y126.626 E12.91175
G1 X147.174 Y127.366 E12.97964
G1 X147.684 Y128.153 E13.04757
G1 X148.125 Y128.98 E13.11546
G1 X148.494 Y129.842 E13.18339
G1 X148.788 Y130.732 E13.25129
G1 X149.006 Y131.644 E13.31922
G1 X149.144 Y132.571 E13.38711
G1 X149.202 Y133.424 E13.44904
G1 X149.215 Y134.053 E13.49462
G1 X149.214 Y148.223 E14.5211
G1 X149.205 Y148.95 E14.57377
G1 X149.154 Y149.886 E14.64167
G1 X149.022 Y150.814 E14.70957
G1 X148.813 Y151.728 E14.77749
G1 X148.526 Y152.62 E14.84537
G1 X148.164 Y153.485 E14.9133
G1 X147.73 Y154.316 E14.98121
G1 X147.226 Y155.107 E15.04916
G1 X146.657 Y155.852 E15.11707
G1 X146.027 Y156.545 E15.18491
G1 X145.339 Y157.183 E15.25288
G1 X144.6 Y157.76 E15.3208
G1 X143.815 Y158.271 E15.38865
G1 X142.988 Y158.714 E15.45661
G1 X142.127 Y159.084 E15.5245
G1 X141.238 Y159.38 E15.59238
G1 X140.326 Y159.6 E15.66034
G1 X139.399 Y159.74 E15.72825
G1 X138.524 Y159.8 E15.79179
G1 X137.895 Y159.813 E15.83736
G1 X131.614 Y159.811 E16.29236
G1 X130.901 Y159.798 E16.34402
G1 X129.965 Y159.741 E16.41195
G1 X129.038 Y159.605 E16.47982
G1 X128.125 Y159.389 E16.54778
G1 X127.005 Y159.008 E16.63348
G1 X125.922 Y158.572 E16.71806
G1 X125.234 Y158.285 E16.77206
G1 X122.923 Y157.396 E16.95143
G1 X120.493 Y156.539 E17.13808
G1 X119.908 Y156.341 E17.18282
G1 X119.034 Y156.004 E17.25068
G1 X118.191 Y155.593 E17.31862
G1 X117.387 Y155.111 E17.38653
G1 X116.626 Y154.563 E17.45446
G1 X115.809 Y153.852 E17.53292
G1 X115.318 Y153.377 E17.5824
G1 X113.831 Y151.888 E17.73484
G1 X113.36 Y151.402 E17.78387
G1 X112.737 Y150.702 E17.85175
G1 X112.176 Y149.951 E17.91966
G1 X111.681 Y149.155 E17.98756
G1 X111.255 Y148.32 E18.05547
G1 X110.903 Y147.451 E18.12339
G1 X110.625 Y146.556 E18.19128
G1 X110.425 Y145.64 E18.2592
G1 X110.304 Y144.71 E18.32713
G1 X110.296 Y144.559 E18.33809
G0 F1620 X110.264 Y143.951
G0 X110.252 Y143.197
G0 F6000 X110.912 Y143.197
G1 F1800 X110.913 Y139.347 E18.61698
G1 X110.923 Y138.645 E18.66784
G1 X110.976 Y137.738 E18.73366
G1 X111.108 Y136.838 E18.79955
G1 X111.319 Y135.954 E18.86539
G1 X111.607 Y135.092 E18.93122
G1 X111.97 Y134.259 E18.99705
G1 X112.404 Y133.461 E19.06285
G1 X112.907 Y132.704 E19.12869
G1 X113.474 Y131.994 E19.19451
G1 X113.805 Y131.633 E19.22999
G1 X114.324 Y131.096 E19.28409
G1 X115.83 Y129.594 E19.43817
G1 X116.334 Y129.108 E19.48889
G1 X117.015 Y128.507 E19.55469
G1 X117.747 Y127.967 E19.62058
G1 X118.523 Y127.494 E19.68641
G1 X119.337 Y127.092 E19.75218
G1 X120.263 Y126.736 E19.82405
G1 X123.113 Y125.757 E20.04234
G1 X125.515 Y124.849 E20.22836
G1 X126.569 Y124.419 E20.31082
G1 X127.345 Y124.115 E20.3712
G1 X128.205 Y123.821 E20.43704
G1 X129.088 Y123.604 E20.50291
G1 X129.986 Y123.465 E20.56873
G1 X130.927 Y123.405 E20.63704
G1 X131.669 Y123.393 E20.69079
G1 X137.518 Y123.393 E21.1145
G1 X138.364 Y123.404 E21.17579
G1 X139.271 Y123.457 E21.24161
G1 X140.17 Y123.59 E21.30744
G1 X141.054 Y123.801 E21.37327
G1 X141.916 Y124.089 E21.43911
G1 X142.75 Y124.451 E21.50497
G1 X143.548 Y124.886 E21.57081
G1 X144.305 Y125.388 E21.63661
G1 X145.015 Y125.956 E21.70248
G1 X145.672 Y126.584 E21.76832
G1 X146.272 Y127.267 E21.83417
G1 X146.809 Y128 E21.9
G1 X147.28 Y128.777 E21.96582
G1 X147.68 Y129.593 E22.03165
G1 X148.007 Y130.441 E22.09749
G1 X148.259 Y131.314 E22.16331
G1 X148.433 Y132.206 E22.22914
G1 X148.542 Y133.443 E22.3191
G1 X148.555 Y134.053 E22.3633
G1 X148.554 Y148.215 E23.3892
G1 X148.545 Y148.942 E23.44187
G1 X148.494 Y149.849 E23.50768
G1 X148.363 Y150.749 E23.57356
G1 X148.154 Y151.633 E23.63936
G1 X147.868 Y152.496 E23.70522
G1 X147.507 Y153.33 E23.77106
G1 X147.074 Y154.129 E23.83689
G1 X146.572 Y154.887 E23.90275
G1 X146.006 Y155.598 E23.96858
G1 X145.38 Y156.256 E24.03437
G1 X144.698 Y156.857 E24.10022
G1 X143.966 Y157.396 E24.16607
G1 X143.189 Y157.868 E24.23193
G1 X142.374 Y158.27 E24.29776
G1 X141.527 Y158.599 E24.36359
G1 X140.654 Y158.852 E24.42943
G1 X139.762 Y159.028 E24.49529
G1 X138.506 Y159.14 E24.58664
G1 X137.895 Y159.153 E24.63091
G1 X131.626 Y159.151 E25.08504
G1 X130.913 Y159.138 E25.1367
G1 X130.006 Y159.082 E25.20253
G1 X129.107 Y158.946 E25.26839
G1 X128.224 Y158.731 E25.33422
G1 X127.251 Y158.396 E25.40877
G1 X126.176 Y157.963 E25.49272
G1 X125.474 Y157.67 E25.54783
G1 X123.129 Y156.768 E25.72983
G1 X120.782 Y155.94 E25.91012
G1 X120.119 Y155.716 E25.96082
G1 X119.272 Y155.387 E26.02664
G1 X118.457 Y154.986 E26.09244
G1 X117.68 Y154.514 E26.1583
G1 X116.948 Y153.976 E26.22411
G1 X116.266 Y153.376 E26.28991
G1 X115.785 Y152.91 E26.33842
G1 X114.305 Y151.429 E26.49009
G1 X113.834 Y150.943 E26.53912
G1 X113.231 Y150.263 E26.60496
G1 X112.69 Y149.533 E26.67078
G1 X112.215 Y148.758 E26.73663
G1 X111.81 Y147.944 E26.80249
G1 X111.478 Y147.098 E26.86832
G1 X111.222 Y146.226 E26.93416
G1 X111.044 Y145.335 E26.99998
G1 X110.958 Y144.559 E27.05654
G0 F1620 X110.944 Y144.432
G0 X110.924 Y143.939
G0 X110.912 Y143.197
G1 F2100 E22.05654
G1 F300 Z0.56
;MESH:2020-dupont-mount-cap.3.stl
G0 F6000 X122.891 Y143.019 Z0.56
;TYPE:WALL-INNER
G1 F300 Z0.24
G1 F2100 E27.05654
G1 F1800 X123.258 Y142.635 E27.08872
G1 X123.714 Y142.404 E27.11969
G1 X124.117 Y142.303 E27.14486
G1 X124.409 Y142.288 E27.16257
G1 X126.183 Y142.288 E27.27005
G1 X126.497 Y142.326 E27.28922
G1 X126.777 Y142.415 E27.30702
G1 X127.248 Y142.659 E27.33916
G1 X127.447 Y142.83 E27.35505
G1 X131.789 Y147.173 E27.72713
G1 X136.575 Y147.173 E28.0171
G1 X136.575 Y138.757 E28.52699
G1 X136.575 Y135.373 E28.73202
G1 X131.789 Y135.373 E29.02199
G1 X127.488 Y139.676 E29.39059
G1 X127.284 Y139.841 E29.40649
G1 X126.989 Y140.002 E29.42685
G1 X126.525 Y140.159 E29.45653
G1 X126.21 Y140.188 E29.4757
G1 X124.366 Y140.188 E29.58742
G1 X124.144 Y140.167 E29.60093
G1 X123.659 Y140.009 E29.63183
G1 X123.499 Y139.927 E29.64272
G1 X122.94 Y139.464 E29.6867
G1 X122.892 Y139.48 E29.68977
G1 X122.891 Y141.656 E29.8216
G0 F1620 X122.891 Y143.019
G0 F6000 X123.643 Y143.171
G1 F1800 X123.917 Y143.033 E29.84019
G1 X124.205 Y142.957 E29.85824
G1 X124.409 Y142.948 E29.87061
G1 X126.166 Y142.948 E29.97706
G1 X126.522 Y143.024 E29.99911
G1 X126.861 Y143.194 E30.02209
G1 X127.052 Y143.368 E30.03774
G1 X131.516 Y147.833 E30.42027
G1 X137.235 Y147.833 E30.76677
G1 X137.235 Y138.757 E31.31665
G1 X137.235 Y134.713 E31.56167
G1 X131.516 Y134.713 E31.90816
G1 X127.033 Y139.197 E32.29232
G1 X126.734 Y139.393 E32.31398
G1 X126.399 Y139.511 E32.3355
G1 X126.139 Y139.528 E32.35128
G1 X124.383 Y139.528 E32.45767
G1 X123.959 Y139.421 E32.48417
G1 X123.463 Y139.061 E32.5213
G1 X123.305 Y138.76 E32.5419
G1 X123.22 Y138.338 E32.56798
G1 X123.22 Y138.208 E32.57585
G1 X122.232 Y139.196 E32.66051
G1 X122.232 Y143.35 E32.91219
G1 X123.062 Y144.18 E32.9833
G0 F1620 X123.149 Y144.267
G0 X123.256 Y143.687
G0 X123.392 Y143.434
G0 X123.643 Y143.171
G1 F2100 E27.9833
G1 F300 Z0.56
G0 F6000 X124.4 Y138.868 Z0.56
;TYPE:WALL-OUTER
G1 F300 Z0.24
G1 F2100 E32.9833
G1 F1800 X124.098 Y138.751 E33.00271
G1 X123.933 Y138.558 E33.01793
G1 X123.88 Y138.338 E33.03149
G1 X123.88 Y136.868 E33.11958
G1 X123.627 Y136.868 E33.13475
G1 X121.572 Y138.922 E33.30887
G1 X121.572 Y143.624 E33.59065
G1 X123.556 Y145.608 E33.7588
G1 X123.809 Y145.608 E33.77396
G1 X123.809 Y144.137 E33.86211
G1 X123.926 Y143.826 E33.88202
G1 X124.119 Y143.661 E33.89724
G1 X124.409 Y143.608 E33.91491
G1 X126.172 Y143.609 E34.02056
G1 X126.408 Y143.692 E34.03555
G1 X126.585 Y143.834 E34.04915
G1 X131.242 Y148.493 E34.44392
G1 X137.895 Y148.493 E34.84262
G1 X137.895 Y138.757 E35.42608
G1 X137.895 Y134.053 E35.70799
G1 X131.242 Y134.053 E36.10669
G1 X126.579 Y138.719 E36.50201
G1 X126.338 Y138.843 E36.51825
G1 X126.139 Y138.868 E36.53027
G1 X125.763 Y138.868 E36.5528
G0 F1620 X124.4 Y138.868
G0 F6000 X124.101 Y138.753
G0 X123.558 Y140.672
;TYPE:SKIN
G1 F1433.1 X123.557 Y141.756 E36.6344
G1 X124.026 Y141.644 E36.6707
G1 F1459.5 X124.368 Y141.638 E36.69598
G1 F1483.1 X125.301 Y141.638 E36.76384
G1 F1479.5 X126.234 Y141.638 E36.83186
G1 F1515.3 X126.482 Y141.689 E36.84989
G1 F1670.9 X126.897 Y141.853 E36.8787
G1 F1800 X127.171 Y141.952 E36.89616
G1 X127.517 Y142.144 E36.91987
G1 X127.838 Y142.402 E36.94455
G1 X127.893 Y142.455 E36.94913
G1 X132.028 Y146.593 E37.2997
G1 X135.995 Y146.593 E37.53743
G1 X135.995 Y138.758 E38.00697
G1 X135.995 Y135.953 E38.17507
G1 X132.028 Y135.953 E38.4128
G1 X127.887 Y140.098 E38.76393
G1 X127.638 Y140.304 E38.7833
G1 X127.272 Y140.494 E38.80801
G1 X127.047 Y140.605 E38.82304
G1 F1767.9 X126.735 Y140.697 E38.84289
G1 F1643.2 X126.435 Y140.804 E38.8638
G1 F1519.2 X126.186 Y140.835 E38.88162
G1 F1481.3 X124.327 Y140.838 E39.01699
G1 F1457.7 X124.039 Y140.824 E39.03833
G1 F1433.1 X123.558 Y140.672 E39.0763
G1 F2100 E34.0763
G1 F300 Z0.56
G0 F6000 X126.98 Y140.98 Z0.56
G1 F300 Z0.24
G1 F2100 E39.0763
G1 F1800 X132.261 Y146.262 E39.52392
G0 F6000 X133.194 Y146.262
G1 F1800 X127.621 Y140.688 E39.99628
G0 F6000 X128.156 Y140.29
G1 F1800 X134.128 Y146.262 E40.50241
G0 F6000 X135.061 Y146.262
G1 F1800 X128.623 Y139.824 E41.04804
G0 F6000 X129.09 Y139.357
G1 F1800 X135.665 Y145.932 E41.60528
G0 F6000 X135.665 Y144.999
G1 F1800 X129.556 Y138.89 E42.12302
G0 F6000 X130.023 Y138.423
G1 F1800 X135.665 Y144.065 E42.60119
G0 F6000 X135.665 Y143.132
G1 F1800 X130.49 Y137.957 E43.03978
G0 F6000 X130.956 Y137.49
G1 F1800 X135.665 Y142.199 E43.43887
G0 F6000 X135.665 Y141.265
G1 F1800 X131.423 Y137.023 E43.79838
G0 F6000 X131.89 Y136.557
G1 F1800 X135.665 Y140.332 E44.11832
G0 F6000 X135.665 Y139.399
G1 F1800 X132.548 Y136.282 E44.38249
G0 F6000 X133.481 Y136.282
G1 F1800 X135.665 Y138.465 E44.56754
G0 F6000 X135.665 Y137.532
G1 F1800 X134.415 Y136.282 E44.67348
G0 F6000 X135.348 Y136.282
G1 F1800 X135.665 Y136.598 E44.7003
G1 F2100 E39.7003
G1 F300 Z0.56
;MESH:NONMESH
G0 F6000 X123.143 Y139.956 Z0.56
;TIME_ELAPSED:36.784128
;LAYER:1
M106 S21.2
;TYPE:WALL-INNER
;MESH:2020-dupont-mount-cap.3.stl
G1 F300 Z0.56
G1 F2100 E44.7003
G1 F2250 X123.142 Y142.162 E44.86231
G1 X123.143 Y142.467 E44.88471
G1 X123.348 Y142.285 E44.90484
G1 X124.074 Y142.054 E44.96079
G1 X124.339 Y142.038 E44.98029
G1 X126.191 Y142.038 E45.1163
G1 X126.68 Y142.106 E45.15255
G1 X127.093 Y142.265 E45.18505
G1 X127.404 Y142.461 E45.21205
G1 X127.625 Y142.653 E45.23355
G1 X131.893 Y146.923 E45.67692
G1 X136.325 Y146.923 E46.00239
G1 X136.325 Y138.757 E46.60209
G1 X136.325 Y135.623 E46.83225
G1 X131.893 Y135.623 E47.15773
G1 X127.659 Y139.86 E47.59762
G1 X127.434 Y140.046 E47.61905
G1 X127.118 Y140.233 E47.64602
G1 X126.701 Y140.381 E47.67852
G1 X126.367 Y140.433 E47.70334
G1 X126.139 Y140.438 E47.72009
G1 X124.358 Y140.438 E47.85088
G1 X124.145 Y140.419 E47.86659
G0 F2025 X124.094 Y140.415
G0 X123.42 Y140.191
G0 X123.143 Y139.956
G1 F2100 E42.86659
G1 F300 Z0.88
G0 F6960 X122.543 Y143.221 Z0.88
G1 F300 Z0.56
G1 F2100 E47.86659
G1 F2250 X122.988 Y143.666 E47.9128
