;FLAVOR:Marlin
;TIME:223
;Filament used: 0.269024m
;Layer height: 0.32
;MINX:124.41
;MINY:130.13
;MINZ:0.24
;MAXX:182.99
;MAXY:169.87
;MAXZ:3.44
;Generated with Cura_SteamEngine 5.0.0
M140 S70
M105
M190 S70
M104 S245
M105
M109 S245
M82 ;absolute extrusion mode
; Ender 3 Max Custom Start G-code
G92 E0 ; Reset Extruder
G28 ; Home all axes
G1 Z2.0 F3000 ; Move Z Axis up little to prevent scratching of Heat Bed
G1 X0.1 Y20 Z0.3 F5000.0 ; Move to start position
G1 X0.1 Y200.0 Z0.3 F1500.0 E15 ; Draw the first line
G1 X0.4 Y200.0 Z0.3 F5000.0 ; Move to side a little
G1 X0.4 Y20 Z0.3 F1500.0 E30 ; Draw the second line
G92 E0 ; Reset Extruder
G1 Z2.0 F3000 ; Move Z Axis up little to prevent scratching of Heat Bed
G1 X5 Y20 Z0.3 F5000.0 ; Move over to prevent blob squish
G92 E0
G92 E0
G1 F2100 E-5
;LAYER_COUNT:10
;LAYER:0
M107
G1 F300 Z0.56
G0 F6000 X127.607 Y137.389 Z0.56
G1 F300 Z0.56
G0 F6000 X124.411 Y145.647
;TYPE:SKIRT
G1 F300 Z0.24
G1 F2100 E0
G1 F1800 X124.42 Y144.981 E0.04825
G1 X124.473 Y144.045 E0.11616
G1 X124.605 Y143.116 E0.18414
G1 X124.816 Y142.203 E0.25202
G1 X125.104 Y141.311 E0.31992
G1 X125.466 Y140.447 E0.38778
G1 X125.902 Y139.616 E0.45576
G1 X126.406 Y138.826 E0.52364
G1 X126.976 Y138.082 E0.59154
G1 X127.607 Y137.389 E0.65943
G1 X128.295 Y136.752 E0.72735
G1 X129.035 Y136.176 E0.79528
G1 X129.821 Y135.666 E0.86316
G1 X130.648 Y135.224 E0.93109
G1 X131.509 Y134.854 E0.99897
G1 X132.399 Y134.559 E1.06689
G1 X133.543 Y134.299 E1.15188
G1 X134.702 Y134.099 E1.23708
G1 X137.317 Y133.61 E1.42979
G1 X139.791 Y133.074 E1.61317
G1 X142.199 Y132.481 E1.79282
G1 X144.626 Y131.81 E1.97523
G1 X147.147 Y131.035 E2.16628
G1 X148.296 Y130.666 E2.25371
G1 X149.2 Y130.418 E2.32161
G1 X150.122 Y130.247 E2.38954
G1 X151.351 Y130.143 E2.47889
G1 X151.98 Y130.13 E2.52446
G1 X155.043 Y130.13 E2.74635
G1 X155.902 Y130.141 E2.80858
G1 X156.838 Y130.194 E2.87649
G1 X157.766 Y130.327 E2.94441
G1 X159.11 Y130.667 E3.04483
G1 X161.647 Y131.483 E3.23789
G1 X164.022 Y132.174 E3.41707
G1 X166.464 Y132.81 E3.59987
G1 X168.937 Y133.38 E3.78371
G1 X171.409 Y133.876 E3.96635
G1 X173.864 Y134.301 E4.14684
G1 X174.78 Y134.5 E4.21474
G1 X175.675 Y134.776 E4.28259
G1 X176.544 Y135.128 E4.35051
G1 X177.38 Y135.552 E4.41841
G1 X178.177 Y136.046 E4.48634
G1 X178.929 Y136.606 E4.55426
G1 X179.63 Y137.229 E4.6222
G1 X180.275 Y137.908 E4.69004
G1 X180.861 Y138.641 E4.75802
G1 X181.381 Y139.42 E4.82587
G1 X181.834 Y140.241 E4.8938
G1 X182.215 Y141.098 E4.96174
G1 X182.521 Y141.984 E5.02964
G1 X182.751 Y142.893 E5.09756
G1 X182.902 Y143.818 E5.16546
G1 X182.977 Y144.821 E5.23832
G1 X182.99 Y145.45 E5.28389
G1 X182.989 Y154.295 E5.92463
G1 X182.979 Y155.022 E5.9773
G1 X182.926 Y155.958 E6.04521
G1 X182.794 Y156.886 E6.11311
G1 X182.583 Y157.8 E6.18106
G1 X182.295 Y158.692 E6.24897
G1 X181.931 Y159.556 E6.31688
G1 X181.496 Y160.386 E6.38477
G1 X180.991 Y161.176 E6.45269
G1 X180.421 Y161.92 E6.52058
G1 X179.79 Y162.613 E6.58848
G1 X179.102 Y163.25 E6.6564
G1 X178.362 Y163.825 E6.72428
G1 X177.576 Y164.336 E6.7922
G1 X176.749 Y164.777 E6.86009
G1 X175.887 Y165.147 E6.92804
G1 X174.997 Y165.442 E6.99597
G1 X173.858 Y165.701 E7.08058
G1 X172.676 Y165.905 E7.16747
G1 X170.083 Y166.39 E7.35857
G1 X167.609 Y166.926 E7.54194
G1 X165.201 Y167.519 E7.72159
G1 X162.774 Y168.19 E7.904
G1 X160.253 Y168.965 E8.09506
G1 X159.104 Y169.334 E8.18248
G1 X158.2 Y169.582 E8.25039
G1 X157.278 Y169.753 E8.31831
G1 X156.049 Y169.857 E8.40766
G1 X155.42 Y169.87 E8.45324
G1 X152.172 Y169.868 E8.68852
G1 X151.461 Y169.856 E8.74004
G1 X150.525 Y169.801 E8.80796
G1 X149.597 Y169.665 E8.8759
G1 X148.281 Y169.33 E8.97427
G1 X145.774 Y168.524 E9.16504
G1 X143.377 Y167.826 E9.34589
G1 X140.93 Y167.189 E9.52906
G1 X138.47 Y166.621 E9.71195
G1 X135.998 Y166.125 E9.89459
G1 X133.541 Y165.701 E10.07521
G1 X132.624 Y165.502 E10.14318
G1 X131.729 Y165.226 E10.21103
G1 X130.859 Y164.875 E10.27899
G1 X130.023 Y164.451 E10.3469
G1 X129.227 Y163.957 E10.41476
G1 X128.475 Y163.397 E10.48268
G1 X127.773 Y162.775 E10.55062
G1 X127.128 Y162.096 E10.61847
G1 X126.542 Y161.364 E10.68639
G1 X126.021 Y160.584 E10.75434
G1 X125.568 Y159.764 E10.8222
G1 X125.187 Y158.907 E10.89014
G1 X124.88 Y158.021 E10.95807
G1 X124.65 Y157.113 E11.02592
G1 X124.498 Y156.187 E11.0939
G1 X124.423 Y155.168 E11.16792
G1 X124.41 Y154.538 E11.21356
G1 X124.411 Y147.01 E11.7589
G0 F1620 X124.411 Y145.647
G0 F6000 X125.071 Y145.655
G1 F1800 X125.08 Y144.989 E11.80715
G1 X125.132 Y144.082 E11.87296
G1 X125.264 Y143.183 E11.93878
G1 X125.474 Y142.299 E12.0046
G1 X125.762 Y141.436 E12.07051
G1 X126.123 Y140.603 E12.13627
G1 X126.557 Y139.804 E12.20214
G1 X127.06 Y139.047 E12.26798
G1 X127.626 Y138.336 E12.33381
G1 X128.254 Y137.679 E12.39965
G1 X128.936 Y137.078 E12.4655
G1 X129.669 Y136.541 E12.53132
G1 X130.446 Y136.069 E12.59718
G1 X131.261 Y135.668 E12.66298
G1 X132.109 Y135.34 E12.72884
G1 X132.982 Y135.088 E12.79467
G1 X133.655 Y134.949 E12.84445
G1 X134.873 Y134.739 E12.93398
G1 X137.436 Y134.26 E13.12286
G1 X139.911 Y133.723 E13.30632
G1 X142.39 Y133.113 E13.49126
G1 X144.82 Y132.441 E13.6739
G1 X147.381 Y131.654 E13.86798
G1 X148.498 Y131.295 E13.95297
G1 X149.375 Y131.055 E14.01884
G1 X150.269 Y130.893 E14.08466
G1 X151.37 Y130.803 E14.16468
G1 X151.98 Y130.79 E14.20888
G1 X155.043 Y130.79 E14.43076
G1 X155.893 Y130.801 E14.49234
G1 X156.8 Y130.854 E14.55816
G1 X157.699 Y130.986 E14.62398
G1 X158.908 Y131.296 E14.7144
G1 X161.404 Y132.099 E14.90433
G1 X163.881 Y132.819 E15.0912
G1 X166.293 Y133.448 E15.27177
G1 X168.802 Y134.026 E15.45828
G1 X171.281 Y134.524 E15.64145
G1 X173.751 Y134.951 E15.82303
G1 X174.639 Y135.145 E15.88888
G1 X175.506 Y135.417 E15.9547
G1 X176.347 Y135.763 E16.02058
G1 X177.153 Y136.182 E16.08638
G1 X177.919 Y136.671 E16.15221
G1 X178.64 Y137.224 E16.21804
G1 X179.309 Y137.839 E16.28387
G1 X179.922 Y138.511 E16.34976
G1 X180.473 Y139.234 E16.41561
G1 X180.958 Y140.002 E16.48141
G1 X181.374 Y140.81 E16.54724
G1 X181.718 Y141.651 E16.61306
G1 X181.986 Y142.52 E16.67894
G1 X182.177 Y143.408 E16.74474
G1 X182.288 Y144.31 E16.81057
G1 X182.317 Y144.84 E16.84902
G1 X182.33 Y145.45 E16.89322
G1 X182.329 Y154.286 E17.53331
G1 X182.319 Y155.013 E17.58598
G1 X182.267 Y155.92 E17.65179
G1 X182.135 Y156.82 E17.71768
G1 X181.924 Y157.704 E17.78352
G1 X181.637 Y158.566 E17.84933
G1 X181.274 Y159.4 E17.91522
G1 X180.84 Y160.198 E17.98103
G1 X180.338 Y160.955 E18.04683
G1 X179.771 Y161.666 E18.1127
G1 X179.144 Y162.323 E18.17849
G1 X178.461 Y162.923 E18.24435
G1 X177.728 Y163.461 E18.31021
G1 X176.951 Y163.932 E18.37603
G1 X176.135 Y164.333 E18.4419
G1 X175.288 Y164.661 E18.5077
G1 X174.414 Y164.912 E18.57357
G1 X173.746 Y165.051 E18.62299
G1 X172.504 Y165.265 E18.71429
G1 X169.964 Y165.74 E18.90148
G1 X167.489 Y166.277 E19.08494
G1 X165.01 Y166.887 E19.26988
G1 X162.58 Y167.559 E19.45252
G1 X160.019 Y168.346 E19.6466
G1 X158.902 Y168.705 E19.73159
G1 X158.025 Y168.945 E19.79746
G1 X157.131 Y169.107 E19.86327
G1 X156.03 Y169.197 E19.9433
G1 X155.42 Y169.21 E19.9875
G1 X152.183 Y169.209 E20.22199
G1 X151.472 Y169.197 E20.2735
G1 X150.565 Y169.141 E20.33933
G1 X149.666 Y169.006 E20.40518
G1 X148.483 Y168.702 E20.49366
G1 X145.984 Y167.898 E20.68383
G1 X143.518 Y167.181 E20.86987
G1 X141.094 Y166.549 E21.05133
G1 X138.612 Y165.976 E21.23586
G1 X136.131 Y165.479 E21.41916
G1 X133.653 Y165.051 E21.60132
G1 X132.765 Y164.857 E21.66717
G1 X131.897 Y164.586 E21.73304
G1 X131.057 Y164.24 E21.79885
G1 X130.25 Y163.821 E21.86472
G1 X129.484 Y163.333 E21.93051
G1 X128.763 Y162.779 E21.99638
G1 X128.094 Y162.164 E22.06221
G1 X127.481 Y161.493 E22.12804
G1 X126.929 Y160.771 E22.19388
G1 X126.444 Y160.003 E22.25968
G1 X126.027 Y159.195 E22.32555
G1 X125.684 Y158.353 E22.39141
G1 X125.415 Y157.485 E22.45724
G1 X125.224 Y156.596 E22.52311
G1 X125.112 Y155.695 E22.58888
G1 X125.083 Y155.15 E22.62842
G1 X125.07 Y154.538 E22.67276
G1 X125.071 Y147.018 E23.21751
G0 F1620 X125.071 Y145.655
G1 F2100 E18.21751
G1 F300 Z0.56
;MESH:2020-dupont-mount-plate.stl
G0 F6000 X137.05 Y146.77 Z0.56
;TYPE:WALL-INNER
G1 F300 Z0.24
G1 F2100 E23.21751
G1 F1800 X137.05 Y153.23 E23.6089
G1 X151.451 Y153.23 E24.48141
G1 X151.714 Y153.25 E24.49739
G1 X151.957 Y153.309 E24.51254
G1 X152.201 Y153.409 E24.52852
G1 X152.486 Y153.561 E24.54809
G1 X152.846 Y153.865 E24.57663
G1 X153.068 Y154.182 E24.60008
G1 F1770.5 X153.194 Y154.452 E24.61843
G1 F1652.3 X153.327 Y154.809 E24.64358
G1 F1598.9 X153.335 Y155.08 E24.66207
G1 F1627.4 X153.335 Y157.195 E24.8038
G1 X154.065 Y157.195 E24.85272
G1 X154.065 Y155.08 E24.99445
G1 F1598.9 X154.073 Y154.809 E25.01295
G1 F1629.6 X154.158 Y154.567 E25.03011
G1 F1744.5 X154.279 Y154.329 E25.0468
G1 F1800 X154.576 Y153.847 E25.0811
G1 X154.771 Y153.653 E25.09777
G1 X155.052 Y153.463 E25.11832
G1 X155.326 Y153.347 E25.13635
G1 X155.687 Y153.25 E25.15899
G1 X155.949 Y153.23 E25.17491
G1 X170.35 Y153.23 E26.04742
G1 X170.35 Y150 E26.24312
G1 X170.35 Y146.77 E26.43881
G1 X155.949 Y146.77 E27.31132
G1 X155.686 Y146.75 E27.3273
G1 X155.443 Y146.691 E27.34245
G1 X155.199 Y146.591 E27.35843
G1 X154.914 Y146.438 E27.37803
G1 X154.553 Y146.135 E27.40658
G1 X154.333 Y145.818 E27.42996
G1 X154.216 Y145.544 E27.44801
G1 F1726.7 X154.093 Y145.187 E27.47186
G1 F1643.2 X154.065 Y144.921 E27.48961
G1 F1627.4 X154.065 Y142.805 E27.63141
G1 X153.335 Y142.805 E27.68033
G1 X153.335 Y144.921 E27.82213
G1 F1643.2 X153.307 Y145.187 E27.83988
G1 F1706.9 X153.228 Y145.429 E27.85614
G1 F1781.1 X153.12 Y145.671 E27.87237
G1 F1800 X152.824 Y146.153 E27.90664
G1 X152.628 Y146.347 E27.92335
G1 X152.348 Y146.537 E27.94385
G1 X152.074 Y146.653 E27.96188
G1 X151.713 Y146.75 E27.98452
G1 X151.451 Y146.77 E28.00044
G1 X138.413 Y146.77 E28.79037
G0 F1620 X137.05 Y146.77
G0 F6000 X136.39 Y146.11
G1 F1800 X136.39 Y153.89 E29.26174
G1 X151.451 Y153.89 E30.17423
G1 X151.755 Y153.937 E30.19287
G1 X152.062 Y154.079 E30.21336
G1 X152.353 Y154.304 E30.23565
G1 X152.519 Y154.562 E30.25424
G1 X152.628 Y154.922 E30.27702
G1 X152.64 Y155.08 E30.28662
G1 X152.64 Y157.89 E30.45687
G1 X154.76 Y157.89 E30.58532
G1 X154.76 Y155.08 E30.75557
G1 X154.808 Y154.776 E30.77421
G1 X154.949 Y154.468 E30.79474
G1 X155.195 Y154.159 E30.81866
G1 X155.398 Y154.028 E30.8333
G1 X155.646 Y153.937 E30.84931
G1 X155.949 Y153.89 E30.86788
G1 X171.01 Y153.89 E31.78038
G1 X171.01 Y150 E32.01606
G1 X171.01 Y146.11 E32.25174
G1 X155.949 Y146.11 E33.16424
G1 X155.645 Y146.063 E33.18288
G1 X155.338 Y145.921 E33.20337
G1 X155.047 Y145.696 E33.22566
G1 X154.881 Y145.437 E33.2443
G1 F1802.7 X154.773 Y145.078 E33.26697
G1 X154.76 Y144.921 E33.2765
G1 F1800 X154.76 Y142.11 E33.44681
G1 X152.64 Y142.11 E33.57526
G1 X152.64 Y144.921 E33.74557
G1 X152.593 Y145.225 E33.7642
G1 X152.45 Y145.532 E33.78472
G1 X152.204 Y145.841 E33.80865
G1 X152.002 Y145.972 E33.82324
G1 X151.754 Y146.063 E33.83924
G1 X151.451 Y146.11 E33.85782
G1 X137.753 Y146.11 E34.68774
G0 F1620 X136.39 Y146.11
G1 F2100 E29.68774
G1 F300 Z0.56
G0 F6000 X151.979 Y144.95 Z0.56
;TYPE:WALL-OUTER
G1 F300 Z0.24
G1 F2100 E34.68774
G1 F1800 X151.862 Y145.232 E34.70603
G1 X151.67 Y145.397 E34.72121
G1 X151.451 Y145.45 E34.73471
G1 X135.73 Y145.45 E35.67684
G1 X135.73 Y154.55 E36.22218
G1 X151.451 Y154.55 E37.16431
G1 X151.762 Y154.667 E37.18423
G1 X151.927 Y154.86 E37.19944
G1 X151.98 Y155.08 E37.21301
G1 X151.98 Y158.55 E37.42096
G1 X155.42 Y158.55 E37.62711
G1 X155.42 Y155.08 E37.83506
G1 X155.537 Y154.768 E37.85503
G1 X155.73 Y154.603 E37.87024
G1 X155.949 Y154.55 E37.88375
G1 X171.67 Y154.55 E38.82588
G1 X171.67 Y150 E39.09855
G1 X171.67 Y145.45 E39.37122
G1 X155.92 Y145.449 E40.31509
G1 X155.638 Y145.333 E40.33337
G1 X155.473 Y145.14 E40.34858
G1 X155.42 Y144.921 E40.36209
G1 X155.42 Y141.45 E40.5701
G1 X151.98 Y141.45 E40.77625
G1 X151.979 Y143.587 E40.90431
G0 F1620 X151.979 Y144.95
G0 F6000 X151.862 Y145.232
G0 X151.851 Y145.241
G1 F2100 E35.90431
G1 F300 Z0.56
G0 F6000 X137.63 Y147.35 Z0.56
;TYPE:SKIN
G1 F300 Z0.24
G1 F2100 E40.90431
G1 F1800 X137.63 Y152.65 E41.22193
G1 X151.47 Y152.65 E42.05134
G1 X151.778 Y152.673 E42.06985
G1 X152.245 Y152.808 E42.09898
G1 X152.543 Y152.933 E42.11835
G1 X152.982 Y153.201 E42.14917
G1 X153.213 Y153.414 E42.168
G1 X153.564 Y153.882 E42.20306
G1 X153.706 Y154.158 E42.22166
G1 X153.843 Y153.904 E42.23895
G1 X154.113 Y153.497 E42.26822
G1 X154.355 Y153.27 E42.28811
G1 X154.568 Y153.081 E42.30517
G1 X154.838 Y152.926 E42.32383
G1 X155.169 Y152.791 E42.34525
G1 X155.405 Y152.723 E42.35997
G1 X155.929 Y152.65 E42.39168
G1 X169.77 Y152.65 E43.22114
G1 X169.77 Y150 E43.37995
G1 X169.77 Y147.35 E43.53876
G1 X155.928 Y147.35 E44.36829
G1 X155.624 Y147.327 E44.38656
G1 X155.143 Y147.188 E44.41656
G1 X154.873 Y147.075 E44.4341
G1 X154.418 Y146.799 E44.46599
G1 X154.189 Y146.586 E44.48474
G1 X153.841 Y146.122 E44.51949
G1 X153.695 Y145.806 E44.54035
G1 X153.563 Y146.08 E44.55858
G1 X153.287 Y146.5 E44.5887
G1 X153.046 Y146.728 E44.60858
G1 X152.831 Y146.918 E44.62578
G1 X152.567 Y147.07 E44.64403
G1 X152.243 Y147.205 E44.66507
G1 X152.003 Y147.275 E44.68005
G1 X151.469 Y147.35 E44.71236
G1 X138.993 Y147.35 E45.46003
G0 F1620 X137.63 Y147.35
G1 F2100 E40.46003
G1 F300 Z0.56
G0 F6000 X138.318 Y152.319 Z0.56
G1 F300 Z0.24
G1 F2100 E45.46003
G1 F1800 X137.959 Y151.96 E45.49045
G0 F6000 X137.959 Y151.026
G1 F1800 X139.251 Y152.319 E45.59999
G0 F6000 X140.185 Y152.319
G1 F1800 X137.959 Y150.093 E45.78865
G0 F6000 X137.959 Y149.159
G1 F1800 X141.118 Y152.319 E46.05642
G0 F6000 X142.052 Y152.319
G1 F1800 X137.959 Y148.226 E46.40331
G0 F6000 X138.345 Y147.679
G1 F1800 X142.985 Y152.319 E46.79655
G0 F6000 X143.918 Y152.319
G1 F1800 X139.278 Y147.679 E47.1898
G0 F6000 X140.212 Y147.679
G1 F1800 X144.852 Y152.319 E47.58304
G0 F6000 X145.785 Y152.319
G1 F1800 X141.145 Y147.679 E47.97629
G0 F6000 X142.078 Y147.679
G1 F1800 X146.719 Y152.319 E48.36958
G0 F6000 X147.652 Y152.319
G1 F1800 X143.012 Y147.679 E48.76282
G0 F6000 X143.945 Y147.679
G1 F1800 X148.585 Y152.319 E49.15607
G0 F6000 X149.519 Y152.319
G1 F1800 X144.879 Y147.679 E49.54931
G0 F6000 X145.812 Y147.679
G1 F1800 X150.452 Y152.319 E49.94256
G0 F6000 X151.385 Y152.319
G1 F1800 X146.745 Y147.679 E50.3358
G0 F6000 X147.679 Y147.679
G1 F1800 X152.587 Y152.587 E50.75176
G0 F6000 X154.04 Y153.107
G1 F1800 X148.612 Y147.679 E51.21179
G0 F6000 X149.546 Y147.679
G1 F1800 X154.564 Y152.697 E51.63707
G0 F6000 X155.228 Y152.428
G1 F1800 X150.479 Y147.679 E52.03956
G0 F6000 X151.412 Y147.679
G1 F1800 X156.053 Y152.319 E52.43284
G0 F6000 X156.986 Y152.319
G1 F1800 X152.224 Y147.557 E52.83643
G0 F6000 X152.878 Y147.278
G1 F1800 X157.92 Y152.319 E53.2637
G0 F6000 X158.853 Y152.319
G1 F1800 X153.394 Y146.86 E53.72636
G0 F6000 X154.93 Y147.463
G1 F1800 X159.787 Y152.319 E54.13795
G0 F6000 X160.72 Y152.319
G1 F1800 X156.08 Y147.679 E54.5312
G0 F6000 X157.013 Y147.679
G1 F1800 X161.653 Y152.319 E54.92444
G0 F6000 X162.587 Y152.319
G1 F1800 X157.947 Y147.679 E55.31769
G0 F6000 X158.88 Y147.679
G1 F1800 X163.52 Y152.319 E55.71093
G0 F6000 X164.453 Y152.319
G1 F1800 X159.813 Y147.679 E56.10418
G0 F6000 X160.747 Y147.679
G1 F1800 X165.387 Y152.319 E56.49742
G0 F6000 X166.32 Y152.319
G1 F1800 X161.68 Y147.679 E56.89067
G0 F6000 X162.614 Y147.679
G1 F1800 X167.254 Y152.319 E57.28391
G0 F6000 X168.187 Y152.319
G1 F1800 X163.547 Y147.679 E57.67716
G0 F6000 X164.48 Y147.679
G1 F1800 X169.12 Y152.319 E58.0704
G0 F6000 X169.439 Y151.704
G1 F1800 X165.414 Y147.679 E58.41153
G0 F6000 X166.347 Y147.679
G1 F1800 X169.439 Y150.771 E58.67358
G0 F6000 X169.439 Y149.838
G1 F1800 X167.28 Y147.679 E58.85656
G0 F6000 X168.214 Y147.679
G1 F1800 X169.439 Y148.904 E58.96038
G0 F6000 X169.439 Y147.971
G1 F1800 X169.147 Y147.679 E58.98512
G1 F2100 E53.98512
G1 F300 Z0.56
;MESH:NONMESH
G0 F6000 X153.7 Y155.08 Z0.56
;TIME_ELAPSED:47.979695
;LAYER:1
M106 S21.2
;TYPE:WALL-INNER
;MESH:2020-dupont-mount-plate.stl
G1 F300 Z0.56
G1 F2100 E58.98512
G1 F1588.2 X153.794 Y154.834 E59.01252
G1 F1800 X153.889 Y154.587 E59.03682
G1 F2076.9 X153.984 Y154.34 E59.05787
G1 F2250 X154.272 Y153.816 E59.10178
