;FLAVOR:Marlin
;TIME:425
;Filament used: 0.421473m
;Layer height: 0.32
;MINX:105.465
;MINY:121.572
;MINZ:0.24
;MAXX:145.747
;MAXY:159.972
;MAXZ:7.6
;Generated with Cura_SteamEngine 5.0.0
M140 S70
M105
M190 S70
M104 S245
M105
M109 S245
M82 ;absolute extrusion mode
; Ender 3 Max Custom Start G-code
G92 E0 ; Reset Extruder
G28 ; Home all axes
G1 Z2.0 F3000 ; Move Z Axis up little to prevent scratching of Heat Bed
G1 X0.1 Y20 Z0.3 F5000.0 ; Move to start position
G1 X0.1 Y200.0 Z0.3 F1500.0 E15 ; Draw the first line
G1 X0.4 Y200.0 Z0.3 F5000.0 ; Move to side a little
G1 X0.4 Y20 Z0.3 F1500.0 E30 ; Draw the second line
G92 E0 ; Reset Extruder
G1 Z2.0 F3000 ; Move Z Axis up little to prevent scratching of Heat Bed
G1 X5 Y20 Z0.3 F5000.0 ; Move over to prevent blob squish
G92 E0
G92 E0
G1 F2100 E-5
;LAYER_COUNT:23
;LAYER:0
M107
G1 F300 Z0.56
G0 F6000 X111.524 Y127.558 Z0.56
G1 F300 Z0.56
G0 F6000 X105.466 Y138.827
;TYPE:SKIRT
G1 F300 Z0.24
G1 F2100 E0
G1 F1800 X105.476 Y138.125 E0.05086
G1 X105.53 Y137.161 E0.1208
G1 X105.663 Y136.205 E0.19072
G1 X105.875 Y135.264 E0.2606
G1 X106.164 Y134.343 E0.33052
G1 X106.529 Y133.449 E0.40047
G1 X106.966 Y132.589 E0.47035
G1 X107.473 Y131.767 E0.54032
G1 X108.046 Y130.991 E0.61019
G1 X108.665 Y130.279 E0.67854
G1 X109.181 Y129.752 E0.73197
G1 X110.801 Y128.197 E0.89463
G1 X111.524 Y127.558 E0.96453
G1 X112.298 Y126.981 E1.03447
G1 X113.117 Y126.471 E1.10436
G1 X113.975 Y126.029 E1.17428
G1 X114.668 Y125.735 E1.22881
G1 X115.679 Y125.346 E1.30728
G1 X116.429 Y125.069 E1.3652
G1 X118.68 Y124.165 E1.54092
G1 X121.731 Y122.824 E1.78234
G1 X122.144 Y122.635 E1.81524
G1 X123.038 Y122.271 E1.88517
G1 X123.959 Y121.982 E1.95509
G1 X124.901 Y121.77 E2.02504
G1 X125.857 Y121.637 E2.09496
G1 X126.775 Y121.584 E2.16157
G1 X127.541 Y121.572 E2.21707
G1 X133.39 Y121.572 E2.64077
G1 X134.255 Y121.583 E2.70344
G1 X135.219 Y121.637 E2.77338
G1 X136.175 Y121.77 E2.8433
G1 X137.116 Y121.982 E2.91317
G1 X138.037 Y122.272 E2.98312
G1 X138.931 Y122.636 E3.05305
G1 X139.791 Y123.073 E3.12293
G1 X140.612 Y123.58 E3.19283
G1 X141.389 Y124.154 E3.26281
G1 X142.115 Y124.789 E3.33268
G1 X142.787 Y125.483 E3.40266
G1 X143.398 Y126.229 E3.47251
G1 X143.946 Y127.024 E3.54246
G1 X144.426 Y127.861 E3.61235
G1 X144.835 Y128.736 E3.68232
G1 X145.171 Y129.641 E3.75225
G1 X145.43 Y130.57 E3.82211
G1 X145.611 Y131.518 E3.89203
G1 X145.733 Y132.904 E3.99282
G1 X145.747 Y133.552 E4.03977
G1 X145.746 Y147.73 E5.06683
G1 X145.737 Y148.457 E5.1195
G1 X145.685 Y149.421 E5.18944
G1 X145.554 Y150.377 E5.25934
G1 X145.343 Y151.319 E5.32927
G1 X145.056 Y152.241 E5.39922
G1 X144.693 Y153.135 E5.46912
G1 X144.258 Y153.996 E5.539
G1 X143.752 Y154.819 E5.60898
G1 X143.181 Y155.596 E5.67883
G1 X142.546 Y156.324 E5.74881
G1 X141.854 Y156.997 E5.81874
G1 X141.109 Y157.61 E5.88863
G1 X140.315 Y158.159 E5.95855
G1 X139.479 Y158.641 E6.02846
G1 X138.605 Y159.052 E6.09842
G1 X137.701 Y159.389 E6.16831
G1 X136.772 Y159.65 E6.23821
G1 X135.824 Y159.833 E6.30816
G1 X134.415 Y159.958 E6.41063
G1 X133.767 Y159.972 E6.45758
G1 X127.49 Y159.97 E6.91229
G1 X126.78 Y159.958 E6.96373
G1 X125.817 Y159.902 E7.03361
G1 X124.861 Y159.766 E7.10356
G1 X123.92 Y159.552 E7.17346
G1 X123 Y159.26 E7.24339
G1 X122.181 Y158.927 E7.30743
G1 X119.896 Y157.895 E7.48906
G1 X117.558 Y156.916 E7.67267
G1 X114.662 Y155.799 E7.89752
G1 X113.776 Y155.415 E7.96747
G1 X112.926 Y154.958 E8.03738
G1 X112.116 Y154.433 E8.10731
G1 X111.353 Y153.843 E8.17718
G1 X110.873 Y153.416 E8.22372
G1 X110.064 Y152.653 E8.30427
G1 X109.21 Y151.82 E8.39069
G1 X108.724 Y151.322 E8.4411
G1 X108.084 Y150.599 E8.51105
G1 X107.507 Y149.825 E8.58098
G1 X106.996 Y149.007 E8.65085
G1 X106.554 Y148.148 E8.72083
G1 X106.185 Y147.257 E8.79069
G1 X105.891 Y146.337 E8.86066
G1 X105.674 Y145.397 E8.93054
G1 X105.536 Y144.442 E9.00044
G1 X105.477 Y143.472 E9.07084
G1 X105.465 Y142.723 E9.1251
G1 X105.466 Y140.19 E9.3086
G0 F1620 X105.466 Y138.827
G1 F2100 E4.3086
G1 F300 Z0.56
G0 F6000 X106.125 Y142.723 Z0.56
G1 F300 Z0.24
G1 F2100 E9.3086
G1 F1800 X106.126 Y138.836 E9.59017
G1 X106.136 Y138.134 E9.64103
G1 X106.189 Y137.199 E9.70887
G1 X106.322 Y136.271 E9.77678
G1 X106.534 Y135.357 E9.84475
G1 X106.822 Y134.465 E9.91265
G1 X107.186 Y133.601 E9.98057
G1 X107.622 Y132.771 E10.04849
G1 X108.127 Y131.981 E10.11641
G1 X108.697 Y131.238 E10.18425
G1 X109.152 Y130.725 E10.23392
G1 X109.638 Y130.228 E10.28427
G1 X111.258 Y128.673 E10.44694
G1 X111.961 Y128.054 E10.5148
G1 X112.715 Y127.496 E10.58275
G1 X113.513 Y127.005 E10.65062
G1 X114.35 Y126.583 E10.71852
G1 X114.906 Y126.351 E10.76217
G1 X115.908 Y125.965 E10.83995
G1 X116.653 Y125.69 E10.89748
G1 X118.947 Y124.769 E11.07655
G1 X122.003 Y123.425 E11.31839
G1 X122.419 Y123.235 E11.35152
G1 X123.287 Y122.882 E11.4194
G1 X124.183 Y122.605 E11.48734
G1 X125.098 Y122.405 E11.55519
G1 X126.028 Y122.284 E11.62312
G1 X126.787 Y122.244 E11.67818
G1 X127.541 Y122.232 E11.73281
G1 X133.39 Y122.232 E12.15651
G1 X134.245 Y122.243 E12.21846
G1 X135.181 Y122.297 E12.28637
G1 X136.109 Y122.429 E12.35427
G1 X137.023 Y122.641 E12.42224
G1 X137.914 Y122.93 E12.4901
G1 X138.779 Y123.293 E12.55805
G1 X139.608 Y123.729 E12.62591
G1 X140.398 Y124.234 E12.69383
G1 X141.142 Y124.805 E12.76177
G1 X141.835 Y125.437 E12.82971
G1 X142.471 Y126.125 E12.89758
G1 X143.046 Y126.865 E12.96547
G1 X143.556 Y127.652 E13.0334
G1 X143.997 Y128.479 E13.1013
G1 X144.366 Y129.341 E13.16922
G1 X144.66 Y130.231 E13.23712
G1 X144.878 Y131.143 E13.30505
G1 X145.016 Y132.07 E13.37294
G1 X145.074 Y132.923 E13.43487
G1 X145.087 Y133.552 E13.48045
G1 X145.086 Y147.722 E14.50693
G1 X145.077 Y148.449 E14.5596
G1 X145.026 Y149.385 E14.6275
G1 X144.894 Y150.313 E14.69541
G1 X144.685 Y151.227 E14.76333
G1 X144.398 Y152.119 E14.8312
G1 X144.036 Y152.984 E14.89913
G1 X143.602 Y153.815 E14.96705
G1 X143.098 Y154.606 E15.03499
G1 X142.529 Y155.351 E15.1029
G1 X141.899 Y156.044 E15.17074
G1 X141.211 Y156.682 E15.23871
G1 X140.472 Y157.259 E15.30663
G1 X139.687 Y157.77 E15.37448
G1 X138.86 Y158.213 E15.44245
G1 X137.999 Y158.583 E15.51033
G1 X137.11 Y158.879 E15.57821
G1 X136.198 Y159.099 E15.64617
G1 X135.271 Y159.239 E15.71408
G1 X134.396 Y159.299 E15.77762
G1 X133.767 Y159.312 E15.82319
G1 X127.501 Y159.31 E16.2771
G1 X126.791 Y159.298 E16.32854
G1 X125.855 Y159.243 E16.39647
G1 X124.928 Y159.107 E16.46434
G1 X124.015 Y158.893 E16.53227
G1 X123.124 Y158.602 E16.60017
G1 X122.453 Y158.326 E16.65273
G1 X120.141 Y157.282 E16.83649
G1 X117.812 Y156.307 E17.01939
G1 X114.899 Y155.183 E17.24558
G1 X114.04 Y154.809 E17.31345
G1 X113.215 Y154.363 E17.38138
G1 X112.432 Y153.848 E17.44927
G1 X111.695 Y153.268 E17.51721
G1 X111.326 Y152.935 E17.55322
G1 X110.525 Y152.18 E17.63296
G1 X109.42 Y151.094 E17.74519
G1 X109.2 Y150.865 E17.7682
G1 X108.58 Y150.162 E17.8361
G1 X108.022 Y149.408 E17.90405
G1 X107.53 Y148.61 E17.97196
G1 X107.108 Y147.773 E18.03986
G1 X106.759 Y146.903 E18.10777
G1 X106.486 Y146.006 E18.17569
G1 X106.29 Y145.089 E18.24362
G1 X106.173 Y144.159 E18.31152
G1 X106.169 Y144.086 E18.31681
G0 F1620 X106.137 Y143.459
G0 X106.125 Y142.723
G0 F6000 X106.785 Y142.723
G1 F1800 X106.786 Y138.846 E18.59767
G1 X106.796 Y138.144 E18.64853
G1 X106.849 Y137.237 E18.71434
G1 X106.981 Y136.337 E18.78024
G1 X107.192 Y135.453 E18.84607
G1 X107.48 Y134.591 E18.91191
G1 X107.843 Y133.758 E18.97773
G1 X108.277 Y132.96 E19.04354
G1 X108.78 Y132.203 E19.10938
G1 X109.515 Y131.306 E19.19338
G1 X110.095 Y130.705 E19.25389
G1 X111.715 Y129.15 E19.41655
G1 X112.397 Y128.55 E19.48236
G1 X113.13 Y128.012 E19.54822
G1 X113.907 Y127.541 E19.61404
G1 X114.723 Y127.14 E19.67991
G1 X115.144 Y126.967 E19.71288
G1 X116.136 Y126.584 E19.78991
G1 X116.888 Y126.306 E19.84799
G1 X119.24 Y125.362 E20.03158
G1 X122.249 Y124.039 E20.26969
G1 X122.693 Y123.836 E20.30506
G1 X123.535 Y123.495 E20.37087
G1 X124.404 Y123.229 E20.4367
G1 X125.294 Y123.041 E20.50259
G1 X126.196 Y122.932 E20.56841
G1 X126.799 Y122.904 E20.61214
G1 X127.541 Y122.892 E20.6659
G1 X133.39 Y122.892 E21.0896
G1 X134.236 Y122.903 E21.15089
G1 X135.143 Y122.956 E21.21671
G1 X136.042 Y123.089 E21.28254
G1 X136.926 Y123.3 E21.34838
G1 X137.788 Y123.588 E21.41421
G1 X138.622 Y123.95 E21.48008
G1 X139.42 Y124.385 E21.54591
G1 X140.177 Y124.887 E21.61171
G1 X140.887 Y125.455 E21.67758
G1 X141.544 Y126.083 E21.74342
G1 X142.144 Y126.766 E21.80927
G1 X142.681 Y127.499 E21.8751
G1 X143.152 Y128.276 E21.94092
G1 X143.552 Y129.092 E22.00675
G1 X143.879 Y129.94 E22.07259
G1 X144.131 Y130.813 E22.13841
G1 X144.305 Y131.705 E22.20425
G1 X144.414 Y132.942 E22.2942
G1 X144.427 Y133.552 E22.3384
G1 X144.426 Y147.714 E23.3643
G1 X144.417 Y148.441 E23.41697
G1 X144.366 Y149.348 E23.48278
G1 X144.235 Y150.248 E23.54866
G1 X144.026 Y151.132 E23.61447
G1 X143.74 Y151.995 E23.68033
G1 X143.379 Y152.829 E23.74616
G1 X142.946 Y153.628 E23.81199
G1 X142.444 Y154.386 E23.87785
G1 X141.878 Y155.097 E23.94368
G1 X141.252 Y155.755 E24.00948
G1 X140.57 Y156.356 E24.07533
G1 X139.838 Y156.895 E24.14118
G1 X139.061 Y157.367 E24.20703
G1 X138.246 Y157.769 E24.27286
G1 X137.399 Y158.098 E24.33869
G1 X136.526 Y158.351 E24.40453
G1 X135.634 Y158.527 E24.47039
G1 X134.378 Y158.639 E24.56174
G1 X133.767 Y158.652 E24.60601
G1 X127.512 Y158.651 E25.05913
G1 X126.802 Y158.639 E25.11057
G1 X125.895 Y158.583 E25.1764
G1 X124.996 Y158.448 E25.24225
G1 X124.113 Y158.235 E25.30805
G1 X123.252 Y157.945 E25.37386
G1 X122.724 Y157.724 E25.41533
G1 X120.403 Y156.676 E25.59981
G1 X118.084 Y155.705 E25.78193
G1 X115.137 Y154.568 E26.01075
G1 X114.304 Y154.204 E26.0766
G1 X113.507 Y153.768 E26.14241
G1 X112.751 Y153.263 E26.20827
G1 X111.778 Y152.455 E26.29989
G1 X110.986 Y151.708 E26.37876
G1 X109.896 Y150.637 E26.48945
G1 X109.676 Y150.408 E26.51246
G1 X109.075 Y149.725 E26.57836
G1 X108.538 Y148.993 E26.64413
G1 X108.066 Y148.215 E26.71005
G1 X107.665 Y147.4 E26.77585
G1 X107.337 Y146.552 E26.84171
G1 X107.084 Y145.679 E26.90755
G1 X106.91 Y144.787 E26.97339
G1 X106.85 Y144.084 E27.0245
G0 F1620 X106.797 Y143.447
G0 X106.785 Y142.723
G1 F2100 E22.0245
G1 F300 Z0.56
;MESH:2020-dupont-mount-cap.7.stl
G0 F6000 X118.959 Y142.698 Z0.56
;TYPE:WALL-INNER
G1 F300 Z0.24
G1 F2100 E27.0245
G1 F1505.7 X118.96 Y141.569 E27.10627
G1 F1466.7 X118.999 Y141.321 E27.12494
G1 F1394.4 X119.038 Y141.072 E27.14465
G1 F1346.9 X119.191 Y140.782 E27.1712
G1 F1368.7 X119.022 Y140.428 E27.20245
G1 F1443.5 X118.969 Y140.161 E27.22302
G1 F1492.5 X118.96 Y139.978 E27.23641
G1 F1503.8 X118.96 Y138.87 E27.31676
G1 X118.661 Y138.916 E27.3387
G1 X118.17 Y138.915 E27.37431
G1 X118.17 Y139.978 E27.4514
G1 F1492.5 X118.174 Y140.229 E27.46974
G1 F1443.5 X118.197 Y140.557 E27.49458
G1 F1368.7 X118.221 Y140.796 E27.51372
G1 F1346.9 X118.212 Y140.874 E27.52008
G1 F1394.4 X118.191 Y141.221 E27.54727
G1 F1466.7 X118.17 Y141.569 E27.57319
G1 F1505.7 X118.17 Y142.63 E27.65004
G1 X118.659 Y142.629 E27.68545
G1 X118.794 Y142.661 E27.6955
G0 F1620 X118.959 Y142.698
G1 F2100 E22.6955
G1 F300 Z0.56
G0 F6000 X132.447 Y134.872 Z0.56
G1 F300 Z0.24
G1 F2100 E27.6955
G1 F1800 X127.661 Y134.872 E27.98547
G1 X124.165 Y138.368 E28.28502
G1 X124.165 Y140.01 E28.3845
G1 X124.136 Y140.293 E28.40174
G1 X124.058 Y140.567 E28.419
G1 X123.985 Y140.775 E28.43235
G1 X124.086 Y141.06 E28.45067
G1 X124.145 Y141.304 E28.46588
G1 X124.166 Y141.566 E28.4818
G1 X124.166 Y143.169 E28.57893
G1 X127.663 Y146.672 E28.87881
G1 X132.447 Y146.672 E29.16866
G1 X132.447 Y138.257 E29.6785
G1 X132.447 Y136.235 E29.801
G0 F1620 X132.447 Y134.872
G0 F6000 X133.107 Y134.212
G1 F1800 X127.387 Y134.212 E30.14756
G1 X123.505 Y138.095 E30.48022
G1 X123.505 Y139.998 E30.59552
G1 X123.458 Y140.284 E30.61308
G1 X123.316 Y140.591 E30.63357
G1 X123.211 Y140.781 E30.64672
G1 X123.382 Y141.044 E30.66573
G1 X123.478 Y141.333 E30.68418
G1 X123.506 Y141.566 E30.6984
G1 X123.506 Y143.442 E30.81206
G1 X127.389 Y147.332 E31.14506
G1 X133.107 Y147.332 E31.4915
G1 X133.107 Y138.257 E32.04132
G1 X133.107 Y135.575 E32.20382
G0 F1620 X133.107 Y134.212
G1 F2100 E27.20382
G1 F300 Z0.56
G0 F6000 X122.34 Y141.069 Z0.56
;TYPE:WALL-OUTER
G1 F300 Z0.24
G1 F2100 E32.20382
G1 F1919.2 X122.622 Y141.161 E32.22049
G1 F1824.9 X122.792 Y141.346 E32.23534
G1 F1800 X122.846 Y141.566 E32.24892
G1 X122.846 Y143.715 E32.3777
G1 X127.115 Y147.992 E32.73984
G1 X133.767 Y147.992 E33.13848
G1 X133.767 Y138.257 E33.72188
G1 X133.767 Y133.552 E34.00385
G1 X127.114 Y133.552 E34.40255
G1 X122.845 Y137.821 E34.76435
G1 X122.845 Y139.986 E34.89409
G1 X122.728 Y140.291 E34.91367
G1 F1850.5 X122.529 Y140.438 E34.92809
G1 F1953.9 X122.313 Y140.476 E34.9402
G1 F2000 X121.25 Y140.476 E34.99753
G1 F1989.9 X120.187 Y140.476 E35.05516
G1 F1913 X119.906 Y140.384 E35.07183
G1 F1822.1 X119.738 Y140.198 E35.08667
G1 F1800 X119.685 Y139.978 E35.10023
G1 X119.685 Y138.719 E35.17568
G1 F1822.1 X119.693 Y138.42 E35.19339
G1 F1867.9 X119.701 Y138.121 E35.21066
G1 F1970.1 X119.726 Y137.762 E35.23036
G1 F2058.9 X119.728 Y137.662 E35.2356
G1 F2066.1 X119.728 Y136.878 E35.27654
G1 X119.152 Y136.879 E35.30661
G1 F2058.9 X119.151 Y137.712 E35.35025
G1 F1970.1 X119.061 Y137.967 E35.36506
G1 F1844.7 X118.884 Y138.137 E35.37941
G1 F1800 X118.568 Y138.191 E35.39862
G1 X117.678 Y138.189 E35.45196
G1 X117.445 Y138.421 E35.47166
G1 X117.445 Y143.121 E35.75332
G1 X117.68 Y143.356 E35.77324
G1 X118.661 Y143.353 E35.83203
G1 X118.975 Y143.469 E35.85209
G1 F1882.7 X119.114 Y143.672 E35.86619
G1 F2023.9 X119.152 Y143.883 E35.87761
G1 F2073.3 X119.152 Y144.666 E35.91835
G1 X119.726 Y144.665 E35.94822
G1 X119.726 Y143.883 E35.9889
G1 F2023.9 X119.712 Y143.579 E36.00512
G1 F1928.6 X119.698 Y143.305 E36.02047
G1 F1841.9 X119.683 Y143.031 E36.03654
G1 F1800 X119.685 Y141.569 E36.12415
G1 X119.802 Y141.259 E36.14401
G1 F1847.6 X120.001 Y141.111 E36.15849
G1 F1944.4 X120.214 Y141.073 E36.17049
G1 F1996.6 X122.34 Y141.069 E36.28535
G0 F6000 X122.622 Y141.161
G0 X122.638 Y141.178
G1 F2100 E31.28535
G1 F300 Z0.56
G0 F6000 X131.867 Y135.452 Z0.56
;TYPE:SKIN
G1 F300 Z0.24
G1 F2100 E36.28535
G1 F1800 X127.899 Y135.452 E36.52315
G1 X124.746 Y138.607 E36.79045
G1 X124.745 Y140.016 E36.87489
G1 X124.716 Y140.266 E36.88998
G1 X124.676 Y140.529 E36.90592
G1 X124.599 Y140.76 E36.92051
G1 X124.718 Y141.209 E36.94835
G1 X124.745 Y141.504 E36.9661
G1 X124.746 Y142.93 E37.05156
G1 X127.902 Y146.092 E37.31929
G1 X131.867 Y146.092 E37.5569
G1 X131.867 Y138.258 E38.02638
G1 X131.867 Y136.815 E38.11285
G0 F1620 X131.867 Y135.452
G0 F6000 X131.537 Y136.204
G1 F1800 X131.114 Y135.781 E38.1487
G0 F6000 X130.181 Y135.781
G1 F1800 X131.537 Y137.137 E38.26363
G0 F6000 X131.537 Y138.071
G1 F1800 X129.247 Y135.781 E38.45771
G0 F6000 X128.314 Y135.781
G1 F1800 X131.537 Y139.004 E38.73086
G0 F6000 X131.537 Y139.937
G1 F1800 X127.708 Y136.108 E39.05537
G0 F6000 X127.241 Y136.575
G1 F1800 X131.537 Y140.871 E39.41946
G0 F6000 X131.537 Y141.804
G1 F1800 X126.775 Y137.042 E39.82305
G0 F6000 X126.308 Y137.508
G1 F1800 X131.537 Y142.737 E40.26621
G0 F6000 X131.537 Y143.671
G1 F1800 X125.841 Y137.975 E40.74895
G0 F6000 X125.374 Y138.442
G1 F1800 X131.537 Y144.604 E41.27123
G0 F6000 X131.537 Y145.538
G1 F1800 X125.075 Y139.076 E41.81889
G0 F6000 X125.075 Y140.009
G1 F1800 X130.827 Y145.761 E42.30638
G0 F6000 X129.894 Y145.761
G1 F1800 X124.969 Y140.837 E42.72374
G0 F6000 X125.074 Y141.875
G1 F1800 X128.96 Y145.761 E43.05308
G1 F2100 E38.05308
G1 F300 Z0.56
;MESH:NONMESH
G0 F6000 X118.565 Y142.245 Z0.56
;TIME_ELAPSED:36.912350
;LAYER:1
M106 S21.2
;TYPE:WALL-INNER
;MESH:2020-dupont-mount-cap.7.stl
G1 F300 Z0.56
G1 F2100 E43.05308
G1 F1551.7 X118.67 Y141.907 E43.09077
G1 F1666.7 X118.776 Y141.568 E43.12599
G1 F1730.8 X119.155 Y141.06 E43.18649
G1 F1746.4 X119.363 Y140.933 E43.20955
G1 F1774 X119.571 Y140.806 E43.23225
G1 F1909.5 X119.828 Y140.788 E43.25455
G1 F2209.5 X120.086 Y140.77 E43.27389
G1 X119.829 Y140.752 E43.29315
G1 F1909.5 X119.571 Y140.734 E43.31553
G1 F1774 X119.363 Y140.607 E43.33823
G1 F1746.4 X119.155 Y140.48 E43.36129
G1 F1713.2 X118.958 Y140.229 E43.39207
G1 F1677 X118.76 Y139.978 E43.42357
