;FLAVOR:Marlin
;TIME:829
;Filament used: 1.18945m
;Layer height: 0.32
;MINX:109.81
;MINY:120.71
;MINZ:0.24
;MAXX:190.19
;MAXY:179.29
;MAXZ:4.08
;Generated with Cura_SteamEngine 5.0.0
M140 S70
M105
M190 S70
M104 S245
M105
M109 S245
M82 ;absolute extrusion mode
; Ender 3 Max Custom Start G-code
G92 E0 ; Reset Extruder
G28 ; Home all axes
G1 Z2.0 F3000 ; Move Z Axis up little to prevent scratching of Heat Bed
G1 X0.1 Y20 Z0.3 F5000.0 ; Move to start position
G1 X0.1 Y200.0 Z0.3 F1500.0 E15 ; Draw the first line
G1 X0.4 Y200.0 Z0.3 F5000.0 ; Move to side a little
G1 X0.4 Y20 Z0.3 F1500.0 E30 ; Draw the second line
G92 E0 ; Reset Extruder
G1 Z2.0 F3000 ; Move Z Axis up little to prevent scratching of Heat Bed
G1 X5 Y20 Z0.3 F5000.0 ; Move over to prevent blob squish
G92 E0
G92 E0
G1 F2100 E-5
;LAYER_COUNT:12
;LAYER:0
M107
G1 F300 Z0.56
G0 F6000 X117.588 Y123.425 Z0.56
G1 F300 Z0.56
G0 F6000 X113.981 Y129.836
;TYPE:SKIRT
G1 F300 Z0.24
G1 F2100 E0
G1 F1800 X114.18 Y128.92 E0.0679
G1 X114.456 Y128.025 E0.13575
G1 X114.808 Y127.156 E0.20367
G1 X115.232 Y126.32 E0.27157
G1 X115.726 Y125.523 E0.3395
G1 X116.286 Y124.771 E0.40742
G1 X116.909 Y124.07 E0.47536
G1 X117.588 Y123.425 E0.5432
G1 X118.321 Y122.839 E0.61118
G1 X119.1 Y122.319 E0.67903
G1 X119.921 Y121.866 E0.74696
G1 X120.778 Y121.485 E0.8149
G1 X121.664 Y121.179 E0.8828
G1 X122.573 Y120.949 E0.95072
G1 X123.498 Y120.798 E1.01862
G1 X124.501 Y120.723 E1.09148
G1 X125.13 Y120.71 E1.13705
G1 X174.493 Y120.71 E4.71294
G1 X175.348 Y120.721 E4.77488
G1 X176.284 Y120.775 E4.8428
G1 X177.212 Y120.907 E4.9107
G1 X178.126 Y121.119 E4.97867
G1 X179.017 Y121.408 E5.04652
G1 X179.882 Y121.771 E5.11448
G1 X180.711 Y122.207 E5.18233
G1 X181.501 Y122.712 E5.25025
G1 X182.245 Y123.283 E5.31819
G1 X182.938 Y123.915 E5.38613
G1 X183.574 Y124.603 E5.454
G1 X184.149 Y125.343 E5.52189
G1 X184.659 Y126.13 E5.58982
G1 X185.1 Y126.957 E5.65772
G1 X185.469 Y127.819 E5.72564
G1 X185.763 Y128.709 E5.79354
G1 X186.021 Y129.842 E5.87772
G1 X186.225 Y131.024 E5.96461
G1 X186.71 Y133.617 E6.1557
G1 X187.246 Y136.091 E6.33908
G1 X187.839 Y138.499 E6.51873
G1 X188.51 Y140.926 E6.70114
G1 X189.292 Y143.471 E6.89401
G1 X189.647 Y144.569 E6.9776
G1 X189.897 Y145.472 E7.04547
G1 X190.069 Y146.394 E7.11342
G1 X190.175 Y147.617 E7.20234
G1 X190.19 Y148.28 E7.25038
G1 X190.189 Y151.49 E7.48292
G1 X190.178 Y152.216 E7.53552
G1 X190.124 Y153.152 E7.60343
G1 X189.99 Y154.08 E7.67135
G1 X189.652 Y155.414 E7.77104
G1 X188.837 Y157.948 E7.96387
G1 X188.149 Y160.315 E8.14243
G1 X187.508 Y162.774 E8.32652
G1 X186.94 Y165.237 E8.50962
G1 X186.444 Y167.709 E8.69226
G1 X186.019 Y170.164 E8.87275
G1 X185.82 Y171.08 E8.94065
G1 X185.544 Y171.975 E9.0085
G1 X185.192 Y172.844 E9.07642
G1 X184.768 Y173.68 E9.14432
G1 X184.274 Y174.477 E9.21225
G1 X183.714 Y175.229 E9.28017
G1 X183.091 Y175.93 E9.34811
G1 X182.412 Y176.575 E9.41595
G1 X181.679 Y177.161 E9.48393
G1 X180.9 Y177.681 E9.55178
G1 X180.079 Y178.134 E9.61971
G1 X179.222 Y178.515 E9.68765
G1 X178.336 Y178.821 E9.75555
G1 X177.427 Y179.051 E9.82347
G1 X176.502 Y179.202 E9.89137
G1 X175.499 Y179.277 E9.96423
G1 X174.87 Y179.29 E10.0098
G1 X125.35 Y179.289 E13.59706
G1 X124.652 Y179.279 E13.64763
G1 X123.716 Y179.225 E13.71555
G1 X122.788 Y179.093 E13.78345
G1 X121.874 Y178.881 E13.85142
G1 X120.983 Y178.592 E13.91927
G1 X120.118 Y178.229 E13.98723
G1 X119.289 Y177.793 E14.05508
G1 X118.499 Y177.288 E14.123
G1 X117.755 Y176.717 E14.19094
G1 X117.062 Y176.085 E14.25888
G1 X116.426 Y175.397 E14.32675
G1 X115.851 Y174.657 E14.39464
G1 X115.341 Y173.87 E14.46257
G1 X114.9 Y173.043 E14.53047
G1 X114.531 Y172.181 E14.59839
G1 X114.237 Y171.291 E14.66629
G1 X113.979 Y170.158 E14.75047
G1 X113.775 Y168.976 E14.83736
G1 X113.29 Y166.383 E15.02845
G1 X112.754 Y163.909 E15.21183
G1 X112.159 Y161.491 E15.39222
G1 X111.486 Y159.059 E15.57501
G1 X110.718 Y156.558 E15.76454
G1 X110.345 Y155.397 E15.85287
G1 X110.097 Y154.493 E15.92078
G1 X109.926 Y153.571 E15.98871
G1 X109.823 Y152.349 E16.07755
G1 X109.81 Y151.72 E16.12312
G1 X109.812 Y148.471 E16.35848
G1 X109.824 Y147.762 E16.40985
G1 X109.879 Y146.826 E16.47777
G1 X110.015 Y145.899 E16.54564
G1 X110.349 Y144.584 E16.64392
G1 X111.163 Y142.053 E16.83652
G1 X111.854 Y139.678 E17.0157
G1 X112.49 Y137.236 E17.1985
G1 X113.06 Y134.763 E17.38234
G1 X113.556 Y132.291 E17.56499
G1 X113.749 Y131.179 E17.64674
G0 F1620 X113.981 Y129.836
G1 F2100 E12.64674
G1 F300 Z0.56
G0 F6000 X113.706 Y134.898 Z0.56
G1 F300 Z0.24
G1 F2100 E17.64674
G1 F1800 X114.204 Y132.419 E17.82991
G1 X114.631 Y129.949 E18.01149
G1 X114.825 Y129.061 E18.07734
G1 X115.097 Y128.194 E18.14316
G1 X115.443 Y127.353 E18.20904
G1 X115.862 Y126.547 E18.27485
G1 X116.351 Y125.781 E18.34068
G1 X116.904 Y125.06 E18.4065
G1 X117.519 Y124.391 E18.47233
G1 X118.191 Y123.778 E18.53822
G1 X118.914 Y123.227 E18.60407
G1 X119.682 Y122.742 E18.66987
G1 X120.49 Y122.326 E18.73571
G1 X121.331 Y121.982 E18.80153
G1 X122.2 Y121.714 E18.8674
G1 X123.088 Y121.523 E18.9332
G1 X123.99 Y121.412 E18.99904
G1 X124.52 Y121.383 E19.03749
G1 X125.13 Y121.37 E19.08169
G1 X174.493 Y121.37 E22.65757
G1 X175.339 Y121.381 E22.71886
G1 X176.246 Y121.434 E22.78468
G1 X177.145 Y121.567 E22.85051
G1 X178.029 Y121.778 E22.91634
G1 X178.891 Y122.066 E22.98218
G1 X179.725 Y122.428 E23.04804
G1 X180.523 Y122.863 E23.11388
G1 X181.28 Y123.365 E23.17968
G1 X181.99 Y123.933 E23.24555
G1 X182.647 Y124.561 E23.31139
G1 X183.247 Y125.244 E23.37724
G1 X183.784 Y125.977 E23.44307
G1 X184.255 Y126.754 E23.50889
G1 X184.655 Y127.57 E23.57472
G1 X184.982 Y128.418 E23.64056
G1 X185.234 Y129.291 E23.70638
G1 X185.371 Y129.954 E23.75542
G1 X185.585 Y131.196 E23.84672
G1 X186.06 Y133.736 E24.03391
G1 X186.597 Y136.211 E24.21737
G1 X187.207 Y138.69 E24.40231
G1 X187.879 Y141.12 E24.58494
G1 X188.659 Y143.659 E24.77735
G1 X189.019 Y144.772 E24.86209
G1 X189.26 Y145.648 E24.92791
G1 X189.424 Y146.542 E24.99375
G1 X189.515 Y147.637 E25.07335
G1 X189.53 Y148.28 E25.11994
G1 X189.529 Y151.48 E25.35175
G1 X189.518 Y152.206 E25.40435
G1 X189.464 Y153.114 E25.47024
G1 X189.331 Y154.013 E25.53607
G1 X189.023 Y155.212 E25.62575
G1 X188.221 Y157.705 E25.81546
G1 X187.503 Y160.174 E26.00172
G1 X186.87 Y162.603 E26.18356
G1 X186.294 Y165.102 E26.36933
G1 X185.796 Y167.581 E26.5525
G1 X185.369 Y170.051 E26.73408
G1 X185.175 Y170.939 E26.79993
G1 X184.903 Y171.806 E26.86575
G1 X184.557 Y172.647 E26.93163
G1 X184.138 Y173.453 E26.99743
G1 X183.649 Y174.219 E27.06327
G1 X183.096 Y174.94 E27.12909
G1 X182.481 Y175.609 E27.19492
G1 X181.809 Y176.222 E27.26081
G1 X181.086 Y176.773 E27.32666
G1 X180.318 Y177.258 E27.39246
G1 X179.51 Y177.674 E27.45829
G1 X178.669 Y178.018 E27.52412
G1 X177.8 Y178.286 E27.58999
G1 X176.912 Y178.477 E27.65579
G1 X176.01 Y178.588 E27.72163
G1 X175.48 Y178.617 E27.76008
G1 X174.87 Y178.63 E27.80427
G1 X125.359 Y178.629 E31.39088
G1 X124.661 Y178.619 E31.44145
G1 X123.754 Y178.566 E31.50726
G1 X122.855 Y178.433 E31.5731
G1 X121.971 Y178.222 E31.63893
G1 X121.109 Y177.934 E31.70477
G1 X120.275 Y177.572 E31.77063
G1 X119.477 Y177.137 E31.83647
G1 X118.72 Y176.635 E31.90227
G1 X118.01 Y176.067 E31.96814
G1 X117.353 Y175.439 E32.03397
G1 X116.753 Y174.756 E32.09983
G1 X116.216 Y174.023 E32.16565
G1 X115.745 Y173.246 E32.23148
G1 X115.345 Y172.43 E32.29731
G1 X115.018 Y171.582 E32.36315
G1 X114.766 Y170.709 E32.42897
G1 X114.629 Y170.046 E32.47801
G1 X114.415 Y168.804 E32.56931
G1 X113.94 Y166.264 E32.7565
G1 X113.403 Y163.789 E32.93996
G1 X112.791 Y161.301 E33.12556
G1 X112.117 Y158.866 E33.30859
G1 X111.363 Y156.41 E33.4947
G1 X110.973 Y155.195 E33.58714
G1 X110.734 Y154.318 E33.65298
G1 X110.572 Y153.424 E33.7188
G1 X110.483 Y152.33 E33.79831
G1 X110.47 Y151.72 E33.84251
G1 X110.471 Y148.482 E34.07707
G1 X110.483 Y147.773 E34.12844
G1 X110.539 Y146.866 E34.19427
G1 X110.674 Y145.967 E34.26012
G1 X110.978 Y144.786 E34.34847
G1 X111.779 Y142.296 E34.53795
G1 X112.499 Y139.819 E34.72481
G1 X113.128 Y137.407 E34.90538
G1 X113.4 Y136.226 E34.99317
G0 F1620 X113.706 Y134.898
G1 F2100 E29.99317
G1 F300 Z0.56
;MESH:2020-dupont-mount-plate-20x.stl
G0 F6000 X177.515 Y150.365 Z0.56
;TYPE:WALL-INNER
G1 F300 Z0.24
G1 F2100 E34.99317
G1 F1627.4 X177.515 Y150 E35.01763
G1 X177.515 Y149.635 E35.04209
G1 X175.399 Y149.635 E35.18389
G1 F1643.2 X175.133 Y149.607 E35.20164
G1 F1706.9 X174.891 Y149.528 E35.2179
G1 F1781.1 X174.649 Y149.421 E35.23411
G1 F1800 X174.167 Y149.124 E35.26841
G1 X173.973 Y148.928 E35.28512
G1 X173.783 Y148.648 E35.30562
G1 X173.681 Y148.416 E35.32097
G1 X173.603 Y148.169 E35.33666
G1 X173.555 Y147.889 E35.35388
G1 X173.55 Y147.75 E35.3623
G1 X173.55 Y133.35 E36.23475
G1 X126.45 Y133.35 E39.08838
G1 X126.449 Y147.822 E39.96519
G1 X126.421 Y148.061 E39.97977
G1 X126.347 Y148.327 E39.9965
G1 X126.189 Y148.661 E40.01889
G1 X126.005 Y148.946 E40.03944
G1 X125.815 Y149.146 E40.05615
G1 X125.498 Y149.368 E40.0796
G1 F1770.5 X125.228 Y149.494 E40.09795
G1 F1652.3 X124.871 Y149.627 E40.1231
G1 F1598.9 X124.601 Y149.635 E40.14152
G1 F1627.4 X122.485 Y149.635 E40.28332
G1 X122.485 Y150.365 E40.33224
G1 X124.601 Y150.365 E40.47404
G1 F1598.9 X124.871 Y150.373 E40.49246
G1 F1629.6 X125.113 Y150.458 E40.50963
G1 F1744.5 X125.351 Y150.58 E40.52635
G1 F1800 X125.833 Y150.876 E40.56062
G1 X126.027 Y151.071 E40.57728
G1 X126.217 Y151.352 E40.59783
G1 X126.319 Y151.583 E40.61313
G1 X126.397 Y151.831 E40.62888
G1 X126.445 Y152.111 E40.64609
G1 X126.45 Y152.25 E40.65452
G1 X126.45 Y166.65 E41.52697
G1 X173.55 Y166.65 E44.3806
G1 X173.551 Y152.178 E45.25741
G1 X173.579 Y151.939 E45.27199
G1 X173.653 Y151.673 E45.28872
G1 X173.811 Y151.339 E45.3111
G1 X173.995 Y151.053 E45.33171
G1 X174.185 Y150.853 E45.34842
G1 X174.502 Y150.633 E45.3718
G1 X174.776 Y150.516 E45.38985
G1 F1726.7 X175.133 Y150.393 E45.4137
G1 F1643.2 X175.399 Y150.365 E45.43145
G1 F1627.4 X177.515 Y150.365 E45.57325
G1 F2100 E40.57325
G1 F300 Z0.56
G0 F6000 X121.79 Y148.94 Z0.56
G1 F300 Z0.24
G1 F2100 E45.57325
G1 F1800 X121.79 Y151.06 E45.70169
G1 X124.601 Y151.06 E45.872
G1 X124.904 Y151.108 E45.89059
G1 X125.212 Y151.249 E45.91111
G1 X125.521 Y151.495 E45.93504
G1 X125.652 Y151.698 E45.94968
G1 X125.743 Y151.946 E45.96568
G1 X125.79 Y152.207 E45.98175
G1 X125.79 Y167.31 E46.89679
G1 X174.21 Y167.31 E49.8304
G1 X174.21 Y152.206 E50.7455
G1 X174.257 Y151.945 E50.76157
G1 X174.399 Y151.638 E50.78206
G1 X174.624 Y151.347 E50.80435
G1 X174.882 Y151.181 E50.82293
G1 F1802.7 X175.242 Y151.073 E50.84567
G1 X175.399 Y151.06 E50.8552
G1 F1800 X178.21 Y151.06 E51.02551
G1 X178.21 Y150 E51.08973
G1 X178.21 Y148.94 E51.15395
G1 X175.399 Y148.94 E51.32426
G1 F1802.7 X175.096 Y148.892 E51.34282
G1 X174.788 Y148.75 E51.36334
G1 F1800 X174.479 Y148.504 E51.38727
G1 X174.348 Y148.302 E51.40185
G1 X174.257 Y148.054 E51.41786
G1 X174.21 Y147.793 E51.43393
G1 X174.21 Y132.69 E52.34897
G1 X125.79 Y132.69 E55.28257
G1 X125.79 Y147.794 E56.19767
G1 X125.743 Y148.055 E56.21374
G1 X125.601 Y148.362 E56.23424
G1 X125.376 Y148.653 E56.25652
G1 X125.117 Y148.819 E56.27516
G1 X124.758 Y148.928 E56.29789
G1 X124.601 Y148.94 E56.30743
G1 X123.153 Y148.94 E56.39516
G0 F1620 X121.79 Y148.94
G1 F2100 E51.39516
G1 F300 Z0.56
G0 F6000 X125.129 Y147.779 Z0.56
;TYPE:WALL-OUTER
G1 F300 Z0.24
G1 F2100 E56.39516
G1 F1800 X125.013 Y148.062 E56.41349
G1 X124.82 Y148.227 E56.42871
G1 X124.601 Y148.28 E56.44221
G1 X121.13 Y148.28 E56.65022
G1 X121.13 Y151.72 E56.85637
G1 X124.601 Y151.72 E57.06438
G1 X124.912 Y151.837 E57.0843
G1 X125.074 Y152.022 E57.09903
G1 X125.13 Y152.25 E57.1131
G1 X125.13 Y167.97 E58.05517
G1 X174.87 Y167.97 E61.036
G1 X174.871 Y152.221 E61.9798
G1 X174.987 Y151.938 E61.99813
G1 X175.18 Y151.773 E62.01335
G1 X175.399 Y151.72 E62.02685
G1 X178.87 Y151.72 E62.23486
G1 X178.87 Y150 E62.33794
G1 X178.87 Y148.28 E62.44102
G1 X175.37 Y148.279 E62.65077
G1 X175.088 Y148.162 E62.66906
G1 X174.926 Y147.978 E62.68375
G1 X174.87 Y147.75 E62.69782
G1 X174.87 Y132.03 E63.63989
G1 X125.13 Y132.03 E66.62072
G1 X125.129 Y146.416 E67.48284
G0 F1620 X125.129 Y147.779
G0 F6000 X125.013 Y148.062
G0 X125.002 Y148.071
G1 F2100 E62.48284
G1 F300 Z0.56
G0 F6000 X174.508 Y149.993 Z0.56
;TYPE:SKIN
G1 F300 Z0.24
G1 F2100 E67.48284
G1 F1800 X174.233 Y149.858 E67.5012
G1 X173.842 Y149.602 E67.52921
G1 X173.586 Y149.34 E67.55116
G1 X173.401 Y149.131 E67.56789
G1 X173.245 Y148.857 E67.58678
G1 X173.101 Y148.505 E67.60958
G1 X173.007 Y148.164 E67.63077
G1 X172.972 Y147.873 E67.64834
G1 X172.97 Y133.93 E68.48392
G1 X127.031 Y133.93 E71.23695
G1 X127.03 Y147.771 E72.06642
G1 X127.012 Y148.046 E72.08293
G1 X126.957 Y148.319 E72.09962
G1 X126.868 Y148.59 E72.11672
G1 X126.71 Y148.918 E72.13853
G1 X126.479 Y149.283 E72.16442
G1 X126.266 Y149.513 E72.18321
G1 X125.801 Y149.863 E72.21808
G1 X125.524 Y150.006 E72.23677
G1 X125.806 Y150.162 E72.25608
G1 X126.183 Y150.414 E72.28326
G1 X126.41 Y150.655 E72.3031
G1 X126.599 Y150.868 E72.32016
G1 X126.765 Y151.149 E72.33972
G1 X126.878 Y151.425 E72.35759
G1 X126.986 Y151.806 E72.38132
G1 X127.027 Y152.123 E72.40048
G1 X127.029 Y152.162 E72.40282
G1 X127.03 Y166.07 E73.2363
G1 X172.969 Y166.07 E75.98934
G1 X172.97 Y152.229 E76.8188
G1 X172.987 Y151.962 E76.83484
G1 X173.044 Y151.678 E76.8522
G1 X173.126 Y151.427 E76.86802
G1 X173.242 Y151.179 E76.88443
G1 X173.454 Y150.83 E76.9089
G0 F1620 X173.521 Y150.718
G0 X173.737 Y150.482
G0 X174.192 Y150.163
G0 X174.508 Y149.993
G1 F2100 E71.9089
G1 F300 Z0.56
G0 F6000 X172.529 Y134.26 Z0.56
G1 F300 Z0.24
G1 F2100 E76.9089
G1 F1800 X172.64 Y134.371 E76.91831
G0 F6000 X172.64 Y135.304
G1 F1800 X171.595 Y134.26 E77.00683
G0 F6000 X170.662 Y134.26
G1 F1800 X172.64 Y136.238 E77.17447
G0 F6000 X172.64 Y137.172
G1 F1800 X169.728 Y134.26 E77.42126
G0 F6000 X168.795 Y134.26
G1 F1800 X172.64 Y138.105 E77.74713
G0 F6000 X172.641 Y139.039
G1 F1800 X167.862 Y134.26 E78.15216
G0 F6000 X166.928 Y134.26
G1 F1800 X172.641 Y139.973 E78.63634
G0 F6000 X172.641 Y140.906
G1 F1800 X165.995 Y134.26 E79.1996
G0 F6000 X165.062 Y134.26
G1 F1800 X172.642 Y141.84 E79.84201
G0 F6000 X172.642 Y142.774
G1 F1800 X164.128 Y134.26 E80.56358
G0 F6000 X163.195 Y134.26
G1 F1800 X172.642 Y143.708 E81.36427
G0 F6000 X172.642 Y144.641
G1 F1800 X162.261 Y134.26 E82.24407
G0 F6000 X161.328 Y134.26
G1 F1800 X172.642 Y145.574 E83.20294
G0 F6000 X172.643 Y146.508
G1 F1800 X160.395 Y134.26 E84.24097
G0 F6000 X159.461 Y134.26
G1 F1800 X172.643 Y147.442 E85.35816
G0 F6000 X172.748 Y148.48
G1 F1800 X158.528 Y134.26 E86.56333
G0 F6000 X157.595 Y134.26
G1 F1800 X173.543 Y150.208 E87.91494
G0 F6000 X173.128 Y150.726
G1 F1800 X156.661 Y134.26 E89.31049
G0 F6000 X155.728 Y134.26
G1 F1800 X172.809 Y151.342 E90.75817
G0 F6000 X172.647 Y152.112
G1 F1800 X154.794 Y134.26 E92.27119
G0 F6000 X153.861 Y134.26
G1 F1800 X172.639 Y153.038 E93.86265
G0 F6000 X172.639 Y153.971
G1 F1800 X152.928 Y134.26 E95.53318
G0 F6000 X151.994 Y134.26
G1 F1800 X172.639 Y154.905 E97.28286
G0 F6000 X172.639 Y155.838
G1 F1800 X151.061 Y134.26 E99.11162
G0 F6000 X150.127 Y134.26
G1 F1800 X172.639 Y156.771 E101.0195
G0 F6000 X172.639 Y157.705
G1 F1800 X149.193 Y134.259 E103.00657
G0 F6000 X148.26 Y134.259
G1 F1800 X172.639 Y158.638 E105.07272
G0 F6000 X172.639 Y159.572
G1 F1800 X147.327 Y134.259 E107.21799
G0 F6000 X146.393 Y134.259
G1 F1800 X172.639 Y160.505 E109.44236
G0 F6000 X172.639 Y161.438
G1 F1800 X145.46 Y134.259 E111.74582
G0 F6000 X144.526 Y134.259
G1 F1800 X172.639 Y162.372 E114.12842
G0 F6000 X172.639 Y163.305
G1 F1800 X143.593 Y134.259 E116.59011
G0 F6000 X142.66 Y134.259
G1 F1800 X172.639 Y164.238 E119.13086
G0 F6000 X172.639 Y165.172
G1 F1800 X141.726 Y134.259 E121.75077
G0 F6000 X140.793 Y134.259
G1 F1800 X172.273 Y165.739 E124.41874
G0 F6000 X171.339 Y165.739
G1 F1800 X139.86 Y134.259 E127.08666
G0 F6000 X138.926 Y134.259
G1 F1800 X170.406 Y165.739 E129.75463
G0 F6000 X169.472 Y165.739
G1 F1800 X137.993 Y134.259 E132.42255
G0 F6000 X137.059 Y134.259
G1 F1800 X168.539 Y165.739 E135.09052
G0 F6000 X167.606 Y165.739
G1 F1800 X136.126 Y134.259 E137.75849
G0 F6000 X135.193 Y134.259
