;FLAVOR:Marlin
;TIME:405
;Filament used: 0.420495m
;Layer height: 0.32
;MINX:129.859
;MINY:130.75
;MINZ:0.24
;MAXX:170.141
;MAXY:169.15
;MAXZ:7.6
;Generated with Cura_SteamEngine 5.0.0
M140 S70
M105
M190 S70
M104 S245
M105
M109 S245
M82 ;absolute extrusion mode
; Ender 3 Max Custom Start G-code
G92 E0 ; Reset Extruder
G28 ; Home all axes
G1 Z2.0 F3000 ; Move Z Axis up little to prevent scratching of Heat Bed
G1 X0.1 Y20 Z0.3 F5000.0 ; Move to start position
G1 X0.1 Y200.0 Z0.3 F1500.0 E15 ; Draw the first line
G1 X0.4 Y200.0 Z0.3 F5000.0 ; Move to side a little
G1 X0.4 Y20 Z0.3 F1500.0 E30 ; Draw the second line
G92 E0 ; Reset Extruder
G1 Z2.0 F3000 ; Move Z Axis up little to prevent scratching of Heat Bed
G1 X5 Y20 Z0.3 F5000.0 ; Move over to prevent blob squish
G92 E0
G92 E0
G1 F2100 E-5
;LAYER_COUNT:23
;LAYER:0
M107
G1 F300 Z0.56
G0 F6000 X135.201 Y137.299 Z0.56
G1 F300 Z0.56
G0 F6000 X129.86 Y148.005
;TYPE:SKIRT
G1 F300 Z0.24
G1 F2100 E0
G1 F1800 X129.87 Y147.303 E0.05086
G1 X129.924 Y146.339 E0.1208
G1 X130.057 Y145.383 E0.19072
G1 X130.269 Y144.442 E0.2606
G1 X130.558 Y143.521 E0.33052
G1 X130.923 Y142.627 E0.40047
G1 X131.36 Y141.767 E0.47035
G1 X131.867 Y140.945 E0.54032
G1 X132.44 Y140.169 E0.61019
G1 X133.096 Y139.421 E0.68226
G1 X133.6 Y138.897 E0.73493
G1 X135.201 Y137.299 E0.8988
G1 X135.696 Y136.823 E0.94854
G1 X136.419 Y136.183 E1.01849
G1 X137.192 Y135.605 E1.08841
G1 X138.011 Y135.094 E1.15834
G1 X138.869 Y134.652 E1.22826
G1 X140.137 Y134.151 E1.32702
G1 X140.519 Y134.026 E1.35614
G1 X142.958 Y133.182 E1.5431
G1 X145.304 Y132.295 E1.72479
G1 X146.342 Y131.871 E1.80601
G1 X147.131 Y131.562 E1.86739
G1 X148.043 Y131.248 E1.93726
G1 X148.979 Y131.01 E2.00723
G1 X149.931 Y130.85 E2.07716
G1 X151.17 Y130.762 E2.16714
G1 X151.935 Y130.75 E2.22256
G1 X157.784 Y130.75 E2.64627
G1 X158.649 Y130.761 E2.70893
G1 X159.613 Y130.815 E2.77887
G1 X160.569 Y130.948 E2.84879
G1 X161.51 Y131.16 E2.91867
G1 X162.431 Y131.45 E2.98862
G1 X163.325 Y131.814 E3.05854
G1 X164.185 Y132.251 E3.12842
G1 X165.006 Y132.758 E3.19832
G1 X165.783 Y133.332 E3.2683
G1 X166.509 Y133.967 E3.33817
G1 X167.181 Y134.661 E3.40815
G1 X167.792 Y135.407 E3.478
G1 X168.34 Y136.202 E3.54795
G1 X168.82 Y137.039 E3.61785
G1 X169.229 Y137.914 E3.68781
G1 X169.565 Y138.819 E3.75775
G1 X169.824 Y139.748 E3.82761
G1 X170.005 Y140.696 E3.89752
G1 X170.127 Y142.082 E3.99831
G1 X170.141 Y142.73 E4.04527
G1 X170.14 Y156.908 E5.07233
G1 X170.131 Y157.635 E5.125
G1 X170.079 Y158.599 E5.19493
G1 X169.948 Y159.555 E5.26483
G1 X169.737 Y160.497 E5.33476
G1 X169.45 Y161.419 E5.40471
G1 X169.087 Y162.313 E5.47461
G1 X168.652 Y163.174 E5.54449
G1 X168.146 Y163.997 E5.61448
G1 X167.575 Y164.774 E5.68433
G1 X166.94 Y165.502 E5.75431
G1 X166.248 Y166.175 E5.82423
G1 X165.503 Y166.788 E5.89412
G1 X164.709 Y167.337 E5.96405
G1 X163.873 Y167.819 E6.03395
G1 X162.999 Y168.23 E6.10392
G1 X162.095 Y168.567 E6.17381
G1 X161.166 Y168.828 E6.24371
G1 X160.218 Y169.011 E6.31365
G1 X158.809 Y169.136 E6.41612
G1 X158.161 Y169.15 E6.46307
G1 X151.868 Y169.148 E6.91894
G1 X151.155 Y169.135 E6.9706
G1 X150.191 Y169.078 E7.04055
G1 X149.236 Y168.94 E7.11045
G1 X148.295 Y168.725 E7.18038
G1 X147.026 Y168.298 E7.27737
G1 X145.98 Y167.877 E7.35905
G1 X145.306 Y167.595 E7.41198
G1 X142.962 Y166.692 E7.59394
G1 X140.581 Y165.851 E7.77686
G1 X139.97 Y165.645 E7.82357
G1 X139.069 Y165.298 E7.89352
G1 X138.199 Y164.879 E7.96347
G1 X137.368 Y164.389 E8.03335
G1 X136.58 Y163.832 E8.10326
G1 X135.645 Y163.029 E8.19254
G1 X135.121 Y162.524 E8.24526
G1 X133.616 Y161.017 E8.39954
G1 X133.145 Y160.53 E8.44862
G1 X132.503 Y159.809 E8.51855
G1 X131.923 Y159.037 E8.5885
G1 X131.409 Y158.22 E8.65842
G1 X130.965 Y157.364 E8.72828
G1 X130.593 Y156.473 E8.79822
G1 X130.296 Y155.555 E8.86812
G1 X130.076 Y154.615 E8.93805
G1 X129.934 Y153.66 E9.00799
G1 X129.871 Y152.64 E9.08202
G1 X129.859 Y151.874 E9.13752
G1 X129.86 Y149.368 E9.31905
G0 F1620 X129.86 Y148.005
G1 F2100 E4.31905
G1 F300 Z0.56
G0 F6000 X130.519 Y151.874 Z0.56
G1 F300 Z0.24
G1 F2100 E9.31905
G1 F1800 X130.52 Y148.014 E9.59868
G1 X130.53 Y147.312 E9.64953
G1 X130.583 Y146.377 E9.71737
G1 X130.716 Y145.449 E9.78529
G1 X130.928 Y144.535 E9.85325
G1 X131.216 Y143.643 E9.92116
G1 X131.58 Y142.779 E9.98907
G1 X132.016 Y141.949 E10.05699
G1 X132.521 Y141.159 E10.12491
G1 X133.091 Y140.416 E10.19275
G1 X133.573 Y139.877 E10.24513
G1 X134.067 Y139.364 E10.29672
G1 X135.658 Y137.774 E10.45966
G1 X136.153 Y137.298 E10.50941
G1 X136.856 Y136.678 E10.57731
G1 X137.609 Y136.12 E10.6452
G1 X138.407 Y135.628 E10.71311
G1 X139.244 Y135.206 E10.78102
G1 X140.343 Y134.778 E10.86645
G1 X143.167 Y133.808 E11.08276
G1 X145.536 Y132.913 E11.26621
G1 X146.582 Y132.486 E11.34805
G1 X147.371 Y132.177 E11.40943
G1 X148.258 Y131.872 E11.47738
G1 X149.167 Y131.645 E11.54525
G1 X150.093 Y131.496 E11.61319
G1 X151.181 Y131.422 E11.69219
G1 X151.935 Y131.41 E11.74682
G1 X157.784 Y131.41 E12.17052
G1 X158.639 Y131.421 E12.23246
G1 X159.575 Y131.475 E12.30038
G1 X160.503 Y131.607 E12.36828
G1 X161.417 Y131.819 E12.43625
G1 X162.308 Y132.108 E12.50411
G1 X163.173 Y132.471 E12.57206
G1 X164.002 Y132.907 E12.63991
G1 X164.792 Y133.412 E12.70784
G1 X165.536 Y133.983 E12.77577
G1 X166.229 Y134.615 E12.84372
G1 X166.865 Y135.303 E12.91159
G1 X167.44 Y136.043 E12.97948
G1 X167.95 Y136.83 E13.04741
G1 X168.391 Y137.657 E13.1153
G1 X168.76 Y138.519 E13.18323
G1 X169.054 Y139.409 E13.25113
G1 X169.272 Y140.321 E13.31905
G1 X169.41 Y141.248 E13.38695
G1 X169.468 Y142.101 E13.44888
G1 X169.481 Y142.73 E13.49446
G1 X169.48 Y156.9 E14.52094
G1 X169.471 Y157.627 E14.57361
G1 X169.42 Y158.563 E14.64151
G1 X169.288 Y159.491 E14.70941
G1 X169.079 Y160.405 E14.77733
G1 X168.792 Y161.297 E14.84521
G1 X168.43 Y162.162 E14.91314
G1 X167.996 Y162.993 E14.98105
G1 X167.492 Y163.784 E15.049
G1 X166.923 Y164.529 E15.11691
G1 X166.293 Y165.222 E15.18475
G1 X165.605 Y165.86 E15.25272
G1 X164.866 Y166.437 E15.32064
G1 X164.081 Y166.948 E15.38849
G1 X163.254 Y167.391 E15.45645
G1 X162.393 Y167.761 E15.52434
G1 X161.504 Y168.057 E15.59222
G1 X160.592 Y168.277 E15.66018
G1 X159.665 Y168.417 E15.72809
G1 X158.79 Y168.477 E15.79163
G1 X158.161 Y168.49 E15.8372
G1 X151.88 Y168.488 E16.2922
G1 X151.167 Y168.475 E16.34386
G1 X150.231 Y168.418 E16.41179
G1 X149.304 Y168.282 E16.47966
G1 X148.391 Y168.066 E16.54762
G1 X147.272 Y167.685 E16.63325
G1 X146.235 Y167.268 E16.71422
G1 X145.559 Y166.985 E16.76731
G1 X143.21 Y166.08 E16.94966
G1 X140.718 Y165.2 E17.14111
G1 X140.181 Y165.019 E17.18216
G1 X139.306 Y164.682 E17.25009
G1 X138.463 Y164.271 E17.31803
G1 X137.659 Y163.79 E17.38589
G1 X136.898 Y163.243 E17.45379
G1 X136.101 Y162.551 E17.53025
G1 X135.588 Y162.057 E17.58184
G1 X134.09 Y160.558 E17.73535
G1 X133.619 Y160.071 E17.78443
G1 X132.997 Y159.37 E17.85232
G1 X132.436 Y158.619 E17.92023
G1 X131.942 Y157.822 E17.98815
G1 X131.518 Y156.986 E18.05606
G1 X131.166 Y156.117 E18.12398
G1 X130.889 Y155.222 E18.19184
G1 X130.69 Y154.306 E18.25975
G1 X130.57 Y153.376 E18.32768
G1 X130.562 Y153.236 E18.33783
G0 F1620 X130.531 Y152.628
G0 X130.519 Y151.874
G0 F6000 X131.179 Y151.874
G1 F1800 X131.18 Y148.024 E18.61673
G1 X131.19 Y147.322 E18.66759
G1 X131.243 Y146.415 E18.7334
G1 X131.375 Y145.515 E18.7993
G1 X131.586 Y144.631 E18.86513
G1 X131.874 Y143.769 E18.93097
G1 X132.237 Y142.936 E18.9968
G1 X132.671 Y142.138 E19.0626
G1 X133.174 Y141.381 E19.12844
G1 X133.741 Y140.671 E19.19426
G1 X134.372 Y139.996 E19.2612
G1 X136.116 Y138.25 E19.43996
G1 X136.611 Y137.774 E19.48971
G1 X137.293 Y137.174 E19.55551
G1 X138.025 Y136.635 E19.62136
G1 X138.802 Y136.164 E19.68719
G1 X139.617 Y135.762 E19.75302
G1 X140.549 Y135.405 E19.82531
G1 X140.964 Y135.269 E19.85695
G1 X143.408 Y134.424 E20.04428
G1 X145.756 Y133.536 E20.22613
G1 X146.823 Y133.1 E20.30962
G1 X147.612 Y132.791 E20.37101
G1 X148.472 Y132.497 E20.43685
G1 X149.355 Y132.28 E20.50271
G1 X150.253 Y132.142 E20.56853
G1 X151.193 Y132.082 E20.63676
G1 X151.935 Y132.07 E20.69052
G1 X157.784 Y132.07 E21.11422
G1 X158.63 Y132.081 E21.17551
G1 X159.537 Y132.134 E21.24133
G1 X160.436 Y132.267 E21.30716
G1 X161.32 Y132.478 E21.373
G1 X162.182 Y132.766 E21.43884
G1 X163.016 Y133.128 E21.5047
G1 X163.814 Y133.563 E21.57054
G1 X164.571 Y134.065 E21.63634
G1 X165.281 Y134.633 E21.7022
G1 X165.938 Y135.261 E21.76804
G1 X166.538 Y135.944 E21.8339
G1 X167.075 Y136.677 E21.89972
G1 X167.546 Y137.454 E21.96554
G1 X167.946 Y138.27 E22.03137
G1 X168.273 Y139.118 E22.09721
G1 X168.525 Y139.991 E22.16303
G1 X168.699 Y140.883 E22.22887
G1 X168.808 Y142.12 E22.31882
G1 X168.821 Y142.73 E22.36302
G1 X168.82 Y156.892 E23.38893
G1 X168.811 Y157.619 E23.44159
G1 X168.76 Y158.526 E23.5074
G1 X168.629 Y159.426 E23.57329
G1 X168.42 Y160.31 E23.63909
G1 X168.134 Y161.173 E23.70495
G1 X167.773 Y162.007 E23.77078
G1 X167.34 Y162.806 E23.83661
G1 X166.838 Y163.564 E23.90247
G1 X166.272 Y164.275 E23.96831
G1 X165.646 Y164.933 E24.0341
G1 X164.964 Y165.534 E24.09995
G1 X164.232 Y166.073 E24.1658
G1 X163.455 Y166.545 E24.23166
G1 X162.64 Y166.947 E24.29749
G1 X161.793 Y167.276 E24.36331
G1 X160.92 Y167.529 E24.42915
G1 X160.028 Y167.705 E24.49502
G1 X158.772 Y167.817 E24.58636
G1 X158.161 Y167.83 E24.63063
G1 X151.892 Y167.828 E25.08476
G1 X151.179 Y167.815 E25.13642
G1 X150.272 Y167.759 E25.20225
G1 X149.373 Y167.623 E25.26812
G1 X148.49 Y167.408 E25.33395
G1 X147.518 Y167.073 E25.40843
G1 X146.489 Y166.659 E25.48877
G1 X145.799 Y166.371 E25.54294
G1 X143.417 Y165.452 E25.72789
G1 X141.003 Y164.6 E25.91333
G1 X140.392 Y164.394 E25.96004
G1 X139.544 Y164.066 E26.02591
G1 X138.729 Y163.664 E26.09174
G1 X137.952 Y163.193 E26.15756
G1 X137.219 Y162.655 E26.22342
G1 X136.557 Y162.074 E26.28723
G1 X136.054 Y161.59 E26.33779
G1 X134.565 Y160.099 E26.49044
G1 X134.094 Y159.612 E26.53952
G1 X133.491 Y158.932 E26.60536
G1 X132.951 Y158.201 E26.67119
G1 X132.477 Y157.426 E26.737
G1 X132.073 Y156.612 E26.80283
G1 X131.742 Y155.765 E26.86871
G1 X131.487 Y154.893 E26.93452
G1 X131.309 Y154.002 E27.00034
G1 X131.225 Y153.236 E27.05616
G0 F1620 X131.211 Y153.098
G0 X131.191 Y152.616
G0 X131.179 Y151.874
G1 F2100 E22.05616
G1 F300 Z0.56
;MESH:2020-dupont-mount-cap.stl
G0 F6000 X143.158 Y151.696 Z0.56
;TYPE:WALL-INNER
G1 F300 Z0.24
G1 F2100 E27.05616
G1 F1800 X143.525 Y151.312 E27.08835
G1 X143.981 Y151.081 E27.11932
G1 X144.384 Y150.98 E27.14449
G1 X144.675 Y150.965 E27.16214
G1 X146.449 Y150.965 E27.26962
G1 X146.764 Y151.003 E27.28884
G1 X147.044 Y151.092 E27.30665
G1 X147.515 Y151.336 E27.33878
G1 X147.715 Y151.507 E27.35473
G1 X152.055 Y155.85 E27.72672
G1 X156.841 Y155.85 E28.01668
G1 X156.841 Y147.434 E28.52658
G1 X156.841 Y144.05 E28.73161
G1 X152.055 Y144.05 E29.02158
G1 X147.755 Y148.352 E29.3901
G1 X147.551 Y148.517 E29.40599
G1 X147.255 Y148.679 E29.42644
G1 X146.792 Y148.836 E29.45606
G1 X146.476 Y148.865 E29.47528
G1 X144.632 Y148.865 E29.587
G1 X144.411 Y148.844 E29.60045
G1 X143.926 Y148.686 E29.63136
G1 X143.765 Y148.604 E29.64231
G1 X143.206 Y148.142 E29.68624
G1 X143.16 Y148.157 E29.68917
G1 X143.158 Y150.333 E29.82101
G0 F1620 X143.158 Y151.696
G0 F6000 X143.91 Y151.848
G1 F1800 X144.184 Y151.71 E29.8396
G1 X144.472 Y151.634 E29.85764
G1 X144.675 Y151.625 E29.86996
G1 X146.432 Y151.625 E29.97641
G1 X146.789 Y151.701 E29.99852
G1 X147.128 Y151.871 E30.0215
G1 X147.317 Y152.043 E30.03698
G1 X151.782 Y156.51 E30.41964
G1 X157.501 Y156.51 E30.76613
G1 X157.501 Y147.434 E31.31602
G1 X157.501 Y143.39 E31.56103
G1 X151.782 Y143.39 E31.90753
G1 X147.3 Y147.874 E32.29164
G1 X147 Y148.07 E32.31335
G1 X146.666 Y148.188 E32.33481
G1 X146.406 Y148.205 E32.3506
G1 X144.649 Y148.205 E32.45705
G1 X144.225 Y148.098 E32.48354
G1 X143.729 Y147.738 E32.52068
G1 X143.571 Y147.437 E32.54127
G1 X143.486 Y147.015 E32.56735
G1 X143.486 Y146.885 E32.57523
G1 X142.5 Y147.873 E32.6598
G1 X142.499 Y152.027 E32.91148
G1 X143.329 Y152.857 E32.98259
G0 F1620 X143.416 Y152.944
G0 X143.523 Y152.364
G0 X143.659 Y152.111
G0 X143.91 Y151.848
G1 F2100 E27.98259
G1 F300 Z0.56
G0 F6000 X144.666 Y147.545 Z0.56
;TYPE:WALL-OUTER
G1 F300 Z0.24
G1 F2100 E32.98259
G1 F1800 X144.364 Y147.428 E33.002
G1 X144.199 Y147.235 E33.01722
G1 X144.146 Y147.015 E33.03078
G1 X144.146 Y145.545 E33.11887
G1 X143.893 Y145.545 E33.13404
G1 X141.84 Y147.599 E33.30807
G1 X141.839 Y152.301 E33.58985
G1 X143.823 Y154.285 E33.758
G1 X144.076 Y154.285 E33.77316
G1 X144.076 Y152.814 E33.86132
G1 X144.193 Y152.503 E33.88123
G1 X144.386 Y152.338 E33.89645
G1 X144.675 Y152.285 E33.91405
G1 X146.439 Y152.286 E34.01977
G1 X146.675 Y152.369 E34.03476
G1 X146.85 Y152.509 E34.04819
G1 X151.508 Y157.17 E34.44309
G1 X158.161 Y157.17 E34.84179
G1 X158.161 Y147.434 E35.42525
G1 X158.161 Y142.73 E35.70715
G1 X151.508 Y142.73 E36.10585
G1 X146.845 Y147.396 E36.50117
G1 X146.604 Y147.52 E36.51742
G1 X146.406 Y147.545 E36.52938
G1 X146.029 Y147.545 E36.55197
G0 F1620 X144.666 Y147.545
G0 F6000 X144.367 Y147.43
G0 X143.824 Y149.348
;TYPE:SKIN
G1 F1433.1 X143.824 Y150.433 E36.63364
G1 X144.293 Y150.321 E36.66994
G1 F1459.5 X144.634 Y150.315 E36.69515
G1 F1483.1 X145.567 Y150.315 E36.763
G1 F1479.5 X146.5 Y150.315 E36.83103
G1 F1515.3 X146.746 Y150.365 E36.8489
G1 F1668.5 X147.162 Y150.528 E36.87779
G1 F1800 X147.389 Y150.608 E36.89221
G1 X147.798 Y150.829 E36.92007
G1 X148.106 Y151.079 E36.94384
G1 X152.294 Y155.27 E37.29891
G1 X156.261 Y155.27 E37.53664
G1 X156.261 Y147.435 E38.00618
G1 X156.261 Y144.63 E38.17428
G1 X152.294 Y144.63 E38.41201
G1 X148.154 Y148.774 E38.76305
G1 X147.902 Y148.982 E38.78263
G1 X147.474 Y149.203 E38.8115
G1 X147.235 Y149.311 E38.82722
G1 F1767.9 X146.998 Y149.376 E38.84221
G1 F1640.9 X146.701 Y149.483 E38.86297
G1 F1517.2 X146.452 Y149.512 E38.88079
G1 F1481.3 X144.594 Y149.515 E39.01609
G1 F1457.7 X144.305 Y149.501 E39.0375
G1 F1433.1 X143.824 Y149.348 E39.0755
G1 F2100 E34.0755
G1 F300 Z0.56
G0 F6000 X146.97 Y149.77 Z0.56
G1 F300 Z0.24
G1 F2100 E39.0755
G1 F1800 X147.503 Y150.304 E39.12071
G0 F6000 X147.627 Y149.494
G1 F1800 X153.073 Y154.939 E39.58222
G0 F6000 X154.006 Y154.939
G1 F1800 X148.213 Y149.146 E40.07319
G0 F6000 X148.695 Y148.695
G1 F1800 X154.939 Y154.939 E40.60237
G0 F6000 X155.873 Y154.939
G1 F1800 X149.162 Y148.228 E41.17114
G0 F6000 X149.628 Y147.761
G1 F1800 X155.93 Y154.063 E41.70524
G0 F6000 X155.93 Y153.13
G1 F1800 X150.095 Y147.295 E42.19976
G0 F6000 X150.562 Y146.828
G1 F1800 X155.93 Y152.196 E42.65471
G0 F6000 X155.93 Y151.263
G1 F1800 X151.028 Y146.361 E43.07016
G0 F6000 X151.495 Y145.895
G1 F1800 X155.93 Y150.33 E43.44603
G0 F6000 X155.93 Y149.396
G1 F1800 X151.962 Y145.428 E43.78232
G0 F6000 X152.428 Y144.961
G1 F1800 X155.93 Y148.463 E44.07912
G0 F6000 X155.93 Y147.53
G1 F1800 X153.36 Y144.96 E44.29693
G0 F6000 X154.294 Y144.96
G1 F1800 X155.93 Y146.596 E44.43558
G0 F6000 X155.93 Y145.663
G1 F1800 X155.227 Y144.96 E44.49516
G1 F2100 E39.49516
G1 F300 Z0.56
;MESH:NONMESH
G0 F6000 X143.409 Y148.633 Z0.56
;TIME_ELAPSED:36.659653
;LAYER:1
M106 S21.2
;TYPE:WALL-INNER
;MESH:2020-dupont-mount-cap.stl
G1 F300 Z0.56
G1 F2100 E44.49516
G1 F2250 X143.41 Y151.144 E44.67957
G1 X143.615 Y150.962 E44.6997
G1 X144.341 Y150.731 E44.75565
G1 X144.606 Y150.715 E44.77515
G1 X146.457 Y150.715 E44.91108
G1 X146.947 Y150.783 E44.94741
G1 X147.36 Y150.942 E44.97991
G1 X147.671 Y151.137 E45.00687
G1 X147.892 Y151.33 E45.02841
G1 X152.159 Y155.6 E45.47173
G1 X156.591 Y155.6 E45.79721
G1 X156.591 Y147.434 E46.39691
G1 X156.591 Y144.3 E46.62706
G1 X152.159 Y144.3 E46.95254
G1 X147.926 Y148.536 E47.39233
G1 X147.7 Y148.722 E47.41382
G1 X147.384 Y148.91 E47.44083
G1 X146.967 Y149.058 E47.47332
G1 X146.634 Y149.11 E47.49807
G1 X146.406 Y149.115 E47.51482
G1 X144.625 Y149.115 E47.64561
G1 X144.411 Y149.096 E47.66139
G0 F2025 X144.361 Y149.092
G0 X143.684 Y148.868
G0 X143.409 Y148.633
G1 F2100 E42.66139
G1 F300 Z0.88
G0 F6960 X142.81 Y151.898 Z0.88
G1 F300 Z0.56
G1 F2100 E47.66139
G1 F2250 X143.255 Y152.343 E47.70761
G1 X143.38 Y151.949 E47.73796
G1 X143.898 Y151.491 E47.78874
G1 X144.416 Y151.326 E47.82867
