;FLAVOR:Marlin
;TIME:434
;Filament used: 0.43077m
;Layer height: 0.32
;MINX:129.859
;MINY:130.75
;MINZ:0.24
;MAXX:170.141
;MAXY:169.15
;MAXZ:7.6
;Generated with Cura_SteamEngine 5.0.0
M140 S70
M105
M190 S70
M104 S245
M105
M109 S245
M82 ;absolute extrusion mode
; Ender 3 Max Custom Start G-code
G92 E0 ; Reset Extruder
G28 ; Home all axes
G1 Z2.0 F3000 ; Move Z Axis up little to prevent scratching of Heat Bed
G1 X0.1 Y20 Z0.3 F5000.0 ; Move to start position
G1 X0.1 Y200.0 Z0.3 F1500.0 E15 ; Draw the first line
G1 X0.4 Y200.0 Z0.3 F5000.0 ; Move to side a little
G1 X0.4 Y20 Z0.3 F1500.0 E30 ; Draw the second line
G92 E0 ; Reset Extruder
G1 Z2.0 F3000 ; Move Z Axis up little to prevent scratching of Heat Bed
G1 X5 Y20 Z0.3 F5000.0 ; Move over to prevent blob squish
G92 E0
G92 E0
G1 F2100 E-5
;LAYER_COUNT:23
;LAYER:0
M107
G1 F300 Z0.56
G0 F6000 X135.163 Y137.789 Z0.56
G1 F300 Z0.56
G0 F6000 X133.353 Y140.041
;TYPE:SKIRT
G1 F300 Z0.24
G1 F2100 E0
G1 F1800 X133.893 Y139.241 E0.06992
G1 X134.498 Y138.489 E0.13984
G1 X135.163 Y137.789 E0.20978
G1 X135.884 Y137.147 E0.27971
G1 X136.655 Y136.567 E0.3496
G1 X137.472 Y136.052 E0.41956
G1 X138.757 Y135.417 E0.5234
G1 X139.436 Y135.132 E0.57674
G1 X141.824 Y134.091 E0.76545
G1 X144.094 Y133.024 E0.94715
G1 X146.168 Y131.988 E1.11509
G1 X147.048 Y131.593 E1.18497
G1 X147.959 Y131.272 E1.25494
G1 X148.892 Y131.027 E1.32482
G1 X149.843 Y130.861 E1.39475
G1 X151.176 Y130.762 E1.49158
G1 X151.962 Y130.75 E1.54852
G1 X157.784 Y130.75 E1.97027
G1 X158.649 Y130.761 E2.03294
G1 X159.613 Y130.815 E2.10288
G1 X160.569 Y130.948 E2.1728
G1 X161.51 Y131.16 E2.24268
G1 X162.431 Y131.45 E2.31262
G1 X163.325 Y131.814 E2.38255
G1 X164.185 Y132.251 E2.45243
G1 X165.006 Y132.758 E2.52233
G1 X165.783 Y133.332 E2.59231
G1 X166.509 Y133.967 E2.66218
G1 X167.181 Y134.661 E2.73216
G1 X167.792 Y135.407 E2.80201
G1 X168.34 Y136.202 E2.87196
G1 X168.82 Y137.039 E2.94185
G1 X169.229 Y137.914 E3.01182
G1 X169.565 Y138.819 E3.08175
G1 X169.824 Y139.748 E3.15162
G1 X170.005 Y140.696 E3.22153
G1 X170.127 Y142.082 E3.32232
G1 X170.141 Y142.73 E3.36928
G1 X170.14 Y156.908 E4.39634
G1 X170.131 Y157.635 E4.44901
G1 X170.079 Y158.599 E4.51894
G1 X169.948 Y159.555 E4.58884
G1 X169.737 Y160.497 E4.65877
G1 X169.45 Y161.419 E4.72872
G1 X169.087 Y162.313 E4.79862
G1 X168.652 Y163.174 E4.8685
G1 X168.146 Y163.997 E4.93848
G1 X167.575 Y164.774 E5.00833
G1 X166.94 Y165.502 E5.07831
G1 X166.248 Y166.175 E5.14824
G1 X165.503 Y166.788 E5.21813
G1 X164.709 Y167.337 E5.28806
G1 X163.873 Y167.819 E5.35796
G1 X162.999 Y168.23 E5.42793
G1 X162.095 Y168.567 E5.49782
G1 X161.166 Y168.828 E5.56772
G1 X160.218 Y169.011 E5.63766
G1 X158.809 Y169.136 E5.74013
G1 X158.161 Y169.15 E5.78708
G1 X151.915 Y169.149 E6.23955
G1 X151.212 Y169.139 E6.29048
G1 X150.249 Y169.085 E6.36035
G1 X149.293 Y168.952 E6.43027
G1 X148.351 Y168.74 E6.50021
G1 X147.43 Y168.451 E6.57014
G1 X146.14 Y167.896 E6.67187
G1 X145.199 Y167.422 E6.74819
G1 X142.871 Y166.291 E6.93568
G1 X140.557 Y165.247 E7.11958
G1 X139.173 Y164.666 E7.22832
G1 X138.589 Y164.41 E7.27451
G1 X137.722 Y163.986 E7.34442
G1 X136.892 Y163.492 E7.41439
G1 X136.107 Y162.931 E7.48429
G1 X135.371 Y162.307 E7.55418
G1 X134.689 Y161.624 E7.6241
G1 X134.066 Y160.887 E7.69401
G1 X133.363 Y159.877 E7.78316
G1 X131.616 Y157.058 E8.0234
G1 X131.142 Y156.217 E8.09333
G1 X130.74 Y155.34 E8.16322
G1 X130.411 Y154.432 E8.23318
G1 X130.158 Y153.501 E8.30307
G1 X129.984 Y152.552 E8.37296
G1 X129.875 Y151.294 E8.46443
G1 X129.859 Y150.609 E8.51407
G1 X129.861 Y149.445 E8.59839
G1 X129.873 Y148.77 E8.64729
G1 X129.93 Y147.806 E8.71725
G1 X130.067 Y146.851 E8.78714
G1 X130.282 Y145.91 E8.85706
G1 X130.574 Y144.99 E8.92698
G1 X130.942 Y144.098 E8.99688
G1 X131.599 Y142.871 E9.09771
G1 X132.635 Y141.199 E9.24019
G0 F1620 X133.353 Y140.041
G1 F2100 E4.24019
G1 F300 Z0.56
G0 F6000 X131.179 Y150.609 Z0.56
G1 F300 Z0.24
G1 F2100 E9.24019
G1 F1800 X131.181 Y149.468 E9.32285
G1 X131.193 Y148.793 E9.37175
G1 X131.249 Y147.886 E9.43758
G1 X131.384 Y146.988 E9.50336
G1 X131.598 Y146.104 E9.56925
G1 X131.889 Y145.243 E9.63509
G1 X132.255 Y144.411 E9.70093
G1 X132.723 Y143.563 E9.7711
G1 X134.476 Y140.734 E10.01219
G1 X134.987 Y139.982 E10.07805
G1 X135.562 Y139.278 E10.1439
G1 X136.197 Y138.628 E10.20972
G1 X136.886 Y138.035 E10.27557
G1 X137.625 Y137.506 E10.34141
G1 X138.407 Y137.043 E10.40724
G1 X139.268 Y136.634 E10.47629
G1 X139.945 Y136.35 E10.52948
G1 X142.351 Y135.301 E10.71961
G1 X144.706 Y134.194 E10.90812
G1 X146.758 Y133.169 E11.07428
G1 X147.588 Y132.799 E11.14011
G1 X148.447 Y132.503 E11.20593
G1 X149.329 Y132.284 E11.27176
G1 X150.227 Y132.144 E11.3376
G1 X151.198 Y132.081 E11.40808
G1 X151.962 Y132.07 E11.46344
G1 X157.784 Y132.07 E11.88518
G1 X158.63 Y132.081 E11.94647
G1 X159.537 Y132.134 E12.01229
G1 X160.436 Y132.267 E12.07812
G1 X161.32 Y132.478 E12.14396
G1 X162.182 Y132.766 E12.2098
G1 X163.016 Y133.128 E12.27566
G1 X163.814 Y133.563 E12.3415
G1 X164.571 Y134.065 E12.4073
G1 X165.281 Y134.633 E12.47316
G1 X165.938 Y135.261 E12.539
G1 X166.538 Y135.944 E12.60486
G1 X167.075 Y136.677 E12.67068
G1 X167.546 Y137.454 E12.7365
G1 X167.946 Y138.27 E12.80233
G1 X168.273 Y139.118 E12.86817
G1 X168.525 Y139.991 E12.93399
G1 X168.699 Y140.883 E12.99983
G1 X168.808 Y142.12 E13.08978
G1 X168.821 Y142.73 E13.13398
G1 X168.82 Y156.892 E14.15989
G1 X168.811 Y157.619 E14.21255
G1 X168.76 Y158.526 E14.27836
G1 X168.629 Y159.426 E14.34425
G1 X168.42 Y160.31 E14.41005
G1 X168.134 Y161.173 E14.47591
G1 X167.773 Y162.007 E14.54174
G1 X167.34 Y162.806 E14.60757
G1 X166.838 Y163.564 E14.67343
G1 X166.272 Y164.275 E14.73927
G1 X165.646 Y164.933 E14.80506
G1 X164.964 Y165.534 E14.87091
G1 X164.232 Y166.073 E14.93676
G1 X163.455 Y166.545 E15.00262
G1 X162.64 Y166.947 E15.06845
G1 X161.793 Y167.276 E15.13427
G1 X160.92 Y167.529 E15.20011
G1 X160.028 Y167.705 E15.26598
G1 X158.772 Y167.817 E15.35732
G1 X158.161 Y167.83 E15.40159
G1 X151.934 Y167.829 E15.85268
G1 X151.231 Y167.819 E15.90361
G1 X150.324 Y167.766 E15.96943
G1 X149.425 Y167.634 E16.03525
G1 X148.541 Y167.423 E16.10109
G1 X147.679 Y167.135 E16.16692
G1 X146.733 Y166.717 E16.24184
G1 X145.722 Y166.208 E16.32384
G1 X143.429 Y165.094 E16.50851
G1 X141.107 Y164.046 E16.69306
G1 X139.703 Y163.457 E16.80335
G1 X139.119 Y163.201 E16.84954
G1 X138.303 Y162.8 E16.9154
G1 X137.526 Y162.329 E16.98122
G1 X136.793 Y161.791 E17.04709
G1 X136.111 Y161.191 E17.11289
G1 X135.484 Y160.533 E17.17873
G1 X134.917 Y159.823 E17.24456
G1 X134.485 Y159.182 E17.30055
G1 X132.738 Y156.363 E17.5408
G1 X132.294 Y155.57 E17.60663
G1 X131.921 Y154.741 E17.67248
G1 X131.623 Y153.882 E17.73835
G1 X131.401 Y153.001 E17.80416
G1 X131.257 Y152.104 E17.86998
G1 X131.247 Y151.97 E17.87971
G0 F1620 X131.194 Y151.252
G0 X131.179 Y150.609
G0 F6000 X130.519 Y150.609
G1 F1800 X130.521 Y149.457 E17.96316
G1 X130.533 Y148.782 E18.01207
G1 X130.589 Y147.846 E18.07999
G1 X130.726 Y146.918 E18.14795
G1 X130.94 Y146.006 E18.21581
G1 X131.232 Y145.115 E18.28373
G1 X131.598 Y144.252 E18.35163
G1 X132.161 Y143.217 E18.43698
G1 X133.915 Y140.388 E18.67811
G1 X134.441 Y139.611 E18.74608
G1 X135.031 Y138.883 E18.81396
G1 X135.681 Y138.207 E18.8819
G1 X136.386 Y137.59 E18.94977
G1 X137.141 Y137.034 E19.01769
G1 X137.941 Y136.545 E19.08561
G1 X139.013 Y136.025 E19.17192
G1 X139.695 Y135.739 E19.22549
G1 X142.087 Y134.696 E19.41453
G1 X144.391 Y133.613 E19.59895
G1 X146.463 Y132.578 E19.76673
G1 X147.318 Y132.196 E19.83457
G1 X148.204 Y131.887 E19.90254
G1 X149.112 Y131.655 E19.97043
G1 X150.037 Y131.502 E20.03835
G1 X151.187 Y131.422 E20.12186
G1 X151.962 Y131.41 E20.17801
G1 X157.784 Y131.41 E20.59975
G1 X158.639 Y131.421 E20.6617
G1 X159.575 Y131.475 E20.72961
G1 X160.503 Y131.607 E20.79751
G1 X161.417 Y131.819 E20.86548
G1 X162.308 Y132.108 E20.93334
G1 X163.173 Y132.471 E21.00129
G1 X164.002 Y132.907 E21.06915
G1 X164.792 Y133.412 E21.13707
G1 X165.536 Y133.983 E21.20501
G1 X166.229 Y134.615 E21.27295
G1 X166.865 Y135.303 E21.34082
G1 X167.44 Y136.043 E21.40871
G1 X167.95 Y136.83 E21.47664
G1 X168.391 Y137.657 E21.54454
G1 X168.76 Y138.519 E21.61246
G1 X169.054 Y139.409 E21.68036
G1 X169.272 Y140.321 E21.74829
G1 X169.41 Y141.248 E21.81618
G1 X169.468 Y142.101 E21.87811
G1 X169.481 Y142.73 E21.92369
G1 X169.48 Y156.9 E22.95017
G1 X169.471 Y157.627 E23.00284
G1 X169.42 Y158.563 E23.07074
G1 X169.288 Y159.491 E23.13865
G1 X169.079 Y160.405 E23.20657
G1 X168.792 Y161.297 E23.27444
G1 X168.43 Y162.162 E23.34237
G1 X167.996 Y162.993 E23.41028
G1 X167.492 Y163.784 E23.47823
G1 X166.923 Y164.529 E23.54614
G1 X166.293 Y165.222 E23.61398
G1 X165.605 Y165.86 E23.68195
G1 X164.866 Y166.437 E23.74987
G1 X164.081 Y166.948 E23.81772
G1 X163.254 Y167.391 E23.88569
G1 X162.393 Y167.761 E23.95357
G1 X161.504 Y168.057 E24.02145
G1 X160.592 Y168.277 E24.08941
G1 X159.665 Y168.417 E24.15732
G1 X158.79 Y168.477 E24.22086
G1 X158.161 Y168.49 E24.26643
G1 X151.925 Y168.489 E24.71817
G1 X151.222 Y168.479 E24.7691
G1 X150.286 Y168.426 E24.83702
G1 X149.358 Y168.293 E24.90493
G1 X148.444 Y168.081 E24.9729
G1 X147.553 Y167.793 E25.04073
G1 X146.436 Y167.306 E25.129
G1 X145.489 Y166.829 E25.20581
G1 X143.137 Y165.686 E25.39525
G1 X140.845 Y164.652 E25.57739
G1 X139.438 Y164.061 E25.68794
G1 X138.854 Y163.805 E25.73414
G1 X138.012 Y163.393 E25.80204
G1 X137.209 Y162.91 E25.86992
G1 X136.449 Y162.36 E25.93788
G1 X135.739 Y161.748 E26.00578
G1 X135.084 Y161.077 E26.07371
G1 X134.489 Y160.353 E26.1416
G1 X133.924 Y159.529 E26.21397
G1 X132.177 Y156.71 E26.45422
G1 X131.718 Y155.893 E26.5221
G1 X131.33 Y155.04 E26.58999
G1 X131.016 Y154.156 E26.65794
G1 X130.779 Y153.25 E26.72578
G1 X130.619 Y152.326 E26.79371
G1 X130.59 Y151.97 E26.81959
G0 F1620 X130.535 Y151.273
G0 X130.519 Y150.609
G1 F2100 E21.81959
G1 F300 Z0.56
;MESH:2020-dupont-mount-cap.5.stl
G0 F6000 X143.771 Y150.958 Z0.56
;TYPE:WALL-OUTER
G1 F300 Z0.24
G1 F2100 E26.81959
G1 F1117.6 X143.784 Y151.123 E26.83556
G1 F1131.4 X143.784 Y153.225 E27.03597
G1 F2100 E22.03597
G1 F300 Z0.56
G0 F6000 X143.781 Y148.87 Z0.56
G1 F300 Z0.24
G1 F2100 E27.03597
G1 F1128.2 X143.784 Y148.779 E27.04467
G1 F1131.4 X143.784 Y146.675 E27.24527
G1 F2100 E22.24527
G1 F300 Z0.56
G0 F6000 X143.781 Y148.87 Z0.56
G1 F300 Z0.24
G1 F2100 E27.24527
G1 F1263.8 X143.544 Y149.128 E27.27517
G1 F1601.1 X143.279 Y149.255 E27.29497
G1 F1800 X143.059 Y149.309 E27.30855
G1 X141.839 Y149.308 E27.38166
G1 X141.839 Y150.594 E27.45873
G1 X143.059 Y150.593 E27.53184
G1 X143.371 Y150.71 E27.55181
G1 F1441.7 X143.692 Y150.853 E27.5781
G1 F1151.2 X143.771 Y150.958 E27.59041
G1 X143.815 Y150.834 E27.60274
G1 F1311.3 X143.897 Y150.586 E27.62423
G1 F1601.1 X143.979 Y150.338 E27.64183
G1 F1800 X143.979 Y149.765 E27.67617
G1 F1694.7 X143.938 Y149.489 E27.69393
G1 F1517.2 X143.897 Y149.212 E27.71384
G1 F1263.8 X143.781 Y148.87 E27.74466
G0 F6000 X143.565 Y149.105
G0 X143.306 Y149.95
;TYPE:WALL-INNER
G1 F1813.7 X143.059 Y149.951 E27.75951
G1 F1900.8 X142.482 Y149.951 E27.79262
G1 F2100 E22.79262
G1 F300 Z0.56
G0 F6000 X156.841 Y144.05 Z0.56
G1 F300 Z0.24
G1 F2100 E27.79262
G1 F1800 X152.056 Y144.05 E28.08252
G1 X148.559 Y147.55 E28.38228
G1 X148.559 Y152.348 E28.67298
G1 X152.057 Y155.85 E28.97287
G1 X156.841 Y155.85 E29.26271
G1 X156.841 Y147.433 E29.77267
G1 X156.841 Y145.413 E29.89506
G0 F1620 X156.841 Y144.05
G0 F6000 X157.501 Y143.39
G1 F1800 X151.782 Y143.39 E30.24155
G1 X147.899 Y147.277 E30.57443
G1 X147.899 Y152.621 E30.8982
G1 X151.783 Y156.51 E31.23121
G1 X157.501 Y156.51 E31.57764
G1 X157.501 Y147.433 E32.12759
G1 X157.501 Y144.753 E32.28996
G0 F1620 X157.501 Y143.39
G0 F6000 X158.161 Y142.73
;TYPE:WALL-OUTER
G1 F1800 X151.508 Y142.73 E32.68866
G1 X147.239 Y147.004 E33.05068
G1 X147.239 Y152.894 E33.40365
G1 X151.509 Y157.17 E33.76579
G1 X158.161 Y157.17 E34.16444
G1 X158.161 Y147.433 E34.74796
G1 X158.161 Y144.093 E34.94812
G0 F1620 X158.161 Y142.73
G0 F6000 X157.841 Y142.73
G1 F2100 E29.94812
G1 F300 Z0.56
G0 F6000 X156.261 Y144.63 Z0.56
;TYPE:SKIN
G1 F300 Z0.24
G1 F2100 E34.94812
G1 F1800 X152.295 Y144.63 E35.18579
G1 X149.139 Y147.789 E35.45339
G1 X149.139 Y152.109 E35.71228
G1 X152.296 Y155.27 E35.98001
G1 X156.261 Y155.27 E36.21763
G1 X156.261 Y147.434 E36.68722
G1 X156.261 Y145.993 E36.77358
G0 F1620 X156.261 Y144.63
G0 F6000 X155.93 Y145.663
G1 F1800 X155.227 Y144.96 E36.83316
G0 F6000 X154.294 Y144.96
G1 F1800 X155.93 Y146.596 E36.97181
G0 F6000 X155.93 Y147.53
G1 F1800 X153.36 Y144.96 E37.18962
G0 F6000 X152.428 Y144.961
G1 F1800 X155.93 Y148.463 E37.48642
G0 F6000 X155.93 Y149.396
G1 F1800 X151.962 Y145.428 E37.82271
G0 F6000 X151.495 Y145.895
G1 F1800 X155.93 Y150.33 E38.19858
G0 F6000 X155.93 Y151.263
G1 F1800 X151.029 Y146.362 E38.61395
G0 F6000 X150.562 Y146.829
G1 F1800 X155.93 Y152.196 E39.06885
G0 F6000 X155.93 Y153.13
G1 F1800 X150.096 Y147.296 E39.56329
G0 F6000 X149.63 Y147.763
G1 F1800 X155.93 Y154.063 E40.09722
G0 F6000 X155.872 Y154.939
G1 F1800 X149.468 Y148.535 E40.63997
G0 F6000 X149.468 Y149.468
G1 F1800 X154.939 Y154.939 E41.10364
G0 F6000 X154.005 Y154.939
G1 F1800 X149.468 Y150.402 E41.48816
G0 F6000 X149.468 Y151.335
G1 F1800 X153.072 Y154.939 E41.7936
G1 F2100 E36.7936
G1 F300 Z0.56
;MESH:NONMESH
G0 F6000 X143.609 Y148.763 Z0.56
;TIME_ELAPSED:36.442917
;LAYER:1
M106 S21.2
;TYPE:WALL-INNER
;MESH:2020-dupont-mount-cap.5.stl
G1 F300 Z0.56
G1 F2100 E41.7936
G1 F2250 X143.601 Y148.776 E41.79472
G1 X143.559 Y148.79 E41.79797
G1 X143.058 Y148.956 E41.83673
G1 X142.209 Y148.956 E41.89908
G1 X142.209 Y149.277 E41.92266
G1 X142.209 Y150.624 E42.02158
G1 X142.209 Y150.945 E42.04515
G1 X143.058 Y150.945 E42.1075
G1 X143.559 Y151.11 E42.14624
G1 X143.601 Y151.124 E42.14949
G1 X143.609 Y151.12 E42.15015
G1 X143.609 Y149.888 E42.24062
G0 F2025 X143.609 Y148.763
G1 F2100 E37.24062
G1 F300 Z0.88
G0 F6960 X143.421 Y153.588 Z0.88
;TYPE:WALL-OUTER
G1 F300 Z0.56
G1 F2100 E42.24062
G1 F1613.8 X144.147 Y153.588 E42.30435
G1 X144.147 Y151.845 E42.45733
G1 F1661.9 X144.167 Y151.604 E42.47795
G1 F1767.4 X144.188 Y151.363 E42.49733
G1 F1887.1 X144.208 Y151.121 E42.51556
G1 F1950 X144.209 Y148.78 E42.68561
G1 F1851.3 X144.177 Y148.481 E42.70862
G1 F1681 X144.145 Y148.181 E42.73404
G1 F1609.4 X144.147 Y148.056 E42.74505
G1 F1613.8 X144.147 Y146.675 E42.86626
G1 X144.147 Y146.312 E42.89812
G1 X143.421 Y146.312 E42.96185
G1 F1609.4 X143.42 Y147.756 E43.08894
G1 X143.42 Y148.119 E43.12089
G1 F1762 X143.24 Y148.296 E43.14118
G1 F1950 X142.909 Y148.356 E43.16562
G1 X141.609 Y148.356 E43.26005
G1 X141.609 Y149.277 E43.32695
G1 X141.609 Y150.624 E43.4248
G1 X141.609 Y151.545 E43.4917
G1 X143.058 Y151.545 E43.59696
G1 X143.24 Y151.604 E43.61085
G1 F1767.4 X143.421 Y151.845 E43.63501
G1 F1613.8 X143.421 Y152.145 E43.66134
G1 X143.421 Y153.282 E43.76114
G0 F1755 X143.421 Y153.588
G0 F6960 X143.741 Y153.588
G1 F2100 E38.76114
G1 F300 Z0.88
G0 F6960 X142.909 Y149.656 Z0.88
;TYPE:WALL-INNER
G1 F300 Z0.56
G1 F2100 E43.76114
G1 F1687.5 X142.909 Y150.245 E43.81881
G1 F2100 E38.81881
G1 F300 Z0.88
G0 F6960 X156.591 Y144.3 Z0.88
G1 F300 Z0.56
G1 F2100 E43.81881
G1 F2250 X152.159 Y144.3 E44.14429
G1 X148.809 Y147.651 E44.49227
G1 X148.809 Y152.249 E44.82994
G1 X152.159 Y155.6 E45.17791
G1 X156.591 Y155.6 E45.50339
G1 X156.591 Y147.434 E46.10309
G1 X156.591 Y145.425 E46.25063
G0 F2025 X156.591 Y144.3
G0 F6960 X157.191 Y143.7
G1 F2250 X151.911 Y143.7 E46.63838
G1 X148.209 Y147.402 E47.02286
G1 X148.209 Y152.498 E47.3971
G1 X151.911 Y156.2 E47.78159
G1 X157.191 Y156.2 E48.16934
G1 X157.191 Y147.434 E48.8131
G1 X157.191 Y144.825 E49.0047
G0 F2025 X157.191 Y143.7
G0 F6960 X157.791 Y143.1
G1 F2250 X151.662 Y143.1 E49.45481
G1 X147.609 Y147.153 E49.87574
G1 X147.609 Y152.747 E50.28655
G1 X151.662 Y156.8 E50.70749
G1 X157.791 Y156.8 E51.15759
G1 X157.791 Y147.434 E51.84542
G1 X157.791 Y144.225 E52.08108
G0 F2025 X157.791 Y143.1
G0 F6960 X158.391 Y142.5
;TYPE:WALL-OUTER
G1 F1950 X151.414 Y142.5 E52.58789
G1 X147.009 Y146.905 E53.04041
G1 X147.009 Y152.995 E53.48279
G1 X151.414 Y157.4 E53.93531
G1 X158.391 Y157.4 E54.44212
