;FLAVOR:Marlin
;TIME:424
;Filament used: 0.421257m
;Layer height: 0.32
;MINX:162.9
;MINY:132.333
;MINZ:0.24
;MAXX:197.782
;MAXY:170.733
;MAXZ:7.6
;Generated with Cura_SteamEngine 5.0.0
M140 S70
M105
M190 S70
M104 S245
M105
M109 S245
M82 ;absolute extrusion mode
; Ender 3 Max Custom Start G-code
G92 E0 ; Reset Extruder
G28 ; Home all axes
G1 Z2.0 F3000 ; Move Z Axis up little to prevent scratching of Heat Bed
G1 X0.1 Y20 Z0.3 F5000.0 ; Move to start position
G1 X0.1 Y200.0 Z0.3 F1500.0 E15 ; Draw the first line
G1 X0.4 Y200.0 Z0.3 F5000.0 ; Move to side a little
G1 X0.4 Y20 Z0.3 F1500.0 E30 ; Draw the second line
G92 E0 ; Reset Extruder
G1 Z2.0 F3000 ; Move Z Axis up little to prevent scratching of Heat Bed
G1 X5 Y20 Z0.3 F5000.0 ; Move over to prevent blob squish
G92 E0
G92 E0
G1 F2100 E-5
;LAYER_COUNT:23
;LAYER:0
M107
G1 F300 Z0.56
G0 F6000 X165.481 Y141.157 Z0.56
G1 F300 Z0.56
G0 F6000 X162.901 Y148.993
;TYPE:SKIRT
G1 F300 Z0.24
G1 F2100 E0
G1 F1800 X162.911 Y148.291 E0.05086
G1 X162.965 Y147.327 E0.1208
G1 X163.098 Y146.371 E0.19072
G1 X163.31 Y145.43 E0.2606
G1 X163.599 Y144.509 E0.33052
G1 X163.964 Y143.615 E0.40047
G1 X164.401 Y142.755 E0.47035
G1 X164.908 Y141.933 E0.54032
G1 X165.481 Y141.157 E0.61019
G1 X166.135 Y140.411 E0.68206
G1 X166.659 Y139.867 E0.73678
G1 X170.388 Y136.136 E1.1189
G1 X170.889 Y135.648 E1.16957
G1 X171.608 Y135.003 E1.23954
G1 X172.377 Y134.421 E1.3094
G1 X173.193 Y133.904 E1.37938
G1 X174.048 Y133.456 E1.4493
G1 X174.937 Y133.081 E1.5192
G1 X175.854 Y132.781 E1.58909
G1 X176.793 Y132.557 E1.65902
G1 X177.748 Y132.412 E1.72899
G1 X178.819 Y132.345 E1.80673
G1 X179.603 Y132.333 E1.86353
G1 X185.425 Y132.333 E2.28528
G1 X186.29 Y132.344 E2.34794
G1 X187.254 Y132.398 E2.41788
G1 X188.21 Y132.531 E2.4878
G1 X189.151 Y132.743 E2.55768
G1 X190.072 Y133.033 E2.62763
G1 X190.966 Y133.397 E2.69755
G1 X191.826 Y133.834 E2.76743
G1 X192.647 Y134.341 E2.83733
G1 X193.424 Y134.915 E2.90731
G1 X194.15 Y135.55 E2.97718
G1 X194.822 Y136.244 E3.04716
G1 X195.433 Y136.99 E3.11701
G1 X195.981 Y137.785 E3.18696
G1 X196.461 Y138.622 E3.25686
G1 X196.87 Y139.497 E3.32683
G1 X197.206 Y140.402 E3.39676
G1 X197.465 Y141.331 E3.46662
G1 X197.646 Y142.279 E3.53653
G1 X197.768 Y143.665 E3.63733
G1 X197.782 Y144.313 E3.68428
G1 X197.781 Y158.491 E4.71134
G1 X197.772 Y159.218 E4.76401
G1 X197.72 Y160.182 E4.83394
G1 X197.589 Y161.138 E4.90384
G1 X197.378 Y162.08 E4.97377
G1 X197.091 Y163.002 E5.04372
G1 X196.728 Y163.896 E5.11362
G1 X196.293 Y164.757 E5.1835
G1 X195.787 Y165.58 E5.25349
G1 X195.216 Y166.357 E5.32334
G1 X194.581 Y167.085 E5.39332
G1 X193.889 Y167.758 E5.46324
G1 X193.144 Y168.371 E5.53313
G1 X192.35 Y168.92 E5.60306
G1 X191.514 Y169.402 E5.67296
G1 X190.64 Y169.813 E5.74293
G1 X189.736 Y170.15 E5.81282
G1 X188.807 Y170.411 E5.88272
G1 X187.859 Y170.594 E5.95266
G1 X186.45 Y170.719 E6.05513
G1 X185.802 Y170.733 E6.10208
G1 X179.556 Y170.732 E6.55455
G1 X178.854 Y170.722 E6.60541
G1 X177.89 Y170.668 E6.67535
G1 X176.934 Y170.535 E6.74527
G1 X175.993 Y170.323 E6.81514
G1 X175.072 Y170.034 E6.88507
G1 X174.178 Y169.669 E6.95502
G1 X173.318 Y169.232 E7.0249
G1 X172.496 Y168.725 E7.09486
G1 X171.72 Y168.152 E7.16474
G1 X170.95 Y167.475 E7.23901
G1 X170.394 Y166.938 E7.29501
G1 X166.704 Y163.239 E7.6735
G1 X166.208 Y162.729 E7.72503
G1 X165.565 Y162.01 E7.79491
G1 X164.983 Y161.24 E7.86483
G1 X164.467 Y160.425 E7.93471
G1 X164.02 Y159.569 E8.00466
G1 X163.645 Y158.68 E8.07455
G1 X163.345 Y157.762 E8.14452
G1 X163.123 Y156.823 E8.21441
G1 X162.979 Y155.869 E8.2843
G1 X162.913 Y154.852 E8.35813
G1 X162.9 Y154.131 E8.41037
G1 X162.901 Y150.356 E8.68383
G0 F1620 X162.901 Y148.993
G0 F6000 X163.561 Y149.002
G1 F1800 X163.571 Y148.3 E8.73469
G1 X163.624 Y147.365 E8.80253
G1 X163.757 Y146.437 E8.87044
G1 X163.969 Y145.523 E8.93841
G1 X164.257 Y144.631 E9.00631
G1 X164.621 Y143.767 E9.07423
G1 X165.057 Y142.937 E9.14215
G1 X165.562 Y142.147 E9.21007
G1 X166.132 Y141.404 E9.2779
G1 X166.612 Y140.867 E9.33008
G1 X167.126 Y140.333 E9.38377
G1 X170.849 Y136.608 E9.76528
G1 X171.35 Y136.12 E9.81595
G1 X172.049 Y135.496 E9.88382
G1 X172.798 Y134.933 E9.9517
G1 X173.593 Y134.435 E10.01966
G1 X174.427 Y134.008 E10.08753
G1 X175.295 Y133.653 E10.15547
G1 X176.189 Y133.373 E10.22333
G1 X177.105 Y133.171 E10.29128
G1 X178.034 Y133.047 E10.35917
G1 X178.83 Y133.005 E10.41692
G1 X179.603 Y132.993 E10.47292
G1 X185.425 Y132.993 E10.89467
G1 X186.28 Y133.004 E10.95661
G1 X187.216 Y133.058 E11.02453
G1 X188.144 Y133.19 E11.09243
G1 X189.058 Y133.402 E11.1604
G1 X189.949 Y133.691 E11.22825
G1 X190.814 Y134.054 E11.29621
G1 X191.643 Y134.49 E11.36406
G1 X192.433 Y134.995 E11.43198
G1 X193.177 Y135.566 E11.49992
G1 X193.87 Y136.198 E11.56786
G1 X194.506 Y136.886 E11.63573
G1 X195.081 Y137.626 E11.70362
G1 X195.591 Y138.413 E11.77156
G1 X196.032 Y139.24 E11.83945
G1 X196.401 Y140.102 E11.90737
G1 X196.695 Y140.992 E11.97527
G1 X196.913 Y141.904 E12.0432
G1 X197.051 Y142.831 E12.11109
G1 X197.109 Y143.684 E12.17303
G1 X197.122 Y144.313 E12.2186
G1 X197.121 Y158.483 E13.24508
G1 X197.112 Y159.21 E13.29775
G1 X197.061 Y160.146 E13.36566
G1 X196.929 Y161.074 E13.43356
G1 X196.72 Y161.988 E13.50148
G1 X196.433 Y162.88 E13.56936
G1 X196.071 Y163.745 E13.63729
G1 X195.637 Y164.576 E13.7052
G1 X195.133 Y165.367 E13.77314
G1 X194.564 Y166.112 E13.84105
G1 X193.934 Y166.805 E13.9089
G1 X193.246 Y167.443 E13.97687
G1 X192.507 Y168.02 E14.04478
G1 X191.722 Y168.531 E14.11264
G1 X190.895 Y168.974 E14.1806
G1 X190.034 Y169.344 E14.24849
G1 X189.145 Y169.64 E14.31636
G1 X188.233 Y169.86 E14.38432
G1 X187.306 Y170 E14.45224
G1 X186.431 Y170.06 E14.51577
G1 X185.802 Y170.073 E14.56135
G1 X179.565 Y170.072 E15.01316
G1 X178.863 Y170.062 E15.06402
G1 X177.928 Y170.009 E15.13186
G1 X177 Y169.876 E15.19977
G1 X176.086 Y169.664 E15.26774
G1 X175.194 Y169.376 E15.33564
G1 X174.33 Y169.012 E15.40355
G1 X173.5 Y168.576 E15.47147
G1 X172.71 Y168.071 E15.53939
G1 X171.967 Y167.501 E15.60723
G1 X171.407 Y166.999 E15.66171
G1 X170.861 Y166.472 E15.71668
G1 X167.178 Y162.779 E16.0945
G1 X166.682 Y162.269 E16.14604
G1 X166.057 Y161.57 E16.21397
G1 X165.495 Y160.82 E16.28186
G1 X164.998 Y160.025 E16.34977
G1 X164.571 Y159.19 E16.41771
G1 X164.217 Y158.322 E16.48562
G1 X163.938 Y157.427 E16.55353
G1 X163.736 Y156.512 E16.62141
G1 X163.613 Y155.582 E16.68937
G1 X163.572 Y154.838 E16.74334
G1 X163.56 Y154.131 E16.79457
G1 X163.561 Y150.365 E17.06738
G0 F1620 X163.561 Y149.002
G0 F6000 X164.221 Y149.012
G1 F1800 X164.231 Y148.31 E17.11824
G1 X164.284 Y147.403 E17.18405
G1 X164.416 Y146.503 E17.24995
G1 X164.627 Y145.619 E17.31578
G1 X164.915 Y144.757 E17.38162
G1 X165.278 Y143.924 E17.44744
G1 X165.712 Y143.126 E17.51325
G1 X166.215 Y142.369 E17.57909
G1 X166.782 Y141.659 E17.64491
G1 X167.09 Y141.322 E17.67798
G1 X167.593 Y140.8 E17.73049
G1 X171.309 Y137.081 E18.11134
G1 X171.81 Y136.593 E18.162
G1 X172.489 Y135.988 E18.22788
G1 X173.217 Y135.445 E18.29367
G1 X173.991 Y134.969 E18.3595
G1 X174.804 Y134.562 E18.42536
G1 X175.649 Y134.228 E18.49118
G1 X176.52 Y133.969 E18.557
G1 X177.411 Y133.789 E18.62285
G1 X178.314 Y133.687 E18.68868
G1 X178.841 Y133.665 E18.72689
G1 X179.603 Y133.653 E18.7821
G1 X185.425 Y133.653 E19.20385
G1 X186.271 Y133.664 E19.26514
G1 X187.178 Y133.717 E19.33095
G1 X188.077 Y133.85 E19.39679
G1 X188.961 Y134.061 E19.46262
G1 X189.823 Y134.349 E19.52846
G1 X190.657 Y134.711 E19.59432
G1 X191.455 Y135.146 E19.66016
G1 X192.212 Y135.648 E19.72596
G1 X192.922 Y136.216 E19.79182
G1 X193.579 Y136.844 E19.85766
G1 X194.179 Y137.527 E19.92352
G1 X194.716 Y138.26 E19.98934
G1 X195.187 Y139.037 E20.05516
G1 X195.587 Y139.853 E20.12099
G1 X195.914 Y140.701 E20.18683
G1 X196.166 Y141.574 E20.25266
G1 X196.34 Y142.466 E20.31849
G1 X196.449 Y143.703 E20.40845
G1 X196.462 Y144.313 E20.45265
G1 X196.461 Y158.475 E21.47855
G1 X196.452 Y159.202 E21.53122
G1 X196.401 Y160.109 E21.59703
G1 X196.27 Y161.009 E21.66291
G1 X196.061 Y161.893 E21.72871
G1 X195.775 Y162.756 E21.79457
G1 X195.414 Y163.59 E21.8604
G1 X194.981 Y164.389 E21.92624
G1 X194.479 Y165.147 E21.9921
G1 X193.913 Y165.858 E22.05793
G1 X193.287 Y166.516 E22.12372
G1 X192.605 Y167.117 E22.18957
G1 X191.873 Y167.656 E22.25542
G1 X191.096 Y168.128 E22.32128
G1 X190.281 Y168.53 E22.38711
G1 X189.434 Y168.859 E22.45293
G1 X188.561 Y169.112 E22.51878
G1 X187.669 Y169.288 E22.58464
G1 X186.413 Y169.4 E22.67598
G1 X185.802 Y169.413 E22.72026
G1 X179.575 Y169.412 E23.17134
G1 X178.873 Y169.402 E23.2222
G1 X177.966 Y169.349 E23.28802
G1 X177.066 Y169.217 E23.35391
G1 X176.182 Y169.006 E23.41975
G1 X175.32 Y168.718 E23.48558
G1 X174.487 Y168.355 E23.55141
G1 X173.689 Y167.921 E23.61721
G1 X172.932 Y167.418 E23.68305
G1 X172.222 Y166.851 E23.74887
G1 X171.864 Y166.523 E23.78405
G1 X171.328 Y166.005 E23.83804
G1 X167.651 Y162.319 E24.2152
G1 X167.155 Y161.809 E24.26673
G1 X166.55 Y161.13 E24.33261
G1 X166.008 Y160.401 E24.39842
G1 X165.532 Y159.627 E24.46424
G1 X165.125 Y158.814 E24.53011
G1 X164.792 Y157.968 E24.59597
G1 X164.535 Y157.097 E24.66175
G1 X164.355 Y156.206 E24.7276
G1 X164.253 Y155.303 E24.79343
G1 X164.232 Y154.824 E24.82816
G1 X164.22 Y154.131 E24.87837
G1 X164.221 Y150.375 E25.15046
G0 F1620 X164.221 Y149.012
G1 F2100 E20.15046
G1 F300 Z0.56
;MESH:2020-dupont-mount-cap.6.stl
G0 F6000 X184.482 Y145.633 Z0.56
;TYPE:WALL-INNER
G1 F300 Z0.24
G1 F2100 E25.15046
G1 F1800 X179.697 Y145.633 E25.44037
G1 X176.2 Y149.133 E25.74013
G1 X176.2 Y153.93 E26.03076
G1 X179.698 Y157.433 E26.33069
G1 X184.482 Y157.433 E26.62054
G1 X184.482 Y149.016 E27.1305
G1 X184.482 Y146.996 E27.25288
G0 F1620 X184.482 Y145.633
G0 F6000 X185.142 Y144.973
G1 F1800 X179.423 Y144.973 E27.59938
G1 X175.54 Y148.86 E27.93225
G1 X175.54 Y154.203 E28.25597
G1 X179.424 Y158.093 E28.58902
G1 X185.142 Y158.093 E28.93545
G1 X185.142 Y149.016 E29.48539
G1 X185.142 Y146.336 E29.64777
G0 F1620 X185.142 Y144.973
G0 F6000 X185.802 Y144.313
;TYPE:WALL-OUTER
G1 F1800 X179.149 Y144.313 E30.04647
G1 X174.88 Y148.587 E30.40848
G1 X174.88 Y154.476 E30.7614
G1 X179.15 Y158.753 E31.12358
G1 X185.802 Y158.753 E31.52223
G1 X185.802 Y149.016 E32.10575
G1 X185.802 Y145.676 E32.30591
G0 F1620 X185.802 Y144.313
G0 F6000 X185.482 Y144.313
G1 F2100 E27.30591
G1 F300 Z0.56
G0 F6000 X183.902 Y146.213 Z0.56
;TYPE:SKIN
G1 F300 Z0.24
G1 F2100 E32.30591
G1 F1800 X179.936 Y146.213 E32.54358
G1 X176.78 Y149.372 E32.81118
G1 X176.78 Y153.691 E33.07001
G1 X179.937 Y156.853 E33.33778
G1 X183.902 Y156.853 E33.5754
G1 X183.902 Y149.017 E34.045
G1 X183.902 Y147.576 E34.13135
G0 F1620 X183.902 Y146.213
G0 F6000 X183.571 Y147.169
G1 F1800 X182.944 Y146.542 E34.18449
G0 F6000 X182.011 Y146.542
G1 F1800 X183.571 Y148.102 E34.3167
G0 F6000 X183.571 Y149.036
G1 F1800 X181.078 Y146.542 E34.52803
G0 F6000 X180.144 Y146.542
G1 F1800 X183.571 Y149.969 E34.81847
G0 F6000 X183.571 Y150.902
G1 F1800 X179.641 Y146.973 E35.1515
G0 F6000 X179.175 Y147.44
G1 F1800 X183.571 Y151.836 E35.52407
G0 F6000 X183.571 Y152.769
G1 F1800 X178.708 Y147.906 E35.93621
G0 F6000 X178.242 Y148.374
G1 F1800 X183.571 Y153.703 E36.38785
G0 F6000 X183.571 Y154.636
G1 F1800 X177.775 Y148.841 E36.87903
G0 F6000 X177.309 Y149.307
G1 F1800 X183.571 Y155.569 E37.40974
G0 F6000 X183.571 Y156.503
G1 F1800 X177.109 Y150.04 E37.95744
G0 F6000 X177.109 Y150.974
G1 F1800 X182.657 Y156.523 E38.42768
G0 F6000 X181.724 Y156.523
G1 F1800 X177.109 Y151.907 E38.81885
G0 F6000 X177.109 Y152.841
G1 F1800 X180.79 Y156.523 E39.13086
G1 F2100 E34.13086
G1 F300 Z0.56
;MESH:NONMESH
G0 F6000 X184.232 Y145.883 Z0.56
;TIME_ELAPSED:32.419953
;LAYER:1
M106 S21.2
;TYPE:WALL-INNER
;MESH:2020-dupont-mount-cap.6.stl
G1 F300 Z0.56
G1 F2100 E39.13086
G1 F2000.3 X179.8 Y145.883 E39.45634
G1 X176.45 Y149.234 E39.80432
G1 X176.45 Y153.832 E40.14199
G1 X179.8 Y157.183 E40.48996
G1 X184.232 Y157.183 E40.81544
G1 X184.232 Y149.017 E41.41514
G1 X184.232 Y147.008 E41.56268
G0 F1800.3 X184.232 Y145.883
G0 F6960 X184.832 Y145.283
G1 F2000.3 X179.552 Y145.283 E41.95043
G1 X175.85 Y148.985 E42.33491
G1 X175.85 Y154.08 E42.70908
G1 X179.552 Y157.783 E43.09361
G1 X184.832 Y157.783 E43.48137
G1 X184.832 Y149.017 E44.12513
G1 X184.832 Y146.408 E44.31673
G0 F1800.3 X184.832 Y145.283
G0 F6960 X185.432 Y144.683
G1 F2000.3 X179.303 Y144.683 E44.76683
G1 X175.25 Y148.736 E45.18777
G1 X175.25 Y154.329 E45.59851
G1 X179.303 Y158.383 E46.01949
G1 X185.432 Y158.383 E46.4696
G1 X185.432 Y149.017 E47.15742
G1 X185.432 Y145.808 E47.39309
G0 F1800.3 X185.432 Y144.683
G0 F6960 X186.032 Y144.083
;TYPE:WALL-OUTER
G1 F1733.6 X179.055 Y144.083 E47.8999
G1 X174.65 Y148.488 E48.35242
G1 X174.65 Y154.577 E48.79472
G1 X179.055 Y158.983 E49.24729
G1 X186.032 Y158.983 E49.7541
G1 X186.032 Y149.017 E50.47804
G1 X186.032 Y145.208 E50.75472
G0 F1560.3 X186.032 Y144.083
G0 F6960 X185.712 Y144.083
G1 F2100 E45.75472
G1 F300 Z0.88
G0 F6960 X183.712 Y146.403 Z0.88
;TYPE:SKIN
G1 F300 Z0.56
G1 F2100 E50.75472
G1 F1600.3 X180.015 Y146.403 E51.02327
G1 X176.97 Y149.448 E51.33608
G1 X176.97 Y153.618 E51.63899
G1 X180.015 Y156.663 E51.9518
G1 X183.712 Y156.663 E52.22035
G1 X183.712 Y149.018 E52.77568
G1 X183.712 Y147.528 E52.88392
G0 F1440.2 X183.712 Y146.403
G1 F2100 E47.88392
G1 F300 Z0.88
G0 F6960 X177.269 Y150.262 Z0.88
G1 F300 Z0.56
G1 F2100 E52.88392
G1 F1600.3 X180.829 Y146.702 E53.24963
G0 F6960 X181.677 Y146.702
G1 F1600.3 X177.269 Y151.11 E53.70246
G0 F6960 X177.269 Y151.959
G1 F1600.3 X182.526 Y146.702 E54.2425
G0 F6960 X183.374 Y146.702
G1 F1600.3 X177.269 Y152.807 E54.86966
G0 F6960 X177.35 Y153.575
G1 F1600.3 X183.411 Y147.514 E55.4923
G0 F6960 X183.411 Y148.363
G1 F1600.3 X177.775 Y153.999 E56.07128
G0 F6960 X178.199 Y154.423
G1 F1600.3 X183.411 Y149.211 E56.6067
G0 F6960 X183.411 Y150.06
G1 F1600.3 X178.623 Y154.847 E57.09851
G0 F6960 X179.047 Y155.272
G1 F1600.3 X183.411 Y150.908 E57.54682
G0 F6960 X183.411 Y151.757
G1 F1600.3 X179.472 Y155.696 E57.95147
G0 F6960 X179.896 Y156.12
G1 F1600.3 X183.411 Y152.605 E58.31256
G0 F6960 X183.411 Y153.454
G1 F1600.3 X180.502 Y156.363 E58.6114
G0 F6960 X181.35 Y156.363
G1 F1600.3 X183.411 Y154.302 E58.82312
G0 F6960 X183.411 Y155.151
G1 F1600.3 X182.199 Y156.363 E58.94763
G0 F6960 X183.048 Y156.363
G1 F1600.3 X183.411 Y155.999 E58.98497
G1 F2100 E53.98497
G1 F300 Z0.88
;MESH:NONMESH
G0 F6960 X184.832 Y145.283 Z0.88
;TIME_ELAPSED:46.181498
;LAYER:2
M106 S42.5
;TYPE:WALL-INNER
;MESH:2020-dupont-mount-cap.6.stl
G1 F300 Z0.88
G1 F2100 E58.98497
G1 F1174.2 X179.552 Y145.283 E59.37273
G1 X175.85 Y148.985 E59.75721
G1 X175.85 Y154.08 E60.13138
G1 X179.552 Y157.783 E60.51591
G1 X184.832 Y157.783 E60.90366
G1 X184.832 Y149.017 E61.54742
G1 X184.832 Y146.408 E61.73903
G0 F1056.7 X184.832 Y145.283
G0 F7920 X185.432 Y144.683
G1 F1174.2 X179.303 Y144.683 E62.18913
G1 X175.25 Y148.736 E62.61006
G1 X175.25 Y154.329 E63.0208
G1 X179.303 Y158.383 E63.44179
G1 X185.432 Y158.383 E63.89189
G1 X185.432 Y149.017 E64.57972
G1 X185.432 Y145.808 E64.81538
G0 F1056.7 X185.432 Y144.683
G0 F7920 X186.032 Y144.083
;TYPE:WALL-OUTER
G1 F913.2 X179.055 Y144.083 E65.32219
G1 X174.65 Y148.488 E65.77471
G1 X174.65 Y154.577 E66.21702
G1 X179.055 Y158.983 E66.66959
G1 X186.032 Y158.983 E67.1764
G1 X186.032 Y149.017 E67.90033
G1 X186.032 Y145.208 E68.17702
G0 F821.9 X186.032 Y144.083
G0 F7920 X185.712 Y144.083
G1 F2100 E63.17702
G1 F300 Z1.2
G0 F7920 X184.112 Y145.827 Z1.2
G0 X184.711 Y145.921
;TYPE:FILL
G1 F300 Z0.88
G1 F2100 E68.17702
G1 F1304.6 X181.565 Y157.662 E69.07938
G0 F7920 X181.565 Y157.563
G0 X180.349 Y157.563
G0 X180.349 Y157.662
G1 F1304.6 X184.71 Y156.493 E69.41455
G0 F7920 X184.612 Y156.493
G0 X184.65 Y157.563
G0 X184.65 Y157.662
G1 F1304.6 X175.995 Y149.007 E70.32321
G0 F7920 X176.066 Y149.079
G0 X178.358 Y146.787
G0 X178.287 Y146.715
G1 F1304.6 X176.251 Y154.312 E70.90709
G0 F7920 X176.322 Y154.242
G0 X176.07 Y152.624
G0 X175.97 Y152.624
G1 F1304.6 X184.71 Y150.282 E71.57881
G0 F7920 X184.612 Y150.282
G0 X184.612 Y149.238
G0 X184.711 Y149.238
G1 F1304.6 X180.875 Y145.403 E71.98148
G0 F7920 X180.875 Y145.503
G0 X179.74 Y145.503
