;FLAVOR:Marlin
;TIME:460
;Filament used: 0.473321m
;Layer height: 0.32
;MINX:106.727
;MINY:126.153
;MINZ:0.24
;MAXX:145.127
;MAXY:166.435
;MAXZ:7.6
;Generated with Cura_SteamEngine 5.0.0
M140 S70
M105
M190 S70
M104 S245
M105
M109 S245
M82 ;absolute extrusion mode
; Ender 3 Max Custom Start G-code
G92 E0 ; Reset Extruder
G28 ; Home all axes
G1 Z2.0 F3000 ; Move Z Axis up little to prevent scratching of Heat Bed
G1 X0.1 Y20 Z0.3 F5000.0 ; Move to start position
G1 X0.1 Y200.0 Z0.3 F1500.0 E15 ; Draw the first line
G1 X0.4 Y200.0 Z0.3 F5000.0 ; Move to side a little
G1 X0.4 Y20 Z0.3 F1500.0 E30 ; Draw the second line
G92 E0 ; Reset Extruder
G1 Z2.0 F3000 ; Move Z Axis up little to prevent scratching of Heat Bed
G1 X5 Y20 Z0.3 F5000.0 ; Move over to prevent blob squish
G92 E0
G92 E0
G1 F2100 E-5
;LAYER_COUNT:23
;LAYER:0
M107
G1 F300 Z0.56
G0 F6000 X110.63 Y129.119 Z0.56
G1 F300 Z0.56
G0 F6000 X106.728 Y138.319
;TYPE:SKIRT
G1 F300 Z0.24
G1 F2100 E0
G1 F1800 X106.737 Y137.654 E0.04818
G1 X106.79 Y136.691 E0.11804
G1 X106.923 Y135.735 E0.18796
G1 X107.134 Y134.793 E0.25789
G1 X107.423 Y133.872 E0.32782
G1 X107.786 Y132.978 E0.39772
G1 X108.223 Y132.117 E0.46766
G1 X108.729 Y131.295 E0.53758
G1 X109.302 Y130.518 E0.60752
G1 X109.937 Y129.791 E0.67745
G1 X110.63 Y129.119 E0.74737
G1 X111.376 Y128.507 E0.81727
G1 X112.17 Y127.959 E0.88716
G1 X113.007 Y127.478 E0.95709
G1 X113.881 Y127.068 E1.02702
G1 X114.786 Y126.732 E1.09696
G1 X115.715 Y126.472 E1.16684
G1 X116.663 Y126.29 E1.23677
G1 X118.059 Y126.167 E1.33829
G1 X118.707 Y126.153 E1.38524
G1 X132.77 Y126.153 E2.40397
G1 X133.635 Y126.164 E2.46664
G1 X134.599 Y126.218 E2.53658
G1 X135.555 Y126.351 E2.6065
G1 X136.496 Y126.563 E2.67637
G1 X137.417 Y126.853 E2.74632
G1 X138.311 Y127.217 E2.81624
G1 X139.171 Y127.654 E2.88613
G1 X139.992 Y128.161 E2.95603
G1 X140.769 Y128.735 E3.026
G1 X141.495 Y129.37 E3.09588
G1 X142.167 Y130.064 E3.16586
G1 X142.778 Y130.81 E3.23571
G1 X143.326 Y131.605 E3.30565
G1 X143.806 Y132.442 E3.37555
G1 X144.215 Y133.317 E3.44552
G1 X144.551 Y134.222 E3.51545
G1 X144.81 Y135.151 E3.58531
G1 X144.991 Y136.099 E3.65523
G1 X145.113 Y137.485 E3.75602
G1 X145.127 Y138.133 E3.80297
G1 X145.126 Y144.395 E4.25659
G1 X145.115 Y145.101 E4.30774
G1 X145.06 Y146.065 E4.37769
G1 X144.925 Y147.021 E4.44763
G1 X144.712 Y147.962 E4.51752
G1 X144.28 Y149.253 E4.61614
G1 X143.854 Y150.314 E4.69896
G1 X143.572 Y150.988 E4.75189
G1 X142.669 Y153.332 E4.93385
G1 X141.828 Y155.713 E5.11678
G1 X141.622 Y156.324 E5.16349
G1 X141.275 Y157.225 E5.23343
G1 X140.856 Y158.095 E5.30338
G1 X140.366 Y158.926 E5.37326
G1 X139.809 Y159.714 E5.44317
G1 X139.006 Y160.649 E5.53245
G1 X138.498 Y161.176 E5.58548
G1 X137.012 Y162.66 E5.73761
G1 X136.518 Y163.139 E5.78745
G1 X135.798 Y163.781 E5.85733
G1 X135.027 Y164.362 E5.92727
G1 X134.21 Y164.877 E5.99723
G1 X133.354 Y165.323 E6.06715
G1 X132.464 Y165.696 E6.13706
G1 X131.546 Y165.994 E6.20697
G1 X130.607 Y166.216 E6.27687
G1 X129.652 Y166.358 E6.34681
G1 X128.617 Y166.423 E6.42194
G1 X127.851 Y166.435 E6.47743
G1 X123.983 Y166.434 E6.75763
G1 X123.282 Y166.424 E6.80842
G1 X122.318 Y166.37 E6.87836
G1 X121.362 Y166.237 E6.94828
G1 X120.421 Y166.025 E7.01816
G1 X119.5 Y165.736 E7.08808
G1 X118.606 Y165.371 E7.15803
G1 X117.745 Y164.934 E7.22798
G1 X116.924 Y164.427 E7.29788
G1 X116.148 Y163.854 E7.36776
G1 X115.38 Y163.18 E7.44178
G1 X114.814 Y162.633 E7.4988
G1 X113.348 Y161.166 E7.64903
G1 X112.849 Y160.653 E7.70088
G1 X112.205 Y159.934 E7.7708
G1 X111.623 Y159.164 E7.84072
G1 X111.107 Y158.348 E7.91066
G1 X110.66 Y157.493 E7.98055
G1 X110.133 Y156.168 E8.08385
G1 X110.003 Y155.771 E8.11411
G1 X109.159 Y153.333 E8.301
G1 X108.261 Y150.962 E8.48466
G1 X107.848 Y149.95 E8.56384
G1 X107.541 Y149.167 E8.62477
G1 X107.226 Y148.254 E8.69473
G1 X106.988 Y147.319 E8.76462
G1 X106.828 Y146.367 E8.83455
G1 X106.739 Y145.124 E8.92483
G1 X106.727 Y144.359 E8.98025
G1 X106.728 Y139.682 E9.31906
G0 F1620 X106.728 Y138.319
G0 F6000 X107.388 Y138.328
G1 F1800 X107.397 Y137.663 E9.36723
G1 X107.45 Y136.727 E9.43515
G1 X107.582 Y135.799 E9.50305
G1 X107.793 Y134.886 E9.57093
G1 X108.081 Y133.994 E9.63883
G1 X108.444 Y133.129 E9.70679
G1 X108.879 Y132.299 E9.77467
G1 X109.383 Y131.509 E9.84255
G1 X109.953 Y130.765 E9.91045
G1 X110.584 Y130.072 E9.97834
G1 X111.272 Y129.435 E10.04626
G1 X112.012 Y128.859 E10.11419
G1 X112.798 Y128.348 E10.18211
G1 X113.625 Y127.907 E10.25
G1 X114.487 Y127.537 E10.31795
G1 X115.377 Y127.242 E10.38588
G1 X116.288 Y127.024 E10.45373
G1 X117.215 Y126.885 E10.52163
G1 X118.078 Y126.826 E10.5843
G1 X118.707 Y126.813 E10.62987
G1 X132.77 Y126.813 E11.6486
G1 X133.625 Y126.824 E11.71055
G1 X134.561 Y126.878 E11.77846
G1 X135.489 Y127.01 E11.84636
G1 X136.403 Y127.222 E11.91433
G1 X137.294 Y127.511 E11.98219
G1 X138.159 Y127.874 E12.05014
G1 X138.988 Y128.31 E12.11799
G1 X139.778 Y128.815 E12.18592
G1 X140.522 Y129.386 E12.25386
G1 X141.215 Y130.018 E12.3218
G1 X141.851 Y130.706 E12.38967
G1 X142.426 Y131.446 E12.45756
G1 X142.936 Y132.233 E12.52549
G1 X143.377 Y133.06 E12.59339
G1 X143.746 Y133.922 E12.66131
G1 X144.04 Y134.812 E12.72921
G1 X144.258 Y135.724 E12.79714
G1 X144.396 Y136.651 E12.86503
G1 X144.454 Y137.504 E12.92696
G1 X144.467 Y138.133 E12.97254
G1 X144.466 Y144.385 E13.42544
G1 X144.455 Y145.091 E13.47658
G1 X144.4 Y146.027 E13.54451
G1 X144.266 Y146.955 E13.61243
G1 X144.053 Y147.868 E13.68034
G1 X143.668 Y149.007 E13.76744
G1 X143.245 Y150.059 E13.84958
G1 X142.962 Y150.735 E13.90266
G1 X142.057 Y153.084 E14.08502
G1 X141.168 Y155.602 E14.27846
G1 X140.996 Y156.113 E14.31752
G1 X140.659 Y156.988 E14.38544
G1 X140.248 Y157.831 E14.45338
G1 X139.767 Y158.635 E14.52125
G1 X139.22 Y159.396 E14.58914
G1 X138.528 Y160.193 E14.6656
G1 X138.031 Y160.709 E14.7175
G1 X136.552 Y162.186 E14.86891
G1 X136.058 Y162.665 E14.91876
G1 X135.358 Y163.288 E14.98664
G1 X134.607 Y163.85 E15.05459
G1 X133.811 Y164.345 E15.1225
G1 X132.976 Y164.771 E15.1904
G1 X132.108 Y165.124 E15.25828
G1 X131.212 Y165.401 E15.32622
G1 X130.297 Y165.602 E15.39408
G1 X129.367 Y165.723 E15.46202
G1 X128.605 Y165.763 E15.51729
G1 X127.851 Y165.775 E15.57192
G1 X123.992 Y165.774 E15.85147
G1 X123.291 Y165.764 E15.90226
G1 X122.355 Y165.711 E15.97017
G1 X121.427 Y165.578 E16.03808
G1 X120.514 Y165.366 E16.10598
G1 X119.622 Y165.078 E16.17388
G1 X118.758 Y164.714 E16.2418
G1 X117.928 Y164.278 E16.30971
G1 X117.138 Y163.773 E16.37763
G1 X116.394 Y163.203 E16.44553
G1 X115.837 Y162.703 E16.49975
G1 X115.281 Y162.166 E16.55575
G1 X113.821 Y160.706 E16.70532
G1 X113.322 Y160.193 E16.75716
G1 X112.698 Y159.494 E16.82504
G1 X112.135 Y158.744 E16.89297
G1 X111.639 Y157.949 E16.96085
G1 X111.212 Y157.114 E17.02879
G1 X110.76 Y155.962 E17.11844
G1 X110.621 Y155.539 E17.15069
G1 X109.774 Y153.092 E17.33827
G1 X108.885 Y150.742 E17.52028
G1 X108.462 Y149.709 E17.60114
G1 X108.155 Y148.926 E17.66207
G1 X107.851 Y148.039 E17.72999
G1 X107.623 Y147.13 E17.79788
G1 X107.473 Y146.204 E17.86583
G1 X107.399 Y145.112 E17.94512
G1 X107.387 Y144.359 E17.99967
G1 X107.388 Y139.691 E18.33783
G0 F1620 X107.388 Y138.328
G0 F6000 X108.048 Y138.337
G1 F1800 X108.057 Y137.672 E18.386
G1 X108.109 Y136.765 E18.45182
G1 X108.241 Y135.866 E18.51764
G1 X108.451 Y134.981 E18.58353
G1 X108.739 Y134.119 E18.64937
G1 X109.101 Y133.286 E18.71516
G1 X109.534 Y132.487 E18.78099
G1 X110.037 Y131.729 E18.84689
G1 X110.604 Y131.019 E18.91271
G1 X111.231 Y130.361 E18.97855
G1 X111.913 Y129.761 E19.04436
G1 X112.646 Y129.224 E19.11018
G1 X113.423 Y128.752 E19.17604
G1 X114.239 Y128.351 E19.2419
G1 X115.086 Y128.023 E19.3077
G1 X115.959 Y127.771 E19.37352
G1 X116.851 Y127.597 E19.43936
G1 X118.096 Y127.486 E19.5299
G1 X118.707 Y127.473 E19.57417
G1 X132.77 Y127.473 E20.59291
G1 X133.616 Y127.484 E20.6542
G1 X134.523 Y127.537 E20.72001
G1 X135.422 Y127.67 E20.78584
G1 X136.306 Y127.881 E20.85168
G1 X137.168 Y128.169 E20.91752
G1 X138.002 Y128.531 E20.98338
G1 X138.8 Y128.966 E21.04922
G1 X139.557 Y129.468 E21.11502
G1 X140.267 Y130.036 E21.18088
G1 X140.924 Y130.664 E21.24672
G1 X141.524 Y131.347 E21.31258
G1 X142.061 Y132.08 E21.3784
G1 X142.532 Y132.857 E21.44422
G1 X142.932 Y133.673 E21.51005
G1 X143.259 Y134.521 E21.57589
G1 X143.511 Y135.394 E21.64172
G1 X143.685 Y136.286 E21.70755
G1 X143.794 Y137.523 E21.79751
G1 X143.807 Y138.133 E21.8417
G1 X143.806 Y144.375 E22.29388
G1 X143.795 Y145.081 E22.34503
G1 X143.741 Y145.988 E22.41085
G1 X143.607 Y146.887 E22.47669
G1 X143.395 Y147.771 E22.54254
G1 X143.055 Y148.762 E22.61844
G1 X142.636 Y149.805 E22.69987
G1 X142.348 Y150.495 E22.75403
G1 X141.429 Y152.877 E22.93898
G1 X140.591 Y155.251 E23.12135
G1 X140.371 Y155.902 E23.17113
G1 X140.043 Y156.75 E23.237
G1 X139.641 Y157.565 E23.30283
G1 X139.17 Y158.342 E23.36865
G1 X138.632 Y159.075 E23.43451
G1 X138.051 Y159.737 E23.49832
G1 X137.564 Y160.242 E23.54914
G1 X136.093 Y161.712 E23.69979
G1 X135.599 Y162.191 E23.74963
G1 X134.919 Y162.794 E23.81547
G1 X134.189 Y163.336 E23.88134
G1 X133.414 Y163.811 E23.94718
G1 X132.601 Y164.216 E24.01298
G1 X131.755 Y164.548 E24.07882
G1 X130.883 Y164.804 E24.14465
G1 X129.992 Y164.983 E24.21048
G1 X129.088 Y165.083 E24.27637
G1 X128.593 Y165.103 E24.31226
G1 X127.851 Y165.115 E24.36601
G1 X124.002 Y165.114 E24.64484
G1 X123.301 Y165.104 E24.69562
G1 X122.393 Y165.051 E24.76151
G1 X121.494 Y164.919 E24.82733
G1 X120.61 Y164.708 E24.89317
G1 X119.748 Y164.42 E24.95901
G1 X118.915 Y164.057 E25.02483
G1 X118.116 Y163.623 E25.0907
G1 X117.359 Y163.12 E25.15654
G1 X116.649 Y162.552 E25.2224
G1 X116.295 Y162.227 E25.25722
G1 X115.747 Y161.699 E25.31234
G1 X114.294 Y160.246 E25.4612
G1 X113.795 Y159.733 E25.51304
G1 X113.191 Y159.054 E25.57887
G1 X112.648 Y158.325 E25.64472
G1 X112.172 Y157.551 E25.71054
G1 X111.766 Y156.738 E25.77637
G1 X111.387 Y155.756 E25.85262
G1 X111.258 Y155.364 E25.88252
G1 X110.392 Y152.863 E26.07425
G1 X109.485 Y150.465 E26.25997
G1 X109.077 Y149.468 E26.33801
G1 X108.77 Y148.685 E26.39893
G1 X108.476 Y147.825 E26.46477
G1 X108.258 Y146.942 E26.53066
G1 X108.119 Y146.044 E26.59648
G1 X108.059 Y145.1 E26.665
G1 X108.047 Y144.359 E26.71869
G1 X108.048 Y139.7 E27.05619
G0 F1620 X108.048 Y138.337
G1 F2100 E22.05619
G1 F300 Z0.56
;MESH:2020-dupont-mount-cap.2.stl
G0 F6000 X127.673 Y153.136 Z0.56
;TYPE:WALL-INNER
G1 F300 Z0.24
G1 F2100 E27.05619
G1 F1800 X127.289 Y152.769 E27.08837
G1 X127.058 Y152.313 E27.11934
G1 X126.956 Y151.91 E27.14453
G1 X126.942 Y151.619 E27.16218
G1 X126.942 Y149.845 E27.26966
G1 X126.98 Y149.53 E27.28888
G1 X127.069 Y149.25 E27.30668
G1 X127.314 Y148.779 E27.33885
G1 X127.484 Y148.579 E27.35475
G1 X131.827 Y144.239 E27.72674
G1 X131.827 Y142.837 E27.81169
G1 X131.827 Y139.453 E28.01671
G1 X120.027 Y139.453 E28.73163
G1 X120.027 Y144.239 E29.0216
G1 X124.329 Y148.539 E29.39012
G1 X124.495 Y148.743 E29.40606
G1 X124.656 Y149.039 E29.42647
G1 X124.812 Y149.502 E29.45607
G1 X124.842 Y149.818 E29.4753
G1 X124.842 Y151.662 E29.58703
G1 X124.822 Y151.883 E29.60047
G1 X124.662 Y152.368 E29.63141
G1 X124.581 Y152.529 E29.64233
G1 X124.118 Y153.087 E29.68626
G1 X124.134 Y153.135 E29.68933
G1 X126.31 Y153.136 E29.82116
G0 F1620 X127.673 Y153.136
G0 F6000 X127.825 Y152.384
G1 F1800 X127.687 Y152.11 E29.83975
G1 X127.61 Y151.822 E29.85781
G1 X127.602 Y151.619 E29.87012
G1 X127.602 Y149.862 E29.97657
G1 X127.678 Y149.505 E29.99869
G1 X127.849 Y149.166 E30.02169
G1 X128.02 Y148.977 E30.03713
G1 X132.487 Y144.512 E30.41979
G1 X132.487 Y142.837 E30.52127
G1 X132.487 Y138.793 E30.76629
G1 X119.367 Y138.793 E31.56118
G1 X119.367 Y144.512 E31.90768
G1 X123.851 Y148.994 E32.29179
G1 X124.047 Y149.294 E32.3135
G1 X124.164 Y149.628 E32.33495
G1 X124.182 Y149.888 E32.35074
G1 X124.182 Y151.645 E32.45719
G1 X124.074 Y152.069 E32.4837
G1 X123.715 Y152.564 E32.52074
G1 X123.414 Y152.723 E32.54137
G1 X122.992 Y152.808 E32.56745
G1 X122.862 Y152.808 E32.57533
G1 X123.649 Y153.593 E32.64267
G1 X123.85 Y153.795 E32.65994
G1 X128.004 Y153.795 E32.91161
G1 X128.834 Y152.965 E32.98273
G0 F1620 X128.921 Y152.878
G0 X128.341 Y152.771
G0 X128.088 Y152.635
G0 X127.825 Y152.384
G1 F2100 E27.98273
G1 F300 Z0.56
G0 F6000 X123.521 Y151.652 Z0.56
;TYPE:WALL-OUTER
G1 F300 Z0.24
G1 F2100 E32.98273
G1 F1800 X123.405 Y151.93 E33.00078
G1 X123.212 Y152.095 E33.016
G1 X122.992 Y152.148 E33.02956
G1 X121.522 Y152.148 E33.11765
G1 X121.522 Y152.401 E33.13282
G1 X123.577 Y154.455 E33.30694
G1 X128.278 Y154.455 E33.58866
G1 X130.262 Y152.471 E33.75681
G1 X130.262 Y152.218 E33.77197
G1 X128.791 Y152.218 E33.86012
G1 X128.48 Y152.101 E33.88004
G1 X128.315 Y151.908 E33.89525
G1 X128.262 Y151.619 E33.91286
G1 X128.262 Y149.879 E34.01713
G1 X128.346 Y149.619 E34.03351
G1 X128.486 Y149.444 E34.04694
G1 X133.147 Y144.786 E34.44184
G1 X133.147 Y142.837 E34.55864
G1 X133.147 Y138.133 E34.84054
G1 X118.707 Y138.133 E35.7059
G1 X118.707 Y144.786 E36.1046
G1 X123.373 Y149.449 E36.49992
G1 X123.497 Y149.69 E36.51617
G1 X123.522 Y149.888 E36.52813
G1 X123.521 Y150.289 E36.55216
G0 F1620 X123.521 Y151.652
G0 F6000 X123.405 Y151.93
G0 X123.391 Y151.942
G1 F2100 E31.55216
G1 F300 Z0.56
G0 F6000 X125.329 Y152.468 Z0.56
;TYPE:SKIN
G1 F300 Z0.24
G1 F2100 E36.55216
G1 F1426.2 X126.408 Y152.468 E36.63377
G1 X126.301 Y151.972 E36.67215
G1 F1452.3 X126.296 Y151.664 E36.69503
G1 F1479.5 X126.292 Y149.791 E36.83159
G1 F1567.3 X126.382 Y149.43 E36.8572
G1 F1731.8 X126.54 Y149.031 E36.88393
G1 F1800 X126.811 Y148.491 E36.92014
G1 X127.056 Y148.189 E36.94344
G1 X127.107 Y148.136 E36.94785
G1 X131.247 Y144 E37.29855
G1 X131.247 Y142.838 E37.36819
G1 X131.247 Y140.033 E37.53629
G1 X120.607 Y140.033 E38.17392
G1 X120.607 Y144 E38.41166
G1 X124.752 Y148.141 E38.76278
G1 X124.959 Y148.393 E38.78233
G1 X125.183 Y148.821 E38.81127
G1 F1789.2 X125.373 Y149.337 E38.84443
G1 F1614.1 X125.492 Y149.78 E38.87508
G1 F1477.6 X125.493 Y151.7 E39.01525
G1 F1461.3 X125.481 Y151.948 E39.03358
G1 F1436.5 X125.329 Y152.468 E39.07426
G1 F2100 E34.07426
G1 F300 Z0.56
G0 F6000 X126.047 Y149.381 Z0.56
G1 F300 Z0.24
G1 F2100 E39.07426
G1 F1800 X125.595 Y148.93 E39.11252
G0 F6000 X126.311 Y148.713
G1 F1800 X120.936 Y143.337 E39.5681
G0 F6000 X120.936 Y142.404
G1 F1800 X126.667 Y148.135 E40.05381
G0 F6000 X127.122 Y147.656
G1 F1800 X120.936 Y141.47 E40.57808
G0 F6000 X120.936 Y140.537
G1 F1800 X127.588 Y147.189 E41.14185
G0 F6000 X128.055 Y146.723
G1 F1800 X121.695 Y140.362 E41.68091
G0 F6000 X122.628 Y140.362
G1 F1800 X128.522 Y146.256 E42.18043
G0 F6000 X128.989 Y145.789
G1 F1800 X123.561 Y140.362 E42.64042
G0 F6000 X124.495 Y140.362
G1 F1800 X129.455 Y145.323 E43.06083
G0 F6000 X129.922 Y144.856
G1 F1800 X125.428 Y140.362 E43.4417
G0 F6000 X126.362 Y140.362
G1 F1800 X130.389 Y144.389 E43.78299
G0 F6000 X130.855 Y143.923
G1 F1800 X127.295 Y140.362 E44.08475
G0 F6000 X128.228 Y140.362
G1 F1800 X130.916 Y143.05 E44.31256
G0 F6000 X130.916 Y142.117
G1 F1800 X129.162 Y140.362 E44.46125
G0 F6000 X130.095 Y140.362
G1 F1800 X130.916 Y141.183 E44.53083
G1 F2100 E39.53083
G1 F300 Z0.56
;MESH:NONMESH
G0 F6000 X124.611 Y152.885 Z0.56
;TIME_ELAPSED:36.690408
;LAYER:1
M106 S21.2
;TYPE:WALL-INNER
;MESH:2020-dupont-mount-cap.2.stl
G1 F300 Z0.56
G1 F2100 E44.53083
G1 F2250 X127.121 Y152.884 E44.71516
G1 X126.939 Y152.679 E44.7353
G1 X126.708 Y151.953 E44.79125
G1 X126.692 Y151.688 E44.81074
G1 X126.692 Y149.837 E44.94668
G1 X126.762 Y149.347 E44.98303
G1 X126.92 Y148.934 E45.0155
G1 X127.115 Y148.623 E45.04246
G1 X127.307 Y148.402 E45.06396
G1 X131.577 Y144.135 E45.50727
G1 X131.577 Y142.837 E45.6026
G1 X131.577 Y139.703 E45.83275
G1 X120.278 Y139.704 E46.66253
G1 X120.278 Y144.134 E46.98787
G1 X124.513 Y148.368 E47.42765
G1 X124.699 Y148.594 E47.44915
G1 X124.886 Y148.909 E47.47605
G1 X125.035 Y149.326 E47.50857
G1 X125.092 Y149.818 E47.54494
G1 X125.092 Y151.669 E47.68088
G1 X125.073 Y151.882 E47.69658
G0 F2025 X125.069 Y151.933
G0 X124.846 Y152.61
G0 X124.611 Y152.885
G1 F2100 E42.69658
G1 F300 Z0.88
G0 F6960 X127.875 Y153.484 Z0.88
G1 F300 Z0.56
G1 F2100 E47.69658
G1 F2250 X128.32 Y153.039 E47.7428
