;FLAVOR:Marlin
;TIME:3017
;Filament used: 4.27825m
;Layer height: 0.32
;MINX:93.309
;MINY:107.749
;MINZ:0.24
;MAXX:153.502
;MAXY:193.147
;MAXZ:10.48
;Generated with Cura_SteamEngine 5.0.0
M140 S70
M105
M190 S70
M104 S245
M105
M109 S245
M82 ;absolute extrusion mode
; Ender 3 Max Custom Start G-code
G92 E0 ; Reset Extruder
G28 ; Home all axes
G1 Z2.0 F3000 ; Move Z Axis up little to prevent scratching of Heat Bed
G1 X0.1 Y20 Z0.3 F5000.0 ; Move to start position
G1 X0.1 Y200.0 Z0.3 F1500.0 E15 ; Draw the first line
G1 X0.4 Y200.0 Z0.3 F5000.0 ; Move to side a little
G1 X0.4 Y20 Z0.3 F1500.0 E30 ; Draw the second line
G92 E0 ; Reset Extruder
G1 Z2.0 F3000 ; Move Z Axis up little to prevent scratching of Heat Bed
G1 X5 Y20 Z0.3 F5000.0 ; Move over to prevent blob squish
G92 E0
G92 E0
G1 F2100 E-5
;LAYER_COUNT:32
;LAYER:0
M107
G1 F300 Z0.56
G0 F6000 X98.605 Y118.251 Z0.56
G1 F300 Z0.56
G0 F6000 X93.309 Y128.551
;TYPE:SKIRT
G1 F300 Z0.24
G1 F2100 E0
G1 F1800 X93.349 Y127.564 E0.07156
G1 X93.468 Y126.583 E0.14314
G1 X93.666 Y125.615 E0.21472
G1 X93.942 Y124.666 E0.28631
G1 X94.294 Y123.742 E0.35794
G1 X94.719 Y122.851 E0.42945
G1 X95.215 Y121.996 E0.50105
G1 X95.779 Y121.184 E0.57267
G1 X96.406 Y120.421 E0.64421
G1 X96.89 Y119.909 E0.69525
G1 X97.879 Y118.921 E0.79652
G1 X98.605 Y118.251 E0.86809
G1 X99.384 Y117.643 E0.93967
G1 X100.209 Y117.099 E1.01126
G1 X101.075 Y116.624 E1.08281
G1 X101.977 Y116.221 E1.15437
G1 X102.577 Y116.009 E1.20047
G1 X102.819 Y115.592 E1.2354
G1 X103.383 Y114.78 E1.30702
G1 X104.011 Y114.017 E1.3786
G1 X104.482 Y113.518 E1.42831
G1 X106.669 Y111.329 E1.65246
G1 X107.395 Y110.659 E1.72403
G1 X108.173 Y110.05 E1.7956
G1 X108.998 Y109.505 E1.86723
G1 X109.864 Y109.029 E1.93881
G1 X110.766 Y108.625 E2.01041
G1 X111.697 Y108.295 E2.08196
G1 X112.652 Y108.041 E2.15355
G1 X113.624 Y107.866 E2.22509
G1 X114.608 Y107.769 E2.29672
G1 X115.31 Y107.749 E2.34759
G1 X119.064 Y107.75 E2.61953
G1 X120.052 Y107.79 E2.69116
G1 X121.032 Y107.91 E2.76269
G1 X122 Y108.109 E2.83428
G1 X122.949 Y108.386 E2.90589
G1 X123.872 Y108.738 E2.97745
G1 X124.764 Y109.164 E3.04906
G1 X125.594 Y109.646 E3.11859
G1 X132.501 Y109.645 E3.61893
G1 X133.489 Y109.685 E3.69056
G1 X134.47 Y109.804 E3.76215
G1 X135.438 Y110.003 E3.83374
G1 X136.386 Y110.279 E3.90526
G1 X137.31 Y110.631 E3.97689
G1 X138.202 Y111.056 E4.04847
G1 X139.056 Y111.553 E4.12004
G1 X139.868 Y112.116 E4.19162
G1 X140.631 Y112.744 E4.26321
G1 X141.144 Y113.228 E4.3143
G1 X142.332 Y114.418 E4.43611
G1 X143.001 Y115.145 E4.50768
G1 X143.61 Y115.924 E4.57931
G1 X144.153 Y116.75 E4.65091
G1 X144.628 Y117.616 E4.72246
G1 X145.031 Y118.518 E4.79403
G1 X145.36 Y119.45 E4.86563
G1 X145.591 Y120.325 E4.93119
G1 X145.869 Y120.518 E4.9557
G1 X146.632 Y121.146 E5.02729
G1 X147.137 Y121.622 E5.07756
G1 X147.925 Y122.41 E5.15829
G1 X148.595 Y123.137 E5.22991
G1 X149.204 Y123.915 E5.30148
G1 X149.748 Y124.74 E5.37306
G1 X150.223 Y125.606 E5.44462
G1 X150.627 Y126.508 E5.51621
G1 X150.957 Y127.439 E5.58777
G1 X151.21 Y128.394 E5.65933
G1 X151.385 Y129.367 E5.73095
G1 X151.481 Y130.35 E5.8025
G1 X151.501 Y131.041 E5.85257
G1 X151.502 Y134.7 E6.11763
G1 X151.462 Y135.687 E6.18919
G1 X151.343 Y136.668 E6.26078
G1 X151.145 Y137.636 E6.33235
G1 X150.869 Y138.585 E6.40394
G1 X150.517 Y139.508 E6.4755
G1 X150.091 Y140.4 E6.54711
G1 X149.595 Y141.255 E6.61872
G1 X149.032 Y142.066 E6.69023
G1 X148.405 Y142.83 E6.76183
G1 X148.052 Y143.195 E6.79861
G1 X147.914 Y143.556 E6.82661
G1 X147.489 Y144.448 E6.89819
G1 X146.993 Y145.302 E6.96973
G1 X146.429 Y146.114 E7.04135
G1 X145.902 Y146.755 E7.10146
G1 X145.901 Y156.035 E7.77371
G1 X145.995 Y156.137 E7.78376
G1 X146.604 Y156.915 E7.85533
G1 X147.148 Y157.74 E7.92692
G1 X147.467 Y158.321 E7.97493
G1 X148.165 Y158.896 E8.04044
G1 X148.67 Y159.372 E8.09071
G1 X149.925 Y160.627 E8.21928
G1 X150.595 Y161.354 E8.2909
G1 X151.204 Y162.132 E8.36247
G1 X151.748 Y162.957 E8.43406
G1 X152.223 Y163.823 E8.50561
G1 X152.627 Y164.725 E8.57721
G1 X152.957 Y165.656 E8.64876
G1 X153.21 Y166.611 E8.72033
G1 X153.385 Y167.584 E8.79194
G1 X153.481 Y168.567 E8.86349
G1 X153.501 Y169.257 E8.9135
G1 X153.502 Y172.345 E9.13719
G1 X153.462 Y173.332 E9.20875
G1 X153.343 Y174.313 E9.28034
G1 X153.145 Y175.281 E9.35191
G1 X152.869 Y176.23 E9.4235
G1 X152.517 Y177.154 E9.49513
G1 X152.092 Y178.045 E9.56664
G1 X151.596 Y178.9 E9.63825
G1 X151.032 Y179.712 E9.70987
G1 X150.405 Y180.475 E9.78141
G1 X149.921 Y180.987 E9.83245
G1 X148.932 Y181.975 E9.93371
G1 X148.206 Y182.645 E10.00528
G1 X147.427 Y183.253 E10.07686
G1 X146.602 Y183.797 E10.14845
G1 X145.736 Y184.272 E10.22
G1 X144.834 Y184.675 E10.29157
G1 X144.234 Y184.887 E10.33766
G1 X143.992 Y185.304 E10.37259
G1 X143.428 Y186.116 E10.44421
G1 X142.8 Y186.879 E10.5158
G1 X142.329 Y187.378 E10.5655
G1 X140.142 Y189.567 E10.78966
G1 X139.416 Y190.237 E10.86122
G1 X138.638 Y190.846 E10.93279
G1 X137.813 Y191.391 E11.00442
G1 X136.947 Y191.867 E11.07601
G1 X136.045 Y192.271 E11.1476
G1 X135.114 Y192.601 E11.21915
G1 X134.159 Y192.855 E11.29074
G1 X133.187 Y193.03 E11.36228
G1 X132.203 Y193.127 E11.43391
G1 X131.501 Y193.147 E11.48479
G1 X127.747 Y193.146 E11.75673
G1 X126.759 Y193.106 E11.82836
G1 X125.779 Y192.986 E11.89988
G1 X124.811 Y192.787 E11.97147
G1 X123.862 Y192.51 E12.04308
G1 X122.939 Y192.158 E12.11464
G1 X122.047 Y191.732 E12.18625
G1 X121.217 Y191.25 E12.25578
G1 X114.31 Y191.251 E12.75613
G1 X113.322 Y191.211 E12.82776
G1 X112.341 Y191.092 E12.89934
G1 X111.373 Y190.893 E12.97093
G1 X110.425 Y190.617 E13.04246
G1 X109.501 Y190.265 E13.11408
G1 X108.609 Y189.84 E13.18566
G1 X107.755 Y189.343 E13.25724
G1 X106.943 Y188.78 E13.32882
G1 X106.18 Y188.152 E13.4004
G1 X105.667 Y187.668 E13.45149
G1 X104.479 Y186.478 E13.5733
G1 X103.81 Y185.751 E13.64487
G1 X103.201 Y184.972 E13.7165
G1 X102.658 Y184.146 E13.78811
G1 X102.183 Y183.28 E13.85966
G1 X101.78 Y182.378 E13.93122
G1 X101.451 Y181.446 E14.00282
G1 X101.22 Y180.571 E14.06838
G1 X100.942 Y180.378 E14.0929
G1 X100.179 Y179.75 E14.16448
G1 X99.674 Y179.274 E14.21475
G1 X98.886 Y178.486 E14.29548
G1 X98.216 Y177.759 E14.3671
G1 X97.607 Y176.981 E14.43867
G1 X97.063 Y176.156 E14.51026
G1 X96.588 Y175.29 E14.58181
G1 X96.184 Y174.388 E14.6534
G1 X95.854 Y173.457 E14.72496
G1 X95.601 Y172.502 E14.79653
G1 X95.426 Y171.529 E14.86814
G1 X95.33 Y170.546 E14.93969
G1 X95.31 Y169.855 E14.98977
G1 X95.309 Y166.196 E15.25483
G1 X95.349 Y165.209 E15.32638
G1 X95.468 Y164.228 E15.39797
G1 X95.666 Y163.26 E15.46954
G1 X95.942 Y162.311 E15.54114
G1 X96.294 Y161.388 E15.6127
G1 X96.72 Y160.496 E15.68431
G1 X97.216 Y159.641 E15.75591
G1 X97.779 Y158.83 E15.82743
G1 X98.406 Y158.066 E15.89902
G1 X98.759 Y157.701 E15.93581
G1 X98.897 Y157.34 E15.9638
G1 X99.322 Y156.448 E16.03538
G1 X99.818 Y155.594 E16.10692
G1 X100.382 Y154.782 E16.17854
G1 X100.909 Y154.141 E16.23865
G1 X100.91 Y144.861 E16.9109
G1 X100.816 Y144.759 E16.92095
G1 X100.207 Y143.981 E16.99252
G1 X99.663 Y143.156 E17.06411
G1 X99.344 Y142.575 E17.11212
G1 X98.646 Y142 E17.17764
G1 X98.141 Y141.524 E17.22791
G1 X96.886 Y140.269 E17.35648
G1 X96.216 Y139.542 E17.4281
G1 X95.607 Y138.764 E17.49967
G1 X95.063 Y137.939 E17.57125
G1 X94.588 Y137.073 E17.6428
G1 X94.184 Y136.171 E17.7144
G1 X93.854 Y135.24 E17.78595
G1 X93.601 Y134.285 E17.85752
G1 X93.426 Y133.312 E17.92914
G1 X93.33 Y132.329 E18.00069
G1 X93.31 Y131.639 E18.05069
G1 X93.309 Y129.914 E18.17565
G0 F1620 X93.309 Y128.551
G0 F6000 X93.969 Y128.551
G1 F1800 X94.009 Y127.591 E18.24525
G1 X94.128 Y126.637 E18.3149
G1 X94.326 Y125.697 E18.38449
G1 X94.602 Y124.776 E18.45414
G1 X94.953 Y123.881 E18.52378
G1 X95.378 Y123.019 E18.5934
G1 X95.872 Y122.195 E18.66299
G1 X96.434 Y121.415 E18.73264
G1 X97.356 Y120.376 E18.83326
G1 X98.345 Y119.388 E18.93453
G1 X99.053 Y118.737 E19.00421
G1 X99.812 Y118.148 E19.0738
G1 X100.617 Y117.624 E19.14338
G1 X101.464 Y117.169 E19.21303
G1 X102.345 Y116.785 E19.28265
G1 X103.015 Y116.558 E19.3339
G1 X103.476 Y115.792 E19.39866
G1 X104.038 Y115.012 E19.4683
G1 X104.949 Y113.985 E19.56775
G1 X107.136 Y111.796 E19.7919
G1 X107.843 Y111.145 E19.86152
G1 X108.602 Y110.555 E19.93116
G1 X109.407 Y110.03 E20.00078
G1 X110.253 Y109.574 E20.0704
G1 X111.134 Y109.189 E20.14005
G1 X112.043 Y108.88 E20.2096
G1 X112.976 Y108.647 E20.27926
G1 X113.924 Y108.492 E20.34885
G1 X115.31 Y108.409 E20.44943
G1 X119.064 Y108.41 E20.72137
G1 X120.024 Y108.45 E20.79098
G1 X120.978 Y108.57 E20.86063
G1 X121.918 Y108.769 E20.93023
G1 X122.839 Y109.045 E20.99988
G1 X123.733 Y109.397 E21.06948
G1 X124.595 Y109.822 E21.13911
G1 X125.401 Y110.306 E21.20721
G1 X132.501 Y110.305 E21.72154
G1 X133.462 Y110.345 E21.79121
G1 X134.415 Y110.464 E21.86079
G1 X135.356 Y110.663 E21.93046
G1 X136.276 Y110.939 E22.00004
G1 X137.171 Y111.29 E22.06968
G1 X138.033 Y111.715 E22.1393
G1 X138.857 Y112.21 E22.20894
G1 X139.637 Y112.771 E22.27854
G1 X140.677 Y113.695 E22.37931
G1 X141.865 Y114.885 E22.50112
G1 X142.515 Y115.593 E22.57075
G1 X143.104 Y116.352 E22.64034
G1 X143.628 Y117.158 E22.70999
G1 X144.083 Y118.004 E22.77957
G1 X144.466 Y118.886 E22.84923
G1 X144.775 Y119.796 E22.91885
G1 X145.003 Y120.715 E22.98744
G1 X145.638 Y121.173 E23.04415
G1 X146.67 Y122.089 E23.14411
G1 X147.458 Y122.877 E23.22484
G1 X148.109 Y123.584 E23.29446
G1 X148.698 Y124.343 E23.36406
G1 X149.223 Y125.148 E23.43368
G1 X149.679 Y125.994 E23.5033
G1 X150.063 Y126.875 E23.57292
G1 X150.372 Y127.785 E23.64253
G1 X150.604 Y128.718 E23.71218
G1 X150.759 Y129.666 E23.78176
G1 X150.841 Y131.041 E23.88155
G1 X150.842 Y134.7 E24.14661
G1 X150.802 Y135.66 E24.21621
G1 X150.683 Y136.614 E24.28585
G1 X150.485 Y137.554 E24.35544
G1 X150.209 Y138.475 E24.42509
G1 X149.857 Y139.369 E24.49469
G1 X149.433 Y140.231 E24.56428
G1 X148.938 Y141.055 E24.63392
G1 X148.377 Y141.835 E24.70352
G1 X147.752 Y142.566 E24.77319
G1 X147.487 Y142.829 E24.80023
G1 X147.255 Y143.417 E24.84602
G1 X146.83 Y144.279 E24.91564
G1 X146.336 Y145.103 E24.98524
G1 X145.774 Y145.883 E25.05488
G1 X145.242 Y146.483 E25.11297
G1 X145.241 Y156.293 E25.82361
G1 X145.509 Y156.584 E25.85227
G1 X146.098 Y157.343 E25.92187
G1 X146.623 Y158.148 E25.99149
G1 X146.958 Y158.77 E26.04267
G1 X147.171 Y158.923 E26.06166
G1 X148.203 Y159.839 E26.16162
G1 X149.458 Y161.094 E26.29019
G1 X150.109 Y161.801 E26.35981
G1 X150.698 Y162.56 E26.42941
G1 X151.223 Y163.365 E26.49903
G1 X151.679 Y164.211 E26.56865
G1 X152.063 Y165.092 E26.63827
G1 X152.372 Y166.002 E26.70789
G1 X152.604 Y166.935 E26.77753
G1 X152.759 Y167.883 E26.84712
G1 X152.841 Y169.257 E26.94683
G1 X152.842 Y172.345 E27.17052
G1 X152.802 Y173.305 E27.24013
G1 X152.683 Y174.259 E27.30977
G1 X152.485 Y175.199 E27.37936
G1 X152.209 Y176.12 E27.44901
G1 X151.858 Y177.015 E27.51865
G1 X151.433 Y177.877 E27.58827
G1 X150.939 Y178.701 E27.65787
G1 X150.377 Y179.481 E27.72751
G1 X149.455 Y180.52 E27.82814
G1 X148.466 Y181.508 E27.92941
G1 X147.758 Y182.159 E27.99908
G1 X146.999 Y182.748 E28.06868
G1 X146.194 Y183.272 E28.13826
G1 X145.347 Y183.727 E28.20791
G1 X144.466 Y184.111 E28.27753
G1 X143.796 Y184.338 E28.32877
G1 X143.335 Y185.104 E28.39353
G1 X142.773 Y185.884 E28.46318
G1 X141.862 Y186.911 E28.56263
G1 X139.675 Y189.1 E28.78678
G1 X138.968 Y189.751 E28.8564
G1 X138.209 Y190.341 E28.92604
G1 X137.404 Y190.866 E28.99566
G1 X136.558 Y191.322 E29.06528
G1 X135.677 Y191.707 E29.13493
G1 X134.768 Y192.016 E29.20448
G1 X133.835 Y192.249 E29.27414
G1 X132.887 Y192.404 E29.34372
G1 X131.501 Y192.487 E29.44431
G1 X127.747 Y192.486 E29.71625
G1 X126.787 Y192.446 E29.78585
G1 X125.833 Y192.326 E29.85551
G1 X124.893 Y192.127 E29.92511
G1 X123.972 Y191.851 E29.99476
G1 X123.078 Y191.499 E30.06436
G1 X122.216 Y191.074 E30.13398
G1 X121.41 Y190.59 E30.20209
G1 X114.31 Y190.591 E30.71641
G1 X113.349 Y190.551 E30.78609
G1 X112.396 Y190.432 E30.85566
G1 X111.455 Y190.233 E30.92534
G1 X110.535 Y189.957 E30.99492
G1 X109.64 Y189.606 E31.06456
G1 X108.778 Y189.181 E31.13418
G1 X107.954 Y188.686 E31.20381
G1 X107.174 Y188.125 E31.27341
G1 X106.134 Y187.201 E31.37419
G1 X104.946 Y186.011 E31.496
G1 X104.296 Y185.303 E31.56562
G1 X103.707 Y184.544 E31.63522
G1 X103.183 Y183.738 E31.70486
G1 X102.728 Y182.892 E31.77445
G1 X102.345 Y182.01 E31.8441
G1 X102.036 Y181.1 E31.91372
G1 X101.808 Y180.181 E31.98231
G1 X101.173 Y179.723 E32.03903
G1 X100.141 Y178.807 E32.13899
G1 X99.353 Y178.019 E32.21972
G1 X98.702 Y177.312 E32.28934
G1 X98.113 Y176.553 E32.35893
G1 X97.588 Y175.748 E32.42855
G1 X97.132 Y174.902 E32.49817
G1 X96.748 Y174.021 E32.56779
G1 X96.439 Y173.111 E32.63741
G1 X96.207 Y172.178 E32.70705
G1 X96.052 Y171.23 E32.77664
G1 X95.97 Y169.855 E32.87642
G1 X95.969 Y166.196 E33.14148
G1 X96.009 Y165.236 E33.21109
G1 X96.128 Y164.282 E33.28073
G1 X96.326 Y163.342 E33.35032
G1 X96.602 Y162.421 E33.41997
G1 X96.954 Y161.527 E33.48957
G1 X97.378 Y160.665 E33.55916
G1 X97.873 Y159.841 E33.62879
G1 X98.434 Y159.061 E33.69839
G1 X99.059 Y158.33 E33.76806
G1 X99.324 Y158.067 E33.79511
G1 X99.556 Y157.479 E33.8409
G1 X99.981 Y156.617 E33.91052
G1 X100.475 Y155.793 E33.98012
G1 X101.037 Y155.013 E34.04976
G1 X101.569 Y154.413 E34.10785
G1 X101.57 Y144.603 E34.81849
G1 X101.302 Y144.312 E34.84715
G1 X100.713 Y143.553 E34.91674
G1 X100.188 Y142.748 E34.98636
G1 X99.853 Y142.126 E35.03754
G1 X99.64 Y141.973 E35.05654
G1 X98.608 Y141.057 E35.1565
G1 X97.353 Y139.802 E35.28507
G1 X96.702 Y139.095 E35.35469
G1 X96.113 Y138.336 E35.42428
G1 X95.588 Y137.531 E35.4939
G1 X95.132 Y136.685 E35.56353
G1 X94.748 Y135.804 E35.63314
G1 X94.439 Y134.894 E35.70276
G1 X94.207 Y133.961 E35.77241
G1 X94.052 Y133.013 E35.84199
G1 X93.97 Y131.639 E35.9417
G1 X93.969 Y129.914 E36.06666
G0 F1620 X93.969 Y128.551
G0 F6000 X94.629 Y128.551
G1 F1800 X94.669 Y127.618 E36.13431
G1 X94.788 Y126.693 E36.20187
G1 X94.986 Y125.781 E36.26948
G1 X95.262 Y124.889 E36.33712
G1 X95.612 Y124.025 E36.40465
G1 X96.036 Y123.193 E36.47229
G1 X96.529 Y122.401 E36.53987
G1 X97.088 Y121.654 E36.60746
G1 X97.823 Y120.843 E36.68675
G1 X98.812 Y119.855 E36.78801
G1 X99.499 Y119.224 E36.85559
G1 X100.239 Y118.655 E36.92321
G1 X101.024 Y118.151 E36.99078
G1 X101.85 Y117.716 E37.05841
G1 X102.709 Y117.353 E37.12597
G1 X103.48 Y117.103 E37.18468
G1 X103.64 Y116.789 E37.21021
G1 X104.133 Y115.997 E37.27779
G1 X104.693 Y115.251 E37.34536
G1 X105.416 Y114.451 E37.42347
G1 X107.603 Y112.262 E37.64763
G1 X108.29 Y111.631 E37.7152
G1 X109.029 Y111.061 E37.78281
G1 X109.814 Y110.556 E37.85042
G1 X110.639 Y110.12 E37.91802
G1 X111.499 Y109.757 E37.98564
G1 X112.386 Y109.468 E38.05322
G1 X113.295 Y109.257 E38.12082
G1 X114.218 Y109.124 E38.18837
G1 X115.31 Y109.069 E38.26758
G1 X119.064 Y109.07 E38.53952
G1 X119.996 Y109.11 E38.6071
G1 X120.922 Y109.23 E38.67474
G1 X121.833 Y109.429 E38.74229
G1 X122.725 Y109.705 E38.80993
G1 X123.589 Y110.056 E38.87748
G1 X124.421 Y110.48 E38.94513
G1 X125.199 Y110.966 E39.01158
G1 X132.502 Y110.965 E39.54061
G1 X133.434 Y111.005 E39.60819
G1 X134.359 Y111.124 E39.67575
G1 X135.271 Y111.323 E39.74337
G1 X136.163 Y111.598 E39.81099
G1 X137.027 Y111.949 E39.87855
G1 X137.859 Y112.373 E39.94619
G1 X138.651 Y112.866 E40.01377
G1 X139.398 Y113.426 E40.0814
G1 X140.21 Y114.161 E40.16074
G1 X141.398 Y115.351 E40.28255
G1 X142.028 Y116.039 E40.35013
G1 X142.597 Y116.779 E40.41775
G1 X143.101 Y117.564 E40.48533
G1 X143.536 Y118.39 E40.55295
G1 X143.898 Y119.25 E40.62055
G1 X144.186 Y120.138 E40.68817
G1 X144.396 Y121.047 E40.75576
G1 X144.406 Y121.115 E40.76073
G1 X144.652 Y121.268 E40.78172
G1 X145.399 Y121.828 E40.84935
G1 X146.203 Y122.556 E40.92792
G1 X146.991 Y123.344 E41.00865
G1 X147.622 Y124.031 E41.07622
G1 X148.192 Y124.77 E41.14383
G1 X148.697 Y125.555 E41.21145
G1 X149.132 Y126.381 E41.27907
G1 X149.495 Y127.24 E41.34663
G1 X149.783 Y128.128 E41.41425
G1 X149.994 Y129.037 E41.48185
G1 X150.127 Y129.96 E41.54941
G1 X150.181 Y131.041 E41.62781
G1 X150.182 Y134.7 E41.89287
G1 X150.142 Y135.632 E41.96045
G1 X150.023 Y136.558 E42.02808
G1 X149.825 Y137.47 E42.09569
G1 X149.549 Y138.361 E42.16326
G1 X149.198 Y139.226 E42.23088
