;FLAVOR:Marlin
;TIME:4026
;Filament used: 5.28537m
;Layer height: 0.32
;MINX:115.65
;MINY:108.15
;MINZ:0.24
;MAXX:168.85
;MAXY:191.85
;MAXZ:12.08
;Generated with Cura_SteamEngine 5.0.0
M140 S70
M105
M190 S70
M104 S245
M105
M109 S245
M82 ;absolute extrusion mode
; Ender 3 Max Custom Start G-code
G92 E0 ; Reset Extruder
G28 ; Home all axes
G1 Z2.0 F3000 ; Move Z Axis up little to prevent scratching of Heat Bed
G1 X0.1 Y20 Z0.3 F5000.0 ; Move to start position
G1 X0.1 Y200.0 Z0.3 F1500.0 E15 ; Draw the first line
G1 X0.4 Y200.0 Z0.3 F5000.0 ; Move to side a little
G1 X0.4 Y20 Z0.3 F1500.0 E30 ; Draw the second line
G92 E0 ; Reset Extruder
G1 Z2.0 F3000 ; Move Z Axis up little to prevent scratching of Heat Bed
G1 X5 Y20 Z0.3 F5000.0 ; Move over to prevent blob squish
G92 E0
G92 E0
G1 F2100 E-5
;LAYER_COUNT:37
;LAYER:0
M107
G1 F300 Z0.56
G0 F6000 X119.565 Y112.957 Z0.56
G1 F300 Z0.56
G0 F6000 X115.654 Y122.927
;TYPE:SKIRT
G1 F300 Z0.24
G1 F2100 E0
G1 F1800 X115.716 Y121.699 E0.08907
G1 X115.76 Y121.264 E0.12074
G1 X115.899 Y120.286 E0.1923
G1 X116.099 Y119.38 E0.25951
G1 X116.508 Y118.039 E0.36107
G1 X116.625 Y117.722 E0.38555
G1 X117.091 Y116.628 E0.47169
G1 X117.199 Y116.405 E0.48964
G1 X117.784 Y115.336 E0.57792
G1 X117.913 Y115.126 E0.59577
G1 X118.555 Y114.183 E0.67841
G1 X118.706 Y113.982 E0.69662
G1 X119.4 Y113.14 E0.77566
G1 X119.565 Y112.957 E0.79351
G1 X120.405 Y112.112 E0.87983
G1 X120.587 Y111.946 E0.89767
G1 X121.673 Y111.064 E0.99902
G1 X121.942 Y110.87 E1.02304
G1 X122.972 Y110.203 E1.11194
G1 X123.183 Y110.081 E1.12959
G1 X124.261 Y109.527 E1.21739
G1 X124.493 Y109.422 E1.23584
G1 X125.578 Y108.992 E1.32038
G1 X125.815 Y108.911 E1.33853
G1 X126.897 Y108.596 E1.42016
G1 X127.133 Y108.539 E1.43775
G1 X128.3 Y108.317 E1.5238
G1 X128.549 Y108.282 E1.54202
G1 X129.637 Y108.178 E1.62119
G1 X130.514 Y108.15 E1.68476
G1 X138.578 Y108.154 E2.26892
G1 X139.79 Y108.215 E2.35683
G1 X140.219 Y108.258 E2.38806
G1 X141.197 Y108.396 E2.45961
G1 X142.098 Y108.594 E2.52643
G1 X142.248 Y108.639 E2.53778
G1 X142.633 Y108.539 E2.56659
G1 X143.8 Y108.317 E2.65265
G1 X144.049 Y108.282 E2.67086
G1 X145.137 Y108.178 E2.75004
G1 X146.014 Y108.15 E2.8136
G1 X154.078 Y108.154 E3.39776
G1 X155.29 Y108.215 E3.48567
G1 X155.719 Y108.258 E3.5169
G1 X156.697 Y108.396 E3.58845
G1 X157.598 Y108.594 E3.65528
G1 X158.912 Y108.99 E3.75469
G1 X159.225 Y109.104 E3.77882
G1 X160.41 Y109.608 E3.87211
G1 X160.637 Y109.719 E3.89041
G1 X161.664 Y110.284 E3.97532
G1 X161.874 Y110.413 E3.99318
G1 X162.817 Y111.055 E4.07582
G1 X163.018 Y111.206 E4.09403
G1 X163.86 Y111.9 E4.17307
G1 X164.043 Y112.065 E4.19092
G1 X164.888 Y112.905 E4.27723
G1 X165.054 Y113.087 E4.29508
G1 X165.928 Y114.162 E4.39544
G1 X166.121 Y114.429 E4.41931
G1 X166.8 Y115.476 E4.50971
G1 X166.923 Y115.689 E4.52752
G1 X167.473 Y116.761 E4.6148
G1 X167.578 Y116.993 E4.63325
G1 X168.003 Y118.063 E4.71665
G1 X168.084 Y118.299 E4.73473
G1 X168.406 Y119.408 E4.81838
G1 X168.463 Y119.645 E4.83604
G1 X168.681 Y120.787 E4.92026
G1 X168.716 Y121.034 E4.93833
G1 X168.822 Y122.135 E5.01846
G1 X168.85 Y123.007 E5.08166
G1 X168.846 Y177.073 E8.99823
G1 X168.785 Y178.29 E9.0865
G1 X168.742 Y178.719 E9.11774
G1 X168.604 Y179.697 E9.18928
G1 X168.41 Y180.581 E9.25485
G1 X168.015 Y181.897 E9.35438
G1 X167.901 Y182.211 E9.37858
G1 X167.392 Y183.408 E9.4728
G1 X167.28 Y183.637 E9.49127
G1 X166.716 Y184.664 E9.57615
G1 X166.587 Y184.874 E9.594
G1 X165.945 Y185.817 E9.67664
G1 X165.794 Y186.018 E9.69485
G1 X165.1 Y186.86 E9.7739
G1 X164.935 Y187.043 E9.79174
G1 X164.095 Y187.888 E9.87806
G1 X163.913 Y188.054 E9.8959
G1 X162.827 Y188.936 E9.99725
G1 X162.558 Y189.13 E10.02127
G1 X161.528 Y189.797 E10.11017
G1 X161.317 Y189.919 E10.12782
G1 X160.239 Y190.473 E10.21562
G1 X160.007 Y190.578 E10.23407
G1 X158.922 Y191.008 E10.31861
G1 X158.685 Y191.089 E10.33676
G1 X157.603 Y191.404 E10.41839
G1 X157.367 Y191.461 E10.43598
G1 X156.2 Y191.683 E10.52203
G1 X155.951 Y191.718 E10.54025
G1 X154.863 Y191.822 E10.61942
G1 X153.986 Y191.85 E10.68299
G1 X145.922 Y191.846 E11.26715
G1 X144.71 Y191.785 E11.35506
G1 X144.281 Y191.742 E11.38629
G1 X143.303 Y191.604 E11.45784
G1 X142.402 Y191.406 E11.52466
G1 X142.252 Y191.361 E11.53601
G1 X141.867 Y191.461 E11.56482
G1 X140.7 Y191.683 E11.65088
G1 X140.451 Y191.718 E11.66909
G1 X139.363 Y191.822 E11.74827
G1 X138.486 Y191.85 E11.81183
G1 X130.422 Y191.846 E12.39599
G1 X129.21 Y191.785 E12.4839
G1 X128.781 Y191.742 E12.51513
G1 X127.803 Y191.604 E12.58668
G1 X126.902 Y191.406 E12.65351
G1 X125.588 Y191.01 E12.75292
G1 X125.275 Y190.896 E12.77706
G1 X124.09 Y190.392 E12.87034
G1 X123.863 Y190.281 E12.88864
G1 X122.836 Y189.716 E12.97356
G1 X122.626 Y189.587 E12.99141
G1 X121.676 Y188.939 E13.07471
G1 X121.474 Y188.787 E13.09303
G1 X120.636 Y188.097 E13.17166
G1 X120.452 Y187.931 E13.18961
G1 X119.608 Y187.091 E13.27587
G1 X119.443 Y186.91 E13.29361
G1 X118.558 Y185.819 E13.39538
G1 X118.365 Y185.551 E13.4193
G1 X117.699 Y184.522 E13.5081
G1 X117.576 Y184.309 E13.52591
G1 X117.026 Y183.237 E13.6132
G1 X116.921 Y183.005 E13.63164
G1 X116.486 Y181.906 E13.71726
G1 X116.406 Y181.671 E13.73525
G1 X116.096 Y180.603 E13.81581
G1 X116.039 Y180.367 E13.83339
G1 X115.817 Y179.2 E13.91945
G1 X115.782 Y178.951 E13.93766
G1 X115.679 Y177.868 E14.01647
G1 X115.65 Y176.993 E14.07989
G1 X115.654 Y124.29 E17.89773
G0 F1620 X115.654 Y122.927
G0 F6000 X116.314 Y122.927
G1 F1800 X116.373 Y121.766 E17.98194
G1 X116.417 Y121.331 E18.01361
G1 X116.553 Y120.379 E18.08328
G1 X116.741 Y119.536 E18.14584
G1 X117.127 Y118.268 E18.24186
G1 X117.244 Y117.951 E18.26634
G1 X117.685 Y116.916 E18.34784
G1 X117.793 Y116.693 E18.36578
G1 X118.347 Y115.682 E18.4493
G1 X118.476 Y115.472 E18.46715
G1 X119.083 Y114.58 E18.54531
G1 X119.234 Y114.379 E18.56352
G1 X119.89 Y113.582 E18.6383
G1 X120.055 Y113.399 E18.65615
G1 X120.85 Y112.599 E18.73785
G1 X121.032 Y112.433 E18.75569
G1 X122.059 Y111.599 E18.85153
G1 X122.328 Y111.405 E18.87556
G1 X123.303 Y110.774 E18.95969
G1 X123.514 Y110.652 E18.97734
G1 X124.533 Y110.129 E19.06031
G1 X124.765 Y110.024 E19.07876
G1 X125.792 Y109.617 E19.15879
G1 X126.029 Y109.536 E19.17693
G1 X127.052 Y109.238 E19.25412
G1 X127.288 Y109.181 E19.27171
G1 X128.392 Y108.97 E19.35313
G1 X128.641 Y108.935 E19.37134
G1 X129.67 Y108.838 E19.44621
G1 X130.514 Y108.81 E19.50739
G1 X138.578 Y108.814 E20.09155
G1 X139.724 Y108.872 E20.17467
G1 X140.153 Y108.915 E20.2059
G1 X141.104 Y109.05 E20.27549
G1 X141.943 Y109.235 E20.33772
G1 X142.247 Y109.327 E20.36073
G1 X142.552 Y109.238 E20.38375
G1 X142.788 Y109.181 E20.40134
G1 X143.892 Y108.97 E20.48276
G1 X144.141 Y108.935 E20.50097
G1 X145.17 Y108.838 E20.57584
G1 X146.014 Y108.81 E20.63702
G1 X154.078 Y108.814 E21.22118
G1 X155.224 Y108.872 E21.3043
G1 X155.653 Y108.915 E21.33553
G1 X156.604 Y109.05 E21.40512
G1 X157.443 Y109.235 E21.46735
G1 X158.686 Y109.61 E21.56141
G1 X158.999 Y109.724 E21.58554
G1 X160.12 Y110.201 E21.67379
G1 X160.347 Y110.312 E21.69209
G1 X161.318 Y110.847 E21.7724
G1 X161.528 Y110.976 E21.79026
G1 X162.42 Y111.583 E21.86842
G1 X162.621 Y111.734 E21.88663
G1 X163.418 Y112.39 E21.9614
G1 X163.601 Y112.555 E21.97925
G1 X164.401 Y113.35 E22.06096
G1 X164.567 Y113.532 E22.0788
G1 X165.394 Y114.549 E22.17376
G1 X165.587 Y114.816 E22.19762
G1 X166.228 Y115.806 E22.28306
G1 X166.351 Y116.019 E22.30088
G1 X166.871 Y117.033 E22.38343
G1 X166.976 Y117.265 E22.40187
G1 X167.378 Y118.278 E22.48082
G1 X167.459 Y118.514 E22.4989
G1 X167.765 Y119.562 E22.57798
G1 X167.822 Y119.799 E22.59564
G1 X168.028 Y120.88 E22.67536
G1 X168.063 Y121.127 E22.69343
G1 X168.162 Y122.168 E22.76918
G1 X168.19 Y123.007 E22.82999
G1 X168.186 Y177.073 E26.74657
G1 X168.128 Y178.224 E26.83005
G1 X168.085 Y178.653 E26.86128
G1 X167.95 Y179.604 E26.93087
G1 X167.769 Y180.427 E26.99191
G1 X167.395 Y181.672 E27.08608
G1 X167.281 Y181.986 E27.11028
G1 X166.8 Y183.119 E27.19944
G1 X166.688 Y183.348 E27.21791
G1 X166.153 Y184.318 E27.29816
G1 X166.024 Y184.528 E27.31601
G1 X165.417 Y185.42 E27.39417
G1 X165.266 Y185.621 E27.41238
G1 X164.61 Y186.418 E27.48716
G1 X164.445 Y186.601 E27.50501
G1 X163.65 Y187.401 E27.58671
G1 X163.468 Y187.567 E27.60455
G1 X162.441 Y188.401 E27.70039
G1 X162.172 Y188.595 E27.72442
G1 X161.197 Y189.226 E27.80855
G1 X160.986 Y189.348 E27.8262
G1 X159.967 Y189.871 E27.90917
G1 X159.735 Y189.976 E27.92762
G1 X158.708 Y190.383 E28.00765
G1 X158.471 Y190.464 E28.02579
G1 X157.448 Y190.762 E28.10298
G1 X157.212 Y190.819 E28.12057
G1 X156.108 Y191.03 E28.20199
G1 X155.859 Y191.065 E28.2202
G1 X154.83 Y191.162 E28.29507
G1 X153.986 Y191.19 E28.35625
G1 X145.922 Y191.186 E28.94041
G1 X144.776 Y191.128 E29.02353
G1 X144.347 Y191.085 E29.05476
G1 X143.396 Y190.95 E29.12435
G1 X142.557 Y190.765 E29.18658
G1 X142.253 Y190.673 E29.20959
G1 X141.948 Y190.762 E29.23261
G1 X141.712 Y190.819 E29.2502
G1 X140.608 Y191.03 E29.33162
G1 X140.359 Y191.065 E29.34983
G1 X139.33 Y191.162 E29.4247
G1 X138.486 Y191.19 E29.48588
G1 X130.422 Y191.186 E30.07004
G1 X129.276 Y191.128 E30.15316
G1 X128.847 Y191.085 E30.18439
G1 X127.896 Y190.95 E30.25398
G1 X127.057 Y190.765 E30.31621
G1 X125.814 Y190.39 E30.41027
G1 X125.501 Y190.276 E30.4344
G1 X124.38 Y189.799 E30.52265
G1 X124.153 Y189.688 E30.54095
G1 X123.182 Y189.153 E30.62126
G1 X122.972 Y189.024 E30.63912
G1 X122.072 Y188.412 E30.71796
G1 X121.87 Y188.26 E30.73627
G1 X121.078 Y187.607 E30.81063
G1 X120.894 Y187.441 E30.82858
G1 X120.095 Y186.646 E30.91023
G1 X119.93 Y186.465 E30.92797
G1 X119.093 Y185.434 E31.02417
G1 X118.9 Y185.166 E31.0481
G1 X118.271 Y184.192 E31.13209
G1 X118.148 Y183.979 E31.14991
G1 X117.628 Y182.965 E31.23246
G1 X117.523 Y182.733 E31.25091
G1 X117.111 Y181.693 E31.33194
G1 X117.031 Y181.458 E31.34992
G1 X116.738 Y180.448 E31.4261
G1 X116.681 Y180.212 E31.44369
G1 X116.47 Y179.108 E31.52511
G1 X116.435 Y178.859 E31.54333
G1 X116.338 Y177.834 E31.61791
G1 X116.31 Y176.993 E31.67887
G1 X116.314 Y124.29 E35.4967
G0 F1620 X116.314 Y122.927
G0 F6000 X116.974 Y122.927
G1 F1800 X117.029 Y121.832 E35.57613
G1 X117.073 Y121.397 E35.6078
G1 X117.207 Y120.474 E35.67536
G1 X117.382 Y119.692 E35.73341
G1 X117.747 Y118.496 E35.824
G1 X117.864 Y118.179 E35.84847
G1 X118.279 Y117.203 E35.9253
G1 X118.387 Y116.98 E35.94325
G1 X118.909 Y116.027 E36.02196
G1 X119.038 Y115.817 E36.03982
G1 X119.61 Y114.976 E36.1135
G1 X119.761 Y114.775 E36.13171
G1 X120.38 Y114.024 E36.20221
G1 X120.545 Y113.841 E36.22006
G1 X121.294 Y113.087 E36.29705
G1 X121.476 Y112.921 E36.31489
G1 X122.445 Y112.134 E36.40532
G1 X122.714 Y111.94 E36.42935
G1 X123.633 Y111.345 E36.50865
G1 X123.844 Y111.223 E36.52631
G1 X124.805 Y110.73 E36.60455
G1 X125.037 Y110.625 E36.623
G1 X126.005 Y110.241 E36.69844
G1 X126.242 Y110.16 E36.71658
G1 X127.207 Y109.879 E36.78939
G1 X127.443 Y109.822 E36.80698
G1 X128.484 Y109.624 E36.88374
G1 X128.733 Y109.589 E36.90196
G1 X129.703 Y109.497 E36.97254
G1 X130.513 Y109.47 E37.03125
G1 X138.577 Y109.474 E37.61541
G1 X139.658 Y109.528 E37.69381
G1 X140.087 Y109.571 E37.72505
G1 X141.011 Y109.704 E37.79267
G1 X141.788 Y109.877 E37.85034
G1 X142.242 Y110.014 E37.88469
G1 X142.707 Y109.879 E37.91976
G1 X142.943 Y109.822 E37.93735
G1 X143.984 Y109.624 E38.01412
G1 X144.233 Y109.589 E38.03233
G1 X145.203 Y109.497 E38.10291
G1 X146.013 Y109.47 E38.16162
G1 X154.077 Y109.474 E38.74578
G1 X155.158 Y109.528 E38.82419
G1 X155.587 Y109.571 E38.85542
G1 X156.511 Y109.704 E38.92305
G1 X157.288 Y109.877 E38.98071
G1 X158.46 Y110.231 E39.0694
G1 X158.773 Y110.345 E39.09353
G1 X159.83 Y110.794 E39.17672
G1 X160.057 Y110.905 E39.19503
G1 X160.973 Y111.409 E39.27076
G1 X161.183 Y111.538 E39.28862
G1 X162.024 Y112.11 E39.3623
G1 X162.225 Y112.261 E39.38051
G1 X162.976 Y112.88 E39.45101
G1 X163.159 Y113.045 E39.46886
G1 X163.913 Y113.794 E39.54585
G1 X164.079 Y113.976 E39.56369
G1 X164.859 Y114.935 E39.65324
G1 X165.052 Y115.202 E39.6771
G1 X165.657 Y116.136 E39.75772
G1 X165.78 Y116.349 E39.77554
G1 X166.27 Y117.305 E39.85336
G1 X166.375 Y117.537 E39.8718
G1 X166.754 Y118.492 E39.94623
G1 X166.835 Y118.728 E39.96431
G1 X167.123 Y119.716 E40.03886
G1 X167.18 Y119.953 E40.05652
G1 X167.374 Y120.972 E40.13166
G1 X167.409 Y121.219 E40.14973
G1 X167.503 Y122.201 E40.22119
G1 X167.53 Y123.007 E40.27961
G1 X167.526 Y177.073 E44.19618
G1 X167.472 Y178.158 E44.27488
G1 X167.429 Y178.587 E44.30611
G1 X167.296 Y179.511 E44.37374
G1 X167.127 Y180.273 E44.43028
G1 X166.774 Y181.446 E44.51902
G1 X166.66 Y181.76 E44.54321
G1 X166.207 Y182.829 E44.62732
G1 X166.095 Y183.058 E44.64579
G1 X165.591 Y183.973 E44.72146
G1 X165.462 Y184.183 E44.73931
G1 X164.89 Y185.024 E44.81299
G1 X164.739 Y185.225 E44.8312
G1 X164.12 Y185.976 E44.9017
G1 X163.955 Y186.159 E44.91955
G1 X163.206 Y186.913 E44.99654
G1 X163.024 Y187.079 E45.01439
G1 X162.055 Y187.866 E45.10482
G1 X161.786 Y188.06 E45.12884
G1 X160.867 Y188.655 E45.20815
G1 X160.656 Y188.777 E45.22581
G1 X159.695 Y189.27 E45.30405
G1 X159.463 Y189.375 E45.32249
G1 X158.495 Y189.759 E45.39793
G1 X158.258 Y189.84 E45.41608
G1 X157.293 Y190.121 E45.48888
G1 X157.057 Y190.178 E45.50647
G1 X156.016 Y190.376 E45.58323
G1 X155.767 Y190.411 E45.60145
G1 X154.797 Y190.503 E45.67203
G1 X153.987 Y190.53 E45.73074
G1 X145.923 Y190.526 E46.3149
G1 X144.842 Y190.472 E46.39331
G1 X144.413 Y190.429 E46.42454
G1 X143.489 Y190.296 E46.49217
G1 X142.712 Y190.123 E46.54983
G1 X142.258 Y189.986 E46.58418
G1 X141.793 Y190.121 E46.61926
G1 X141.557 Y190.178 E46.63685
G1 X140.516 Y190.376 E46.71361
G1 X140.267 Y190.411 E46.73182
G1 X139.297 Y190.503 E46.80241
G1 X138.487 Y190.53 E46.86112
G1 X130.423 Y190.526 E47.44528
G1 X129.342 Y190.472 E47.52368
G1 X128.913 Y190.429 E47.55492
G1 X127.989 Y190.296 E47.62254
G1 X127.212 Y190.123 E47.68021
G1 X126.04 Y189.769 E47.76889
G1 X125.727 Y189.655 E47.79303
G1 X124.67 Y189.206 E47.87622
G1 X124.443 Y189.095 E47.89452
G1 X123.527 Y188.591 E47.97026
G1 X123.317 Y188.462 E47.98811
G1 X122.469 Y187.885 E48.06241
G1 X122.267 Y187.733 E48.08073
G1 X121.52 Y187.117 E48.15087
G1 X121.336 Y186.951 E48.16882
G1 X120.583 Y186.201 E48.24581
G1 X120.418 Y186.02 E48.26355
G1 X119.629 Y185.048 E48.35424
G1 X119.436 Y184.78 E48.37816
G1 X118.842 Y183.862 E48.45737
G1 X118.719 Y183.649 E48.47519
G1 X118.229 Y182.693 E48.55301
G1 X118.124 Y182.461 E48.57146
G1 X117.736 Y181.48 E48.64788
G1 X117.656 Y181.245 E48.66586
G1 X117.379 Y180.293 E48.73768
G1 X117.322 Y180.057 E48.75527
G1 X117.124 Y179.016 E48.83203
G1 X117.089 Y178.767 E48.85025
G1 X116.997 Y177.801 E48.92054
G1 X116.97 Y176.993 E48.97911
G1 X116.974 Y124.29 E52.79694
G0 F1620 X116.974 Y122.927
G0 F6000 X117.634 Y122.927
G1 F1800 X117.686 Y121.898 E52.87158
G1 X117.73 Y121.463 E52.90325
G1 X117.861 Y120.569 E52.9687
G1 X118.023 Y119.848 E53.02224
G1 X118.366 Y118.725 E53.1073
G1 X118.483 Y118.408 E53.13177
G1 X118.873 Y117.491 E53.20396
G1 X118.981 Y117.268 E53.22191
G1 X119.471 Y116.372 E53.29589
G1 X119.6 Y116.162 E53.31374
G1 X120.138 Y115.372 E53.38298
G1 X120.289 Y115.171 E53.40119
G1 X120.87 Y114.466 E53.46737
G1 X121.035 Y114.283 E53.48522
G1 X121.739 Y113.575 E53.55755
G1 X121.921 Y113.409 E53.57539
G1 X122.831 Y112.67 E53.66031
G1 X123.1 Y112.476 E53.68434
G1 X123.963 Y111.917 E53.75882
G1 X124.174 Y111.795 E53.77648
G1 X125.077 Y111.331 E53.85002
G1 X125.309 Y111.226 E53.86847
G1 X126.219 Y110.866 E53.93936
G1 X126.456 Y110.785 E53.95751
G1 X127.362 Y110.521 E54.02587
G1 X127.598 Y110.464 E54.04345
G1 X128.576 Y110.278 E54.11557
G1 X128.825 Y110.243 E54.13379
G1 X129.736 Y110.156 E54.20008
G1 X130.513 Y110.13 E54.2564
G1 X138.577 Y110.134 E54.84056
G1 X139.592 Y110.185 E54.91418
G1 X140.021 Y110.228 E54.94541
G1 X140.916 Y110.358 E55.01093
G1 X141.633 Y110.519 E55.06416
G1 X142.24 Y110.702 E55.11008
G1 X142.862 Y110.521 E55.15701
G1 X143.098 Y110.464 E55.1746
G1 X144.076 Y110.278 E55.24672
G1 X144.325 Y110.243 E55.26493
G1 X145.236 Y110.156 E55.33122
G1 X146.013 Y110.13 E55.38754
G1 X154.077 Y110.134 E55.9717
G1 X155.092 Y110.185 E56.04532
G1 X155.521 Y110.228 E56.07656
