;FLAVOR:Marlin
;TIME:2309
;Filament used: 3.84191m
;Layer height: 0.32
;MINX:94.71
;MINY:140.985
;MINZ:0.24
;MAXX:240.091
;MAXY:187.016
;MAXZ:12.4
;Generated with Cura_SteamEngine 5.0.0
M140 S70
M105
M190 S70
M104 S245
M105
M109 S245
M82 ;absolute extrusion mode
; Ender 3 Max Custom Start G-code
G92 E0 ; Reset Extruder
G28 ; Home all axes
G1 Z2.0 F3000 ; Move Z Axis up little to prevent scratching of Heat Bed
G1 X0.1 Y20 Z0.3 F5000.0 ; Move to start position
G1 X0.1 Y200.0 Z0.3 F1500.0 E15 ; Draw the first line
G1 X0.4 Y200.0 Z0.3 F5000.0 ; Move to side a little
G1 X0.4 Y20 Z0.3 F1500.0 E30 ; Draw the second line
G92 E0 ; Reset Extruder
G1 Z2.0 F3000 ; Move Z Axis up little to prevent scratching of Heat Bed
G1 X5 Y20 Z0.3 F5000.0 ; Move over to prevent blob squish
G92 E0
G92 E0
G1 F2100 E-5
;LAYER_COUNT:38
;LAYER:0
M107
G1 F300 Z0.56
G0 F6000 X110.925 Y143.703 Z0.56
G1 F300 Z0.56
G0 F6000 X106.395 Y153.194
;TYPE:SKIRT
G1 F300 Z0.24
G1 F2100 E0
G1 F1800 X106.435 Y152.207 E0.07156
G1 X106.555 Y151.226 E0.14315
G1 X106.753 Y150.258 E0.21473
G1 X107.03 Y149.309 E0.28634
G1 X107.382 Y148.386 E0.3579
G1 X107.808 Y147.494 E0.42951
G1 X108.304 Y146.64 E0.50105
G1 X108.868 Y145.828 E0.57267
G1 X109.495 Y145.065 E0.64421
G1 X110.182 Y144.355 E0.71578
G1 X110.925 Y143.703 E0.78739
G1 X111.718 Y143.113 E0.85899
G1 X112.555 Y142.589 E0.93052
G1 X113.433 Y142.135 E1.00212
G1 X114.344 Y141.753 E1.07368
G1 X115.283 Y141.446 E1.14525
G1 X116.244 Y141.215 E1.21685
G1 X117.221 Y141.064 E1.28846
G1 X118.605 Y140.985 E1.38888
G1 X216.195 Y140.985 E8.45836
G1 X217.182 Y141.025 E8.52992
G1 X218.163 Y141.145 E8.60151
G1 X219.131 Y141.343 E8.67308
G1 X220.08 Y141.62 E8.7447
G1 X221.003 Y141.972 E8.81626
G1 X221.895 Y142.397 E8.88784
G1 X222.749 Y142.893 E8.95938
G1 X223.561 Y143.457 E9.031
G1 X224.324 Y144.085 E9.10258
G1 X225.034 Y144.772 E9.17415
G1 X225.687 Y145.514 E9.24575
G1 X226.277 Y146.307 E9.31735
G1 X226.8 Y147.145 E9.38891
G1 X227.255 Y148.022 E9.46048
G1 X227.637 Y148.933 E9.53204
G1 X227.944 Y149.872 E9.60361
G1 X228.174 Y150.833 E9.67519
G1 X228.326 Y151.81 E9.74682
G1 X228.405 Y153.194 E9.84724
G1 X228.405 Y155.256 E9.99661
G1 X228.867 Y155.275 E10.0301
G1 X229.848 Y155.395 E10.1017
G1 X230.816 Y155.593 E10.17327
G1 X231.765 Y155.87 E10.24489
G1 X232.688 Y156.222 E10.31645
G1 X233.58 Y156.647 E10.38802
G1 X234.434 Y157.143 E10.45957
G1 X235.246 Y157.707 E10.53118
G1 X236.009 Y158.335 E10.60277
G1 X236.719 Y159.022 E10.67434
G1 X237.372 Y159.764 E10.74594
G1 X237.962 Y160.557 E10.81754
G1 X238.485 Y161.395 E10.8891
G1 X238.94 Y162.272 E10.96067
G1 X239.322 Y163.183 E11.03223
G1 X239.629 Y164.122 E11.1038
G1 X239.859 Y165.083 E11.17538
G1 X240.011 Y166.06 E11.247
G1 X240.09 Y167.443 E11.34735
G1 X240.091 Y174.804 E11.88059
G1 X240.051 Y175.792 E11.95222
G1 X239.932 Y176.773 E12.0238
G1 X239.733 Y177.741 E12.09539
G1 X239.457 Y178.689 E12.16692
G1 X239.105 Y179.613 E12.23854
G1 X238.68 Y180.504 E12.31005
G1 X238.184 Y181.359 E12.38166
G1 X237.62 Y182.171 E12.45328
G1 X236.992 Y182.934 E12.52486
G1 X236.305 Y183.644 E12.59643
G1 X235.563 Y184.296 E12.66799
G1 X234.771 Y184.887 E12.73957
G1 X233.933 Y185.411 E12.81117
G1 X233.056 Y185.865 E12.88271
G1 X232.144 Y186.248 E12.95436
G1 X231.205 Y186.555 E13.02593
G1 X230.244 Y186.785 E13.09751
G1 X229.268 Y186.937 E13.16906
G1 X227.881 Y187.016 E13.2697
G1 X106.92 Y187.015 E22.03218
G1 X105.933 Y186.975 E22.10374
G1 X104.952 Y186.855 E22.17534
G1 X103.984 Y186.657 E22.24691
G1 X103.035 Y186.38 E22.31853
G1 X102.112 Y186.028 E22.39009
G1 X101.22 Y185.603 E22.46166
G1 X100.365 Y185.107 E22.53327
G1 X99.554 Y184.543 E22.60483
G1 X98.791 Y183.915 E22.67641
G1 X98.081 Y183.228 E22.74798
G1 X97.428 Y182.486 E22.81958
G1 X96.838 Y181.693 E22.89118
G1 X96.314 Y180.855 E22.96278
G1 X95.86 Y179.978 E23.03432
G1 X95.478 Y179.067 E23.10588
G1 X95.171 Y178.127 E23.17751
G1 X94.941 Y177.167 E23.24902
G1 X94.789 Y176.19 E23.32065
G1 X94.71 Y174.805 E23.42114
G1 X94.71 Y167.445 E23.9543
G1 X94.75 Y166.458 E24.02586
G1 X94.87 Y165.477 E24.09746
G1 X95.068 Y164.509 E24.16903
G1 X95.345 Y163.56 E24.24064
G1 X95.697 Y162.637 E24.3122
G1 X96.122 Y161.745 E24.38378
G1 X96.618 Y160.891 E24.45532
G1 X97.182 Y160.079 E24.52694
G1 X97.81 Y159.316 E24.59853
G1 X98.497 Y158.606 E24.6701
G1 X99.239 Y157.953 E24.7417
G1 X100.032 Y157.363 E24.8133
G1 X100.87 Y156.84 E24.88486
G1 X101.747 Y156.385 E24.95643
G1 X102.658 Y156.003 E25.02799
G1 X103.597 Y155.696 E25.09955
G1 X104.558 Y155.466 E25.17113
G1 X105.535 Y155.314 E25.24276
G1 X106.395 Y155.265 E25.30516
G1 X106.395 Y154.557 E25.35645
G0 F1620 X106.395 Y153.194
G1 F2100 E20.35645
G1 F300 Z0.56
G0 F6000 X111.675 Y153.195 Z0.56
G1 F300 Z0.24
G1 F2100 E25.35645
G1 F1800 X111.715 Y152.451 E25.41042
G1 X111.835 Y151.717 E25.4643
G1 X112.032 Y150.999 E25.51823
G1 X112.306 Y150.307 E25.57215
G1 X112.652 Y149.648 E25.62607
G1 X113.066 Y149.03 E25.67995
G1 X113.545 Y148.46 E25.73389
G1 X114.082 Y147.944 E25.78784
G1 X114.671 Y147.49 E25.84171
G1 X115.306 Y147.101 E25.89565
G1 X115.979 Y146.782 E25.9496
G1 X116.682 Y146.537 E26.00353
G1 X117.407 Y146.369 E26.05745
G1 X118.146 Y146.28 E26.11137
G1 X118.605 Y146.265 E26.14463
G1 X216.195 Y146.265 E33.21411
G1 X216.938 Y146.305 E33.26801
G1 X217.673 Y146.424 E33.32195
G1 X218.391 Y146.622 E33.3759
G1 X219.083 Y146.895 E33.42979
G1 X219.742 Y147.241 E33.48371
G1 X220.36 Y147.656 E33.53763
G1 X220.93 Y148.135 E33.59157
G1 X221.445 Y148.672 E33.64547
G1 X221.9 Y149.261 E33.69938
G1 X222.289 Y149.895 E33.75327
G1 X222.608 Y150.568 E33.80722
G1 X222.853 Y151.271 E33.86115
G1 X223.021 Y151.996 E33.91506
G1 X223.11 Y152.735 E33.96898
G1 X223.125 Y153.195 E34.00232
G1 X223.126 Y161.129 E34.57706
G1 X223.398 Y161.266 E34.59913
G1 X223.893 Y161.032 E34.63879
G1 X224.596 Y160.787 E34.69272
G1 X225.321 Y160.619 E34.74663
G1 X226.06 Y160.53 E34.80055
G1 X226.52 Y160.515 E34.83389
G1 X227.88 Y160.515 E34.93241
G1 X228.623 Y160.555 E34.98631
G1 X229.358 Y160.674 E35.04025
G1 X230.076 Y160.872 E35.0942
G1 X230.768 Y161.145 E35.14809
G1 X231.427 Y161.491 E35.20201
G1 X232.045 Y161.906 E35.25593
G1 X232.615 Y162.385 E35.30987
G1 X233.13 Y162.922 E35.36377
G1 X233.585 Y163.511 E35.41768
G1 X233.974 Y164.145 E35.47157
G1 X234.293 Y164.818 E35.52552
G1 X234.538 Y165.521 E35.57945
G1 X234.706 Y166.246 E35.63336
G1 X234.795 Y166.985 E35.68728
G1 X234.81 Y167.444 E35.72055
G1 X234.811 Y174.805 E36.25378
G1 X234.771 Y175.548 E36.30768
G1 X234.652 Y176.283 E36.36162
G1 X234.454 Y177.001 E36.41558
G1 X234.181 Y177.693 E36.46946
G1 X233.835 Y178.352 E36.52338
G1 X233.42 Y178.97 E36.57731
G1 X232.942 Y179.54 E36.6312
G1 X232.405 Y180.056 E36.68515
G1 X231.816 Y180.511 E36.73906
G1 X231.181 Y180.9 E36.79301
G1 X230.509 Y181.218 E36.84686
G1 X229.806 Y181.463 E36.90079
G1 X229.081 Y181.631 E36.9547
G1 X228.342 Y181.721 E37.00863
G1 X227.881 Y181.736 E37.04204
G1 X106.92 Y181.735 E45.80453
G1 X106.177 Y181.695 E45.85843
G1 X105.442 Y181.576 E45.91237
G1 X104.724 Y181.378 E45.96632
G1 X104.032 Y181.105 E46.02021
G1 X103.373 Y180.759 E46.07413
G1 X102.755 Y180.344 E46.12805
G1 X102.185 Y179.865 E46.18199
G1 X101.67 Y179.328 E46.23589
G1 X101.215 Y178.739 E46.2898
G1 X100.826 Y178.104 E46.34375
G1 X100.507 Y177.432 E46.39763
G1 X100.262 Y176.729 E46.45156
G1 X100.094 Y176.004 E46.50547
G1 X100.005 Y175.265 E46.5594
G1 X99.99 Y174.805 E46.59274
G1 X99.99 Y167.445 E47.1259
G1 X100.03 Y166.702 E47.1798
G1 X100.149 Y165.967 E47.23374
G1 X100.347 Y165.249 E47.28769
G1 X100.62 Y164.557 E47.34158
G1 X100.966 Y163.898 E47.3955
G1 X101.381 Y163.28 E47.44942
G1 X101.86 Y162.71 E47.50336
G1 X102.397 Y162.195 E47.55726
G1 X102.986 Y161.74 E47.61117
G1 X103.62 Y161.351 E47.66506
G1 X104.293 Y161.032 E47.71901
G1 X104.996 Y160.787 E47.77294
G1 X105.721 Y160.619 E47.82685
G1 X106.46 Y160.53 E47.88077
G1 X106.92 Y160.515 E47.91411
G1 X108.28 Y160.515 E48.01263
G1 X109.023 Y160.555 E48.06653
G1 X109.758 Y160.674 E48.12047
G1 X110.476 Y160.872 E48.17442
G1 X111.168 Y161.145 E48.22831
G1 X111.399 Y161.266 E48.2472
G1 X111.674 Y161.136 E48.26923
G1 X111.675 Y154.558 E48.74575
G0 F1620 X111.675 Y153.195
G0 F6000 X112.335 Y153.195
G1 F1800 X112.375 Y152.488 E48.79705
G1 X112.494 Y151.79 E48.84834
G1 X112.692 Y151.11 E48.89964
G1 X112.965 Y150.457 E48.95092
G1 X113.309 Y149.838 E49.00222
G1 X113.721 Y149.263 E49.05346
G1 X114.196 Y148.737 E49.1048
G1 X114.726 Y148.269 E49.15602
G1 X115.306 Y147.863 E49.2073
G1 X115.929 Y147.525 E49.25865
G1 X116.585 Y147.259 E49.30993
G1 X117.267 Y147.069 E49.36121
G1 X117.966 Y146.958 E49.41248
G1 X118.605 Y146.925 E49.45884
G1 X216.195 Y146.925 E56.52831
G1 X216.902 Y146.965 E56.57961
G1 X217.6 Y147.084 E56.6309
G1 X218.28 Y147.282 E56.68221
G1 X218.933 Y147.554 E56.73345
G1 X219.551 Y147.899 E56.78472
G1 X220.127 Y148.311 E56.83602
G1 X220.652 Y148.785 E56.88726
G1 X221.121 Y149.316 E56.93858
G1 X221.527 Y149.896 E56.98987
G1 X221.865 Y150.518 E57.04115
G1 X222.131 Y151.174 E57.09243
G1 X222.32 Y151.856 E57.1437
G1 X222.432 Y152.556 E57.19505
G1 X222.465 Y153.195 E57.2414
G1 X222.466 Y161.574 E57.84838
G1 X223.019 Y161.805 E57.89179
G1 X223.399 Y162.017 E57.92332
G1 X223.843 Y161.775 E57.95995
G1 X224.499 Y161.509 E58.01123
G1 X225.181 Y161.32 E58.06249
G1 X225.881 Y161.208 E58.11385
G1 X226.52 Y161.175 E58.1602
G1 X227.88 Y161.175 E58.25872
G1 X228.587 Y161.215 E58.31001
G1 X229.285 Y161.334 E58.36131
G1 X229.965 Y161.532 E58.41261
G1 X230.618 Y161.804 E58.46386
G1 X231.236 Y162.149 E58.51513
G1 X231.812 Y162.561 E58.56643
G1 X232.337 Y163.035 E58.61767
G1 X232.806 Y163.566 E58.66899
G1 X233.212 Y164.146 E58.72028
G1 X233.55 Y164.768 E58.77156
G1 X233.816 Y165.424 E58.82284
G1 X234.005 Y166.106 E58.8741
G1 X234.117 Y166.806 E58.92546
G1 X234.15 Y167.444 E58.97173
G1 X234.151 Y174.805 E59.50497
G1 X234.111 Y175.512 E59.55627
G1 X233.992 Y176.21 E59.60756
G1 X233.795 Y176.89 E59.65884
G1 X233.522 Y177.543 E59.71012
G1 X233.178 Y178.162 E59.76142
G1 X232.765 Y178.737 E59.8127
G1 X232.291 Y179.263 E59.86399
G1 X231.761 Y179.732 E59.91526
G1 X231.181 Y180.138 E59.96655
G1 X230.559 Y180.476 E60.01783
G1 X229.902 Y180.741 E60.06915
G1 X229.22 Y180.931 E60.12043
G1 X228.521 Y181.043 E60.17171
G1 X227.881 Y181.076 E60.21814
G1 X106.92 Y181.075 E68.98062
G1 X106.213 Y181.035 E69.03192
G1 X105.515 Y180.916 E69.08321
G1 X104.835 Y180.718 E69.13452
G1 X104.182 Y180.446 E69.18576
G1 X103.564 Y180.101 E69.23703
G1 X102.988 Y179.689 E69.28833
G1 X102.463 Y179.215 E69.33957
G1 X101.994 Y178.684 E69.39089
G1 X101.588 Y178.104 E69.44218
G1 X101.25 Y177.482 E69.49346
G1 X100.984 Y176.825 E69.54481
G1 X100.795 Y176.143 E69.59607
G1 X100.683 Y175.444 E69.64736
G1 X100.65 Y174.805 E69.69371
G1 X100.65 Y167.445 E70.22687
G1 X100.69 Y166.738 E70.27817
G1 X100.809 Y166.04 E70.32946
G1 X101.007 Y165.36 E70.38077
G1 X101.279 Y164.707 E70.43201
G1 X101.624 Y164.089 E70.48328
G1 X102.036 Y163.513 E70.53458
G1 X102.51 Y162.988 E70.58582
G1 X103.041 Y162.519 E70.63714
G1 X103.621 Y162.113 E70.68843
G1 X104.243 Y161.775 E70.73971
G1 X104.899 Y161.509 E70.79099
G1 X105.581 Y161.32 E70.84226
G1 X106.281 Y161.208 E70.89361
G1 X106.92 Y161.175 E70.93996
G1 X108.28 Y161.175 E71.03848
G1 X108.987 Y161.215 E71.08978
G1 X109.685 Y161.334 E71.14107
G1 X110.365 Y161.532 E71.19238
G1 X111.018 Y161.804 E71.24362
G1 X111.399 Y162.016 E71.2752
G1 X111.843 Y161.775 E71.3118
G1 X112.334 Y161.576 E71.35018
G1 X112.335 Y154.558 E71.85857
G0 F1620 X112.335 Y153.195
G0 F6000 X112.995 Y153.195
G1 F1800 X113.035 Y152.526 E71.90712
G1 X113.154 Y151.867 E71.95563
G1 X113.351 Y151.227 E72.00413
G1 X113.623 Y150.615 E72.05265
G1 X113.966 Y150.04 E72.10115
G1 X114.375 Y149.51 E72.14965
G1 X114.844 Y149.032 E72.19816
G1 X115.367 Y148.614 E72.24666
G1 X115.936 Y148.261 E72.29516
G1 X116.543 Y147.978 E72.34368
G1 X117.179 Y147.769 E72.39218
G1 X117.836 Y147.638 E72.44071
G1 X118.605 Y147.585 E72.49655
G1 X216.195 Y147.585 E79.56602
G1 X216.863 Y147.625 E79.6145
G1 X217.522 Y147.744 E79.66301
G1 X218.162 Y147.941 E79.71152
G1 X218.774 Y148.213 E79.76003
G1 X219.35 Y148.556 E79.8086
G1 X219.88 Y148.965 E79.85709
G1 X220.358 Y149.434 E79.9056
G1 X220.776 Y149.957 E79.9541
G1 X221.129 Y150.526 E80.00261
G1 X221.412 Y151.133 E80.05113
G1 X221.621 Y151.769 E80.09962
G1 X221.752 Y152.426 E80.14815
G1 X221.805 Y153.195 E80.20399
G1 X221.806 Y162.056 E80.84589
G1 X222.249 Y162.192 E80.87946
G1 X222.861 Y162.464 E80.92797
G1 X223.404 Y162.788 E80.97378
G1 X223.851 Y162.511 E81.01187
G1 X224.458 Y162.228 E81.06039
G1 X225.094 Y162.019 E81.10888
G1 X225.751 Y161.888 E81.15741
G1 X226.52 Y161.835 E81.21325
G1 X227.88 Y161.835 E81.31177
G1 X228.548 Y161.875 E81.36025
G1 X229.207 Y161.994 E81.40876
G1 X229.847 Y162.191 E81.45727
G1 X230.459 Y162.463 E81.50578
G1 X231.035 Y162.806 E81.55435
G1 X231.565 Y163.215 E81.60284
G1 X232.043 Y163.684 E81.65135
G1 X232.461 Y164.207 E81.69985
G1 X232.814 Y164.776 E81.74836
G1 X233.097 Y165.383 E81.79687
G1 X233.306 Y166.019 E81.84537
G1 X233.437 Y166.676 E81.8939
G1 X233.49 Y167.444 E81.94967
G1 X233.491 Y174.805 E82.4829
G1 X233.451 Y175.474 E82.53145
G1 X233.332 Y176.133 E82.57996
G1 X233.135 Y176.773 E82.62847
G1 X232.863 Y177.385 E82.67699
G1 X232.521 Y177.96 E82.72545
G1 X232.112 Y178.49 E82.77395
G1 X231.643 Y178.968 E82.82246
G1 X231.12 Y179.387 E82.871
G1 X230.551 Y179.74 E82.91951
G1 X229.944 Y180.023 E82.96802
G1 X229.308 Y180.232 E83.01652
G1 X228.651 Y180.363 E83.06505
G1 X227.881 Y180.416 E83.12096
G1 X106.92 Y180.415 E91.88345
G1 X106.252 Y180.375 E91.93192
G1 X105.593 Y180.256 E91.98043
G1 X104.953 Y180.059 E92.02894
G1 X104.341 Y179.787 E92.07746
G1 X103.765 Y179.444 E92.12602
G1 X103.235 Y179.035 E92.17452
G1 X102.757 Y178.566 E92.22303
G1 X102.339 Y178.043 E92.27153
G1 X101.986 Y177.474 E92.32003
G1 X101.703 Y176.867 E92.36855
G1 X101.494 Y176.231 E92.41705
G1 X101.363 Y175.574 E92.46558
G1 X101.31 Y174.805 E92.52142
G1 X101.31 Y167.445 E93.05458
G1 X101.35 Y166.777 E93.10306
G1 X101.469 Y166.118 E93.15157
G1 X101.666 Y165.478 E93.20007
G1 X101.938 Y164.866 E93.24859
G1 X102.281 Y164.29 E93.29715
G1 X102.69 Y163.76 E93.34565
G1 X103.159 Y163.282 E93.39416
G1 X103.682 Y162.864 E93.44266
G1 X104.251 Y162.511 E93.49117
G1 X104.858 Y162.228 E93.53968
G1 X105.494 Y162.019 E93.58818
G1 X106.151 Y161.888 E93.63671
G1 X106.92 Y161.835 E93.69255
G1 X108.28 Y161.835 E93.79107
G1 X108.948 Y161.875 E93.83954
G1 X109.607 Y161.994 E93.88805
G1 X110.247 Y162.191 E93.93656
G1 X110.859 Y162.463 E93.98508
G1 X111.405 Y162.788 E94.03111
G1 X111.851 Y162.511 E94.06914
G1 X112.458 Y162.228 E94.11766
G1 X112.994 Y162.052 E94.15852
G1 X112.995 Y154.558 E94.70139
G0 F1620 X112.995 Y153.195
G0 F6000 X113.655 Y153.195
G1 F1800 X113.695 Y152.567 E94.74698
G1 X113.814 Y151.949 E94.79257
G1 X114.011 Y151.352 E94.83811
G1 X114.282 Y150.784 E94.8837
G1 X114.622 Y150.256 E94.92919
G1 X115.027 Y149.774 E94.9748
G1 X115.49 Y149.348 E95.02037
G1 X116.003 Y148.984 E95.06594
G1 X116.558 Y148.688 E95.11151
G1 X117.146 Y148.465 E95.15706
G1 X117.757 Y148.318 E95.20259
G1 X118.605 Y148.245 E95.26424
G1 X216.195 Y148.245 E102.33372
G1 X216.823 Y148.285 E102.3793
G1 X217.44 Y148.404 E102.42482
G1 X218.038 Y148.601 E102.47043
G1 X218.605 Y148.872 E102.51596
G1 X219.134 Y149.212 E102.56151
G1 X219.616 Y149.617 E102.60712
G1 X220.042 Y150.08 E102.65269
G1 X220.406 Y150.593 E102.69826
G1 X220.702 Y151.147 E102.74376
G1 X220.925 Y151.735 E102.78932
G1 X221.072 Y152.347 E102.83491
G1 X221.145 Y153.195 E102.89657
G1 X221.146 Y162.581 E103.57649
G1 X221.526 Y162.655 E103.60454
G1 X222.124 Y162.851 E103.65013
G1 X222.692 Y163.122 E103.69572
G1 X223.22 Y163.463 E103.74125
G1 X223.405 Y163.598 E103.75784
G1 X223.918 Y163.234 E103.8034
G1 X224.472 Y162.938 E103.84891
G1 X225.06 Y162.715 E103.89446
G1 X225.672 Y162.568 E103.94006
G1 X226.52 Y162.495 E104.00171
G1 X227.88 Y162.495 E104.10023
G1 X228.508 Y162.535 E104.14582
G1 X229.125 Y162.654 E104.19134
G1 X229.723 Y162.851 E104.23695
G1 X230.29 Y163.122 E104.28247
G1 X230.819 Y163.462 E104.32802
G1 X231.301 Y163.867 E104.37363
