;FLAVOR:Marlin
;TIME:6086
;Filament used: 8.53369m
;Layer height: 0.32
;MINX:89.109
;MINY:65.839
;MINZ:0.24
;MAXX:190.369
;MAXY:131.995
;MAXZ:32.56
;Generated with Cura_SteamEngine 5.4.0
M140 S80
M105
M190 S80
M104 S245
M105
M109 S245
M82 ;absolute extrusion mode
; Ender 3 Max Custom Start G-code
G92 E0 ; Reset Extruder
G28 ; Home all axes
G1 Z2.0 F3000 ; Move Z Axis up little to prevent scratching of Heat Bed
G1 X0.1 Y20 Z0.3 F5000.0 ; Move to start position
G1 X0.1 Y200.0 Z0.24 F1500.0 E15 ; Draw the first line
G1 X0.4 Y200.0 Z0.24 F5000.0 ; Move to side a little
G1 X0.4 Y20 Z0.24 F1500.0 E30 ; Draw the second line
G92 E0 ; Reset Extruder
G1 Z2.0 F3000 ; Move Z Axis up little to prevent scratching of Heat Bed
G1 X5 Y20 Z0.3 F5000.0 ; Move over to prevent blob squish
G92 E0
G92 E0
G1 F2100 E-5
;LAYER_COUNT:102
;LAYER:0
M107
G1 F300 Z0.56
G0 F6000 X98.599 Y72.403 Z0.56
;TYPE:SKIRT
G1 F300 Z0.24
G1 F2100 E0
G1 F1800 X100.5 Y69.803 E0.27998
G1 X102.843 Y67.873 E0.54386
G1 X105.125 Y66.686 E0.76746
G1 X108.058 Y65.84 E1.03282
G1 X158.78 Y65.839 E5.44202
G1 X159.437 Y65.984 E5.5005
G1 X159.931 Y65.84 E5.54523
G1 X179.075 Y65.839 E7.20939
G1 X181.519 Y66.368 E7.42677
G1 X183.674 Y67.242 E7.62892
G1 X185.696 Y68.611 E7.84119
G1 X187.6 Y70.558 E8.07791
G1 X189.409 Y73.204 E8.35654
G1 X190.369 Y77.092 E8.70467
G1 X190.369 Y81.532 E9.09064
G1 X189.96 Y84.11 E9.31754
G1 X189.232 Y86.231 E9.51248
G1 X188.138 Y88.105 E9.70111
G1 X186.383 Y90.078 E9.93065
G1 X183.793 Y91.983 E10.21014
G1 X183.588 Y92.095 E10.23045
G1 X183.07 Y92.873 E10.3117
G1 X180.794 Y95.194 E10.59428
G1 X177.769 Y97.089 E10.90457
G1 X177.769 Y107.175 E11.78134
G1 X176.696 Y110.466 E12.08224
G1 X168.811 Y124.128 E13.45346
G1 X168.495 Y125.018 E13.53556
G1 X166.473 Y128.06 E13.85309
G1 X163.672 Y130.254 E14.16238
G1 X160.91 Y131.46 E14.42437
G1 X158.345 Y131.995 E14.65214
G1 X127.681 Y131.995 E17.31772
G1 X125.04 Y131.429 E17.55251
G1 X122.638 Y130.354 E17.78127
G1 X120.858 Y129.134 E17.96886
G1 X119.433 Y127.694 E18.14497
G1 X119.219 Y127.988 E18.17658
G1 X117.082 Y129.881 E18.42475
G1 X114.623 Y131.191 E18.66694
G1 X111.594 Y131.994 E18.93935
G1 X106.909 Y131.995 E19.34661
G1 X103.95 Y131.091 E19.61557
G1 X101.821 Y130.016 E19.82289
G1 X99.909 Y128.467 E20.0368
G1 X97.797 Y125.887 E20.32664
G1 X96.565 Y122.828 E20.61331
G1 X96.109 Y120.49 E20.82038
G1 X96.109 Y114.381 E21.35142
G1 X90.182 Y104.109 E22.38234
G1 X89.109 Y100.818 E22.68324
G1 X89.109 Y87.826 E23.81262
G1 X89.675 Y85.185 E24.04741
G1 X90.75 Y82.783 E24.27617
G1 X91.97 Y81.003 E24.46376
G1 X93.55 Y79.441 E24.6569
G1 X96.392 Y77.579 E24.95225
G1 X97.118 Y77.389 E25.01749
G1 X97.538 Y75.114 E25.21859
G1 X98.103 Y73.672 E25.35322
G0 F1620 X98.599 Y72.403
G0 F6000 X99.182 Y72.724
G1 F1800 X100.985 Y70.258 E25.61877
G1 X103.206 Y68.429 E25.86888
G1 X105.375 Y67.301 E26.0814
G1 X108.151 Y66.5 E26.33256
G1 X158.706 Y66.499 E30.72724
G1 X159.459 Y66.665 E30.79427
G1 X160.026 Y66.5 E30.8456
G1 X179.004 Y66.499 E32.49533
G1 X181.322 Y67.001 E32.70151
G1 X183.365 Y67.829 E32.89313
G1 X185.27 Y69.119 E33.09313
G1 X187.085 Y70.975 E33.31879
G1 X188.797 Y73.479 E33.58247
G1 X189.709 Y77.173 E33.91323
G1 X189.709 Y81.478 E34.28746
G1 X189.316 Y83.953 E34.5053
G1 X188.63 Y85.953 E34.6891
G1 X187.601 Y87.715 E34.86648
G1 X185.936 Y89.587 E35.08426
G1 X183.402 Y91.451 E35.35771
G1 X183.136 Y91.584 E35.38357
G1 X182.555 Y92.456 E35.47465
G1 X180.377 Y94.677 E35.74506
G1 X177.382 Y96.553 E36.05227
G1 X177.109 Y96.659 E36.07773
G1 X177.109 Y107.068 E36.98257
G1 X176.089 Y110.197 E37.26866
G1 X168.21 Y123.847 E38.63872
G1 X167.901 Y124.719 E38.71914
G1 X165.983 Y127.605 E39.02037
G1 X163.33 Y129.683 E39.31331
G1 X160.708 Y130.828 E39.56202
G1 X158.277 Y131.335 E39.77789
G1 X127.749 Y131.335 E42.43165
G1 X125.247 Y130.799 E42.65408
G1 X122.961 Y129.776 E42.87179
G1 X121.283 Y128.626 E43.04863
G1 X119.802 Y127.129 E43.23168
G1 X119.435 Y126.569 E43.28988
G1 X118.728 Y127.541 E43.39436
G1 X116.703 Y129.335 E43.62954
G1 X114.379 Y130.573 E43.85844
G1 X111.508 Y131.334 E44.11663
G1 X107.007 Y131.335 E44.5079
G1 X104.196 Y130.476 E44.76341
G1 X102.185 Y129.461 E44.95922
G1 X100.376 Y127.995 E45.16163
G1 X98.371 Y125.546 E45.43677
G1 X97.201 Y122.641 E45.70901
G1 X96.769 Y120.426 E45.90518
G1 X96.769 Y114.203 E46.44614
G1 X90.789 Y103.84 E47.48621
G1 X89.769 Y100.711 E47.7723
G1 X89.769 Y87.894 E48.88646
G1 X90.305 Y85.392 E49.10889
G1 X91.328 Y83.106 E49.3266
G1 X92.478 Y81.428 E49.50344
G1 X93.965 Y79.958 E49.6852
G1 X96.665 Y78.19 E49.96575
G1 X97.77 Y77.899 E50.06508
G1 X97.77 Y77.473 E50.10211
G1 X98.176 Y75.296 E50.29462
G1 X98.686 Y73.993 E50.41625
G0 F1620 X99.182 Y72.724
G0 F6000 X99.767 Y73.042
G1 F1800 X101.468 Y70.715 E50.66682
G1 X103.573 Y68.982 E50.90384
G1 X105.62 Y67.917 E51.10442
G1 X108.244 Y67.16 E51.34183
G1 X158.637 Y67.159 E55.72242
G1 X159.484 Y67.346 E55.79783
G1 X160.122 Y67.16 E55.85559
G1 X178.933 Y67.159 E57.49081
G1 X181.125 Y67.634 E57.68578
G1 X183.056 Y68.416 E57.86688
G1 X184.844 Y69.627 E58.05461
G1 X186.57 Y71.392 E58.2692
G1 X188.185 Y73.754 E58.51794
G1 X189.049 Y77.254 E58.83132
G1 X189.049 Y81.425 E59.1939
G1 X188.673 Y83.795 E59.4025
G1 X188.028 Y85.675 E59.57527
G1 X187.064 Y87.325 E59.74139
G1 X185.489 Y89.096 E59.94741
G1 X183.011 Y90.919 E60.21484
G1 X182.694 Y91.058 E60.24493
G1 X182.04 Y92.039 E60.34742
G1 X179.96 Y94.16 E60.60565
G1 X177.032 Y95.994 E60.90599
G1 X176.449 Y96.165 E60.9588
G1 X176.449 Y106.964 E61.89755
G1 X175.484 Y109.924 E62.16818
G1 X167.609 Y123.567 E63.53754
G1 X167.307 Y124.42 E63.61621
G1 X165.493 Y127.15 E63.90113
G1 X162.988 Y129.112 E64.17773
G1 X160.506 Y130.196 E64.41317
G1 X158.209 Y130.675 E64.61714
G1 X127.817 Y130.675 E67.25908
G1 X125.454 Y130.169 E67.46915
G1 X123.284 Y129.198 E67.6758
G1 X121.708 Y128.118 E67.84189
G1 X120.319 Y126.713 E68.01363
G1 X119.464 Y125.407 E68.14932
G1 X118.237 Y127.094 E68.33066
G1 X116.324 Y128.789 E68.55284
G1 X114.135 Y129.955 E68.76844
G1 X111.422 Y130.674 E69.01242
G1 X107.105 Y130.675 E69.38769
G1 X104.444 Y129.862 E69.62956
G1 X102.545 Y128.903 E69.81449
G1 X100.845 Y127.526 E70.00467
G1 X98.945 Y125.205 E70.26541
G1 X97.837 Y122.454 E70.52322
G1 X97.429 Y120.362 E70.7085
G1 X97.429 Y114.025 E71.25937
G1 X91.394 Y103.567 E72.30898
G1 X90.429 Y100.607 E72.57962
G1 X90.429 Y87.962 E73.67883
G1 X90.935 Y85.599 E73.8889
G1 X91.906 Y83.429 E74.09556
G1 X92.986 Y81.853 E74.26164
G1 X94.382 Y80.473 E74.43228
G1 X96.936 Y78.801 E74.69764
G1 X98.429 Y78.408 E74.83184
G1 X98.43 Y77.535 E74.90773
G1 X98.813 Y75.48 E75.08945
G1 X99.271 Y74.311 E75.19859
G0 F1620 X99.767 Y73.042
G0 F6000 X100.352 Y73.36
G1 F1800 X101.95 Y71.174 E75.43397
G1 X103.943 Y69.533 E75.65839
G1 X105.865 Y68.533 E75.84673
G1 X108.337 Y67.82 E76.07038
G1 X158.563 Y67.819 E80.43646
G1 X159.506 Y68.027 E80.5204
G1 X160.217 Y67.82 E80.58478
G1 X178.862 Y67.819 E82.20556
G1 X180.928 Y68.267 E82.38933
G1 X182.743 Y69.002 E82.55955
G1 X184.421 Y70.138 E82.7357
G1 X186.055 Y71.809 E82.93887
G1 X187.573 Y74.029 E83.17265
G1 X188.389 Y77.335 E83.46866
G1 X188.389 Y81.371 E83.8195
G1 X188.029 Y83.638 E84.01904
G1 X187.426 Y85.397 E84.18068
G1 X186.527 Y86.935 E84.33555
G1 X185.042 Y88.605 E84.52981
G1 X182.62 Y90.387 E84.7912
G1 X182.272 Y90.502 E84.82306
G1 X181.525 Y91.622 E84.94009
G1 X179.543 Y93.643 E85.18615
G1 X176.76 Y95.386 E85.47161
G1 X175.789 Y95.672 E85.5596
G1 X175.789 Y106.86 E86.53216
G1 X174.879 Y109.651 E86.78735
G1 X167.008 Y123.288 E88.15608
G1 X166.712 Y124.123 E88.23309
G1 X165.003 Y126.695 E88.50153
G1 X162.646 Y128.541 E88.76178
G1 X160.304 Y129.564 E88.98394
G1 X158.141 Y130.015 E89.17601
G1 X127.885 Y130.015 E91.80613
G1 X125.661 Y129.539 E92.00384
G1 X123.607 Y128.62 E92.19945
G1 X122.133 Y127.61 E92.35477
G1 X120.834 Y126.296 E92.51539
G1 X119.408 Y124.115 E92.74191
G1 X119.157 Y124.707 E92.79781
G1 X117.746 Y126.647 E93.00634
G1 X115.945 Y128.243 E93.21552
G1 X113.891 Y129.337 E93.41782
G1 X111.336 Y130.014 E93.64759
G1 X107.203 Y130.015 E94.00686
G1 X104.69 Y129.247 E94.23529
G1 X102.909 Y128.348 E94.40872
G1 X101.312 Y127.054 E94.58739
G1 X99.519 Y124.864 E94.83343
G1 X98.473 Y122.267 E95.07681
G1 X98.089 Y120.298 E95.2512
G1 X98.089 Y113.847 E95.81197
G1 X91.999 Y103.294 E96.87113
G1 X91.089 Y100.503 E97.12632
G1 X91.089 Y88.03 E98.21058
G1 X91.565 Y85.806 E98.40828
G1 X92.484 Y83.752 E98.60389
G1 X93.494 Y82.278 E98.75922
G1 X94.799 Y80.988 E98.91873
G1 X97.207 Y79.412 E99.1689
G1 X99.089 Y78.916 E99.33809
G1 X99.09 Y77.597 E99.45275
G1 X99.45 Y75.664 E99.62367
G1 X99.856 Y74.629 E99.72032
G0 F1620 X100.352 Y73.36
G0 F6000 X100.935 Y73.681
G1 F1800 X102.433 Y71.632 E99.94096
G1 X104.313 Y70.084 E100.15266
G1 X106.11 Y69.149 E100.32875
G1 X108.43 Y68.48 E100.53864
G1 X158.494 Y68.479 E104.89064
G1 X159.531 Y68.708 E104.98295
G1 X160.313 Y68.48 E105.05376
G1 X178.791 Y68.479 E106.66003
G1 X180.731 Y68.9 E106.8326
G1 X182.434 Y69.589 E106.99229
G1 X183.995 Y70.646 E107.15617
G1 X185.54 Y72.226 E107.34827
G1 X186.961 Y74.304 E107.56711
G1 X187.729 Y77.416 E107.84574
G1 X187.729 Y81.318 E108.18494
G1 X187.386 Y83.48 E108.37523
G1 X186.824 Y85.119 E108.52585
G1 X185.99 Y86.545 E108.66945
G1 X184.595 Y88.114 E108.85196
G1 X182.314 Y89.793 E109.09817
G1 X181.85 Y89.946 E109.14064
G1 X181.01 Y91.205 E109.2722
G1 X179.126 Y93.126 E109.5061
G1 X176.488 Y94.778 E109.77667
G1 X175.129 Y95.179 E109.89984
G1 X175.129 Y106.753 E110.90596
G1 X174.272 Y109.382 E111.14633
G1 X166.407 Y123.008 E112.51397
G1 X166.118 Y123.824 E112.58923
G1 X164.513 Y126.24 E112.84137
G1 X162.304 Y127.97 E113.08527
G1 X160.102 Y128.932 E113.29416
G1 X158.073 Y129.355 E113.47433
G1 X127.953 Y129.355 E116.09262
G1 X125.868 Y128.909 E116.27797
G1 X123.93 Y128.042 E116.46252
G1 X122.558 Y127.102 E116.6071
G1 X121.349 Y125.879 E116.75659
G1 X119.88 Y123.631 E116.99003
G1 X119.744 Y123.113 E117.03659
G1 X119.116 Y123.113 E117.09118
G1 X118.578 Y124.381 E117.21091
G1 X117.255 Y126.2 E117.40644
G1 X115.566 Y127.697 E117.60263
G1 X113.647 Y128.719 E117.79163
G1 X111.25 Y129.354 E118.00718
G1 X107.301 Y129.355 E118.35046
G1 X104.938 Y128.633 E118.56525
G1 X103.271 Y127.791 E118.7276
G1 X101.779 Y126.582 E118.89453
G1 X100.093 Y124.523 E119.12587
G1 X99.109 Y122.08 E119.35481
G1 X98.749 Y120.234 E119.51831
G1 X98.749 Y113.669 E120.08899
G1 X92.606 Y103.025 E121.1573
G1 X91.749 Y100.396 E121.39767
G1 X91.749 Y88.098 E122.46672
G1 X92.195 Y86.013 E122.65207
G1 X93.062 Y84.075 E122.83663
G1 X94.002 Y82.703 E122.9812
G1 X95.216 Y81.503 E123.12959
G1 X97.478 Y80.023 E123.36457
G1 X99.749 Y79.424 E123.56873
G1 X99.75 Y77.659 E123.72216
G1 X100.088 Y75.846 E123.88248
G1 X100.439 Y74.95 E123.96613
G0 F1620 X100.935 Y73.681
G0 F6000 X101.52 Y73.999
G1 F1800 X102.916 Y72.089 E124.17179
G1 X104.68 Y70.637 E124.37039
G1 X106.355 Y69.765 E124.53455
G1 X108.523 Y69.14 E124.73069
G1 X158.42 Y69.139 E129.06817
G1 X159.554 Y69.389 E129.16911
G1 X160.409 Y69.14 E129.24652
G1 X178.72 Y69.139 E130.83827
G1 X180.534 Y69.533 E130.99964
G1 X182.121 Y70.175 E131.14846
G1 X183.572 Y71.157 E131.30076
G1 X185.025 Y72.643 E131.48143
G1 X186.349 Y74.579 E131.68531
G1 X187.069 Y77.497 E131.94658
G1 X187.069 Y81.264 E132.27404
G1 X186.742 Y83.323 E132.45527
G1 X186.222 Y84.84 E132.59467
G1 X185.451 Y86.158 E132.72741
G1 X184.148 Y87.624 E132.8979
G1 X182.01 Y89.198 E133.12869
G1 X181.399 Y89.4 E133.18463
G1 X181.255 Y89.657 E133.21024
G1 X180.494 Y90.789 E133.32881
G1 X178.709 Y92.609 E133.55042
G1 X176.216 Y94.17 E133.80611
G1 X174.469 Y94.685 E133.96443
G1 X174.469 Y106.649 E135.00445
G1 X173.667 Y109.109 E135.22937
G1 X165.806 Y122.729 E136.59639
G1 X165.523 Y123.527 E136.66999
G1 X164.023 Y125.785 E136.90564
G1 X161.962 Y127.399 E137.1332
G1 X159.9 Y128.3 E137.32881
G1 X158.005 Y128.695 E137.49708
G1 X128.021 Y128.695 E140.10355
G1 X126.077 Y128.279 E140.27637
G1 X124.25 Y127.462 E140.45034
G1 X122.983 Y126.594 E140.58385
G1 X121.867 Y125.465 E140.72184
G1 X120.491 Y123.358 E140.9406
G1 X120.252 Y122.453 E141.02197
G1 X118.679 Y122.453 E141.15871
G1 X117.999 Y124.055 E141.30999
G1 X116.764 Y125.753 E141.49251
G1 X115.187 Y127.151 E141.67571
G1 X113.403 Y128.101 E141.85141
G1 X111.164 Y128.694 E142.05275
G1 X107.399 Y128.695 E142.38004
G1 X105.184 Y128.018 E142.58138
G1 X103.635 Y127.236 E142.73222
G1 X102.246 Y126.11 E142.88765
G1 X100.667 Y124.182 E143.10428
G1 X99.745 Y121.893 E143.3188
G1 X99.409 Y120.17 E143.4714
G1 X99.409 Y113.491 E144.052
G1 X93.211 Y102.752 E145.12985
G1 X92.409 Y100.292 E145.35477
G1 X92.409 Y88.166 E146.40887
G1 X92.825 Y86.222 E146.58168
G1 X93.642 Y84.395 E146.75566
G1 X94.51 Y83.128 E146.88916
G1 X95.633 Y82.018 E147.02642
G1 X97.749 Y80.634 E147.24621
G1 X100.409 Y79.932 E147.48536
G1 X100.41 Y77.721 E147.67756
G1 X100.725 Y76.03 E147.82709
G1 X101.024 Y75.268 E147.89824
G0 F1620 X101.52 Y73.999
G0 F6000 X102.104 Y74.318
G1 F1800 X103.399 Y72.546 E148.08903
G1 X105.047 Y71.19 E148.27455
G1 X106.6 Y70.381 E148.42677
G1 X108.616 Y69.8 E148.60915
G1 X158.351 Y69.799 E152.93255
G1 X159.578 Y70.07 E153.04178
G1 X160.505 Y69.8 E153.12571
G1 X178.649 Y69.799 E154.70295
G1 X180.339 Y70.166 E154.85328
G1 X181.811 Y70.761 E154.9913
G1 X183.146 Y71.665 E155.13145
G1 X184.51 Y73.06 E155.30105
G1 X185.737 Y74.854 E155.48999
G1 X186.409 Y77.578 E155.73388
G1 X186.409 Y81.211 E156.04969
G1 X186.099 Y83.165 E156.22168
G1 X185.62 Y84.561 E156.34997
G1 X184.912 Y85.771 E156.47184
G1 X183.701 Y87.134 E156.63033
G1 X181.706 Y88.603 E156.8457
G1 X180.946 Y88.854 E156.91527
G1 X180.707 Y89.289 E156.95842
G1 X179.979 Y90.372 E157.07186
G1 X178.292 Y92.092 E157.28129
G1 X175.944 Y93.562 E157.5221
G1 X173.809 Y94.192 E157.7156
G1 X173.809 Y106.545 E158.78943
G1 X173.062 Y108.836 E158.9989
G1 X165.205 Y122.45 E160.3653
G1 X164.928 Y123.23 E160.43725
G1 X163.533 Y125.33 E160.65641
G1 X161.62 Y126.828 E160.86762
G1 X159.698 Y127.668 E161.04996
G1 X157.937 Y128.035 E161.20633
G1 X128.089 Y128.035 E163.80098
G1 X126.286 Y127.649 E163.96126
G1 X124.575 Y126.884 E164.12419
G1 X123.405 Y126.083 E164.24744
G1 X122.385 Y125.051 E164.37358
G1 X121.101 Y123.085 E164.5777
G1 X120.76 Y121.793 E164.69386
G1 X118.168 Y121.793 E164.91918
G1 X118.087 Y122.158 E164.95168
G1 X117.42 Y123.729 E165.10004
G1 X116.273 Y125.306 E165.26955
G1 X114.808 Y126.605 E165.43976
G1 X113.159 Y127.483 E165.60215
G1 X111.078 Y128.034 E165.78929
G1 X107.497 Y128.035 E166.10058
G1 X105.432 Y127.404 E166.28828
G1 X103.995 Y126.678 E166.42823
G1 X102.715 Y125.641 E166.57144
G1 X101.241 Y123.841 E166.77368
G1 X100.381 Y121.706 E166.97376
G1 X100.069 Y120.106 E167.11547
G1 X100.069 Y113.313 E167.70597
G1 X93.816 Y102.479 E168.79337
G1 X93.069 Y100.188 E169.00284
G1 X93.069 Y88.234 E170.04198
G1 X93.455 Y86.431 E170.20227
G1 X94.22 Y84.72 E170.36519
G1 X95.021 Y83.55 E170.48845
G1 X96.05 Y82.533 E170.61422
G1 X98.02 Y81.245 E170.81882
G1 X100.411 Y80.614 E171.03378
G1 X101.069 Y80.614 E171.09098
G1 X101.07 Y77.783 E171.33708
G1 X101.363 Y76.212 E171.47599
G1 X101.608 Y75.587 E171.53435
G0 F1620 X102.104 Y74.318
G0 F6000 X102.688 Y74.638
G1 F1800 X103.884 Y73.002 E171.71052
G1 X105.414 Y71.743 E171.88276
G1 X106.846 Y70.997 E172.02312
G1 X108.709 Y70.46 E172.19166
G1 X158.281 Y70.459 E176.50089
G1 X159.603 Y70.751 E176.61858
G1 X160.601 Y70.46 E176.70895
G1 X178.578 Y70.459 E178.27166
G1 X180.144 Y70.799 E178.41096
G1 X181.497 Y71.346 E178.53783
G1 X182.723 Y72.176 E178.66653
G1 X183.998 Y73.48 E178.82506
G1 X185.124 Y75.127 E178.9985
G1 X185.749 Y77.659 E179.22521
G1 X185.749 Y81.157 E179.52928
G1 X185.455 Y83.008 E179.6922
G1 X185.018 Y84.282 E179.80929
G1 X184.373 Y85.384 E179.92028
G1 X183.254 Y86.644 E180.06677
G1 X181.402 Y88.008 E180.26672
G1 X180.489 Y88.31 E180.35031
G1 X180.159 Y88.921 E180.41068
G1 X179.464 Y89.955 E180.51898
G1 X177.875 Y91.575 E180.71624
G1 X175.672 Y92.954 E180.94217
G1 X173.437 Y93.614 E181.14475
G1 X173.149 Y93.655 E181.17003
G1 X173.149 Y106.438 E182.28124
G1 X172.455 Y108.567 E182.4759
G1 X164.604 Y122.169 E183.84113
G1 X164.334 Y122.931 E183.9114
G1 X163.043 Y124.875 E184.11426
