;FLAVOR:Marlin
;TIME:2651
;Filament used: 3.17867m
;Layer height: 0.32
;MINX:107.47
;MINY:106.524
;MINZ:0.24
;MAXX:195.63
;MAXY:193.475
;MAXZ:6.32
;Generated with Cura_SteamEngine 5.0.0
M140 S70
M105
M190 S70
M104 S245
M105
M109 S245
M82 ;absolute extrusion mode
; Ender 3 Max Custom Start G-code
G92 E0 ; Reset Extruder
G28 ; Home all axes
G1 Z2.0 F3000 ; Move Z Axis up little to prevent scratching of Heat Bed
G1 X0.1 Y20 Z0.3 F5000.0 ; Move to start position
G1 X0.1 Y200.0 Z0.3 F1500.0 E15 ; Draw the first line
G1 X0.4 Y200.0 Z0.3 F5000.0 ; Move to side a little
G1 X0.4 Y20 Z0.3 F1500.0 E30 ; Draw the second line
G92 E0 ; Reset Extruder
G1 Z2.0 F3000 ; Move Z Axis up little to prevent scratching of Heat Bed
G1 X5 Y20 Z0.3 F5000.0 ; Move over to prevent blob squish
G92 E0
G92 E0
G1 F2100 E-5
;LAYER_COUNT:19
;LAYER:0
M107
G1 F300 Z0.56
G0 F6000 X110.73 Y110.685 Z0.56
G1 F300 Z0.56
G0 F6000 X107.472 Y119.095
;TYPE:SKIRT
G1 F300 Z0.24
G1 F2100 E0
G1 F1800 X107.481 Y118.464 E0.04571
G1 X107.512 Y117.802 E0.09372
G1 X107.531 Y117.56 E0.11131
G1 X107.642 Y116.658 E0.17714
G1 X107.831 Y115.77 E0.24291
G1 X108.142 Y114.781 E0.31801
G1 X108.212 Y114.592 E0.33261
G1 X108.565 Y113.755 E0.39842
G1 X108.99 Y112.951 E0.4643
G1 X109.434 Y112.259 E0.52386
G1 X109.562 Y112.076 E0.54003
G1 X110.115 Y111.355 E0.60586
G1 X110.73 Y110.685 E0.67174
G1 X111.735 Y109.804 E0.76855
G1 X111.929 Y109.655 E0.78627
G1 X112.673 Y109.134 E0.85207
G1 X113.461 Y108.68 E0.91795
G1 X114.285 Y108.297 E0.98377
G1 X115.048 Y108.014 E1.04273
G1 X115.919 Y107.752 E1.10861
G1 X116.809 Y107.567 E1.17446
G1 X117.407 Y107.488 E1.21816
G1 X118.052 Y107.422 E1.26513
G1 X120.611 Y107.123 E1.45177
G1 X123.986 Y106.633 E1.69882
G1 X125.328 Y106.527 E1.79633
G1 X125.544 Y106.524 E1.81198
G1 X126.452 Y106.551 E1.87779
G1 X126.928 Y106.598 E1.91244
G1 X128.946 Y106.848 E2.05974
G1 X131.444 Y107.113 E2.24171
G1 X133.951 Y107.307 E2.42386
G1 X136.523 Y107.433 E2.6104
G1 X139.057 Y107.486 E2.79401
G1 X141.675 Y107.47 E2.98366
G1 X158.446 Y107.472 E4.19856
G1 X159.071 Y107.481 E4.24384
G1 X159.773 Y107.515 E4.29475
G1 X160.027 Y107.536 E4.31322
G1 X160.929 Y107.651 E4.37909
G1 X161.817 Y107.844 E4.44492
G1 X162.967 Y108.222 E4.53261
G1 X163.185 Y108.308 E4.54958
G1 X164.015 Y108.678 E4.61541
G1 X164.809 Y109.12 E4.68124
G1 X165.561 Y109.63 E4.74706
G1 X166.239 Y110.18 E4.81031
G1 X166.482 Y110.395 E4.83381
G1 X167.136 Y111.027 E4.89969
G1 X167.572 Y111.518 E4.94726
G1 X169.271 Y113.557 E5.13952
G1 X170.916 Y115.419 E5.31951
G1 X172.692 Y117.321 E5.50802
G1 X174.433 Y119.081 E5.68735
G1 X176.282 Y120.848 E5.87262
G1 X178.159 Y122.542 E6.05578
G1 X180.124 Y124.219 E6.24292
G1 X182.059 Y125.777 E6.42288
G1 X184.098 Y127.324 E6.60829
G1 X186.155 Y128.797 E6.79156
G1 X188.251 Y130.21 E6.97468
G1 X189.501 Y130.996 E7.08164
G1 X190.574 Y131.69 E7.17421
G1 X191.315 Y132.217 E7.24008
G1 X192.196 Y132.988 E7.32489
G1 X192.349 Y133.138 E7.34041
G1 X192.969 Y133.802 E7.40622
G1 X193.529 Y134.518 E7.47207
G1 X194.096 Y135.407 E7.54845
G1 X194.22 Y135.625 E7.56662
G1 X194.634 Y136.434 E7.63245
G1 X194.976 Y137.276 E7.69829
G1 X195.242 Y138.145 E7.76412
G1 X195.434 Y139.057 E7.83164
G1 X195.481 Y139.343 E7.85263
G1 X195.589 Y140.245 E7.91844
G1 X195.617 Y140.851 E7.96239
G1 X195.63 Y141.76 E8.02824
G1 X195.628 Y158.437 E9.23633
G1 X195.619 Y159.089 E9.28357
G1 X195.578 Y159.877 E9.34073
G1 X195.557 Y160.109 E9.3576
G1 X195.435 Y161.01 E9.42347
G1 X195.235 Y161.896 E9.48926
G1 X194.845 Y163.051 E9.57757
G1 X194.754 Y163.276 E9.59516
G1 X194.377 Y164.103 E9.661
G1 X193.928 Y164.893 E9.72682
G1 X193.412 Y165.641 E9.79265
G1 X192.841 Y166.331 E9.85753
G1 X192.643 Y166.55 E9.87892
G1 X192.004 Y167.196 E9.94474
G1 X191.311 Y167.785 E10.01062
G1 X190.839 Y168.131 E10.05302
G1 X189.925 Y168.706 E10.13124
G1 X189.51 Y168.938 E10.16568
G1 X187.212 Y170.264 E10.35788
G1 X185.097 Y171.566 E10.53779
G1 X182.938 Y172.98 E10.72475
G1 X180.88 Y174.415 E10.90649
G1 X178.837 Y175.923 E11.09044
G1 X176.837 Y177.491 E11.27454
G1 X174.88 Y179.117 E11.45885
G1 X172.997 Y180.774 E11.64055
G1 X171.107 Y182.533 E11.82759
G1 X169.343 Y184.27 E12.00693
G1 X166.968 Y186.753 E12.25583
G1 X164.599 Y189.126 E12.49873
G1 X164.104 Y189.606 E12.54868
G1 X163.425 Y190.209 E12.61446
G1 X162.694 Y190.751 E12.68038
G1 X161.92 Y191.226 E12.74617
G1 X161.106 Y191.631 E12.81203
G1 X160.26 Y191.963 E12.87787
G1 X159.388 Y192.219 E12.9437
G1 X158.497 Y192.398 E13.00954
G1 X157.594 Y192.498 E13.07535
G1 X157.098 Y192.518 E13.11131
G1 X156.356 Y192.53 E13.16507
G1 X143.642 Y192.529 E14.08608
G1 X141.799 Y192.502 E14.2196
G1 X141.243 Y192.486 E14.25989
G1 X138.714 Y192.482 E14.44309
G1 X136.19 Y192.551 E14.626
G1 X133.658 Y192.692 E14.80971
G1 X131.113 Y192.905 E14.99471
G1 X128.558 Y193.192 E15.18096
G1 X127.048 Y193.389 E15.29127
G1 X126.142 Y193.467 E15.35715
G1 X125.434 Y193.475 E15.40844
G1 X124.526 Y193.431 E15.47429
G1 X123.991 Y193.367 E15.51332
G1 X120.619 Y192.877 E15.76016
G1 X117.302 Y192.502 E16.00198
G1 X116.404 Y192.36 E16.06784
G1 X115.316 Y192.077 E16.14927
G1 X115.122 Y192.015 E16.16403
G1 X114.27 Y191.7 E16.22983
G1 X113.448 Y191.312 E16.29568
G1 X112.741 Y190.903 E16.35484
G1 X112.572 Y190.796 E16.36933
G1 X111.826 Y190.276 E16.43521
G1 X111.129 Y189.693 E16.50103
G1 X110.332 Y188.88 E16.58351
G1 X110.182 Y188.709 E16.59998
G1 X109.614 Y188 E16.66579
G1 X109.109 Y187.244 E16.73165
G1 X108.662 Y186.422 E16.79943
G1 X108.566 Y186.225 E16.81531
G1 X108.204 Y185.391 E16.88117
G1 X107.917 Y184.529 E16.94698
G1 X107.721 Y183.716 E17.00757
G1 X107.683 Y183.525 E17.02167
G1 X107.545 Y182.626 E17.08756
G1 X107.485 Y181.67 E17.15695
G1 X107.47 Y180.612 E17.2336
G1 X107.472 Y164.015 E18.4359
G1 X107.481 Y163.39 E18.48118
G1 X107.509 Y162.767 E18.52635
G1 X107.573 Y162.043 E18.579
G1 X107.886 Y159.429 E18.76972
G1 X108.115 Y156.929 E18.95158
G1 X108.276 Y154.374 E19.13703
G1 X108.364 Y151.849 E19.32005
G1 X108.38 Y149.323 E19.50304
G1 X108.324 Y146.763 E19.68853
G1 X108.196 Y144.226 E19.87255
G1 X108.003 Y141.753 E20.05224
G1 X107.627 Y138.377 E20.29831
G1 X107.576 Y137.98 E20.32731
G1 X107.492 Y136.848 E20.40953
G1 X107.47 Y135.597 E20.50017
G1 X107.472 Y120.458 E21.59685
G0 F1620 X107.472 Y119.095
G1 F2100 E16.59685
G1 F300 Z0.56
;MESH:mount-inner.stl(5)
G0 F6000 X121.584 Y123.038 Z0.56
;TYPE:WALL-INNER
G1 F300 Z0.24
G1 F2100 E21.59685
G1 F1800 X121.307 Y122.716 E21.62258
G1 X121.076 Y122.354 E21.6486
G1 X120.972 Y122.133 E21.6634
G1 X120.841 Y121.72 E21.68965
G1 F1656.9 X120.72 Y121.361 E21.71458
G1 F1354.6 X120.592 Y121.066 E21.74047
G1 F1211 X120.591 Y119.549 E21.87708
G1 X119.611 Y119.55 E21.96534
G1 X119.611 Y121.066 E22.10186
G1 F1354.6 X119.508 Y121.467 E22.13519
G1 F1656.9 X119.452 Y121.841 E22.16008
G1 F1800 X119.451 Y123.177 E22.24102
G1 X119.594 Y123.117 E22.25042
G1 X120.1 Y123.039 E22.28144
G1 X121.128 Y123.038 E22.34372
G0 F1620 X121.584 Y123.038
G1 F2100 E17.34372
G1 F300 Z0.56
G0 F6000 X124.405 Y118.12 Z0.56
;TYPE:WALL-OUTER
G1 F300 Z0.24
G1 F2100 E22.34372
G1 F1414.3 X125.445 Y118.119 E22.42305
G1 F1419.4 X126.635 Y118.122 E22.51349
G1 F1443.5 X127.022 Y118.133 E22.54242
G1 F1472.1 X127.215 Y118.14 E22.55657
G1 F1463.1 X126.865 Y118.023 E22.58378
G1 F1433.1 X126.493 Y117.634 E22.62429
G1 F1421.1 X126.226 Y117.434 E22.64962
G1 X125.908 Y117.308 E22.67558
G1 F1414.3 X125.541 Y117.273 E22.7037
G1 F1410.9 X125.061 Y117.39 E22.74147
G1 F1414.3 X124.762 Y117.585 E22.7687
G1 X124.513 Y117.876 E22.79791
G1 X124.46 Y117.995 E22.80785
G0 F1620 X124.405 Y118.12
G0 F6000 X124.725 Y118.12
G1 F2100 E17.80785
G1 F300 Z0.56
G0 F6000 X127.215 Y118.14 Z0.56
G1 F300 Z0.24
G1 F2100 E22.80785
G1 F1483.1 X130.301 Y118.14 E23.03229
G1 F2100 E18.03229
G1 F300 Z0.56
G0 F6000 X135.75 Y123.909 Z0.56
;TYPE:WALL-INNER
G1 F300 Z0.24
G1 F2100 E23.03229
G1 F1800 X135.75 Y121.856 E23.15668
G1 X135.75 Y121.303 E23.19018
G1 X133.836 Y119.39 E23.35414
G1 X132.151 Y119.39 E23.45622
G1 X132.15 Y122.096 E23.62017
G1 X131.971 Y122.789 E23.66354
G1 X131.785 Y123.038 E23.68237
G1 X133.145 Y123.04 E23.76477
G1 X133.485 Y123.057 E23.78539
G1 X134.003 Y123.133 E23.81711
G1 X134.505 Y123.267 E23.84859
G1 X134.545 Y123.283 E23.8512
G0 F1620 X134.995 Y123.461
G0 X135.449 Y123.705
G0 X135.75 Y123.909
G0 F6000 X136.41 Y125.598
G1 F1800 X136.41 Y121.856 E24.07792
G1 X136.41 Y121.03 E24.12796
G1 X134.109 Y118.73 E24.32507
G1 X131.489 Y118.73 E24.48381
G1 X131.491 Y121.655 E24.66103
G1 X131.49 Y122.074 E24.68641
G1 X131.383 Y122.49 E24.71244
G1 X131.301 Y122.651 E24.72338
G1 F1822.1 X131.107 Y122.808 E24.73832
G1 F1862.1 X130.912 Y122.965 E24.75298
G1 F1906.9 X130.717 Y123.122 E24.7673
G1 F1996.6 X130.464 Y123.173 E24.7814
G1 F2087.9 X130.3 Y123.181 E24.78997
G1 F2102.7 X123.6 Y123.181 E25.13747
G1 F2080.6 X123.282 Y123.163 E25.15417
G1 F1986.6 X122.983 Y123.092 E25.17104
G1 F1859.2 X122.684 Y123.021 E25.18907
G1 F1800 X122.452 Y122.901 E25.20489
G1 X122.251 Y122.76 E25.21977
G1 X122.059 Y122.586 E25.23546
G1 X121.812 Y122.292 E25.25873
G1 X121.674 Y122.074 E25.27436
G1 X121.57 Y121.853 E25.28916
G1 X121.491 Y121.605 E25.30493
G1 X121.426 Y121.237 E25.32757
G1 X121.412 Y121.065 E25.33803
G1 X121.411 Y118.729 E25.47956
G1 X118.792 Y118.73 E25.63823
G1 X118.791 Y121.669 E25.8163
G1 X118.792 Y122.279 E25.85325
G1 X118.791 Y124.204 E25.96988
G1 F1775.8 X118.8 Y124.384 E25.98095
G1 F1689.9 X118.825 Y124.636 E25.99729
G1 F1575.6 X118.85 Y124.888 E26.01482
G1 X118.929 Y124.661 E26.03146
G1 F1689.9 X119.009 Y124.434 E26.04699
G1 F1775.8 X119.099 Y124.277 E26.0581
G1 F1800 X119.678 Y123.784 E26.10418
G1 X120.1 Y123.699 E26.13026
G1 X122.566 Y123.698 E26.27967
G1 F1856.2 X122.943 Y123.718 E26.30185
G1 F1983.3 X123.254 Y123.739 E26.31899
G1 F2080.6 X123.6 Y123.747 E26.33713
G1 F2102.7 X130.3 Y123.747 E26.68463
G1 F2044.8 X130.685 Y123.73 E26.70518
G1 F1957.2 X130.809 Y123.72 E26.71211
G1 F1913 X131.093 Y123.715 E26.72831
G1 F1879.7 X131.377 Y123.71 E26.74479
G1 F1847.6 X131.661 Y123.705 E26.76155
G1 F1816.5 X131.945 Y123.699 E26.77861
G1 F1800 X133.112 Y123.7 E26.84931
G1 X133.452 Y123.716 E26.86993
G1 X133.894 Y123.784 E26.89703
G1 X134.323 Y123.901 E26.92397
G1 X134.739 Y124.069 E26.95115
G1 X135.126 Y124.28 E26.97785
G1 X135.494 Y124.538 E27.00508
G1 X135.83 Y124.842 E27.03254
G1 X135.903 Y124.924 E27.03919
G0 F1620 X136.119 Y125.169
G0 X136.376 Y125.538
G0 X136.41 Y125.598
G1 F2100 E22.03919
G1 F300 Z0.56
G0 F6000 X135.75 Y131.172 Z0.56
G1 F300 Z0.24
G1 F2100 E27.03919
G1 F1800 X135.534 Y131.322 E27.05512
G1 X135.25 Y131.491 E27.07514
G1 X134.762 Y131.719 E27.10778
G1 X134.271 Y131.882 E27.13912
G1 X133.751 Y131.993 E27.17134
G1 X133.204 Y132.038 E27.20459
G1 X133.112 Y132.04 E27.21017
G1 X131.832 Y132.039 E27.28772
G1 X132.033 Y132.415 E27.31355
G1 X132.072 Y132.533 E27.32108
G1 X132.15 Y133.015 E27.35066
G1 X132.151 Y135.69 E27.51273
G1 X133.835 Y135.689 E27.61476
G1 X135.75 Y133.775 E27.7788
G1 X135.75 Y132.535 E27.85392
G0 F1620 X135.75 Y131.172
G1 F2100 E22.85392
G1 F300 Z0.56
G0 F6000 X130.369 Y136.938 Z0.56
;TYPE:WALL-OUTER
G1 F300 Z0.24
G1 F2100 E27.85392
G1 F1475.8 X130.3 Y136.94 E27.85897
G1 F1479.5 X127.212 Y136.941 E28.08412
G1 F1472.1 X127.143 Y136.943 E28.08918
G1 F2100 E23.08918
G1 F300 Z0.56
G0 F6000 X124.403 Y136.956 Z0.56
G1 F300 Z0.24
G1 F2100 E28.08918
G1 F1422.8 X124.507 Y137.198 E28.10915
G1 X124.721 Y137.466 E28.13515
G1 X125.001 Y137.669 E28.16138
G1 X125.328 Y137.787 E28.18773
G1 F1414.3 X125.673 Y137.81 E28.21411
G1 F1404.3 X126.013 Y137.741 E28.24076
G1 X126.322 Y137.584 E28.26738
G1 X126.588 Y137.343 E28.29495
G1 F1419.4 X126.858 Y137.058 E28.32479
G1 F1450.5 X127.143 Y136.943 E28.34764
G1 X126.833 Y136.953 E28.37071
G1 F1419.4 X126.417 Y136.963 E28.40233
G1 F1404.3 X125.648 Y136.962 E28.46141
G1 F1414.3 X125.179 Y136.956 E28.49718
G1 F1422.8 X124.403 Y136.956 E28.55602
G0 F6000 X124.507 Y137.198
G0 X124.542 Y137.242
G1 F2100 E23.55602
G1 F300 Z0.56
G0 F6000 X121.589 Y132.041 Z0.56
;TYPE:WALL-INNER
G1 F300 Z0.24
G1 F2100 E28.55602
G1 F1800 X120.099 Y132.04 E28.64629
G1 X119.45 Y131.885 E28.68672
G1 X119.452 Y133.438 E28.78081
G1 F1625.2 X119.522 Y133.694 E28.79862
G1 F1334.8 X119.613 Y134.037 E28.82761
G1 F1213.5 X119.611 Y134.075 E28.83103
G1 X119.61 Y135.529 E28.9617
G1 X120.59 Y135.529 E29.04977
G1 F1214.7 X120.591 Y134.045 E29.183
G1 F1334.8 X120.702 Y133.792 E29.20558
G1 F1625.2 X120.814 Y133.551 E29.22341
G1 F1800 X120.924 Y133.059 E29.25395
G1 X121.052 Y132.786 E29.27222
G1 X121.264 Y132.425 E29.29759
G1 X121.422 Y132.238 E29.31242
G0 F1620 X121.589 Y132.041
G1 F2100 E24.31242
G1 F300 Z0.56
G0 F6000 X136.41 Y129.483 Z0.56
G1 F300 Z0.24
G1 F2100 E29.31242
G1 F1800 X136.237 Y129.754 E29.3319
G1 X135.954 Y130.107 E29.35931
G1 X135.631 Y130.427 E29.38686
G1 X135.284 Y130.697 E29.4135
G1 X134.912 Y130.925 E29.43993
G1 X134.497 Y131.114 E29.46756
G1 X134.076 Y131.252 E29.4944
G1 X133.626 Y131.345 E29.52224
G1 X133.167 Y131.379 E29.55013
G1 X132.43 Y131.381 E29.59478
G1 X131.688 Y131.379 E29.63973
G1 F1802.7 X130.889 Y131.379 E29.68807
G1 F1873.8 X130.595 Y131.356 E29.70523
G1 F2023.9 X130.301 Y131.333 E29.72112
G1 F2106.4 X123.575 Y131.333 E30.06936
G1 F2048.3 X123.276 Y131.348 E30.0853
G1 F1941.2 X122.977 Y131.364 E30.10212
G1 F1844.7 X122.643 Y131.38 E30.12189
G1 F1800 X120.099 Y131.38 E30.27602
G1 X119.649 Y131.273 E30.30404
G1 X119.488 Y131.191 E30.31499
G1 F1767.9 X119.312 Y131.002 E30.33092
G1 F1706.9 X119.136 Y130.813 E30.34742
G1 F1650 X118.96 Y130.624 E30.36449
G1 F1555 X118.857 Y130.372 E30.38358
G1 X118.828 Y130.644 E30.40277
G1 F1643.2 X118.819 Y130.888 E30.41897
G1 F1685.1 X118.81 Y131.132 E30.43477
G1 F1729.3 X118.801 Y131.376 E30.45017
G1 F1775.8 X118.791 Y131.62 E30.46517
G1 F1800 X118.79 Y133.694 E30.59083
G1 X118.793 Y134.037 E30.61161
G1 X118.791 Y134.075 E30.61391
G1 X118.791 Y136.348 E30.75163
G1 X121.409 Y136.348 E30.91024
G1 X121.41 Y134.059 E31.04893
G1 X121.465 Y133.66 E31.07333
G1 X121.545 Y133.284 E31.09662
G1 X121.834 Y132.759 E31.13293
G1 X122.048 Y132.505 E31.15305
G1 X122.342 Y132.256 E31.17639
G1 X122.561 Y132.115 E31.19217
G1 X122.783 Y132.01 E31.20705
G1 F1844.7 X123.03 Y131.949 E31.22209
G1 F1976.7 X123.411 Y131.907 E31.24324
G1 F2084.2 X123.575 Y131.899 E31.25183
G1 F2106.4 X130.301 Y131.897 E31.60007
G1 F1944.4 X130.751 Y131.957 E31.62553
G1 F1802.7 X131.239 Y132.306 E31.66182
G1 F1800 X131.405 Y132.617 E31.68318
G1 X131.49 Y133.024 E31.70837
G1 X131.49 Y136.34 E31.90928
G1 X131.501 Y136.351 E31.91022
G1 X134.109 Y136.349 E32.06823
G1 X136.41 Y134.049 E32.26534
G1 X136.41 Y130.846 E32.4594
G0 F1620 X136.41 Y129.483
G1 F2100 E27.4594
G1 F300 Z0.56
G0 F6000 X130.301 Y132.509 Z0.56
;TYPE:WALL-OUTER
G1 F300 Z0.24
G1 F2100 E32.4594
G1 F1800 X130.612 Y132.626 E32.47931
G1 X130.777 Y132.819 E32.49453
G1 X130.83 Y133.151 E32.51468
G1 X130.83 Y136.34 E32.70579
G1 X130.713 Y136.651 E32.7257
G1 F1670.9 X130.535 Y136.865 E32.74367
G1 F1529 X130.426 Y136.944 E32.75317
G1 F1563.2 X130.679 Y136.977 E32.77078
G1 F1711.8 X130.933 Y137.01 E32.78692
G1 F1800 X134.383 Y137.009 E32.99367
G1 X137.07 Y134.322 E33.2214
G1 X137.07 Y128.927 E33.54471
G1 F1773.1 X137.06 Y128.6 E33.56461
G1 F1670.9 X137.029 Y128.181 E33.59174
G1 F1614.1 X137.036 Y127.756 E33.62014
G1 F1629.6 X137.036 Y127.338 E33.64781
G1 F1605.4 X137.024 Y126.925 E33.67557
G1 F1656.9 X137.059 Y126.486 E33.70424
G1 F1770.5 X137.07 Y126.074 E33.72935
G1 F1800 X137.07 Y121.856 E33.98213
G1 X137.07 Y120.756 E34.04805
G1 X134.383 Y118.07 E34.27574
G1 X131.105 Y118.07 E34.47218
G1 F1734.3 X130.674 Y118.095 E34.49903
G1 F1573.5 X130.301 Y118.14 E34.52479
G1 X130.624 Y118.305 E34.54965
G1 F1734.3 X130.777 Y118.52 E34.56607
G1 F1800 X130.83 Y118.74 E34.57963
G1 X130.831 Y121.996 E34.77475
G1 X130.713 Y122.351 E34.79717
G1 X130.52 Y122.516 E34.81239
G1 X130.3 Y122.569 E34.82595
G1 X123.567 Y122.568 E35.22945
G1 X123.263 Y122.528 E35.24782
G1 X122.908 Y122.4 E35.27044
G1 X122.629 Y122.219 E35.29037
G1 X122.318 Y121.867 E35.31852
G1 X122.168 Y121.573 E35.3383
G1 X122.112 Y121.321 E35.35377
G1 X122.072 Y121.065 E35.36929
