;FLAVOR:Marlin
;TIME:400
;Filament used: 0.471219m
;Layer height: 0.32
;MINX:111.71
;MINY:128.326
;MINZ:0.24
;MAXX:153.29
;MAXY:171.676
;MAXZ:6.32
;Generated with Cura_SteamEngine 5.0.0
M140 S70
M105
M190 S70
M104 S245
M105
M109 S245
M82 ;absolute extrusion mode
; Ender 3 Max Custom Start G-code
G92 E0 ; Reset Extruder
G28 ; Home all axes
G1 Z2.0 F3000 ; Move Z Axis up little to prevent scratching of Heat Bed
G1 X0.1 Y20 Z0.3 F5000.0 ; Move to start position
G1 X0.1 Y200.0 Z0.3 F1500.0 E15 ; Draw the first line
G1 X0.4 Y200.0 Z0.3 F5000.0 ; Move to side a little
G1 X0.4 Y20 Z0.3 F1500.0 E30 ; Draw the second line
G92 E0 ; Reset Extruder
G1 Z2.0 F3000 ; Move Z Axis up little to prevent scratching of Heat Bed
G1 X5 Y20 Z0.3 F5000.0 ; Move over to prevent blob squish
G92 E0
G92 E0
G1 F2100 E-5
;LAYER_COUNT:19
;LAYER:0
M107
G1 F300 Z0.56
G0 F6000 X117.949 Y132.308 Z0.56
G1 F300 Z0.56
G0 F6000 X111.711 Y143.632
;TYPE:SKIRT
G1 F300 Z0.24
G1 F2100 E0
G1 F1800 X111.721 Y142.93 E0.05086
G1 X111.774 Y141.995 E0.1187
G1 X111.907 Y141.067 E0.18661
G1 X112.119 Y140.153 E0.25458
G1 X112.407 Y139.261 E0.32248
G1 X112.771 Y138.397 E0.3904
G1 X113.207 Y137.567 E0.45831
G1 X113.712 Y136.777 E0.52624
G1 X114.282 Y136.034 E0.59407
G1 X114.764 Y135.495 E0.64645
G1 X115.259 Y134.981 E0.69815
G1 X117.471 Y132.77 E0.92471
G1 X117.949 Y132.308 E0.97286
G1 X118.651 Y131.686 E1.04081
G1 X119.402 Y131.125 E1.10871
G1 X120.199 Y130.631 E1.17664
G1 X121.035 Y130.207 E1.24454
G1 X121.904 Y129.856 E1.31243
G1 X122.8 Y129.579 E1.38037
G1 X123.716 Y129.38 E1.44828
G1 X124.879 Y129.243 E1.53311
G1 X125.454 Y129.206 E1.57485
G1 X127.998 Y129.006 E1.7597
G1 X130.59 Y128.729 E1.94854
G1 X132.977 Y128.417 E2.12293
G1 X133.911 Y128.335 E2.19084
G1 X134.726 Y128.326 E2.24989
G1 X135.662 Y128.375 E2.31778
G1 X136.234 Y128.444 E2.35952
G1 X139.208 Y128.883 E2.57729
G1 X141.659 Y129.174 E2.75609
G1 X142.866 Y129.306 E2.84405
G1 X143.793 Y129.447 E2.91197
G1 X144.704 Y129.667 E2.97987
G1 X145.692 Y130.001 E3.05542
G1 X145.911 Y130.087 E3.07246
G1 X146.768 Y130.467 E3.14037
G1 X147.59 Y130.918 E3.20829
G1 X148.37 Y131.438 E3.2762
G1 X149.17 Y132.081 E3.35055
G1 X149.393 Y132.278 E3.37211
G1 X150.069 Y132.928 E3.44004
G1 X150.686 Y133.633 E3.50791
G1 X151.241 Y134.388 E3.57579
G1 X151.67 Y135.08 E3.63477
G1 X151.794 Y135.298 E3.65294
G1 X152.222 Y136.132 E3.72084
G1 X152.578 Y137 E3.7888
G1 X152.858 Y137.894 E3.85667
G1 X153.086 Y138.95 E3.93493
G1 X153.133 Y139.236 E3.95592
G1 X153.245 Y140.167 E4.02385
G1 X153.276 Y140.836 E4.07237
G1 X153.29 Y141.744 E4.13815
G1 X153.288 Y158.41 E5.34545
G1 X153.279 Y159.091 E5.39478
G1 X153.235 Y159.937 E5.45615
G1 X153.214 Y160.169 E5.47302
G1 X153.09 Y161.098 E5.54092
G1 X152.887 Y162.013 E5.60881
G1 X152.479 Y163.243 E5.70269
G1 X152.393 Y163.459 E5.71953
G1 X152.01 Y164.315 E5.78746
G1 X151.555 Y165.134 E5.85533
G1 X151.031 Y165.912 E5.92328
G1 X150.391 Y166.702 E5.99693
G1 X150.188 Y166.93 E6.01905
G1 X149.535 Y167.603 E6.08698
G1 X148.828 Y168.218 E6.15486
G1 X148.07 Y168.77 E6.22279
G1 X147.347 Y169.212 E6.28417
G1 X147.129 Y169.334 E6.30227
G1 X146.292 Y169.757 E6.37021
G1 X145.422 Y170.106 E6.43811
G1 X144.446 Y170.401 E6.51197
G1 X144.311 Y170.435 E6.52206
G1 X143.393 Y170.625 E6.58997
G1 X142.811 Y170.704 E6.63251
G1 X141.461 Y170.85 E6.73088
G1 X138.952 Y171.158 E6.914
G1 X137.4 Y171.401 E7.02779
G1 X136.921 Y171.455 E7.06271
G1 X136.216 Y171.559 E7.11434
G1 X135.283 Y171.656 E7.18229
G1 X134.573 Y171.676 E7.23374
G1 X134.334 Y171.675 E7.25105
G1 X132.971 Y171.584 E7.35001
G1 X130.131 Y171.217 E7.55745
G1 X127.63 Y170.964 E7.73955
G1 X126.2 Y170.851 E7.84346
G1 X124.811 Y170.753 E7.94433
G1 X123.88 Y170.647 E8.01221
G1 X122.961 Y170.462 E8.08012
G1 X122.061 Y170.199 E8.14804
G1 X121.187 Y169.861 E8.21593
G1 X120.344 Y169.449 E8.2839
G1 X119.54 Y168.967 E8.3518
G1 X118.78 Y168.418 E8.41972
G1 X117.989 Y167.731 E8.49561
G1 X117.471 Y167.231 E8.54777
G1 X115.281 Y165.04 E8.77218
G1 X114.81 Y164.553 E8.82126
G1 X114.188 Y163.852 E8.88914
G1 X113.627 Y163.101 E8.95705
G1 X113.133 Y162.304 E9.02498
G1 X112.709 Y161.468 E9.09288
G1 X112.357 Y160.599 E9.1608
G1 X112.08 Y159.704 E9.22867
G1 X111.881 Y158.788 E9.29657
G1 X111.761 Y157.858 E9.3645
G1 X111.722 Y157.11 E9.41876
G1 X111.71 Y156.356 E9.47339
G1 X111.711 Y144.995 E10.29638
G0 F1620 X111.711 Y143.632
G0 F6000 X112.371 Y143.642
G1 F1800 X112.381 Y142.94 E10.34724
G1 X112.434 Y142.033 E10.41306
G1 X112.566 Y141.133 E10.47895
G1 X112.777 Y140.249 E10.54479
G1 X113.065 Y139.387 E10.61062
G1 X113.428 Y138.554 E10.67645
G1 X113.862 Y137.756 E10.74225
G1 X114.365 Y136.999 E10.80809
G1 X114.932 Y136.289 E10.87391
G1 X115.563 Y135.614 E10.94085
G1 X117.93 Y133.244 E11.18349
G1 X118.408 Y132.782 E11.23165
G1 X119.089 Y132.18 E11.29749
G1 X119.82 Y131.64 E11.36333
G1 X120.595 Y131.166 E11.42914
G1 X121.409 Y130.762 E11.49497
G1 X122.256 Y130.432 E11.56082
G1 X123.128 Y130.177 E11.62663
G1 X124.02 Y130 E11.69251
G1 X124.921 Y129.901 E11.75817
G1 X125.552 Y129.86 E11.80398
G1 X128.083 Y129.662 E11.98788
G1 X130.616 Y129.391 E12.17242
G1 X133.062 Y129.071 E12.35112
G1 X133.968 Y128.993 E12.417
G1 X134.72 Y128.986 E12.47147
G1 X135.628 Y129.034 E12.53734
G1 X136.137 Y129.097 E12.5745
G1 X139.102 Y129.534 E12.7916
G1 X141.604 Y129.832 E12.97413
G1 X142.795 Y129.962 E13.06092
G1 X143.693 Y130.1 E13.12673
G1 X144.576 Y130.317 E13.1926
G1 X145.451 Y130.616 E13.25959
G1 X145.67 Y130.702 E13.27663
G1 X146.5 Y131.071 E13.34243
G1 X147.295 Y131.512 E13.40829
G1 X148.048 Y132.02 E13.47409
G1 X148.733 Y132.575 E13.53795
G1 X148.956 Y132.772 E13.55951
G1 X149.61 Y133.403 E13.62534
G1 X150.206 Y134.089 E13.69117
G1 X150.74 Y134.825 E13.75704
G1 X151.096 Y135.407 E13.80646
G1 X151.22 Y135.625 E13.82463
G1 X151.634 Y136.434 E13.89046
G1 X151.976 Y137.276 E13.9563
G1 X152.242 Y138.145 E14.02213
G1 X152.434 Y139.057 E14.08965
G1 X152.481 Y139.343 E14.11064
G1 X152.589 Y140.245 E14.17645
G1 X152.617 Y140.847 E14.22011
G1 X152.63 Y141.744 E14.28509
G1 X152.628 Y158.402 E15.49181
G1 X152.619 Y159.083 E15.54114
G1 X152.578 Y159.877 E15.59874
G1 X152.557 Y160.109 E15.61561
G1 X152.435 Y161.01 E15.68148
G1 X152.235 Y161.896 E15.74728
G1 X151.866 Y162.999 E15.83153
G1 X151.78 Y163.215 E15.84837
G1 X151.407 Y164.044 E15.91422
G1 X150.963 Y164.837 E15.98006
G1 X150.45 Y165.587 E16.04588
G1 X149.898 Y166.263 E16.10911
G1 X149.695 Y166.491 E16.13122
G1 X149.062 Y167.143 E16.19705
G1 X148.373 Y167.736 E16.2629
G1 X147.635 Y168.267 E16.32876
G1 X147.025 Y168.636 E16.38041
G1 X146.807 Y168.758 E16.3985
G1 X145.995 Y169.167 E16.46437
G1 X145.15 Y169.503 E16.53024
G1 X144.285 Y169.761 E16.59563
G1 X144.15 Y169.795 E16.60571
G1 X143.26 Y169.978 E16.67154
G1 X142.739 Y170.048 E16.70962
G1 X141.39 Y170.194 E16.80791
G1 X138.854 Y170.505 E16.99299
G1 X137.297 Y170.749 E17.10716
G1 X136.845 Y170.8 E17.14011
G1 X136.12 Y170.906 E17.19319
G1 X135.216 Y170.999 E17.25902
G1 X134.576 Y171.016 E17.3054
G1 X134.337 Y171.015 E17.32271
G1 X133.055 Y170.93 E17.41579
G1 X130.209 Y170.562 E17.62367
G1 X127.655 Y170.304 E17.80962
G1 X126.185 Y170.188 E17.91644
G1 X124.858 Y170.094 E18.01281
G1 X123.955 Y169.99 E18.07866
G1 X123.065 Y169.807 E18.14448
G1 X122.194 Y169.547 E18.21033
G1 X121.349 Y169.211 E18.2762
G1 X120.538 Y168.802 E18.342
G1 X119.765 Y168.323 E18.40787
G1 X119.038 Y167.778 E18.47369
G1 X118.446 Y167.254 E18.53096
G1 X117.937 Y166.764 E18.58215
G1 X115.756 Y164.581 E18.80568
G1 X115.285 Y164.094 E18.85476
G1 X114.682 Y163.414 E18.9206
G1 X114.142 Y162.683 E18.98644
G1 X113.668 Y161.908 E19.05224
G1 X113.264 Y161.094 E19.11807
G1 X112.933 Y160.247 E19.18395
G1 X112.678 Y159.375 E19.24976
G1 X112.5 Y158.484 E19.31558
G1 X112.402 Y157.58 E19.38145
G1 X112.382 Y157.098 E19.4164
G1 X112.37 Y156.356 E19.47016
G1 X112.371 Y145.005 E20.29243
G0 F1620 X112.371 Y143.642
G1 F2100 E15.29243
G1 F300 Z0.56
;MESH:mount-inner.stl
G0 F6000 X124.35 Y146.369 Z0.56
;TYPE:WALL-INNER
G1 F300 Z0.24
G1 F2100 E20.29243
G1 F1800 X124.565 Y146.218 E20.30835
G1 X124.85 Y146.048 E20.32846
G1 X125.338 Y145.821 E20.36106
G1 X125.824 Y145.658 E20.39212
G1 X126.353 Y145.547 E20.42487
G1 X126.896 Y145.502 E20.45788
G1 X126.988 Y145.5 E20.46346
G1 X128.267 Y145.5 E20.54095
G1 X128.067 Y145.124 E20.56675
G1 X128.028 Y145.007 E20.57422
G1 X127.95 Y144.525 E20.6038
G1 X127.95 Y141.849 E20.76593
G1 X126.264 Y141.85 E20.86808
G1 X124.35 Y143.764 E21.03208
G1 X124.35 Y145.006 E21.10733
G0 F1620 X124.35 Y146.369
G1 F2100 E16.10733
G1 F300 Z0.56
G0 F6000 X124.351 Y153.632 Z0.56
G1 F300 Z0.24
G1 F2100 E21.10733
G1 F1800 X124.351 Y156.236 E21.2651
G1 X126.264 Y158.15 E21.42905
G1 X127.95 Y158.15 E21.5312
G1 X127.95 Y155.443 E21.69521
G1 X128.129 Y154.75 E21.73857
G1 X128.315 Y154.501 E21.7574
G1 X126.955 Y154.498 E21.8398
G1 X126.615 Y154.481 E21.86042
G1 X126.101 Y154.408 E21.89188
G1 X125.592 Y154.273 E21.92378
G1 X125.557 Y154.259 E21.92607
G0 F1620 X125.102 Y154.077
G0 X124.646 Y153.832
G0 X124.351 Y153.632
G1 F2100 E16.92607
G1 F300 Z0.56
G0 F6000 X129.799 Y159.4 Z0.56
;TYPE:WALL-OUTER
G1 F300 Z0.24
G1 F2100 E21.92607
G1 F1485 X132.885 Y159.4 E22.15023
G0 F6000 X133.5 Y159.418
G1 F1434.8 X133.26 Y159.41 E22.16829
G1 F1464.9 X132.885 Y159.4 E22.19591
G1 X133.235 Y159.517 E22.22309
G1 F1434.8 X133.486 Y159.777 E22.25026
G1 F1422.8 X133.736 Y160.017 E22.27653
G1 X134.046 Y160.19 E22.30345
G1 F1414.3 X134.533 Y160.266 E22.34104
G1 F1405.9 X134.897 Y160.207 E22.36934
G1 X135.337 Y159.953 E22.40832
G1 X135.573 Y159.677 E22.43618
G1 X135.691 Y159.423 E22.45767
G1 X134.559 Y159.422 E22.54452
G1 F1414.3 X134.233 Y159.418 E22.56939
G1 F1422.8 X133.5 Y159.418 E22.62496
G0 F6000 X133.26 Y159.41
G0 X133.18 Y159.408
G1 F2100 E17.62496
G1 F300 Z0.56
G0 F6000 X138.515 Y154.501 Z0.56
;TYPE:WALL-INNER
G1 F300 Z0.24
G1 F2100 E22.62496
G1 F1800 X138.79 Y154.816 E22.6503
G1 X139.024 Y155.184 E22.67672
G1 X139.128 Y155.407 E22.69163
G1 X139.257 Y155.814 E22.71749
G1 F1652.3 X139.38 Y156.173 E22.74254
G1 F1351.5 X139.509 Y156.472 E22.76882
G1 F1212.2 X139.51 Y157.989 E22.90529
G1 X140.489 Y157.989 E22.99336
G1 X140.489 Y156.472 E23.12984
G1 F1351.5 X140.59 Y156.066 E23.16359
G1 F1652.3 X140.649 Y155.691 E23.18865
G1 F1800 X140.649 Y154.362 E23.26917
G1 X140.506 Y154.421 E23.27854
G1 X140 Y154.5 E23.30957
G1 X138.972 Y154.501 E23.37185
G0 F1620 X138.515 Y154.501
G1 F2100 E18.37185
G1 F300 Z0.56
G0 F6000 X140.649 Y145.654 Z0.56
G1 F300 Z0.24
G1 F2100 E23.37185
G1 F1800 X140.649 Y144.212 E23.45922
G1 F1623 X140.578 Y143.956 E23.47707
G1 F1357.7 X140.506 Y143.682 E23.49983
G1 F1234.9 X140.49 Y143.464 E23.51913
G1 F1213.5 X140.49 Y142.011 E23.64971
G1 X139.511 Y142.01 E23.73769
G1 F1212.2 X139.508 Y143.582 E23.87911
G1 F1330.3 X139.389 Y143.9 E23.90695
G1 F1623 X139.227 Y144.299 E23.93589
G1 F1800 X139.101 Y144.644 E23.95814
G1 X138.903 Y145.026 E23.98421
G1 X138.762 Y145.228 E23.99913
G1 X138.513 Y145.499 E24.02143
G1 X139.988 Y145.499 E24.11079
G0 F1620 X140.001 Y145.499
G0 X140.649 Y145.654
G1 F2100 E19.11079
G1 F300 Z0.56
G0 F6000 X133.51 Y140.196 Z0.56
;TYPE:WALL-OUTER
G1 F300 Z0.24
G1 F2100 E24.11079
G1 F1422.8 X133.239 Y140.482 E24.14067
G1 F1452.3 X132.957 Y140.596 E24.16326
G1 X133.264 Y140.587 E24.18607
G1 F1424.5 X133.505 Y140.579 E24.20433
G1 F1409.3 X134.449 Y140.577 E24.27659
G1 F1416 X134.916 Y140.583 E24.31217
G1 F1422.8 X135.697 Y140.582 E24.37138
G1 X135.595 Y140.342 E24.39115
G1 X135.376 Y140.071 E24.41757
G1 X135.093 Y139.867 E24.44402
G1 X134.773 Y139.752 E24.4698
G1 F1416 X134.424 Y139.73 E24.49644
G1 F1407.6 X134.084 Y139.798 E24.52302
G1 X133.777 Y139.953 E24.54937
G1 X133.62 Y140.096 E24.56565
G0 F1620 X133.51 Y140.196
G0 F6000 X133.29 Y140.428
G0 X132.957 Y140.596
G1 F1472.1 X132.888 Y140.598 E24.5707
G1 F1479.5 X129.8 Y140.599 E24.79586
G1 F1475.8 X129.731 Y140.601 E24.8009
G1 F2100 E19.8009
G1 F300 Z0.56
G0 F6000 X123.69 Y148.057 Z0.56
;TYPE:WALL-INNER
G1 F300 Z0.24
G1 F2100 E24.8009
G1 F1800 X123.863 Y147.786 E24.82038
G1 X124.144 Y147.432 E24.84777
G1 X124.471 Y147.112 E24.87549
G1 X124.816 Y146.844 E24.90195
G1 X125.188 Y146.615 E24.92842
G1 X125.603 Y146.425 E24.95607
G1 X126.021 Y146.288 E24.98272
G1 X126.477 Y146.195 E25.01092
G1 X126.933 Y146.161 E25.03862
G1 X129.03 Y146.159 E25.16567
G1 F1802.7 X129.211 Y146.16 E25.17662
G1 F1873.8 X129.505 Y146.184 E25.19379
G1 F2020.4 X129.799 Y146.208 E25.20971
G1 F2102.7 X136.525 Y146.207 E25.55856
G1 F2044.8 X136.822 Y146.191 E25.57443
G1 F1941.2 X137.119 Y146.175 E25.59114
G1 F1844.7 X137.455 Y146.16 E25.61102
G1 F1800 X140.001 Y146.159 E25.76527
G1 X140.451 Y146.267 E25.79331
G1 X140.612 Y146.349 E25.80426
G1 F1741.9 X140.797 Y146.534 E25.82064
G1 F1634.1 X140.982 Y146.72 E25.83815
G1 F1540.9 X141.167 Y146.906 E25.85671
G1 F1463.1 X141.224 Y147.02 E25.86621
G1 X141.242 Y146.896 E25.87555
G1 F1529 X141.258 Y146.653 E25.89292
G1 F1598.9 X141.275 Y146.409 E25.90961
G1 F1673.2 X141.292 Y146.166 E25.92548
G1 F1757.4 X141.309 Y145.922 E25.94066
G1 F1800 X141.309 Y141.192 E26.22724
G1 X138.692 Y141.191 E26.38579
G1 X138.691 Y143.464 E26.52351
G1 F1802.7 X138.661 Y143.831 E26.54578
G1 X138.606 Y144.074 E26.56085
G1 F1800 X138.481 Y144.419 E26.58309
G1 X138.361 Y144.648 E26.59875
G1 X138.22 Y144.85 E26.61367
G1 X138.045 Y145.042 E26.62941
G1 X137.752 Y145.288 E26.65259
G1 X137.535 Y145.427 E26.66821
G1 X137.315 Y145.53 E26.68292
G1 F1844.7 X137.067 Y145.592 E26.69804
G1 F1976.7 X136.692 Y145.631 E26.71884
G1 F2084.2 X136.525 Y145.641 E26.72759
G1 F2102.7 X129.799 Y145.642 E27.07644
G1 F1944.4 X129.349 Y145.582 E27.1019
G1 F1802.7 X128.86 Y145.232 E27.13828
G1 F1800 X128.695 Y144.922 E27.15956
G1 X128.61 Y144.515 E27.18475
G1 X128.61 Y141.199 E27.38565
G1 X128.612 Y141.189 E27.38627
G1 X126.758 Y141.189 E27.4986
G1 X125.991 Y141.19 E27.54507
G1 X123.69 Y143.49 E27.74218
G1 X123.69 Y146.694 E27.9363
G0 F1620 X123.69 Y148.057
G1 F2100 E22.9363
G1 F300 Z0.56
G0 F6000 X123.691 Y151.944 Z0.56
G1 F300 Z0.24
G1 F2100 E27.9363
G1 F1800 X123.691 Y156.509 E28.21288
G1 X125.99 Y158.81 E28.40995
G1 X128.611 Y158.81 E28.56875
G1 X128.61 Y155.465 E28.77141
G1 X128.717 Y155.049 E28.79743
G1 X128.799 Y154.888 E28.80838
G1 F1822.1 X128.993 Y154.731 E28.82332
G1 F1862.1 X129.188 Y154.574 E28.83798
G1 F1906.9 X129.383 Y154.417 E28.8523
G1 F1996.6 X129.636 Y154.366 E28.8664
G1 F2087.9 X129.8 Y154.358 E28.87497
G1 F2102.7 X136.5 Y154.358 E29.22247
G1 F2080.6 X136.818 Y154.376 E29.23917
G1 F1983.3 X137.056 Y154.409 E29.25238
G1 F1856.2 X137.419 Y154.52 E29.27468
G1 F1800 X137.648 Y154.639 E29.29032
G1 X137.85 Y154.78 E29.30524
G1 X138.04 Y154.953 E29.32081
G1 X138.285 Y155.242 E29.34377
G1 X138.426 Y155.463 E29.35965
G1 X138.53 Y155.686 E29.37456
G1 X138.607 Y155.93 E29.39006
G1 F1802.7 X138.673 Y156.299 E29.41273
G1 X138.689 Y156.473 E29.42331
G1 F1800 X138.69 Y158.809 E29.56484
G1 X141.309 Y158.809 E29.72351
G1 X141.309 Y154.401 E29.99058
G1 F1791.9 X141.307 Y154.046 E30.01218
G1 F1775.8 X141.304 Y153.691 E30.03399
G1 F1760 X141.301 Y153.336 E30.05598
G1 F1680.3 X141.272 Y153.084 E30.07245
G1 F1557 X141.243 Y152.833 E30.09015
G1 F1573.5 X141.108 Y153.114 E30.11175
G1 F1699.6 X141.009 Y153.266 E30.12339
G1 F1762.6 X140.716 Y153.51 E30.14698
G1 F1789.2 X140.422 Y153.755 E30.17031
G1 F1800 X140 Y153.84 E30.19639
G1 X138.145 Y153.841 E30.30878
G1 X137.538 Y153.841 E30.34556
G1 F1856.2 X137.159 Y153.82 E30.36786
G1 F1983.3 X136.846 Y153.8 E30.3851
G1 F2080.6 X136.5 Y153.792 E30.40324
G1 F2102.7 X129.8 Y153.792 E30.75074
G1 F2044.8 X129.415 Y153.809 E30.7713
G1 F1957.2 X129.291 Y153.819 E30.77823
G1 F1913 X129.007 Y153.824 E30.79442
G1 F1879.7 X128.723 Y153.829 E30.8109
G1 F1847.6 X128.439 Y153.834 E30.82767
G1 F1816.5 X128.155 Y153.84 E30.84472
G1 F1800 X126.988 Y153.839 E30.91543
G1 X126.599 Y153.819 E30.93903
G1 X126.209 Y153.757 E30.96295
G1 X125.776 Y153.639 E30.99014
G1 X125.359 Y153.469 E31.01743
G1 X124.97 Y153.257 E31.04427
G1 X124.606 Y153 E31.07126
G1 X124.272 Y152.701 E31.09842
G1 X124.198 Y152.617 E31.10521
G0 F1620 X123.977 Y152.365
G0 X123.723 Y152
G0 X123.691 Y151.944
G1 F2100 E26.10521
