;FLAVOR:Marlin
;TIME:1154
;Filament used: 1.38541m
;Layer height: 0.32
;MINX:12.606
;MINY:128.324
;MINZ:0.24
;MAXX:97.186
;MAXY:171.676
;MAXZ:6.32
;Generated with Cura_SteamEngine 5.0.0
M140 S70
M105
M190 S70
M104 S245
M105
M109 S245
M82 ;absolute extrusion mode
; Ender 3 Max Custom Start G-code
G92 E0 ; Reset Extruder
G28 ; Home all axes
G1 Z2.0 F3000 ; Move Z Axis up little to prevent scratching of Heat Bed
G1 X0.1 Y20 Z0.3 F5000.0 ; Move to start position
G1 X0.1 Y200.0 Z0.3 F1500.0 E15 ; Draw the first line
G1 X0.4 Y200.0 Z0.3 F5000.0 ; Move to side a little
G1 X0.4 Y20 Z0.3 F1500.0 E30 ; Draw the second line
G92 E0 ; Reset Extruder
G1 Z2.0 F3000 ; Move Z Axis up little to prevent scratching of Heat Bed
G1 X5 Y20 Z0.3 F5000.0 ; Move over to prevent blob squish
G92 E0
G92 E0
G1 F2100 E-5
;LAYER_COUNT:19
;LAYER:0
M107
G1 F300 Z0.56
G0 F6000 X24.612 Y129.38 Z0.56
G1 F300 Z0.56
G0 F6000 X18.367 Y132.77
;TYPE:SKIRT
G1 F300 Z0.24
G1 F2100 E0
G1 F1800 X18.845 Y132.308 E0.04816
G1 X19.547 Y131.686 E0.1161
G1 X20.298 Y131.125 E0.18401
G1 X21.095 Y130.631 E0.25193
G1 X21.931 Y130.207 E0.31984
G1 X22.8 Y129.856 E0.38773
G1 X23.696 Y129.579 E0.45567
G1 X24.612 Y129.38 E0.52357
G1 X25.775 Y129.243 E0.6084
G1 X26.35 Y129.206 E0.65014
G1 X28.894 Y129.006 E0.835
G1 X31.486 Y128.729 E1.02383
G1 X33.873 Y128.417 E1.19822
G1 X34.807 Y128.335 E1.26614
G1 X35.629 Y128.326 E1.32569
G1 X36.531 Y128.371 E1.39111
G1 X39.491 Y128.64 E1.60642
G1 X41.974 Y128.792 E1.78663
G1 X44.486 Y128.874 E1.96869
G1 X47.016 Y128.884 E2.15197
G1 X49.532 Y128.825 E2.33428
G1 X52.03 Y128.694 E2.51548
G1 X54.626 Y128.485 E2.70415
G1 X55.718 Y128.377 E2.78364
G1 X56.846 Y128.324 E2.86544
G1 X57.074 Y128.325 E2.88196
G1 X58.019 Y128.37 E2.95049
G1 X60.99 Y128.64 E3.1666
G1 X63.474 Y128.792 E3.34688
G1 X65.986 Y128.874 E3.52895
G1 X68.516 Y128.884 E3.71222
G1 X71.032 Y128.825 E3.89453
G1 X73.53 Y128.694 E4.07574
G1 X76.132 Y128.484 E4.26484
G1 X77.22 Y128.377 E4.34404
G1 X78.396 Y128.324 E4.42932
G1 X78.623 Y128.326 E4.44576
G1 X79.559 Y128.375 E4.51366
G1 X80.13 Y128.444 E4.55532
G1 X83.104 Y128.883 E4.77309
G1 X85.555 Y129.174 E4.95189
G1 X86.762 Y129.306 E5.03985
G1 X87.689 Y129.447 E5.10778
G1 X88.6 Y129.667 E5.17567
G1 X89.588 Y130.001 E5.25122
G1 X89.807 Y130.087 E5.26826
G1 X90.664 Y130.467 E5.33617
G1 X91.486 Y130.918 E5.40409
G1 X92.266 Y131.438 E5.472
G1 X93.066 Y132.081 E5.54635
G1 X93.289 Y132.278 E5.56791
G1 X93.965 Y132.928 E5.63584
G1 X94.582 Y133.633 E5.70371
G1 X95.137 Y134.388 E5.77159
G1 X95.566 Y135.08 E5.83057
G1 X95.69 Y135.298 E5.84874
G1 X96.118 Y136.132 E5.91664
G1 X96.474 Y137 E5.9846
G1 X96.754 Y137.894 E6.05247
G1 X96.982 Y138.95 E6.13073
G1 X97.029 Y139.236 E6.15172
G1 X97.141 Y140.167 E6.21965
G1 X97.172 Y140.836 E6.26817
G1 X97.186 Y141.744 E6.33395
G1 X97.184 Y158.41 E7.54125
G1 X97.175 Y159.091 E7.59058
G1 X97.131 Y159.937 E7.65195
G1 X97.11 Y160.169 E7.66882
G1 X96.986 Y161.098 E7.73672
G1 X96.783 Y162.013 E7.80461
G1 X96.375 Y163.243 E7.89849
G1 X96.289 Y163.459 E7.91533
G1 X95.906 Y164.315 E7.98326
G1 X95.451 Y165.134 E8.05113
G1 X94.927 Y165.912 E8.11908
G1 X94.287 Y166.702 E8.19273
G1 X94.084 Y166.93 E8.21485
G1 X93.431 Y167.603 E8.28278
G1 X92.724 Y168.218 E8.35066
G1 X91.966 Y168.77 E8.41859
G1 X91.243 Y169.212 E8.47997
G1 X91.025 Y169.334 E8.49807
G1 X90.188 Y169.757 E8.56601
G1 X89.318 Y170.106 E8.63391
G1 X88.342 Y170.401 E8.70777
G1 X88.207 Y170.435 E8.71786
G1 X87.289 Y170.625 E8.78577
G1 X86.707 Y170.704 E8.82831
G1 X85.357 Y170.85 E8.92668
G1 X82.848 Y171.158 E9.1098
G1 X81.296 Y171.401 E9.22359
G1 X80.817 Y171.455 E9.25851
G1 X80.112 Y171.559 E9.31014
G1 X79.179 Y171.656 E9.37809
G1 X78.312 Y171.676 E9.44091
G1 X77.286 Y171.628 E9.51532
G1 X76.133 Y171.52 E9.59921
G1 X73.573 Y171.313 E9.78526
G1 X71.039 Y171.179 E9.96908
G1 X68.517 Y171.118 E10.15183
G1 X65.992 Y171.127 E10.33474
G1 X63.506 Y171.207 E10.51492
G1 X60.984 Y171.36 E10.69795
G1 X58.003 Y171.631 E10.91479
G1 X57.009 Y171.676 E10.98687
G1 X56.794 Y171.676 E11.00244
G1 X55.752 Y171.627 E11.07801
G1 X54.592 Y171.517 E11.16242
G1 X52.073 Y171.313 E11.34549
G1 X49.539 Y171.179 E11.52931
G1 X47.017 Y171.118 E11.71206
G1 X44.492 Y171.127 E11.89498
G1 X42.006 Y171.207 E12.07516
G1 X39.484 Y171.36 E12.25819
G1 X36.503 Y171.631 E12.47502
G1 X35.462 Y171.676 E12.5505
G1 X35.229 Y171.675 E12.56738
G1 X33.867 Y171.584 E12.66627
G1 X31.027 Y171.217 E12.87371
G1 X28.526 Y170.964 E13.05581
G1 X27.096 Y170.851 E13.15972
G1 X25.707 Y170.753 E13.26059
G1 X24.776 Y170.647 E13.32847
G1 X23.857 Y170.462 E13.39638
G1 X22.957 Y170.199 E13.4643
G1 X22.083 Y169.861 E13.53218
G1 X21.24 Y169.449 E13.60015
G1 X20.436 Y168.967 E13.66806
G1 X19.676 Y168.418 E13.73598
G1 X18.885 Y167.731 E13.81187
G1 X18.367 Y167.231 E13.86403
G1 X16.177 Y165.04 E14.08843
G1 X15.706 Y164.553 E14.13751
G1 X15.084 Y163.852 E14.2054
G1 X14.523 Y163.101 E14.27331
G1 X14.029 Y162.304 E14.34123
G1 X13.605 Y161.468 E14.40914
G1 X13.253 Y160.599 E14.47706
G1 X12.976 Y159.704 E14.54493
G1 X12.777 Y158.788 E14.61283
G1 X12.657 Y157.858 E14.68076
G1 X12.618 Y157.11 E14.73502
G1 X12.606 Y156.356 E14.78964
G1 X12.607 Y143.632 E15.71138
G1 X12.617 Y142.93 E15.76224
G1 X12.67 Y141.995 E15.83008
G1 X12.803 Y141.067 E15.89799
G1 X13.015 Y140.153 E15.96596
G1 X13.303 Y139.261 E16.03386
G1 X13.667 Y138.397 E16.10177
G1 X14.103 Y137.567 E16.16969
G1 X14.608 Y136.777 E16.23761
G1 X15.178 Y136.034 E16.30545
G1 X15.66 Y135.495 E16.35783
G1 X16.155 Y134.981 E16.40952
G1 X17.403 Y133.733 E16.53738
G0 F1620 X18.367 Y132.77
G1 F2100 E11.53738
G1 F300 Z0.56
G0 F6000 X13.267 Y143.642 Z0.56
G1 F300 Z0.24
G1 F2100 E16.53738
G1 F1800 X13.277 Y142.94 E16.58824
G1 X13.33 Y142.033 E16.65405
G1 X13.462 Y141.133 E16.71994
G1 X13.673 Y140.249 E16.78578
G1 X13.961 Y139.387 E16.85162
G1 X14.324 Y138.554 E16.91744
G1 X14.758 Y137.756 E16.98325
G1 X15.261 Y136.999 E17.04908
G1 X15.828 Y136.289 E17.11491
G1 X16.459 Y135.614 E17.18184
G1 X18.826 Y133.244 E17.42449
G1 X19.304 Y132.782 E17.47264
G1 X19.985 Y132.18 E17.53849
G1 X20.716 Y131.64 E17.60432
G1 X21.491 Y131.166 E17.67013
G1 X22.305 Y130.762 E17.73596
G1 X23.152 Y130.432 E17.80181
G1 X24.024 Y130.177 E17.86762
G1 X24.916 Y130 E17.9335
G1 X25.817 Y129.901 E17.99916
G1 X26.448 Y129.86 E18.04497
G1 X28.979 Y129.662 E18.22888
G1 X31.512 Y129.391 E18.41342
G1 X33.958 Y129.071 E18.59212
G1 X34.864 Y128.993 E18.65799
G1 X35.624 Y128.986 E18.71305
G1 X36.472 Y129.028 E18.77455
G1 X39.427 Y129.296 E18.98949
G1 X41.948 Y129.451 E19.17246
G1 X44.496 Y129.534 E19.35714
G1 X47.028 Y129.544 E19.54056
G1 X49.547 Y129.485 E19.72309
G1 X52.083 Y129.352 E19.90705
G1 X54.689 Y129.142 E20.09644
G1 X55.783 Y129.034 E20.17607
G1 X56.843 Y128.984 E20.25295
G1 X57.071 Y128.985 E20.26946
G1 X57.96 Y129.027 E20.33393
G1 X60.925 Y129.296 E20.5496
G1 X63.448 Y129.451 E20.73272
G1 X65.996 Y129.534 E20.91739
G1 X68.528 Y129.544 E21.10081
G1 X71.047 Y129.485 E21.28334
G1 X73.583 Y129.352 E21.4673
G1 X76.195 Y129.142 E21.65713
G1 X77.285 Y129.034 E21.73647
G1 X78.39 Y128.984 E21.8166
G1 X78.617 Y128.986 E21.83305
G1 X79.525 Y129.034 E21.89892
G1 X80.033 Y129.097 E21.936
G1 X82.998 Y129.534 E22.1531
G1 X85.5 Y129.832 E22.33563
G1 X86.691 Y129.962 E22.42242
G1 X87.589 Y130.1 E22.48824
G1 X88.472 Y130.317 E22.5541
G1 X89.347 Y130.616 E22.62109
G1 X89.566 Y130.702 E22.63813
G1 X90.396 Y131.071 E22.70393
G1 X91.191 Y131.512 E22.76979
G1 X91.944 Y132.02 E22.83559
G1 X92.629 Y132.575 E22.89945
G1 X92.852 Y132.772 E22.92101
G1 X93.506 Y133.403 E22.98684
G1 X94.102 Y134.089 E23.05267
G1 X94.636 Y134.825 E23.11854
G1 X94.992 Y135.407 E23.16797
G1 X95.116 Y135.625 E23.18613
G1 X95.53 Y136.434 E23.25197
G1 X95.872 Y137.276 E23.3178
G1 X96.138 Y138.145 E23.38363
G1 X96.33 Y139.057 E23.45115
G1 X96.377 Y139.343 E23.47214
G1 X96.485 Y140.245 E23.53795
G1 X96.513 Y140.847 E23.58161
G1 X96.526 Y141.744 E23.64659
G1 X96.524 Y158.402 E24.85331
G1 X96.515 Y159.083 E24.90265
G1 X96.474 Y159.877 E24.96024
G1 X96.453 Y160.109 E24.97712
G1 X96.331 Y161.01 E25.04298
G1 X96.131 Y161.896 E25.10878
G1 X95.762 Y162.999 E25.19303
G1 X95.676 Y163.215 E25.20987
G1 X95.303 Y164.044 E25.27573
G1 X94.859 Y164.837 E25.34156
G1 X94.346 Y165.587 E25.40739
G1 X93.794 Y166.263 E25.47061
G1 X93.591 Y166.491 E25.49272
G1 X92.958 Y167.143 E25.55855
G1 X92.269 Y167.736 E25.6244
G1 X91.531 Y168.267 E25.69027
G1 X90.921 Y168.636 E25.74191
G1 X90.703 Y168.758 E25.76001
G1 X89.891 Y169.167 E25.82587
G1 X89.046 Y169.503 E25.89174
G1 X88.181 Y169.761 E25.95713
G1 X88.046 Y169.795 E25.96722
G1 X87.156 Y169.978 E26.03304
G1 X86.635 Y170.048 E26.07112
G1 X85.286 Y170.194 E26.16941
G1 X82.75 Y170.505 E26.3545
G1 X81.193 Y170.749 E26.46866
G1 X80.741 Y170.8 E26.50161
G1 X80.016 Y170.906 E26.55469
G1 X79.112 Y170.999 E26.62052
G1 X78.312 Y171.016 E26.67849
G1 X77.348 Y170.971 E26.7484
G1 X76.174 Y170.861 E26.83382
G1 X73.624 Y170.655 E27.01914
G1 X71.055 Y170.519 E27.2055
G1 X68.53 Y170.458 E27.38847
G1 X66.003 Y170.467 E27.57153
G1 X63.444 Y170.55 E27.757
G1 X60.951 Y170.701 E27.93792
G1 X57.943 Y170.974 E28.15672
G1 X57.009 Y171.016 E28.22445
G1 X56.794 Y171.016 E28.24002
G1 X55.815 Y170.97 E28.31102
G1 X54.641 Y170.858 E28.39645
G1 X52.124 Y170.655 E28.57938
G1 X49.555 Y170.519 E28.76574
G1 X47.03 Y170.458 E28.9487
G1 X44.503 Y170.467 E29.13176
G1 X41.944 Y170.55 E29.31724
G1 X39.451 Y170.701 E29.49816
G1 X36.443 Y170.974 E29.71696
G1 X35.465 Y171.016 E29.78787
G1 X35.232 Y171.015 E29.80475
G1 X33.951 Y170.93 E29.89775
G1 X31.105 Y170.562 E30.10563
G1 X28.551 Y170.304 E30.29159
G1 X27.081 Y170.188 E30.3984
G1 X25.754 Y170.094 E30.49477
G1 X24.851 Y169.99 E30.56062
G1 X23.961 Y169.807 E30.62644
G1 X23.09 Y169.547 E30.69229
G1 X22.245 Y169.211 E30.75816
G1 X21.434 Y168.802 E30.82396
G1 X20.661 Y168.323 E30.88984
G1 X19.934 Y167.778 E30.95565
G1 X19.342 Y167.254 E31.01293
G1 X18.833 Y166.764 E31.06411
G1 X16.652 Y164.581 E31.28765
G1 X16.181 Y164.094 E31.33672
G1 X15.578 Y163.414 E31.40256
G1 X15.038 Y162.683 E31.4684
G1 X14.564 Y161.908 E31.53421
G1 X14.16 Y161.094 E31.60004
G1 X13.829 Y160.247 E31.66591
G1 X13.574 Y159.375 E31.73173
G1 X13.396 Y158.484 E31.79755
G1 X13.298 Y157.58 E31.86342
G1 X13.278 Y157.098 E31.89836
G1 X13.266 Y156.356 E31.95212
G1 X13.267 Y145.005 E32.77439
G0 F1620 X13.267 Y143.642
G1 F2100 E27.77439
G1 F300 Z0.56
;MESH:mount-inner.stl
G0 F6000 X25.246 Y146.369 Z0.56
;TYPE:WALL-INNER
G1 F300 Z0.24
G1 F2100 E32.77439
G1 F1800 X25.461 Y146.218 E32.79031
G1 X25.746 Y146.048 E32.81042
G1 X26.234 Y145.821 E32.84303
G1 X26.72 Y145.658 E32.87408
G1 X27.249 Y145.547 E32.90683
G1 X27.792 Y145.502 E32.93984
G1 X27.884 Y145.5 E32.94542
G1 X29.163 Y145.5 E33.02291
G1 X28.963 Y145.124 E33.04871
G1 X28.924 Y145.007 E33.05618
G1 X28.846 Y144.525 E33.08577
G1 X28.846 Y141.849 E33.2479
G1 X27.16 Y141.85 E33.35004
G1 X25.246 Y143.764 E33.51404
G1 X25.246 Y145.006 E33.58929
G0 F1620 X25.246 Y146.369
G1 F2100 E28.58929
G1 F300 Z0.56
G0 F6000 X25.247 Y153.632 Z0.56
G1 F300 Z0.24
G1 F2100 E33.58929
G1 F1800 X25.247 Y156.236 E33.74706
G1 X27.16 Y158.15 E33.91101
G1 X28.846 Y158.15 E34.01316
G1 X28.846 Y155.443 E34.17717
G1 X29.025 Y154.75 E34.22053
G1 X29.211 Y154.501 E34.23936
G1 X27.851 Y154.498 E34.32176
G1 X27.511 Y154.481 E34.34239
G1 X26.997 Y154.408 E34.37384
G1 X26.488 Y154.273 E34.40574
G1 X26.453 Y154.259 E34.40803
G0 F1620 X25.998 Y154.077
G0 X25.542 Y153.832
G0 X25.247 Y153.632
G1 F2100 E29.40803
G1 F300 Z0.56
G0 F6000 X30.695 Y159.4 Z0.56
;TYPE:WALL-OUTER
G1 F300 Z0.24
G1 F2100 E34.40803
G1 F1485 X33.781 Y159.4 E34.6322
G0 F6000 X34.396 Y159.418
G1 F1434.8 X34.156 Y159.41 E34.65025
G1 F1464.9 X33.781 Y159.4 E34.67787
G1 X34.131 Y159.517 E34.70505
G1 F1434.8 X34.382 Y159.777 E34.73222
G1 F1422.8 X34.632 Y160.017 E34.7585
G1 X34.942 Y160.19 E34.78541
G1 F1414.3 X35.429 Y160.266 E34.82301
G1 F1405.9 X35.793 Y160.207 E34.8513
G1 X36.233 Y159.953 E34.89028
G1 X36.469 Y159.677 E34.91814
G1 X36.587 Y159.423 E34.93963
G1 X35.455 Y159.422 E35.02648
G1 F1414.3 X35.129 Y159.418 E35.05135
G1 F1422.8 X34.396 Y159.418 E35.10693
G0 F6000 X34.156 Y159.41
G0 X34.076 Y159.408
G1 F2100 E30.10693
G1 F300 Z0.56
G0 F6000 X39.411 Y154.501 Z0.56
;TYPE:WALL-INNER
G1 F300 Z0.24
G1 F2100 E35.10693
G1 F1800 X39.686 Y154.816 E35.13226
G1 X39.92 Y155.184 E35.15868
G1 X40.024 Y155.407 E35.17359
G1 X40.153 Y155.814 E35.19946
G1 F1652.3 X40.276 Y156.173 E35.2245
G1 F1351.5 X40.405 Y156.472 E35.25078
G1 F1212.2 X40.406 Y157.989 E35.38725
G1 X41.385 Y157.989 E35.47533
G1 X41.385 Y156.472 E35.6118
G1 F1351.5 X41.486 Y156.066 E35.64556
G1 F1652.3 X41.545 Y155.691 E35.67061
G1 F1800 X41.545 Y154.362 E35.75113
G1 X41.402 Y154.421 E35.7605
G1 X40.896 Y154.5 E35.79153
G1 X39.868 Y154.501 E35.85382
G0 F1620 X39.411 Y154.501
G1 F2100 E30.85382
G1 F300 Z0.56
G0 F6000 X41.545 Y145.654 Z0.56
G1 F300 Z0.24
G1 F2100 E35.85382
G1 F1800 X41.545 Y144.212 E35.94118
G1 F1623 X41.474 Y143.956 E35.95903
G1 F1357.7 X41.402 Y143.682 E35.98179
G1 F1234.9 X41.386 Y143.464 E36.00109
G1 F1213.5 X41.386 Y142.011 E36.13167
G1 X40.407 Y142.01 E36.21966
G1 F1212.2 X40.404 Y143.582 E36.36108
G1 F1330.3 X40.285 Y143.9 E36.38891
G1 F1623 X40.123 Y144.299 E36.41785
G1 F1800 X39.997 Y144.644 E36.4401
G1 X39.799 Y145.026 E36.46617
G1 X39.658 Y145.228 E36.48109
G1 X39.409 Y145.499 E36.50339
G1 X40.884 Y145.499 E36.59276
G0 F1620 X40.897 Y145.499
G0 X41.545 Y145.654
G1 F2100 E31.59276
G1 F300 Z0.56
G0 F6000 X34.406 Y140.196 Z0.56
;TYPE:WALL-OUTER
G1 F300 Z0.24
G1 F2100 E36.59276
G1 F1422.8 X34.135 Y140.482 E36.62263
G1 F1452.3 X33.853 Y140.596 E36.64522
G1 X34.16 Y140.587 E36.66803
G1 F1424.5 X34.401 Y140.579 E36.68629
G1 F1409.3 X35.345 Y140.577 E36.75855
G1 F1416 X35.812 Y140.583 E36.79413
G1 F1422.8 X36.593 Y140.582 E36.85335
G1 X36.491 Y140.342 E36.87312
G1 X36.272 Y140.071 E36.89953
G1 X35.989 Y139.867 E36.92598
G1 X35.669 Y139.752 E36.95177
G1 F1416 X35.32 Y139.73 E36.97841
G1 F1407.6 X34.98 Y139.798 E37.00498
G1 X34.673 Y139.953 E37.03133
G1 X34.516 Y140.096 E37.04761
G0 F1620 X34.406 Y140.196
G0 F6000 X34.186 Y140.428
G0 X33.853 Y140.596
G1 F1472.1 X33.784 Y140.598 E37.05267
G1 F1479.5 X30.696 Y140.599 E37.27782
G1 F1475.8 X30.627 Y140.601 E37.28286
G1 F2100 E32.28286
G1 F300 Z0.56
G0 F6000 X24.586 Y148.057 Z0.56
;TYPE:WALL-INNER
G1 F300 Z0.24
G1 F2100 E37.28286
G1 F1800 X24.759 Y147.786 E37.30234
G1 X25.04 Y147.432 E37.32973
G1 X25.367 Y147.112 E37.35745
G1 X25.712 Y146.844 E37.38392
G1 X26.084 Y146.615 E37.41038
G1 X26.499 Y146.425 E37.43804
G1 X26.917 Y146.288 E37.46469
G1 X27.373 Y146.195 E37.49288
G1 X27.829 Y146.161 E37.52059
G1 X29.926 Y146.159 E37.64764
G1 F1802.7 X30.107 Y146.16 E37.65859
G1 F1873.8 X30.401 Y146.184 E37.67575
G1 F2020.4 X30.695 Y146.208 E37.69168
G1 F2102.7 X37.421 Y146.207 E38.04053
G1 F2044.8 X37.718 Y146.191 E38.05639
G1 F1941.2 X38.015 Y146.175 E38.0731
G1 F1844.7 X38.351 Y146.16 E38.09298
G1 F1800 X40.897 Y146.159 E38.24724
G1 X41.347 Y146.267 E38.27527
G1 X41.508 Y146.349 E38.28622
G1 F1741.9 X41.693 Y146.534 E38.3026
G1 F1634.1 X41.878 Y146.72 E38.32011
G1 F1540.9 X42.063 Y146.906 E38.33868
G1 F1463.1 X42.12 Y147.02 E38.34818
G1 X42.138 Y146.896 E38.35752
G1 F1529 X42.154 Y146.653 E38.37489
G1 F1598.9 X42.171 Y146.409 E38.39157
G1 F1673.2 X42.188 Y146.166 E38.40745
G1 F1757.4 X42.205 Y145.922 E38.42262
G1 F1800 X42.205 Y141.192 E38.7092
G1 X39.588 Y141.191 E38.86775
G1 X39.587 Y143.464 E39.00547
G1 F1802.7 X39.557 Y143.831 E39.02774
G1 X39.502 Y144.074 E39.04282
G1 F1800 X39.377 Y144.419 E39.06505
G1 X39.257 Y144.648 E39.08071
G1 X39.116 Y144.85 E39.09564
G1 X38.941 Y145.042 E39.11138
G1 X38.648 Y145.288 E39.13455
G1 X38.431 Y145.427 E39.15017
G1 X38.211 Y145.53 E39.16489
G1 F1844.7 X37.963 Y145.592 E39.18
G1 F1976.7 X37.588 Y145.631 E39.2008
G1 F2084.2 X37.421 Y145.641 E39.20955
G1 F2102.7 X30.695 Y145.642 E39.5584
G1 F1944.4 X30.245 Y145.582 E39.58387
G1 F1802.7 X29.756 Y145.232 E39.62024
G1 F1800 X29.591 Y144.922 E39.64152
G1 X29.506 Y144.515 E39.66671
G1 X29.506 Y141.199 E39.86762
G1 X29.495 Y141.188 E39.86856
G1 X26.887 Y141.19 E40.02657
