;FLAVOR:Marlin
;TIME:901
;Filament used: 0.848624m
;Layer height: 0.3
;MINX:111.71
;MINY:126.49
;MINZ:0.24
;MAXX:166.51
;MAXY:173.51
;MAXZ:11.06
;Generated with Cura_SteamEngine 5.0.0
M140 S70
M105
M190 S70
M104 S245
M105
M109 S245
M82 ;absolute extrusion mode
; Ender 3 Max Custom Start G-code
G92 E0 ; Reset Extruder
G28 ; Home all axes
G1 Z2.0 F3000 ; Move Z Axis up little to prevent scratching of Heat Bed
G1 X0.1 Y20 Z0.3 F5000.0 ; Move to start position
G1 X0.1 Y200.0 Z0.3 F1500.0 E15 ; Draw the first line
G1 X0.4 Y200.0 Z0.3 F5000.0 ; Move to side a little
G1 X0.4 Y20 Z0.3 F1500.0 E30 ; Draw the second line
G92 E0 ; Reset Extruder
G1 Z2.0 F3000 ; Move Z Axis up little to prevent scratching of Heat Bed
G1 X5 Y20 Z0.3 F5000.0 ; Move over to prevent blob squish
G92 E0
G92 E0
G1 F2100 E-5
;LAYER_COUNT:36
;LAYER:0
M107
G1 F300 Z0.56
G0 F6000 X117.947 Y132.309 Z0.56
G1 F300 Z0.56
G0 F6000 X111.711 Y143.632
;TYPE:SKIRT
G1 F300 Z0.24
G1 F2100 E0
G1 F1800 X111.721 Y142.93 E0.05086
G1 X111.774 Y141.995 E0.1187
G1 X111.907 Y141.067 E0.18661
G1 X112.119 Y140.153 E0.25458
G1 X112.407 Y139.261 E0.32248
G1 X112.771 Y138.397 E0.3904
G1 X113.207 Y137.567 E0.45831
G1 X113.712 Y136.777 E0.52624
G1 X114.282 Y136.034 E0.59407
G1 X114.764 Y135.495 E0.64645
G1 X115.259 Y134.981 E0.69815
G1 X117.459 Y132.781 E0.92353
G1 X117.947 Y132.309 E0.97271
G1 X118.648 Y131.687 E1.0406
G1 X119.4 Y131.127 E1.10852
G1 X120.197 Y130.632 E1.17648
G1 X121.032 Y130.208 E1.24432
G1 X121.901 Y129.856 E1.31224
G1 X122.797 Y129.579 E1.38018
G1 X123.713 Y129.38 E1.44808
G1 X124.704 Y129.255 E1.52044
G1 X126.864 Y129.081 E1.67742
G1 X129.349 Y128.816 E1.85845
G1 X131.539 Y128.505 E2.01869
G1 X133.157 Y128.294 E2.13689
G1 X135.793 Y127.981 E2.32919
G1 X138.33 Y127.605 E2.51498
G1 X140.784 Y127.172 E2.69549
G1 X143.017 Y126.719 E2.86055
G1 X143.942 Y126.572 E2.92839
G1 X145.004 Y126.502 E3.00549
G1 X145.76 Y126.49 E3.06027
G1 X154.095 Y126.49 E3.66406
G1 X154.953 Y126.501 E3.72622
G1 X155.889 Y126.554 E3.79413
G1 X156.817 Y126.687 E3.86204
G1 X157.73 Y126.899 E3.92994
G1 X158.622 Y127.187 E3.99784
G1 X159.486 Y127.551 E4.06576
G1 X160.316 Y127.987 E4.13367
G1 X161.106 Y128.492 E4.2016
G1 X161.85 Y129.062 E4.26949
G1 X162.346 Y129.504 E4.31762
G1 X162.946 Y130.084 E4.37807
G1 X163.385 Y130.535 E4.42366
G1 X164.01 Y131.234 E4.49159
G1 X164.573 Y131.984 E4.55952
G1 X165.069 Y132.779 E4.6274
G1 X165.497 Y133.613 E4.69531
G1 X165.851 Y134.481 E4.76322
G1 X166.131 Y135.376 E4.83115
G1 X166.333 Y136.291 E4.89903
G1 X166.456 Y137.221 E4.96698
G1 X166.498 Y138.004 E5.02379
G1 X166.51 Y138.76 E5.07856
G1 X166.509 Y161.222 E6.70572
G1 X166.499 Y161.948 E6.75832
G1 X166.446 Y162.884 E6.82623
G1 X166.314 Y163.812 E6.89413
G1 X166.103 Y164.726 E6.96208
G1 X165.814 Y165.618 E7.03001
G1 X165.451 Y166.482 E7.09789
G1 X165.016 Y167.312 E7.16578
G1 X164.511 Y168.102 E7.2337
G1 X163.941 Y168.846 E7.30159
G1 X163.49 Y169.354 E7.3508
G1 X162.879 Y169.983 E7.41433
G1 X162.434 Y170.413 E7.45915
G1 X161.732 Y171.035 E7.5271
G1 X160.981 Y171.595 E7.59496
G1 X160.184 Y172.089 E7.66289
G1 X159.348 Y172.513 E7.73079
G1 X158.479 Y172.865 E7.79871
G1 X157.583 Y173.141 E7.86662
G1 X156.667 Y173.34 E7.93453
G1 X155.737 Y173.46 E8.00246
G1 X154.994 Y173.498 E8.05635
G1 X154.24 Y173.51 E8.11098
G1 X145.679 Y173.508 E8.73114
G1 X144.95 Y173.493 E8.78396
G1 X144.014 Y173.433 E8.8519
G1 X143.018 Y173.281 E8.92489
G1 X140.363 Y172.749 E9.12104
G1 X137.923 Y172.332 E9.30036
G1 X135.418 Y171.976 E9.48365
G1 X134.567 Y171.883 E9.54566
G1 X134.367 Y171.852 E9.56032
G1 X132.443 Y171.617 E9.70074
G1 X130.926 Y171.389 E9.81186
G1 X128.403 Y171.077 E9.99602
G1 X124.602 Y170.735 E10.27248
G1 X123.673 Y170.611 E10.34037
G1 X122.758 Y170.409 E10.40825
G1 X121.863 Y170.129 E10.47619
G1 X120.995 Y169.774 E10.54412
G1 X120.161 Y169.347 E10.61199
G1 X119.366 Y168.85 E10.67991
G1 X118.617 Y168.287 E10.74779
G1 X117.989 Y167.73 E10.8086
G1 X117.469 Y167.229 E10.86091
G1 X115.289 Y165.047 E11.08434
G1 X114.818 Y164.561 E11.13337
G1 X114.195 Y163.861 E11.20125
G1 X113.634 Y163.11 E11.26916
G1 X113.139 Y162.314 E11.33706
G1 X112.713 Y161.479 E11.40496
G1 X112.361 Y160.61 E11.47288
G1 X112.083 Y159.715 E11.54077
G1 X111.883 Y158.799 E11.60869
G1 X111.762 Y157.869 E11.67663
G1 X111.722 Y157.11 E11.73169
G1 X111.71 Y156.356 E11.78632
G1 X111.711 Y144.995 E12.60931
G0 F1620 X111.711 Y143.632
G0 F6000 X112.371 Y143.642
G1 F1800 X112.381 Y142.94 E12.66017
G1 X112.434 Y142.033 E12.72599
G1 X112.566 Y141.133 E12.79188
G1 X112.777 Y140.249 E12.85772
G1 X113.065 Y139.387 E12.92355
G1 X113.428 Y138.554 E12.98938
G1 X113.862 Y137.756 E13.05518
G1 X114.365 Y136.999 E13.12102
G1 X114.932 Y136.289 E13.18684
G1 X115.563 Y135.614 E13.25378
G1 X117.918 Y133.256 E13.49519
G1 X118.406 Y132.784 E13.54437
G1 X119.087 Y132.181 E13.61027
G1 X119.818 Y131.641 E13.6761
G1 X120.593 Y131.167 E13.74191
G1 X121.407 Y130.763 E13.80774
G1 X122.253 Y130.432 E13.87355
G1 X123.126 Y130.177 E13.93943
G1 X124.017 Y129.999 E14.00525
G1 X124.757 Y129.912 E14.05923
G1 X126.948 Y129.735 E14.21846
G1 X129.455 Y129.468 E14.4011
G1 X131.625 Y129.16 E14.55987
G1 X133.235 Y128.949 E14.6775
G1 X135.899 Y128.632 E14.87184
G1 X138.433 Y128.257 E15.0574
G1 X140.908 Y127.82 E15.23947
G1 X143.148 Y127.366 E15.40503
G1 X144.045 Y127.225 E15.47081
G1 X145.016 Y127.162 E15.5413
G1 X145.76 Y127.15 E15.5952
G1 X154.095 Y127.15 E16.19899
G1 X154.943 Y127.161 E16.26043
G1 X155.851 Y127.214 E16.32632
G1 X156.75 Y127.346 E16.39214
G1 X157.634 Y127.557 E16.45797
G1 X158.496 Y127.845 E16.52381
G1 X159.329 Y128.208 E16.58963
G1 X160.128 Y128.642 E16.6555
G1 X160.885 Y129.145 E16.72134
G1 X161.893 Y129.984 E16.81635
G1 X162.473 Y130.545 E16.8748
G1 X162.912 Y130.996 E16.92039
G1 X163.517 Y131.674 E16.98622
G1 X164.06 Y132.403 E17.05207
G1 X164.536 Y133.177 E17.11789
G1 X164.943 Y133.99 E17.18375
G1 X165.276 Y134.835 E17.24955
G1 X165.534 Y135.707 E17.31542
G1 X165.715 Y136.598 E17.38128
G1 X165.816 Y137.501 E17.44711
G1 X165.838 Y138.016 E17.48445
G1 X165.85 Y138.76 E17.53835
G1 X165.849 Y161.213 E19.16486
G1 X165.839 Y161.939 E19.21745
G1 X165.787 Y162.847 E19.28334
G1 X165.655 Y163.746 E19.34916
G1 X165.444 Y164.63 E19.415
G1 X165.157 Y165.492 E19.48081
G1 X164.794 Y166.326 E19.5467
G1 X164.36 Y167.124 E19.61251
G1 X163.858 Y167.882 E19.67837
G1 X163.01 Y168.9 E19.77434
G1 X162.42 Y169.509 E19.83577
G1 X161.975 Y169.939 E19.88059
G1 X161.294 Y170.541 E19.94644
G1 X160.563 Y171.081 E20.01227
G1 X159.788 Y171.554 E20.07805
G1 X158.973 Y171.958 E20.14394
G1 X158.127 Y172.289 E20.20975
G1 X157.254 Y172.543 E20.27561
G1 X156.363 Y172.721 E20.34143
G1 X155.46 Y172.819 E20.40723
G1 X154.982 Y172.838 E20.44188
G1 X154.24 Y172.85 E20.49564
G1 X145.692 Y172.848 E21.11486
G1 X144.963 Y172.833 E21.16768
G1 X144.057 Y172.774 E21.23345
G1 X143.148 Y172.634 E21.30008
G1 X140.501 Y172.104 E21.49564
G1 X137.985 Y171.673 E21.68055
G1 X135.52 Y171.323 E21.86091
G1 X134.639 Y171.227 E21.92511
G1 X134.452 Y171.198 E21.93881
G1 X132.541 Y170.965 E22.07827
G1 X130.99 Y170.732 E22.19189
G1 X128.483 Y170.421 E22.37489
G1 X124.661 Y170.078 E22.65287
G1 X123.761 Y169.956 E22.71866
G1 X122.874 Y169.757 E22.78452
G1 X122.008 Y169.48 E22.85038
G1 X121.171 Y169.128 E22.91616
G1 X120.367 Y168.704 E22.982
G1 X119.603 Y168.21 E23.04791
G1 X118.886 Y167.652 E23.11372
G1 X118.445 Y167.253 E23.1568
G1 X117.936 Y166.762 E23.20804
G1 X115.763 Y164.588 E23.4307
G1 X115.292 Y164.102 E23.47973
G1 X114.689 Y163.422 E23.54557
G1 X114.148 Y162.692 E23.61139
G1 X113.673 Y161.917 E23.67724
G1 X113.268 Y161.103 E23.7431
G1 X112.936 Y160.257 E23.80893
G1 X112.68 Y159.385 E23.87477
G1 X112.502 Y158.494 E23.94059
G1 X112.402 Y157.591 E24.0064
G1 X112.382 Y157.098 E24.04214
G1 X112.37 Y156.356 E24.0959
G1 X112.371 Y145.005 E24.91817
G0 F1620 X112.371 Y143.642
G1 F2100 E19.91817
G1 F300 Z0.56
;MESH:mount-inner.stl
G0 F6000 X124.351 Y146.368 Z0.56
;TYPE:WALL-INNER
G1 F300 Z0.24
G1 F2100 E24.91817
G1 F1800 X124.591 Y146.2 E24.93592
G1 X124.877 Y146.034 E24.95596
G1 X125.351 Y145.814 E24.98762
G1 X125.855 Y145.65 E25.01973
G1 X126.375 Y145.543 E25.05189
G1 X126.902 Y145.501 E25.08393
G1 X128.967 Y145.5 E25.20904
G1 X128.767 Y145.124 E25.23484
G1 X128.728 Y145.007 E25.24231
G1 X128.65 Y144.5 E25.27339
G1 X128.65 Y141.849 E25.43401
G1 X126.264 Y141.85 E25.57857
G1 X124.351 Y143.764 E25.74252
G1 X124.351 Y145.005 E25.81771
G0 F1620 X124.351 Y146.368
G1 F2100 E20.81771
G1 F300 Z0.56
G0 F6000 X124.351 Y153.631 Z0.56
G1 F300 Z0.24
G1 F2100 E25.81771
G1 F1800 X124.35 Y154.891 E25.89405
G1 X124.352 Y155.148 E25.90962
G1 X124.351 Y156.236 E25.97554
G1 X126.264 Y158.15 E26.13949
G1 X128.65 Y158.15 E26.28405
G1 X128.65 Y155.499 E26.44466
G1 X128.829 Y154.75 E26.49132
G1 X129.015 Y154.501 E26.51015
G1 X126.955 Y154.499 E26.63496
G1 X126.615 Y154.481 E26.65559
G1 X126.076 Y154.404 E26.68858
G1 X125.555 Y154.261 E26.72131
G0 F1620 X125.552 Y154.26
G0 X125.085 Y154.071
G0 X124.618 Y153.816
G0 X124.351 Y153.631
G1 F2100 E21.72131
G1 F300 Z0.56
G0 F6000 X130.499 Y159.25 Z0.56
;TYPE:WALL-OUTER
G1 F300 Z0.24
G1 F2100 E26.72131
G1 F1081 X132.771 Y159.25 E26.94803
G1 F2100 E21.94803
G1 F300 Z0.56
G0 F6000 X135.912 Y159.395 Z0.56
G1 F300 Z0.24
G1 F2100 E26.94803
G1 F1800 X135.949 Y159.03 E26.97002
G1 X135.647 Y159.032 E26.98812
G1 X133.564 Y159.031 E27.11295
G1 F1682.7 X133.237 Y159.077 E27.13411
G1 F1416 X133.004 Y159.163 E27.15304
G1 F1172.8 X132.771 Y159.25 E27.17591
G1 F1192.8 X132.985 Y159.407 E27.19992
G1 F1530.9 X133.209 Y159.703 E27.22607
G1 F1800 X133.363 Y159.923 E27.24216
G1 X133.588 Y160.148 E27.26123
G1 X133.844 Y160.302 E27.27914
G1 X134.181 Y160.431 E27.30076
G1 X134.426 Y160.463 E27.31557
G1 X134.874 Y160.407 E27.34263
G1 X135.276 Y160.235 E27.36883
G1 X135.482 Y160.089 E27.38396
G1 X135.576 Y159.976 E27.39277
G0 F1620 X135.742 Y159.775
G0 X135.912 Y159.395
G0 F6000 X135.944 Y159.076
G1 F2100 E22.39277
G1 F300 Z0.56
G0 F6000 X138.515 Y154.501 Z0.56
;TYPE:WALL-INNER
G1 F300 Z0.24
G1 F2100 E27.39277
G1 F1800 X138.79 Y154.816 E27.4181
G1 X139.024 Y155.184 E27.44452
G1 X139.128 Y155.407 E27.45943
G1 X139.257 Y155.814 E27.4853
G1 F1652.3 X139.38 Y156.173 E27.51035
G1 F1351.5 X139.509 Y156.472 E27.53662
G1 F1212.2 X139.51 Y157.989 E27.6731
G1 X140.489 Y157.989 E27.76117
G1 X140.489 Y156.472 E27.89764
G1 F1351.5 X140.59 Y156.066 E27.9314
G1 F1652.3 X140.649 Y155.691 E27.95646
G1 F1800 X140.649 Y154.362 E28.03698
G1 X140.506 Y154.421 E28.04635
G1 X140 Y154.5 E28.07738
G1 X138.972 Y154.501 E28.13966
G0 F1620 X138.515 Y154.501
G1 F2100 E23.13966
G1 F300 Z0.56
G0 F6000 X140.649 Y145.654 Z0.56
G1 F300 Z0.24
G1 F2100 E28.13966
G1 F1800 X140.649 Y144.212 E28.22703
G1 F1623 X140.578 Y143.956 E28.24488
G1 F1357.7 X140.506 Y143.682 E28.26763
G1 F1234.9 X140.49 Y143.464 E28.28694
G1 F1213.5 X140.49 Y142.011 E28.41752
G1 X139.511 Y142.01 E28.5055
G1 F1212.2 X139.508 Y143.582 E28.64692
G1 F1330.3 X139.389 Y143.9 E28.67475
G1 F1623 X139.227 Y144.299 E28.70369
G1 F1800 X139.101 Y144.644 E28.72594
G1 X138.903 Y145.026 E28.75201
G1 X138.762 Y145.228 E28.76694
G1 X138.513 Y145.499 E28.78923
G1 X139.988 Y145.499 E28.8786
G0 F1620 X140.001 Y145.499
G0 X140.649 Y145.654
G1 F2100 E23.8786
G1 F300 Z0.56
G0 F6000 X132.999 Y140.629 Z0.56
;TYPE:WALL-OUTER
G1 F300 Z0.24
G1 F2100 E28.8786
G1 F1137.9 X132.867 Y140.744 E28.8952
G1 F1223.5 X133.233 Y140.885 E28.92978
G1 F1594.6 X133.57 Y140.969 E28.95327
G1 F1800 X134.446 Y140.97 E29.00577
G1 X135.962 Y140.97 E29.09662
G1 X135.862 Y140.475 E29.12688
G1 X135.659 Y140.114 E29.1517
G1 X135.492 Y139.919 E29.16709
G1 X135.3 Y139.772 E29.18158
G1 X135.024 Y139.631 E29.20015
G1 X134.785 Y139.56 E29.21509
G1 X134.534 Y139.535 E29.23021
G1 X134.23 Y139.56 E29.24849
G1 X133.935 Y139.655 E29.26706
G1 X133.631 Y139.818 E29.28774
G1 X133.45 Y139.978 E29.30221
G1 X133.212 Y140.294 E29.32592
G1 F1452.3 X132.999 Y140.629 E29.35541
G0 F6000 X132.867 Y140.744
G0 X133.002 Y140.796
G0 X132.867 Y140.744
G1 F1072.2 X132.771 Y140.748 E29.36507
G1 F1077.1 X130.5 Y140.749 E29.59252
G1 F1074.1 X130.405 Y140.753 E29.60207
G1 F2100 E24.60207
G1 F300 Z0.56
G0 F6000 X134.334 Y140.261 Z0.56
;TYPE:WALL-INNER
G1 F300 Z0.24
G1 F2100 E29.60207
G1 F1563.2 X134.646 Y140.259 E29.62384
G1 F2100 E24.62384
G1 F300 Z0.56
G0 F6000 X123.695 Y148.04 Z0.56
G1 F300 Z0.24
G1 F2100 E29.62384
G1 F1800 X123.88 Y147.764 E29.64397
G1 X124.153 Y147.423 E29.67043
G1 X124.482 Y147.102 E29.69828
G1 X124.828 Y146.834 E29.7248
G1 X125.21 Y146.604 E29.75181
G1 X125.615 Y146.419 E29.77879
G1 X126.045 Y146.282 E29.80613
G1 X126.497 Y146.192 E29.83405
G1 X126.936 Y146.161 E29.86072
G1 X129.73 Y146.159 E30.03
G1 F1802.7 X129.911 Y146.16 E30.04095
G1 F1873.8 X130.205 Y146.184 E30.05811
G1 F2020.4 X130.499 Y146.208 E30.07404
G1 F2102.7 X136.525 Y146.207 E30.38658
G1 F2044.8 X136.822 Y146.191 E30.40244
G1 F1941.2 X137.119 Y146.175 E30.41915
G1 F1844.7 X137.455 Y146.16 E30.43904
G1 F1800 X140.001 Y146.159 E30.59329
G1 X140.451 Y146.267 E30.62133
G1 X140.612 Y146.349 E30.63228
G1 F1741.9 X140.797 Y146.534 E30.64865
G1 F1634.1 X140.982 Y146.72 E30.66616
G1 F1540.9 X141.167 Y146.906 E30.68473
G1 F1463.1 X141.224 Y147.02 E30.69423
G1 X141.242 Y146.896 E30.70357
G1 F1529 X141.258 Y146.653 E30.72094
G1 F1598.9 X141.275 Y146.409 E30.73762
G1 F1673.2 X141.292 Y146.166 E30.7535
G1 F1757.4 X141.309 Y145.922 E30.76868
G1 F1800 X141.309 Y141.192 E31.05525
G1 X138.692 Y141.191 E31.21381
G1 X138.691 Y143.464 E31.35152
G1 F1802.7 X138.661 Y143.831 E31.3738
G1 X138.606 Y144.074 E31.38887
G1 F1800 X138.481 Y144.419 E31.4111
G1 X138.361 Y144.648 E31.42676
G1 X138.22 Y144.85 E31.44169
G1 X138.045 Y145.042 E31.45743
G1 X137.752 Y145.288 E31.48061
G1 X137.535 Y145.427 E31.49622
G1 X137.315 Y145.53 E31.51094
G1 F1844.7 X137.067 Y145.592 E31.52605
G1 F1976.7 X136.692 Y145.631 E31.54685
G1 F2084.2 X136.525 Y145.641 E31.55561
G1 F2102.7 X130.499 Y145.642 E31.86815
G1 F1944.4 X130.049 Y145.582 E31.89361
G1 F1802.7 X129.56 Y145.232 E31.92999
G1 F1800 X129.395 Y144.922 E31.95127
G1 X129.31 Y144.5 E31.97735
G1 X129.31 Y141.499 E32.15917
G1 X129.384 Y141.188 E32.17854
G1 X125.991 Y141.19 E32.38411
G1 X123.691 Y143.491 E32.58122
G1 X123.691 Y146.677 E32.77425
G0 F1620 X123.691 Y147.708
G0 X123.695 Y148.04
G1 F2100 E27.77425
G1 F300 Z0.56
G0 F6000 X123.69 Y151.944 Z0.56
G1 F300 Z0.24
G1 F2100 E32.77425
G1 F1800 X123.691 Y156.509 E33.05083
G1 X125.99 Y158.81 E33.2479
G1 X129 Y158.81 E33.43026
G1 X129.353 Y158.805 E33.45165
G1 X129.31 Y158.5 E33.47032
G1 X129.31 Y155.499 E33.65214
G1 X129.417 Y155.049 E33.68016
G1 X129.499 Y154.888 E33.69111
G1 F1822.1 X129.693 Y154.731 E33.70604
G1 F1862.1 X129.888 Y154.574 E33.72071
G1 F1906.9 X130.083 Y154.417 E33.73502
G1 F1996.6 X130.336 Y154.366 E33.74912
G1 F2087.9 X130.5 Y154.358 E33.7577
G1 F2102.7 X136.5 Y154.358 E34.06889
G1 F2080.6 X136.818 Y154.376 E34.08559
G1 F1983.3 X137.056 Y154.409 E34.0988
G1 F1856.2 X137.419 Y154.52 E34.1211
G1 F1800 X137.648 Y154.639 E34.13674
G1 X137.85 Y154.78 E34.15166
G1 X138.04 Y154.953 E34.16723
G1 X138.285 Y155.242 E34.19018
G1 X138.426 Y155.463 E34.20607
G1 X138.53 Y155.686 E34.22098
G1 X138.607 Y155.93 E34.23648
G1 F1802.7 X138.673 Y156.299 E34.25915
G1 X138.689 Y156.473 E34.26972
G1 F1800 X138.69 Y158.809 E34.41125
G1 X141.309 Y158.809 E34.56993
G1 X141.309 Y154.401 E34.837
G1 F1791.9 X141.307 Y154.046 E34.8586
G1 F1775.8 X141.304 Y153.691 E34.88041
G1 F1760 X141.301 Y153.336 E34.9024
G1 F1680.3 X141.272 Y153.084 E34.91887
G1 F1557 X141.243 Y152.833 E34.93656
G1 F1573.5 X141.108 Y153.114 E34.95817
G1 F1699.6 X141.009 Y153.266 E34.96981
G1 F1762.6 X140.716 Y153.51 E34.9934
G1 F1789.2 X140.422 Y153.755 E35.01673
G1 F1800 X140 Y153.84 E35.04281
G1 X138.145 Y153.841 E35.1552
G1 X137.538 Y153.841 E35.19197
G1 F1856.2 X137.159 Y153.82 E35.21428
G1 F1983.3 X136.846 Y153.8 E35.23152
G1 F2080.6 X136.5 Y153.792 E35.24966
G1 F2102.7 X130.5 Y153.792 E35.56086
G1 F2044.8 X130.115 Y153.809 E35.58141
G1 F1957.2 X129.991 Y153.819 E35.58834
G1 F1913 X129.707 Y153.824 E35.60454
G1 F1879.7 X129.423 Y153.829 E35.62101
