;FLAVOR:Marlin
;TIME:882
;Filament used: 1.65106m
;Layer height: 0.28
;MINX:94.876
;MINY:107.923
;MINZ:0.24
;MAXX:155.124
;MAXY:142.077
;MAXZ:11.16
;TARGET_MACHINE.NAME:VORON2 250
;Generated with Cura_SteamEngine 5.6.0
M140 S75
M105
M190 S75
M104 S235
M105
M109 S235
M82 ;absolute extrusion mode
START_PRINT
G92 E0
G92 E0
G1 F1800 E-1
;LAYER_COUNT:39
;LAYER:0
M107
M204 S1000
G1 F600 Z0.52
G0 F9000 X97.121 Y109.016 Z0.52
;TYPE:SKIRT
G1 F600 Z0.24
G1 F720 E0
G1 F1800 X97.559 Y108.653 E0.03451
G1 X98.13 Y108.323 E0.07452
G1 X98.656 Y108.111 E0.10893
G1 X99.295 Y107.972 E0.1486
G1 X99.77 Y107.934 E0.17751
G1 X100.387 Y107.923 E0.21494
G1 X109.158 Y107.923 E0.74705
G1 X109.995 Y107.935 E0.79783
G1 X112.453 Y107.939 E0.94695
G1 X113.876 Y107.923 E1.03329
G1 X122.658 Y107.923 E1.56606
G1 X123.495 Y107.935 E1.61684
G1 X125.953 Y107.939 E1.76596
G1 X127.376 Y107.923 E1.85229
G1 X136.187 Y107.923 E2.38683
G1 X137.051 Y107.939 E2.43925
G1 X139.428 Y108.069 E2.58367
G1 X142.203 Y108.147 E2.75209
G1 X143.562 Y108.157 E2.83453
G1 X149.513 Y108.157 E3.19556
G1 X150.215 Y108.167 E3.23815
G1 X150.831 Y108.223 E3.27568
G1 X151.375 Y108.36 E3.30971
G1 X151.99 Y108.613 E3.35005
G1 X152.542 Y108.966 E3.3898
G1 X152.915 Y109.283 E3.4195
G1 X153.508 Y109.86 E3.4697
G1 X154.028 Y110.398 E3.51509
G1 X154.39 Y110.834 E3.54947
G1 X154.723 Y111.406 E3.58962
G1 X154.915 Y111.884 E3.62087
G1 X155.072 Y112.524 E3.66085
G1 X155.115 Y113.053 E3.69305
G1 X155.124 Y113.579 E3.72496
G1 X155.124 Y136.466 E5.11344
G1 X155.114 Y137.168 E5.15603
G1 X155.058 Y137.784 E5.19355
G1 X154.921 Y138.328 E5.22759
G1 X154.668 Y138.943 E5.26793
G1 X154.315 Y139.495 E5.30768
G1 X153.994 Y139.872 E5.33772
G1 X153.41 Y140.471 E5.38847
G1 X152.878 Y140.984 E5.43331
G1 X152.402 Y141.369 E5.47045
G1 X151.917 Y141.658 E5.5047
G1 X151.343 Y141.889 E5.54223
G1 X150.705 Y142.028 E5.58185
G1 X150.23 Y142.066 E5.61076
G1 X149.613 Y142.077 E5.64819
G1 X140.813 Y142.077 E6.18206
G1 X139.949 Y142.061 E6.23448
G1 X137.572 Y141.931 E6.3789
G1 X134.797 Y141.853 E6.54732
G1 X133.438 Y141.843 E6.62977
G1 X127.514 Y141.843 E6.98916
G1 X126.677 Y141.831 E7.03994
G1 X124.219 Y141.827 E7.18906
G1 X122.796 Y141.843 E7.27539
G1 X114.014 Y141.843 E7.80816
G1 X113.177 Y141.831 E7.85895
G1 X110.719 Y141.827 E8.00807
G1 X109.296 Y141.843 E8.0944
G1 X100.487 Y141.843 E8.62881
G1 X99.784 Y141.833 E8.67146
G1 X99.168 Y141.777 E8.70899
G1 X98.624 Y141.64 E8.74302
G1 X98.009 Y141.387 E8.78336
G1 X97.456 Y141.033 E8.8232
G1 X97.077 Y140.71 E8.85341
G1 X96.473 Y140.12 E8.90463
G1 X95.969 Y139.597 E8.94869
G1 X95.606 Y139.159 E8.98321
G1 X95.276 Y138.588 E9.02322
G1 X95.064 Y138.062 E9.05762
G1 X94.925 Y137.423 E9.09729
G1 X94.887 Y136.949 E9.12614
G1 X94.876 Y136.332 E9.16358
G1 X94.876 Y113.534 E10.54665
G1 X94.886 Y112.832 E10.58925
G1 X94.942 Y112.216 E10.62677
G1 X95.079 Y111.672 E10.6608
G1 X95.332 Y111.057 E10.70115
G1 X95.685 Y110.505 E10.7409
G1 X96.003 Y110.131 E10.77068
G1 X96.598 Y109.52 E10.82242
G1 X96.823 Y109.304 E10.84134
G0 F1620 X97.121 Y109.016
G0 F9000 X97.529 Y109.509
G1 F1800 X97.926 Y109.18 E10.87262
G1 X98.369 Y108.917 E10.90387
G1 X98.846 Y108.725 E10.93507
G1 X99.348 Y108.61 E10.96631
G1 X99.781 Y108.574 E10.99267
G1 X100.398 Y108.563 E11.03011
G1 X109.149 Y108.563 E11.561
G1 X109.986 Y108.575 E11.61178
G1 X112.459 Y108.579 E11.76181
G1 X113.883 Y108.563 E11.84821
G1 X122.649 Y108.563 E12.38001
G1 X123.486 Y108.575 E12.43079
G1 X125.959 Y108.579 E12.58082
G1 X127.383 Y108.563 E12.66722
G1 X136.176 Y108.563 E13.20066
G1 X137.016 Y108.578 E13.25162
G1 X139.41 Y108.709 E13.39708
G1 X142.185 Y108.787 E13.56549
G1 X143.557 Y108.797 E13.64873
G1 X149.504 Y108.797 E14.00951
G1 X150.206 Y108.807 E14.0521
G1 X150.719 Y108.855 E14.08336
G1 X151.218 Y108.981 E14.11459
G1 X151.692 Y109.182 E14.14582
G1 X152.129 Y109.455 E14.17708
G1 X152.469 Y109.742 E14.20407
G1 X153.049 Y110.306 E14.25315
G1 X153.536 Y110.807 E14.29554
G1 X153.865 Y111.203 E14.32677
G1 X154.129 Y111.645 E14.35801
G1 X154.321 Y112.123 E14.38926
G1 X154.438 Y112.624 E14.42047
G1 X154.475 Y113.064 E14.44726
G1 X154.484 Y113.59 E14.47917
G1 X154.484 Y136.457 E15.86643
G1 X154.474 Y137.159 E15.90902
G1 X154.426 Y137.672 E15.94028
G1 X154.3 Y138.171 E15.9715
G1 X154.099 Y138.645 E16.00274
G1 X153.826 Y139.082 E16.034
G1 X153.536 Y139.425 E16.06125
G1 X152.964 Y140.012 E16.11097
G1 X152.47 Y140.491 E16.15271
G1 X152.074 Y140.819 E16.18391
G1 X151.631 Y141.083 E16.21519
G1 X151.153 Y141.275 E16.24644
G1 X150.652 Y141.39 E16.27763
G1 X150.219 Y141.426 E16.30399
G1 X149.602 Y141.437 E16.34143
G1 X140.824 Y141.437 E16.87396
G1 X139.984 Y141.422 E16.92492
G1 X137.59 Y141.291 E17.07038
G1 X134.815 Y141.213 E17.23879
G1 X133.443 Y141.203 E17.32203
G1 X127.523 Y141.203 E17.68117
G1 X126.686 Y141.191 E17.73196
G1 X124.213 Y141.187 E17.88199
G1 X122.789 Y141.203 E17.96838
G1 X114.023 Y141.203 E18.50018
G1 X113.186 Y141.191 E18.55097
G1 X110.713 Y141.187 E18.70099
G1 X109.289 Y141.203 E18.78739
G1 X100.496 Y141.203 E19.32083
G1 X99.793 Y141.193 E19.36348
G1 X99.28 Y141.145 E19.39474
G1 X98.781 Y141.019 E19.42596
G1 X98.307 Y140.818 E19.4572
G1 X97.87 Y140.545 E19.48846
G1 X97.524 Y140.252 E19.51596
G1 X96.933 Y139.675 E19.56607
G1 X96.462 Y139.189 E19.60713
G1 X96.133 Y138.792 E19.63841
G1 X95.87 Y138.349 E19.66966
G1 X95.678 Y137.872 E19.70086
G1 X95.563 Y137.37 E19.7321
G1 X95.527 Y136.938 E19.7584
G1 X95.516 Y136.321 E19.79584
G1 X95.516 Y113.543 E21.1777
G1 X95.526 Y112.841 E21.22029
G1 X95.574 Y112.328 E21.25155
G1 X95.7 Y111.829 E21.28277
G1 X95.901 Y111.355 E21.31401
G1 X96.174 Y110.918 E21.34527
G1 X96.462 Y110.577 E21.37234
G1 X97.043 Y109.98 E21.42288
G1 X97.231 Y109.798 E21.43876
G0 F1620 X97.529 Y109.509
G1 F1800 E20.43876
G1 F600 Z0.52
;MESH:aza-mount-outer.stl(2)
G0 F9000 X109.056 Y128.374 Z0.52
;TYPE:WALL-INNER
G1 F600 Z0.24
G1 F720 E21.43876
G1 F1800 X108.712 Y128.621 E21.46411
G1 X108.414 Y128.795 E21.48477
G1 X108.254 Y128.876 E21.49551
G1 X107.954 Y129.006 E21.51508
G1 X107.478 Y129.162 E21.54507
G1 X106.981 Y129.266 E21.57547
G1 X106.801 Y129.288 E21.58632
G1 X106.467 Y129.31 E21.60636
G1 X106.3 Y129.312 E21.61636
G1 X105.914 Y129.294 E21.6395
G1 X105.461 Y129.225 E21.66693
G1 X105.299 Y129.189 E21.67686
G1 X104.965 Y129.095 E21.69764
G1 X104.802 Y129.038 E21.70798
G1 X104.5 Y128.914 E21.72752
G1 X104.335 Y128.835 E21.73847
G1 X103.914 Y128.59 E21.76763
G1 X103.641 Y128.398 E21.78762
G1 X103.497 Y128.282 E21.79869
G1 X103.24 Y128.049 E21.81945
G1 X103.119 Y127.926 E21.82978
G1 X102.906 Y127.684 E21.84908
G1 X102.61 Y127.278 E21.87916
G1 X102.512 Y127.119 E21.89035
G1 X102.289 Y126.68 E21.91983
G1 X102.114 Y126.223 E21.94912
G1 X102.027 Y125.902 E21.96903
G1 X101.959 Y125.551 E21.99044
G1 X101.912 Y125.072 E22.01925
G1 X101.908 Y124.893 E22.02997
G1 X101.92 Y124.551 E22.05046
G1 X101.936 Y124.376 E22.06098
G1 X102.017 Y123.904 E22.08965
G1 X102.102 Y123.579 E22.10976
G1 X102.161 Y123.399 E22.1211
G1 X102.29 Y123.078 E22.14181
G1 X102.36 Y122.928 E22.15172
G1 X102.514 Y122.643 E22.17112
G1 X102.609 Y122.488 E22.182
G1 X102.905 Y122.083 E22.21203
G1 X103.118 Y121.84 E22.23138
G1 X103.237 Y121.719 E22.24154
G1 X103.492 Y121.487 E22.26218
G1 X103.646 Y121.364 E22.27398
G1 X104.048 Y121.093 E22.303
G1 X104.333 Y120.934 E22.32254
G1 X104.499 Y120.855 E22.33355
G1 X104.816 Y120.726 E22.35404
G1 X104.973 Y120.672 E22.36398
G1 X105.298 Y120.58 E22.3842
G1 X105.462 Y120.543 E22.39426
G1 X105.915 Y120.474 E22.4217
G1 X106.301 Y120.456 E22.44483
G1 X106.471 Y120.458 E22.45501
G1 X106.81 Y120.481 E22.47535
G1 X107.14 Y120.528 E22.49531
G1 X107.608 Y120.642 E22.52415
G1 X107.772 Y120.695 E22.53446
G1 X108.086 Y120.816 E22.55461
G1 X108.243 Y120.887 E22.56493
G1 X108.535 Y121.04 E22.58466
G1 X108.679 Y121.126 E22.5947
G1 X109.056 Y121.39 E22.62226
G1 X109.056 Y113.663 E23.08486
G1 X100.616 Y113.663 E23.59015
G1 X100.616 Y136.103 E24.93359
G1 X109.056 Y136.103 E25.43888
G1 X109.056 Y128.817 E25.87508
G0 F1620 X109.056 Y128.374
G1 F1800 E24.87508
G1 F600 Z0.52
G0 F9000 X109.656 Y126.78 Z0.52
G1 F600 Z0.24
G1 F720 E25.87508
G1 F1800 X109.574 Y126.924 E25.885
G1 X109.374 Y127.214 E25.90609
G1 X109.085 Y127.55 E25.93262
G1 X108.759 Y127.848 E25.95907
G1 X108.409 Y128.103 E25.98499
G1 X108.016 Y128.325 E26.01201
G1 X107.623 Y128.489 E26.03751
G1 X107.203 Y128.613 E26.06373
G1 X106.762 Y128.69 E26.09053
G1 X106.327 Y128.713 E26.11661
G1 X105.962 Y128.696 E26.13848
G1 X105.559 Y128.633 E26.1629
G1 X105.128 Y128.517 E26.18962
G1 X104.679 Y128.339 E26.21854
G1 X104.26 Y128.099 E26.24745
G1 X103.987 Y127.907 E26.26743
G1 X103.571 Y127.531 E26.301
G1 X103.299 Y127.213 E26.32605
G1 X103.042 Y126.837 E26.35332
G1 X102.846 Y126.458 E26.37886
G1 X102.718 Y126.137 E26.39955
G1 X102.635 Y125.866 E26.41652
G1 X102.55 Y125.447 E26.44212
G1 X102.51 Y125.022 E26.46767
G1 X102.529 Y124.467 E26.50092
G1 X102.598 Y124.056 E26.52587
G1 X102.718 Y123.623 E26.55277
G1 X102.889 Y123.212 E26.57942
G1 X103.1 Y122.834 E26.60534
G1 X103.356 Y122.478 E26.63159
G1 X103.641 Y122.163 E26.65702
G1 X103.988 Y121.857 E26.68472
G1 X104.341 Y121.617 E26.71027
G1 X104.725 Y121.411 E26.73636
G1 X105.136 Y121.249 E26.76281
G1 X105.56 Y121.135 E26.7891
G1 X105.962 Y121.072 E26.81346
G1 X106.328 Y121.055 E26.83539
G1 X106.769 Y121.079 E26.86183
G1 X107.125 Y121.137 E26.88343
G1 X107.556 Y121.255 E26.91018
G1 X107.964 Y121.418 E26.93648
G1 X108.343 Y121.623 E26.96228
G1 X108.707 Y121.877 E26.98885
G1 X109.038 Y122.171 E27.01536
G1 X109.326 Y122.492 E27.04118
G1 X109.656 Y122.956 E27.07526
G1 X109.656 Y113.37 E27.64916
G1 X109.349 Y113.063 E27.67515
G1 X100.323 Y113.063 E28.21552
G1 X100.016 Y113.37 E28.24152
G1 X100.016 Y136.396 E29.62004
G1 X100.323 Y136.703 E29.64604
G1 X109.349 Y136.703 E30.18641
G1 X109.656 Y136.396 E30.2124
G1 X109.656 Y127.223 E30.76157
G0 F1620 X109.656 Y126.78
G0 F9000 X109.528 Y125.613
;TYPE:WALL-OUTER
G1 F1636.4 X109.4 Y125.953 E30.7855
G1 F1753.2 X109.224 Y126.329 E30.81101
G1 F1800 X109.054 Y126.626 E30.8315
G1 X108.915 Y126.828 E30.84618
G1 X108.673 Y127.113 E30.86856
G1 X108.399 Y127.368 E30.89097
G1 X108.107 Y127.585 E30.91275
G1 X107.809 Y127.759 E30.93341
G1 X107.477 Y127.905 E30.95513
G1 X107.125 Y128.015 E30.9772
G1 X106.722 Y128.091 E31.00176
G1 X106.388 Y128.113 E31.0218
G1 X105.984 Y128.095 E31.04601
G1 X105.657 Y128.041 E31.06585
G1 X105.258 Y127.928 E31.09068
G1 X104.956 Y127.804 E31.11022
G1 X104.605 Y127.608 E31.13429
G1 X104.303 Y127.393 E31.15648
G1 X104.046 Y127.16 E31.17725
G1 X103.789 Y126.867 E31.20058
G1 X103.591 Y126.586 E31.22116
G1 X103.404 Y126.236 E31.24492
G1 X103.266 Y125.887 E31.26739
G1 X103.211 Y125.698 E31.27917
G1 X103.137 Y125.317 E31.30241
G1 X103.108 Y124.972 E31.32314
G1 X103.123 Y124.558 E31.34794
G1 X103.178 Y124.208 E31.36915
G1 X103.275 Y123.847 E31.39153
G1 X103.418 Y123.496 E31.41422
G1 X103.59 Y123.18 E31.43576
G1 X103.808 Y122.874 E31.45825
G1 X104.021 Y122.631 E31.4776
G1 X104.33 Y122.35 E31.5026
G1 X104.633 Y122.141 E31.52464
G1 X104.918 Y121.982 E31.54418
G1 X105.3 Y121.827 E31.56886
G1 X105.658 Y121.727 E31.59111
G1 X105.985 Y121.673 E31.61095
G1 X106.39 Y121.655 E31.63522
G1 X106.757 Y121.681 E31.65725
G1 X106.948 Y121.712 E31.66884
G1 X107.308 Y121.804 E31.69108
G1 X107.686 Y121.95 E31.71534
G1 X108.007 Y122.12 E31.73709
G1 X108.288 Y122.31 E31.75739
G1 X108.572 Y122.553 E31.77977
G1 X108.842 Y122.846 E31.80362
G1 X109.059 Y123.147 E31.82584
G1 X109.24 Y123.467 E31.84785
G1 X109.375 Y123.785 E31.86853
G1 F1761.8 X109.496 Y124.156 E31.8924
G1 F1679.6 X109.572 Y124.49 E31.91438
G1 F1656.4 X109.588 Y124.9 E31.94107
G1 F1653.9 X109.571 Y125.276 E31.9656
G1 F1602.4 X109.528 Y125.613 E31.98844
G0 F9000 X109.4 Y125.953
G0 X109.342 Y126.077
G1 F1800 E30.98844
G1 F600 Z0.52
G0 F9000 X109.597 Y137.303 Z0.52
G1 F600 Z0.24
G1 F720 E31.98844
G1 F1800 X110.256 Y136.644 E32.04424
G1 X110.256 Y126.503 E32.65136
G1 F1770.5 X110.246 Y126.16 E32.67225
G1 F1651.4 X110.212 Y125.672 E32.70417
G1 F1619.2 X110.234 Y124.882 E32.75677
G1 F1656.4 X110.227 Y124.433 E32.78598
G1 F1717 X110.256 Y123.694 E32.8324
G1 F1800 X110.256 Y113.122 E33.46533
G1 X109.597 Y112.463 E33.52112
G1 X100.075 Y112.463 E34.09119
G1 X99.416 Y113.122 E34.14698
G1 X99.416 Y136.644 E35.5552
G1 X100.075 Y137.303 E35.611
G1 X109.154 Y137.303 E36.15454
G0 F1620 X109.597 Y137.303
G0 F9000 X109.95 Y136.95
G1 F1800 E35.15454
G1 F600 Z0.52
G0 F9000 X101.293 Y125.675 Z0.52
;TYPE:SKIN
G1 F600 Z0.24
G1 F720 E36.15454
G1 F1517.8 X101.571 Y126.361 E36.2106
G1 F1800 X101.763 Y126.873 E36.24552
G1 X101.995 Y127.341 E36.27887
G1 X102.141 Y127.58 E36.29676
G1 X102.352 Y127.883 E36.32034
G1 X102.705 Y128.302 E36.35533
G1 X102.849 Y128.448 E36.36842
G1 X103.12 Y128.693 E36.39175
G1 X103.306 Y128.844 E36.40705
G1 X103.61 Y129.058 E36.43079
G1 X104.059 Y129.321 E36.46402
G1 X104.27 Y129.423 E36.47899
G1 X104.78 Y129.622 E36.51395
G1 X105.155 Y129.728 E36.53883
G1 X105.357 Y129.774 E36.55206
G1 X105.839 Y129.848 E36.5832
G1 X106.272 Y129.87 E36.61089
G1 X106.86 Y129.844 E36.64848
G1 X107.063 Y129.817 E36.66155
G1 X107.423 Y129.749 E36.68495
G1 X107.653 Y129.692 E36.70008
G1 X108.173 Y129.52 E36.73506
G1 X108.498 Y129.377 E36.75773
G1 X108.498 Y135.545 E37.15162
G1 X101.175 Y135.544 E37.61926
G1 X101.174 Y126.412 E38.20242
G1 F1679.3 X101.221 Y126.063 E38.22653
G1 F1431.1 X101.293 Y125.675 E38.25823
G0 F9000 X101.281 Y124.27
G1 F1515.8 X101.188 Y123.719 E38.3006
G1 F1761.5 X101.174 Y123.396 E38.3217
G1 F1800 X101.174 Y114.221 E38.90761
G1 X108.498 Y114.221 E39.37532
G1 X108.498 Y120.389 E39.7692
G1 X108.291 Y120.295 E39.78372
G1 X107.969 Y120.172 E39.80573
G1 X107.742 Y120.099 E39.82096
G1 X107.258 Y119.982 E39.85276
G1 X106.87 Y119.926 E39.87779
G1 X106.308 Y119.898 E39.91372
G1 X105.839 Y119.92 E39.94371
G1 X105.38 Y119.99 E39.97336
G1 X105.171 Y120.036 E39.98702
G1 X104.817 Y120.135 E40.0105
G1 X104.276 Y120.343 E40.04751
G1 X104.038 Y120.46 E40.06445
G1 X103.751 Y120.619 E40.0854
G1 X103.307 Y120.92 E40.11965
G1 X103.132 Y121.062 E40.13405
G1 X102.859 Y121.307 E40.15747
G1 X102.722 Y121.445 E40.16989
G1 X102.482 Y121.717 E40.19305
G1 X102.154 Y122.165 E40.22851
G1 X102.016 Y122.386 E40.24515
G1 X101.861 Y122.675 E40.26609
G1 X101.782 Y122.846 E40.27812
G1 X101.641 Y123.194 E40.3021
G1 F1761.5 X101.465 Y123.754 E40.3404
G1 F1515.8 X101.281 Y124.27 E40.38195
G1 F1371.4 X101.268 Y124.53 E40.40377
G1 F1396.4 X101.266 Y125.136 E40.45365
G1 F1355.3 X101.293 Y125.675 E40.49942
G1 F1800 E39.49942
G1 F600 Z0.52
G0 F9000 X101.734 Y135.223 Z0.52
G1 F600 Z0.24
G1 F720 E40.49942
G1 F1800 X101.494 Y134.983 E40.5211
G0 F9000 X101.494 Y134.078
G1 F1800 X102.64 Y135.223 E40.62455
G0 F9000 X103.545 Y135.223
G1 F1800 X101.494 Y133.172 E40.80978
G0 F9000 X101.494 Y132.267
G1 F1800 X104.45 Y135.223 E41.07674
G0 F9000 X105.355 Y135.223
G1 F1800 X101.494 Y131.362 E41.42543
G0 F9000 X101.494 Y130.457
G1 F1800 X106.26 Y135.223 E41.85585
G0 F9000 X107.165 Y135.223
G1 F1800 X101.494 Y129.552 E42.368
G0 F9000 X101.494 Y128.647
G1 F1800 X108.07 Y135.223 E42.96189
G0 F9000 X108.178 Y134.425
G1 F1800 X101.494 Y127.742 E43.56548
G1 X101.388 Y127.636
G1 F1800 E42.56548
G1 F600 Z0.52
G0 F9000 X104.52 Y129.862 Z0.52
G1 F600 Z0.24
G1 F720 E43.56548
G1 F1800 X108.178 Y133.52 E43.89584
G0 F9000 X108.178 Y132.615
G1 F1800 X105.711 Y130.148 E44.11863
G0 F9000 X106.641 Y130.174
G1 F1800 X108.178 Y131.71 E44.2574
G0 F9000 X108.178 Y130.805
G1 F1800 X107.442 Y130.07 E44.32382
G1 F1800 E43.32382
G1 F600 Z0.52
G0 F9000 X101.623 Y122.441 Z0.52
G1 F600 Z0.24
G1 F720 E44.32382
G1 F1800 X101.492 Y122.309 E44.3357
G0 F9000 X101.966 Y121.879
G1 F1800 X101.492 Y121.404 E44.37855
G0 F9000 X102.362 Y121.369
G1 F1800 X101.492 Y120.499 E44.45712
G0 F9000 X101.492 Y119.594
G1 F1800 X102.814 Y120.915 E44.57646
G0 F9000 X103.324 Y120.521
G1 F1800 X101.492 Y118.689 E44.74191
G0 F9000 X101.493 Y117.784
G1 F1800 X103.886 Y120.177 E44.95803
G0 F9000 X104.519 Y119.906
G1 F1800 X101.493 Y116.879 E45.23135
G0 F9000 X101.493 Y115.974
G1 F1800 X105.216 Y119.697 E45.56758
G0 F9000 X106.012 Y119.589
