;FLAVOR:Marlin
;TIME:2655
;Filament used: 2.45758m
;Layer height: 0.32
;MINX:10.312
;MINY:113.61
;MINZ:0.24
;MAXX:96.012
;MAXY:186.31
;MAXZ:11.12
;Generated with Cura_SteamEngine 5.0.0
M140 S80
M105
M190 S80
M104 S245
M105
M109 S245
M82 ;absolute extrusion mode
; Ender 3 Max Custom Start G-code
G92 E0 ; Reset Extruder
G28 ; Home all axes
G1 Z2.0 F3000 ; Move Z Axis up little to prevent scratching of Heat Bed
G1 X0.1 Y20 Z0.3 F5000.0 ; Move to start position
G1 X0.1 Y200.0 Z0.3 F1500.0 E15 ; Draw the first line
G1 X0.4 Y200.0 Z0.3 F5000.0 ; Move to side a little
G1 X0.4 Y20 Z0.3 F1500.0 E30 ; Draw the second line
G92 E0 ; Reset Extruder
G1 Z2.0 F3000 ; Move Z Axis up little to prevent scratching of Heat Bed
G1 X5 Y20 Z0.3 F5000.0 ; Move over to prevent blob squish
G92 E0
G92 E0
G1 F2100 E-5
;LAYER_COUNT:34
;LAYER:0
M107
G1 F300 Z0.56
G0 F6000 X37.831 Y114.244 Z0.56
G1 F300 Z0.56
G0 F6000 X34.701 Y116.059
;TYPE:SKIRT
G1 F300 Z0.24
G1 F2100 E0
G1 F1800 X35.421 Y115.504 E0.07903
G1 X36.186 Y115.014 E0.158
G1 X36.992 Y114.593 E0.23704
G1 X37.831 Y114.244 E0.31604
G1 X38.698 Y113.971 E0.39505
G1 X39.585 Y113.775 E0.47402
G1 X40.487 Y113.658 E0.55308
G1 X41.183 Y113.622 E0.61367
G1 X41.925 Y113.61 E0.67818
G1 X64.26 Y113.61 E2.61973
G1 X65.11 Y113.621 E2.69362
G1 X66.017 Y113.674 E2.7726
G1 X66.916 Y113.806 E2.85159
G1 X67.8 Y114.017 E2.93059
G1 X68.662 Y114.305 E3.0096
G1 X69.496 Y114.668 E3.08867
G1 X70.294 Y115.102 E3.16763
G1 X71.051 Y115.605 E3.24664
G1 X71.659 Y116.084 E3.31392
G1 X73.433 Y117.594 E3.51643
G1 X75.433 Y119.207 E3.73979
G1 X77.429 Y120.725 E3.95777
G1 X79.494 Y122.207 E4.17873
G1 X81.611 Y123.637 E4.4008
G1 X83.73 Y124.982 E4.61898
G1 X85.934 Y126.295 E4.84199
G1 X88.126 Y127.518 E5.06019
G1 X89.14 Y128.049 E5.15969
G1 X89.883 Y128.452 E5.23317
G1 X90.662 Y128.92 E5.31217
G1 X91.397 Y129.454 E5.39114
G1 X92.076 Y130.045 E5.46939
G1 X92.646 Y130.599 E5.53849
G1 X93.076 Y131.041 E5.5921
G1 X93.681 Y131.719 E5.67109
G1 X94.223 Y132.449 E5.75012
G1 X94.699 Y133.223 E5.82911
G1 X95.106 Y134.036 E5.90815
G1 X95.439 Y134.881 E5.9871
G1 X95.697 Y135.753 E6.06615
G1 X95.877 Y136.643 E6.14508
G1 X95.978 Y137.547 E6.22415
G1 X96 Y138.059 E6.2687
G1 X96.012 Y138.803 E6.33339
G1 X96.011 Y161.285 E8.28772
G1 X96.001 Y161.987 E8.34875
G1 X95.948 Y162.894 E8.42773
G1 X95.816 Y163.794 E8.5068
G1 X95.605 Y164.678 E8.5858
G1 X95.317 Y165.54 E8.66481
G1 X94.954 Y166.373 E8.74379
G1 X94.52 Y167.171 E8.82276
G1 X94.017 Y167.928 E8.90177
G1 X93.172 Y168.943 E9.01657
G1 X92.904 Y169.226 E9.05045
G1 X92.544 Y169.588 E9.09483
G1 X92.085 Y170.027 E9.15005
G1 X91.401 Y170.626 E9.22908
G1 X90.667 Y171.162 E9.30809
G1 X89.788 Y171.687 E9.39709
G1 X88.861 Y172.177 E9.48824
G1 X88.238 Y172.497 E9.54912
G1 X86.032 Y173.708 E9.76788
G1 X83.812 Y175.009 E9.99156
G1 X81.678 Y176.342 E10.21028
G1 X79.552 Y177.754 E10.43214
G1 X77.503 Y179.202 E10.65025
G1 X75.453 Y180.739 E10.87297
G1 X73.471 Y182.314 E11.09304
G1 X71.603 Y183.882 E11.30505
G1 X70.882 Y184.435 E11.38404
G1 X70.115 Y184.923 E11.46306
G1 X69.308 Y185.341 E11.54207
G1 X68.468 Y185.687 E11.62104
G1 X67.6 Y185.958 E11.70008
G1 X66.712 Y186.151 E11.77908
G1 X65.81 Y186.265 E11.85811
G1 X65.147 Y186.298 E11.91582
G1 X64.405 Y186.31 E11.98033
G1 X41.923 Y186.309 E13.93466
G1 X41.22 Y186.299 E13.99577
G1 X40.313 Y186.246 E14.07475
G1 X39.414 Y186.114 E14.15374
G1 X38.53 Y185.903 E14.23274
G1 X37.668 Y185.615 E14.31175
G1 X36.834 Y185.252 E14.39082
G1 X36.036 Y184.818 E14.46978
G1 X35.279 Y184.315 E14.54879
G1 X34.769 Y183.919 E14.60492
G1 X33.903 Y183.198 E14.70287
G1 X33.303 Y182.685 E14.7715
G1 X31.332 Y181.097 E14.99152
G1 X29.318 Y179.565 E15.21149
G1 X27.252 Y178.085 E15.43241
G1 X25.177 Y176.685 E15.65001
G1 X23.019 Y175.316 E15.87216
G1 X20.8 Y173.995 E16.09665
G1 X18.612 Y172.774 E16.31446
G1 X16.571 Y171.704 E16.51479
G1 X15.786 Y171.247 E16.59375
G1 X15.043 Y170.723 E16.67278
G1 X14.249 Y170.041 E16.76377
G1 X13.678 Y169.487 E16.83293
G1 X13.248 Y169.045 E16.88653
G1 X12.643 Y168.367 E16.96552
G1 X12.101 Y167.637 E17.04456
G1 X11.625 Y166.863 E17.12355
G1 X11.218 Y166.05 E17.20258
G1 X10.885 Y165.205 E17.28154
G1 X10.627 Y164.333 E17.36059
G1 X10.447 Y163.443 E17.43952
G1 X10.346 Y162.539 E17.51859
G1 X10.324 Y162.027 E17.56314
G1 X10.312 Y161.283 E17.62782
G1 X10.313 Y138.799 E19.58233
G1 X10.323 Y138.099 E19.64318
G1 X10.376 Y137.192 E19.72216
G1 X10.508 Y136.293 E19.80115
G1 X10.719 Y135.409 E19.88015
G1 X11.007 Y134.547 E19.95916
G1 X11.37 Y133.714 E20.03815
G1 X11.804 Y132.915 E20.11719
G1 X12.307 Y132.158 E20.19619
G1 X13.152 Y131.143 E20.311
G1 X13.725 Y130.551 E20.38262
G1 X14.171 Y130.118 E20.43666
G1 X14.851 Y129.515 E20.51566
G1 X15.58 Y128.973 E20.59463
G1 X16.513 Y128.412 E20.68927
G1 X17.589 Y127.839 E20.79524
G1 X19.947 Y126.544 E21.02909
G1 X22.127 Y125.264 E21.24885
G1 X24.267 Y123.925 E21.46829
G1 X26.363 Y122.53 E21.68716
G1 X28.444 Y121.058 E21.90874
G1 X30.48 Y119.529 E22.13008
G1 X32.455 Y117.957 E22.3495
G1 X33.66 Y116.938 E22.48669
G0 F1620 X34.701 Y116.059
G1 F2100 E17.48669
G1 F300 Z0.56
;MESH:aza-mount-outer.stl(4)
G0 F6000 X52.736 Y124.398 Z0.56
;TYPE:WALL-OUTER
G1 F300 Z0.24
G1 F2100 E22.48669
G1 F1317.1 X53.156 Y124.386 E22.52798
G1 F1320 X53.538 Y124.396 E22.56546
G1 F1259.8 X53.944 Y124.428 E22.6073
G1 F2100 E17.6073
G1 F300 Z0.56
G0 F6000 X57.31 Y125.59 Z0.56
;TYPE:WALL-INNER
G1 F300 Z0.24
G1 F2100 E22.6073
G1 F1800 X57.463 Y125.872 E22.63063
G1 X57.606 Y126.197 E22.65644
G1 X57.778 Y126.713 E22.69599
G1 X57.895 Y127.265 E22.73701
G1 X57.942 Y127.811 E22.77685
G1 X57.928 Y128.346 E22.81576
G1 X57.855 Y128.88 E22.85495
G1 X57.758 Y129.271 E22.88424
G1 X57.654 Y129.601 E22.90939
G1 X57.518 Y129.932 E22.93541
G1 X57.263 Y130.416 E22.97518
G1 X56.965 Y130.857 E23.01388
G1 X56.596 Y131.285 E23.05497
G1 X56.204 Y131.647 E23.09376
G1 X55.755 Y131.974 E23.13414
G1 X55.263 Y132.252 E23.17523
G1 X55.031 Y132.355 E23.19368
G1 X54.502 Y132.544 E23.23453
G1 F1802.7 X53.914 Y132.679 E23.27832
G1 F1827.7 X53.64 Y132.698 E23.29799
G1 F1870.9 X53.366 Y132.718 E23.3172
G1 F1888.7 X52.836 Y132.712 E23.35393
G1 F1856.2 X52.564 Y132.687 E23.37319
G1 F1805.5 X52.292 Y132.662 E23.39299
G1 F1791.9 X51.757 Y132.526 E23.4333
G1 F1800 X51.257 Y132.342 E23.47204
G1 X50.753 Y132.086 E23.51314
G1 X50.296 Y131.781 E23.55308
G1 X49.89 Y131.44 E23.59163
G1 X49.51 Y131.039 E23.6318
G1 X49.175 Y130.588 E23.67264
G1 X48.91 Y130.134 E23.71086
G1 X48.674 Y129.597 E23.75351
G1 X48.577 Y129.287 E23.77712
G1 X48.486 Y128.931 E23.80384
G1 X48.425 Y128.556 E23.83146
G1 X48.388 Y128.02 E23.87052
G1 X48.413 Y127.472 E23.9104
G1 X48.507 Y126.901 E23.95248
G1 X48.57 Y126.663 E23.97038
G1 X48.753 Y126.135 E24.011
G1 X49.009 Y125.603 E24.05393
G1 X48.651 Y125.591 E24.07997
G1 X42.296 Y125.591 E24.542
G1 X42.295 Y133.33 E25.10466
G1 X51.651 Y133.33 E25.78488
G1 F1791.9 X52.244 Y133.326 E25.82819
G1 F1816.5 X52.603 Y133.339 E25.85407
G1 F1865 X52.894 Y133.343 E25.87449
G1 F1888.7 X53.185 Y133.347 E25.89466
G1 X53.457 Y133.344 E25.9135
G1 F1865 X53.729 Y133.34 E25.93259
G1 F1830.5 X53.98 Y133.33 E25.95055
G1 F1805.5 X57.409 Y133.33 E26.1991
G1 F1802.7 X60.838 Y133.33 E26.44802
G1 F1800 X64.035 Y133.33 E26.68046
G1 X64.035 Y125.59 E27.24319
G1 X58.673 Y125.59 E27.63303
G0 F1620 X57.31 Y125.59
G1 F2100 E22.63303
G1 F300 Z0.56
G0 F6000 X50.38 Y124.931 Z0.56
G1 F300 Z0.24
G1 F2100 E27.63303
G1 F1800 X49.695 Y124.93 E27.68283
G1 X49.186 Y124.931 E27.71983
G1 X41.771 Y124.93 E28.25893
G1 X41.635 Y125.066 E28.27292
G1 X41.635 Y133.854 E28.91184
G1 X41.771 Y133.99 E28.92582
G1 X51.422 Y133.99 E29.62749
G1 F1802.7 X52.01 Y133.99 E29.67017
G1 X52.827 Y133.989 E29.72948
G1 F1800 X53.923 Y133.991 E29.80917
G1 X54.354 Y133.989 E29.8405
G1 X55.199 Y133.99 E29.90194
G1 X64.559 Y133.99 E30.58245
G1 X64.695 Y133.854 E30.59643
G1 X64.695 Y125.162 E31.22837
G1 X64.627 Y124.998 E31.24128
G1 X64.463 Y124.93 E31.25419
G1 X55.953 Y124.931 E31.8729
G1 X56.274 Y125.259 E31.90627
G1 X56.56 Y125.627 E31.94015
G1 X56.808 Y126.038 E31.97505
G1 X57.002 Y126.463 E32.00902
G1 X57.148 Y126.91 E32.04321
G1 X57.247 Y127.39 E32.07884
G1 X57.284 Y127.852 E32.11254
G1 X57.269 Y128.317 E32.14636
G1 X57.203 Y128.779 E32.18029
G1 X57.122 Y129.093 E32.20387
G1 X57.043 Y129.35 E32.22342
G1 X56.907 Y129.681 E32.24943
G1 X56.685 Y130.096 E32.28365
G1 X56.424 Y130.479 E32.31735
G1 X56.106 Y130.842 E32.35243
G1 X55.764 Y131.155 E32.38614
G1 X55.378 Y131.433 E32.42072
G1 X54.949 Y131.672 E32.45643
G1 X54.81 Y131.733 E32.46746
G1 X54.281 Y131.922 E32.50831
G1 X53.782 Y132.033 E32.54547
G1 X53.319 Y132.076 E32.57928
G1 X52.856 Y132.067 E32.61295
G1 X52.388 Y132.006 E32.64726
G1 X51.929 Y131.888 E32.68172
G1 X51.498 Y131.727 E32.71517
G1 X51.063 Y131.503 E32.75074
G1 X50.675 Y131.24 E32.78482
G1 X50.323 Y130.942 E32.81835
G1 X49.998 Y130.595 E32.85292
G1 X49.714 Y130.206 E32.88793
G1 X49.485 Y129.81 E32.92119
G1 X49.284 Y129.345 E32.95802
G1 X49.214 Y129.112 E32.97571
G1 X49.136 Y128.817 E32.99789
G1 X49.077 Y128.45 E33.02492
G1 X49.048 Y127.987 E33.05865
G1 X49.072 Y127.515 E33.09301
G1 X49.156 Y127.022 E33.12937
G1 X49.194 Y126.879 E33.14012
G1 X49.377 Y126.351 E33.18075
G1 X49.548 Y126.003 E33.20894
G0 F1620 X49.595 Y125.907
G0 X49.854 Y125.512
G0 X50.154 Y125.151
G0 X50.38 Y124.931
G1 F2100 E28.20894
G1 F300 Z0.56
G0 F6000 X52.736 Y124.398 Z0.56
;TYPE:WALL-OUTER
G1 F300 Z0.24
G1 F2100 E33.20894
G1 F1427.9 X52.355 Y124.316 E33.24427
G1 F1685.1 X51.943 Y124.27 E33.27612
G1 F1800 X41.498 Y124.27 E34.02726
G1 X40.975 Y124.793 E34.08045
G1 X40.975 Y134.127 E34.75169
G1 X41.498 Y134.65 E34.80488
G1 X64.832 Y134.65 E36.48292
G1 X65.355 Y134.127 E36.5361
G1 X65.355 Y125.162 E37.18081
G1 X65.355 Y124.793 E37.20735
G1 X64.832 Y124.27 E37.26054
G1 X54.806 Y124.271 E37.98154
G1 F1721.7 X54.425 Y124.3 E38.01027
G1 F1426.2 X54.001 Y124.413 E38.0501
G1 F1237.5 X53.944 Y124.428 E38.05626
G1 F1373.4 X54.313 Y124.647 E38.09671
G1 F1680.3 X54.688 Y124.855 E38.12974
G1 F1800 X54.731 Y124.877 E38.13321
G1 X55.21 Y125.171 E38.17363
G1 X55.519 Y125.426 E38.20244
G1 X55.796 Y125.714 E38.23118
G1 X56.034 Y126.025 E38.25934
G1 X56.238 Y126.37 E38.28817
G1 X56.398 Y126.729 E38.31643
G1 X56.518 Y127.106 E38.34488
G1 X56.599 Y127.515 E38.37487
G1 X56.625 Y127.893 E38.40211
G1 X56.609 Y128.287 E38.43047
G1 X56.551 Y128.677 E38.45883
G1 X56.445 Y129.062 E38.48754
G1 X56.297 Y129.43 E38.51607
G1 X56.107 Y129.777 E38.54452
G1 X55.883 Y130.101 E38.57284
G1 X55.617 Y130.399 E38.60157
G1 X55.325 Y130.662 E38.62983
G1 X55 Y130.891 E38.65842
G1 X54.635 Y131.091 E38.68835
G1 X54.589 Y131.111 E38.69196
G1 X54.06 Y131.3 E38.73236
G1 X53.65 Y131.387 E38.7625
G1 X53.27 Y131.418 E38.78992
G1 X52.876 Y131.407 E38.81826
G1 X52.484 Y131.352 E38.84673
G1 X52.1 Y131.251 E38.87528
G1 X51.738 Y131.112 E38.90317
G1 X51.373 Y130.92 E38.93283
G1 X51.054 Y130.7 E38.96069
G1 X50.755 Y130.443 E38.98905
G1 X50.486 Y130.151 E39.0176
G1 X50.252 Y129.824 E39.04651
G1 X50.06 Y129.486 E39.07447
G1 X49.894 Y129.093 E39.10515
G1 X49.793 Y128.733 E39.13204
G1 X49.729 Y128.345 E39.16032
G1 X49.707 Y127.953 E39.18855
G1 X49.73 Y127.557 E39.21708
G1 X49.805 Y127.143 E39.24733
G1 X49.818 Y127.095 E39.25091
G1 X50.001 Y126.567 E39.2911
G1 X50.181 Y126.211 E39.31978
G1 X50.402 Y125.881 E39.34835
G1 X50.656 Y125.579 E39.37672
G1 X50.946 Y125.305 E39.40542
G1 X51.263 Y125.07 E39.43379
G1 X51.609 Y124.871 E39.4625
G1 X51.968 Y124.715 E39.49065
G1 F1711.8 X52.339 Y124.566 E39.52088
G1 F1447 X52.736 Y124.398 E39.55944
G0 F6000 X52.423 Y124.331
G1 F2100 E34.55944
G1 F300 Z0.56
G0 F6000 X50.766 Y132.749 Z0.56
;TYPE:SKIN
G1 F300 Z0.24
G1 F2100 E39.55944
G1 F1800 X50.473 Y132.594 E39.58328
G1 X50.243 Y132.452 E39.60272
G1 X49.776 Y132.108 E39.64443
G1 X49.339 Y131.714 E39.68674
G1 X49.31 Y131.684 E39.68974
G1 X48.921 Y131.231 E39.73268
G1 X48.898 Y131.201 E39.7354
G1 X48.59 Y130.748 E39.77479
G1 X48.299 Y130.202 E39.81929
G1 X48.137 Y129.819 E39.84919
G1 X48.016 Y129.439 E39.87787
G1 X47.909 Y129.001 E39.9103
G1 X47.828 Y128.42 E39.95248
G1 X47.81 Y127.824 E39.99536
G1 X47.811 Y127.785 E39.99817
G1 X47.864 Y127.186 E40.04141
G1 X47.944 Y126.754 E40.07301
G1 X48.013 Y126.5 E40.09194
G1 X48.125 Y126.172 E40.11686
G1 X42.877 Y126.172 E40.49426
G1 X42.876 Y132.75 E40.96731
G1 X49.403 Y132.749 E41.43669
G0 F1620 X50.766 Y132.749
G1 F2100 E36.43669
G1 F300 Z0.56
G0 F6000 X47.582 Y126.92 Z0.56
G1 F300 Z0.24
G1 F2100 E41.43669
G1 F1800 X47.164 Y126.501 E41.47926
G0 F6000 X46.23 Y126.501
G1 F1800 X47.482 Y127.753 E41.60659
G0 F6000 X47.543 Y128.747
G1 F1800 X45.297 Y126.501 E41.83501
G0 F6000 X44.363 Y126.501
G1 F1800 X47.852 Y129.989 E42.18979
G1 F2100 E37.18979
G1 F300 Z0.56
G0 F6000 X47.48 Y132.418 Z0.56
G1 F300 Z0.24
G1 F2100 E42.18979
G1 F1800 X43.206 Y128.144 E42.62446
G0 F6000 X43.206 Y129.077
G1 F1800 X46.547 Y132.418 E42.96425
G0 F6000 X45.614 Y132.418
G1 F1800 X43.206 Y130.01 E43.20915
G0 F6000 X43.206 Y130.944
G1 F1800 X44.68 Y132.418 E43.35905
G0 F6000 X43.747 Y132.418
G1 F1800 X43.206 Y131.877 E43.41407
G1 F2100 E38.41407
G1 F300 Z0.56
G0 F6000 X43.206 Y127.21 Z0.56
G1 F300 Z0.24
G1 F2100 E43.41407
G1 F1800 X48.414 Y132.418 E43.94374
G0 F6000 X49.347 Y132.418
G1 F1800 X43.43 Y126.501 E44.5455
G1 F2100 E39.5455
G1 F300 Z0.56
G0 F6000 X55.564 Y132.75 Z0.56
G1 F300 Z0.24
G1 F2100 E44.5455
G1 F1800 X63.455 Y132.75 E45.11297
G1 X63.455 Y128.65 E45.40782
G1 X63.455 Y126.17 E45.58617
G1 X58.217 Y126.171 E45.96285
G1 X58.226 Y126.196 E45.96476
G1 X58.387 Y126.753 E46.00646
G1 X58.395 Y126.79 E46.00918
G1 X58.497 Y127.402 E46.0538
G1 X58.501 Y127.442 E46.05669
G1 X58.524 Y128.016 E46.098
G1 X58.503 Y128.453 E46.12946
G1 X58.425 Y129.006 E46.16962
G1 X58.317 Y129.423 E46.2006
G1 X58.2 Y129.799 E46.22892
G1 X57.959 Y130.356 E46.27256
G1 X57.942 Y130.39 E46.2753
G1 X57.647 Y130.896 E46.31742
G1 X57.433 Y131.198 E46.34404
G1 X57.259 Y131.419 E46.36426
G1 X56.876 Y131.824 E46.40435
G1 X56.85 Y131.849 E46.40694
G1 X56.689 Y131.986 E46.42215
G0 F1620 X56.406 Y132.226
G0 X56.376 Y132.248
G0 X55.87 Y132.585
G0 X55.564 Y132.75
G0 F6000 X57.242 Y131.912
G1 F1800 X57.747 Y132.417 E46.47351
G0 F6000 X58.68 Y132.417
G1 F1800 X57.679 Y131.416 E46.57531
G0 F6000 X58.051 Y130.855
G1 F1800 X59.614 Y132.417 E46.73422
G0 F6000 X60.548 Y132.418
G1 F1800 X58.368 Y130.238 E46.95593
G0 F6000 X58.619 Y129.556
G1 F1800 X61.481 Y132.418 E47.247
G0 F6000 X62.414 Y132.418
G1 F1800 X58.787 Y128.791 E47.61587
G0 F6000 X58.851 Y127.921
G1 F1800 X63.125 Y132.195 E48.05054
G0 F6000 X63.125 Y131.262
G1 F1800 X58.741 Y126.878 E48.4964
G0 F6000 X59.297 Y126.5
G1 F1800 X63.125 Y130.328 E48.88571
G0 F6000 X63.125 Y129.395
G1 F1800 X60.23 Y126.5 E49.18014
G0 F6000 X61.163 Y126.499
G1 F1800 X63.125 Y128.462 E49.37972
G0 F6000 X63.125 Y127.528
G1 F1800 X62.096 Y126.499 E49.48438
G0 F6000 X63.03 Y126.499
G1 F1800 X63.125 Y126.595 E49.49409
G1 F2100 E44.49409
G1 F300 Z0.56
;MESH:aza-mount-outer.stl
G0 F6000 X58.224 Y149.614 Z0.56
;TYPE:WALL-OUTER
G1 F300 Z0.24
G1 F2100 E49.49409
G1 F1314.2 X58.236 Y150.007 E49.53282
G1 F1317.1 X58.226 Y150.414 E49.57283
G1 F1258.5 X58.194 Y150.825 E49.61523
G1 F2100 E44.61523
G1 F300 Z0.56
G0 F6000 X57.032 Y154.189 Z0.56
;TYPE:WALL-INNER
G1 F300 Z0.24
G1 F2100 E49.61523
G1 F1800 X56.75 Y154.341 E49.63852
G1 X56.425 Y154.484 E49.66434
G1 X55.907 Y154.656 E49.70402
G1 X55.358 Y154.772 E49.74482
G1 X54.808 Y154.82 E49.78496
G1 X54.281 Y154.807 E49.82328
G1 X53.738 Y154.732 E49.86314
G1 X53.351 Y154.636 E49.89212
G1 X53.021 Y154.532 E49.91728
G1 X52.69 Y154.396 E49.9433
G1 X52.206 Y154.141 E49.98307
G1 X51.765 Y153.843 E50.02177
G1 X51.337 Y153.474 E50.06285
G1 X50.974 Y153.081 E50.10175
G1 X50.647 Y152.633 E50.14207
G1 X50.367 Y152.138 E50.18342
G1 X50.266 Y151.908 E50.20168
G1 X50.078 Y151.381 E50.24236
G1 F1802.7 X49.943 Y150.792 E50.28623
G1 F1827.7 X49.924 Y150.518 E50.3059
G1 F1870.9 X49.904 Y150.244 E50.32511
G1 F1888.7 X49.91 Y149.714 E50.36184
G1 F1856.2 X49.934 Y149.445 E50.38088
G1 F1805.5 X49.959 Y149.176 E50.40046
G1 F1791.9 X50.094 Y148.64 E50.44083
G1 F1800 X50.281 Y148.134 E50.48005
