;FLAVOR:Marlin
;TIME:506
;Filament used: 0.367702m
;Layer height: 0.32
;MINX:17.63
;MINY:80.233
;MINZ:0.24
;MAXX:50.65
;MAXY:127.253
;MAXZ:11.12
;Generated with Cura_SteamEngine 5.0.0
M140 S80
M105
M190 S80
M104 S245
M105
M109 S245
M82 ;absolute extrusion mode
; Ender 3 Max Custom Start G-code
G92 E0 ; Reset Extruder
G28 ; Home all axes
G1 Z2.0 F3000 ; Move Z Axis up little to prevent scratching of Heat Bed
G1 X0.1 Y20 Z0.3 F5000.0 ; Move to start position
G1 X0.1 Y200.0 Z0.3 F1500.0 E15 ; Draw the first line
G1 X0.4 Y200.0 Z0.3 F5000.0 ; Move to side a little
G1 X0.4 Y20 Z0.3 F1500.0 E30 ; Draw the second line
G92 E0 ; Reset Extruder
G1 Z2.0 F3000 ; Move Z Axis up little to prevent scratching of Heat Bed
G1 X5 Y20 Z0.3 F5000.0 ; Move over to prevent blob squish
G92 E0
G92 E0
G1 F2100 E-5
;LAYER_COUNT:34
;LAYER:0
M107
G1 F300 Z0.56
G0 F6000 X25.649 Y80.882 Z0.56
G1 F300 Z0.56
G0 F6000 X17.631 Y92.49
;TYPE:SKIRT
G1 F300 Z0.24
G1 F2100 E0
G1 F1800 X17.641 Y91.79 E0.05578
G1 X17.694 Y90.854 E0.13049
G1 X17.827 Y89.926 E0.20519
G1 X18.039 Y89.013 E0.27988
G1 X18.328 Y88.121 E0.3546
G1 X18.691 Y87.257 E0.42927
G1 X19.127 Y86.427 E0.50398
G1 X19.632 Y85.637 E0.57869
G1 X20.202 Y84.893 E0.65338
G1 X20.651 Y84.389 E0.70717
G1 X21.253 Y83.768 E0.77608
G1 X21.697 Y83.338 E0.82534
G1 X22.398 Y82.716 E0.90002
G1 X23.149 Y82.155 E0.97471
G1 X23.945 Y81.66 E1.0494
G1 X24.781 Y81.235 E1.12414
G1 X25.649 Y80.882 E1.1988
G1 X26.545 Y80.605 E1.27353
G1 X27.461 Y80.405 E1.34824
G1 X28.391 Y80.284 E1.42298
G1 X29.146 Y80.245 E1.48322
G1 X29.9 Y80.233 E1.54331
G1 X38.235 Y80.233 E2.20748
G1 X39.093 Y80.244 E2.27585
G1 X40.029 Y80.297 E2.35056
G1 X40.957 Y80.43 E2.42526
G1 X41.87 Y80.642 E2.49995
G1 X42.762 Y80.93 E2.57464
G1 X43.626 Y81.294 E2.64935
G1 X44.456 Y81.73 E2.72406
G1 X45.246 Y82.235 E2.79877
G1 X45.99 Y82.805 E2.87345
G1 X46.486 Y83.247 E2.92639
G1 X47.086 Y83.827 E2.99289
G1 X47.525 Y84.278 E3.04304
G1 X48.15 Y84.977 E3.11776
G1 X48.713 Y85.727 E3.19249
G1 X49.209 Y86.522 E3.26716
G1 X49.637 Y87.356 E3.34185
G1 X49.991 Y88.224 E3.41655
G1 X50.271 Y89.119 E3.49128
G1 X50.473 Y90.034 E3.56595
G1 X50.596 Y90.964 E3.6407
G1 X50.638 Y91.747 E3.70318
G1 X50.65 Y92.503 E3.76343
G1 X50.649 Y114.995 E5.5557
G1 X50.639 Y115.697 E5.61164
G1 X50.586 Y116.632 E5.68627
G1 X50.453 Y117.56 E5.76097
G1 X50.241 Y118.474 E5.83573
G1 X49.953 Y119.366 E5.91043
G1 X49.589 Y120.23 E5.98513
G1 X49.153 Y121.06 E6.05984
G1 X48.648 Y121.85 E6.13455
G1 X48.078 Y122.593 E6.20918
G1 X47.63 Y123.097 E6.26291
G1 X47.019 Y123.726 E6.33279
G1 X46.574 Y124.156 E6.3821
G1 X45.872 Y124.778 E6.45683
G1 X45.121 Y125.338 E6.53148
G1 X44.324 Y125.832 E6.6062
G1 X43.488 Y126.256 E6.68089
G1 X42.619 Y126.608 E6.75561
G1 X41.723 Y126.884 E6.83031
G1 X40.807 Y127.083 E6.90501
G1 X39.877 Y127.203 E6.97973
G1 X39.134 Y127.241 E7.03901
G1 X38.38 Y127.253 E7.0991
G1 X29.888 Y127.252 E7.77578
G1 X29.187 Y127.242 E7.83165
G1 X28.251 Y127.189 E7.90635
G1 X27.323 Y127.056 E7.98106
G1 X26.41 Y126.844 E8.05574
G1 X25.518 Y126.556 E8.13043
G1 X24.654 Y126.192 E8.20514
G1 X23.824 Y125.756 E8.27985
G1 X23.034 Y125.251 E8.35456
G1 X22.29 Y124.681 E8.42925
G1 X21.786 Y124.232 E8.48304
G1 X21.174 Y123.639 E8.55094
G1 X20.744 Y123.196 E8.60014
G1 X20.12 Y122.496 E8.67486
G1 X19.559 Y121.745 E8.74956
G1 X19.063 Y120.949 E8.82429
G1 X18.637 Y120.114 E8.89899
G1 X18.283 Y119.246 E8.97368
G1 X18.005 Y118.351 E9.04836
G1 X17.804 Y117.435 E9.12309
G1 X17.682 Y116.506 E9.19775
G1 X17.642 Y115.738 E9.25903
G1 X17.63 Y114.983 E9.3192
G1 X17.631 Y93.853 E11.00294
G0 F1620 X17.631 Y92.49
G0 F6000 X18.291 Y92.499
G1 F1800 X18.301 Y91.799 E11.05872
G1 X18.354 Y90.892 E11.13112
G1 X18.486 Y89.993 E11.20353
G1 X18.697 Y89.109 E11.27595
G1 X18.985 Y88.247 E11.34837
G1 X19.348 Y87.414 E11.42077
G1 X19.782 Y86.615 E11.49323
G1 X20.285 Y85.858 E11.56565
G1 X21.13 Y84.843 E11.67089
G1 X21.713 Y84.243 E11.73755
G1 X22.157 Y83.813 E11.78681
G1 X22.837 Y83.21 E11.85923
G1 X23.567 Y82.669 E11.93163
G1 X24.342 Y82.194 E12.00406
G1 X25.156 Y81.79 E12.07648
G1 X26.002 Y81.458 E12.14889
G1 X26.874 Y81.202 E12.22131
G1 X27.765 Y81.024 E12.29371
G1 X28.669 Y80.925 E12.36618
G1 X29.158 Y80.905 E12.40518
G1 X29.9 Y80.893 E12.46431
G1 X38.235 Y80.893 E13.12848
G1 X39.083 Y80.904 E13.19606
G1 X39.991 Y80.957 E13.26854
G1 X40.89 Y81.089 E13.34094
G1 X41.774 Y81.3 E13.41336
G1 X42.636 Y81.588 E13.48578
G1 X43.469 Y81.951 E13.55819
G1 X44.268 Y82.385 E13.63064
G1 X45.025 Y82.888 E13.70307
G1 X46.033 Y83.727 E13.80757
G1 X46.613 Y84.288 E13.87187
G1 X47.052 Y84.739 E13.92202
G1 X47.657 Y85.417 E13.99443
G1 X48.2 Y86.146 E14.06686
G1 X48.676 Y86.92 E14.13927
G1 X49.083 Y87.733 E14.21172
G1 X49.416 Y88.578 E14.28409
G1 X49.674 Y89.45 E14.35655
G1 X49.855 Y90.341 E14.429
G1 X49.956 Y91.244 E14.50141
G1 X49.978 Y91.759 E14.54248
G1 X49.99 Y92.503 E14.60178
G1 X49.989 Y114.985 E16.39325
G1 X49.979 Y115.687 E16.44919
G1 X49.926 Y116.594 E16.52159
G1 X49.794 Y117.494 E16.59407
G1 X49.583 Y118.378 E16.66649
G1 X49.295 Y119.24 E16.73891
G1 X48.932 Y120.073 E16.81132
G1 X48.498 Y120.871 E16.8837
G1 X47.995 Y121.628 E16.95612
G1 X47.15 Y122.643 E17.06136
G1 X46.56 Y123.252 E17.12893
G1 X46.115 Y123.682 E17.17824
G1 X45.434 Y124.284 E17.25067
G1 X44.703 Y124.824 E17.32309
G1 X43.928 Y125.297 E17.39544
G1 X43.113 Y125.701 E17.46792
G1 X42.267 Y126.032 E17.54031
G1 X41.394 Y126.286 E17.61276
G1 X40.503 Y126.464 E17.68516
G1 X39.6 Y126.562 E17.75754
G1 X39.122 Y126.581 E17.79566
G1 X38.38 Y126.593 E17.85479
G1 X29.898 Y126.592 E18.53068
G1 X29.197 Y126.582 E18.58654
G1 X28.289 Y126.529 E18.65902
G1 X27.39 Y126.397 E18.73142
G1 X26.506 Y126.186 E18.80384
G1 X25.644 Y125.898 E18.87626
G1 X24.811 Y125.535 E18.94867
G1 X24.012 Y125.101 E19.02112
G1 X23.255 Y124.598 E19.09355
G1 X22.24 Y123.753 E19.19879
G1 X21.648 Y123.179 E19.26449
G1 X21.218 Y122.736 E19.31369
G1 X20.614 Y122.056 E19.38616
G1 X20.072 Y121.327 E19.45855
G1 X19.597 Y120.552 E19.53098
G1 X19.191 Y119.739 E19.60339
G1 X18.859 Y118.893 E19.67581
G1 X18.602 Y118.021 E19.74825
G1 X18.423 Y117.13 E19.82067
G1 X18.323 Y116.227 E19.89306
G1 X18.302 Y115.726 E19.93302
G1 X18.29 Y114.983 E19.99224
G1 X18.291 Y93.862 E21.67525
G0 F1620 X18.291 Y92.499
G1 F2100 E16.67525
G1 F300 Z0.56
;MESH:aza-mount-outer.stl
G0 F6000 X39.202 Y103.314 Z0.56
;TYPE:WALL-OUTER
G1 F300 Z0.24
G1 F2100 E21.67525
G1 F1314.2 X39.214 Y103.707 E21.71076
G1 F1317.1 X39.204 Y104.114 E21.74743
G1 F1258.5 X39.172 Y104.525 E21.7863
G1 F2100 E16.7863
G1 F300 Z0.56
G0 F6000 X38.01 Y107.889 Z0.56
;TYPE:WALL-INNER
G1 F300 Z0.24
G1 F2100 E21.7863
G1 F1800 X37.728 Y108.041 E21.80765
G1 X37.403 Y108.184 E21.83132
G1 X36.887 Y108.356 E21.86757
G1 X36.335 Y108.473 E21.90517
G1 X35.786 Y108.52 E21.94189
G1 X35.259 Y108.507 E21.97703
G1 X34.716 Y108.432 E22.01356
G1 X34.329 Y108.336 E22.04013
G1 X33.999 Y108.232 E22.06319
G1 X33.668 Y108.096 E22.08704
G1 X33.184 Y107.841 E22.1235
G1 X32.743 Y107.543 E22.15897
G1 X32.315 Y107.174 E22.19663
G1 X31.952 Y106.781 E22.23229
G1 X31.625 Y106.333 E22.26925
G1 X31.345 Y105.838 E22.30715
G1 X31.244 Y105.608 E22.3239
G1 X31.056 Y105.081 E22.36119
G1 F1802.7 X30.921 Y104.492 E22.4014
G1 F1827.7 X30.902 Y104.218 E22.41942
G1 F1870.9 X30.882 Y103.944 E22.43704
G1 F1888.7 X30.888 Y103.414 E22.4707
G1 F1856.2 X30.912 Y103.145 E22.48816
G1 F1805.5 X30.937 Y102.876 E22.50611
G1 F1791.9 X31.072 Y102.34 E22.54311
G1 F1800 X31.259 Y101.834 E22.57906
G1 X31.514 Y101.331 E22.61665
G1 X31.819 Y100.874 E22.65327
G1 X32.157 Y100.471 E22.68832
G1 X32.557 Y100.09 E22.72514
G1 X33.012 Y99.753 E22.76287
G1 X33.465 Y99.488 E22.79785
G1 X34.006 Y99.252 E22.83718
G1 X34.323 Y99.152 E22.85934
G1 X34.665 Y99.065 E22.88286
G1 X35.043 Y99.004 E22.90837
G1 X35.607 Y98.966 E22.94605
G1 X36.126 Y98.989 E22.98067
G1 X36.387 Y99.026 E22.99824
G1 X36.953 Y99.154 E23.03691
G1 X37.51 Y99.347 E23.0762
G1 X38.008 Y99.593 E23.11322
G1 X38.01 Y98.637 E23.17693
G1 X38.01 Y92.873 E23.56107
G1 X30.27 Y92.873 E24.07691
G1 X30.27 Y94.817 E24.20647
G1 F1797.3 X30.27 Y96.761 E24.33622
G1 F1794.6 X30.27 Y98.705 E24.46617
G1 X30.27 Y100.649 E24.59612
G1 F1791.9 X30.27 Y102.593 E24.72627
G1 F1805.5 X30.266 Y102.889 E24.74594
G1 F1839 X30.261 Y103.183 E24.76512
G1 F1865 X30.257 Y103.473 E24.78378
G1 F1888.7 X30.253 Y103.763 E24.8022
G1 X30.256 Y104.035 E24.81947
G1 F1865 X30.26 Y104.307 E24.83697
G1 F1830.5 X30.27 Y104.557 E24.85337
G1 F1802.7 X30.271 Y105.775 E24.93442
G1 F1800 X30.272 Y106.108 E24.95661
G1 X30.27 Y106.488 E24.98194
G1 X30.27 Y114.613 E25.52343
G1 X38.01 Y114.613 E26.03927
G1 X38.01 Y109.252 E26.39655
G0 F1620 X38.01 Y107.889
G1 F2100 E21.39655
G1 F300 Z0.56
G0 F6000 X38.67 Y100.961 Z0.56
G1 F300 Z0.24
G1 F2100 E26.39655
G1 F1800 X38.67 Y92.445 E26.9641
G1 X38.602 Y92.281 E26.97594
G1 X38.438 Y92.213 E26.98777
G1 X29.746 Y92.213 E27.56705
G1 X29.61 Y92.349 E27.57987
G1 X29.611 Y102.001 E28.22313
G1 X29.609 Y102.595 E28.26272
G1 X29.611 Y103.405 E28.3167
G1 X29.609 Y104.501 E28.38974
G1 F1802.7 X29.61 Y104.932 E28.41842
G1 X29.61 Y111.415 E28.84983
G1 F1800 X29.61 Y115.137 E29.09788
G1 X29.746 Y115.273 E29.1107
G1 X38.534 Y115.273 E29.69638
G1 X38.67 Y115.137 E29.7092
G1 X38.67 Y106.531 E30.28275
G1 X38.341 Y106.852 E30.31338
G1 X37.976 Y107.136 E30.3442
G1 X37.562 Y107.386 E30.37644
G1 X37.137 Y107.58 E30.40757
G1 X36.69 Y107.726 E30.43891
G1 X36.21 Y107.825 E30.47157
G1 X35.745 Y107.862 E30.50266
G1 X35.287 Y107.848 E30.5332
G1 X34.819 Y107.78 E30.56472
G1 X34.507 Y107.7 E30.58618
G1 X34.25 Y107.621 E30.6041
G1 X33.919 Y107.485 E30.62795
G1 X33.504 Y107.263 E30.65932
G1 X33.121 Y107.002 E30.69021
G1 X32.758 Y106.684 E30.72237
G1 X32.444 Y106.341 E30.75336
G1 X32.166 Y105.955 E30.78506
G1 X31.927 Y105.524 E30.81791
G1 X31.866 Y105.386 E30.82796
G1 X31.678 Y104.86 E30.86519
G1 X31.567 Y104.36 E30.89932
G1 X31.524 Y103.897 E30.93031
G1 X31.533 Y103.434 E30.96118
G1 X31.593 Y102.971 E30.99229
G1 X31.711 Y102.51 E31.024
G1 X31.874 Y102.075 E31.05496
G1 X32.097 Y101.641 E31.08748
G1 X32.36 Y101.253 E31.11872
G1 X32.656 Y100.903 E31.14927
G1 X33.003 Y100.577 E31.181
G1 X33.393 Y100.292 E31.21319
G1 X33.789 Y100.063 E31.24368
G1 X34.257 Y99.863 E31.2776
G1 X34.5 Y99.788 E31.29455
G1 X34.779 Y99.715 E31.31377
G1 X35.149 Y99.655 E31.33875
G1 X35.639 Y99.625 E31.37147
G1 X36.085 Y99.648 E31.40123
G1 X36.242 Y99.67 E31.4118
G1 X36.808 Y99.798 E31.45047
G1 X37.278 Y99.965 E31.48371
G1 X37.599 Y100.128 E31.5077
G0 F1620 X37.7 Y100.178
G0 X38.088 Y100.433
G0 X38.449 Y100.732
G0 X38.67 Y100.961
G1 F2100 E26.5077
G1 F300 Z0.56
G0 F6000 X39.202 Y103.314 Z0.56
;TYPE:WALL-OUTER
G1 F300 Z0.24
G1 F2100 E31.5077
G1 F1424.5 X39.285 Y102.933 E31.54019
G1 F1682.7 X39.33 Y102.521 E31.56941
G1 F1800 X39.33 Y92.445 E32.23363
G1 X39.33 Y92.076 E32.25795
G1 X38.807 Y91.553 E32.30671
G1 X29.473 Y91.553 E32.92202
G1 X28.95 Y92.076 E32.97078
G1 X28.951 Y104.557 E33.79353
G1 F1802.7 X28.949 Y104.932 E33.81822
G1 X28.951 Y106.108 E33.89562
G1 F1800 X28.95 Y115.41 E34.50882
G1 X29.473 Y115.933 E34.55758
G1 X38.807 Y115.933 E35.17288
G1 X39.33 Y115.41 E35.22164
G1 X39.33 Y105.384 E35.88256
G1 F1719.2 X39.299 Y105.003 E35.90895
G1 F1424.5 X39.187 Y104.579 E35.94548
G1 F1236.2 X39.172 Y104.525 E35.95086
G1 F1371.8 X38.953 Y104.891 E35.98775
G1 F1678 X38.745 Y105.265 E36.01801
G1 F1800 X38.723 Y105.309 E36.02125
G1 X38.429 Y105.788 E36.0583
G1 X38.174 Y106.097 E36.08471
G1 X37.886 Y106.374 E36.11105
G1 X37.577 Y106.61 E36.13669
G1 X37.23 Y106.816 E36.16329
G1 X36.871 Y106.976 E36.1892
G1 X36.494 Y107.096 E36.21528
G1 X36.085 Y107.177 E36.24276
G1 X35.704 Y107.203 E36.26794
G1 X35.315 Y107.188 E36.2936
G1 X34.922 Y107.128 E36.31981
G1 X34.685 Y107.064 E36.33599
G1 X34.17 Y106.875 E36.37215
G1 X33.823 Y106.685 E36.39823
G1 X33.499 Y106.461 E36.4242
G1 X33.201 Y106.195 E36.45053
G1 X32.937 Y105.902 E36.47653
G1 X32.708 Y105.577 E36.50274
G1 X32.508 Y105.211 E36.53023
G1 X32.488 Y105.165 E36.53354
G1 X32.3 Y104.639 E36.57036
G1 X32.213 Y104.228 E36.59805
G1 X32.182 Y103.848 E36.62319
G1 X32.193 Y103.454 E36.64917
G1 X32.247 Y103.066 E36.67499
G1 X32.348 Y102.68 E36.7013
G1 X32.488 Y102.316 E36.72701
G1 X32.68 Y101.951 E36.75419
G1 X32.9 Y101.632 E36.77974
G1 X33.155 Y101.335 E36.80554
G1 X33.448 Y101.065 E36.83181
G1 X33.775 Y100.83 E36.85835
G1 X34.112 Y100.639 E36.88389
G1 X34.508 Y100.473 E36.91219
G1 X34.862 Y100.372 E36.93646
G1 X35.255 Y100.307 E36.96272
G1 X35.67 Y100.285 E36.99011
G1 X36.044 Y100.306 E37.01481
G1 X36.096 Y100.314 E37.01828
G1 X36.662 Y100.442 E37.05653
G1 X37.046 Y100.583 E37.0835
G1 X37.392 Y100.762 E37.10918
G1 X37.719 Y100.98 E37.13508
G1 X38.021 Y101.234 E37.1611
G1 X38.294 Y101.524 E37.18735
G1 X38.529 Y101.839 E37.21326
G1 X38.728 Y102.187 E37.23969
G1 X38.885 Y102.546 E37.26551
G1 F1711.8 X39.034 Y102.917 E37.29323
G1 F1445.3 X39.202 Y103.314 E37.32862
G0 F6000 X39.27 Y103.001
G1 F2100 E32.32862
G1 F300 Z0.56
G0 F6000 X30.852 Y101.342 Z0.56
;TYPE:SKIN
G1 F300 Z0.24
G1 F2100 E37.32862
G1 F1800 X31.006 Y101.053 E37.35021
G1 X31.147 Y100.82 E37.36816
G1 X31.466 Y100.383 E37.40383
G1 X31.488 Y100.356 E37.40612
G1 X31.878 Y99.926 E37.44439
G1 X31.906 Y99.898 E37.447
G1 X32.357 Y99.507 E37.48635
G1 X32.388 Y99.484 E37.48889
G1 X32.877 Y99.152 E37.52786
G1 X33.194 Y98.974 E37.55182
G1 X33.429 Y98.862 E37.56898
G1 X33.804 Y98.708 E37.59571
G1 X34.179 Y98.59 E37.62162
G1 X34.591 Y98.489 E37.64959
G1 X35.185 Y98.406 E37.68912
G1 X35.827 Y98.388 E37.73146
G1 X36.188 Y98.413 E37.75532
G1 X36.516 Y98.46 E37.77716
G1 X37.101 Y98.594 E37.81672
G1 X37.371 Y98.676 E37.83532
G1 X37.43 Y98.664 E37.83929
G1 X37.43 Y95.935 E38.01919
G1 X37.43 Y93.453 E38.18281
G1 X30.85 Y93.454 E38.61657
G1 X30.852 Y99.979 E39.0467
G0 F1620 X30.852 Y101.342
G0 F6000 X31.602 Y99.738
G1 F1800 X31.18 Y99.317 E39.08599
G0 F6000 X32.094 Y99.297
G1 F1800 X31.18 Y98.384 E39.17116
G0 F6000 X31.18 Y97.45
G1 F1800 X32.641 Y98.911 E39.30736
G0 F6000 X33.245 Y98.581
G1 F1800 X31.179 Y96.516 E39.49992
G0 F6000 X31.179 Y95.583
G1 F1800 X33.92 Y98.323 E39.75541
G0 F6000 X34.675 Y98.145
G1 F1800 X31.179 Y94.649 E40.08132
G0 F6000 X31.246 Y93.782
G1 F1800 X35.529 Y98.065 E40.48061
G0 F6000 X36.523 Y98.126
G1 F1800 X32.179 Y93.782 E40.88559
G0 F6000 X33.113 Y93.782
G1 F1800 X37.1 Y97.77 E41.25733
G0 F6000 X37.1 Y96.836
G1 F1800 X34.046 Y93.782 E41.54204
G0 F6000 X34.979 Y93.782
G1 F1800 X37.1 Y95.903 E41.73977
G0 F6000 X37.1 Y94.97
G1 F1800 X35.913 Y93.782 E41.85048
G0 F6000 X36.846 Y93.782
G1 F1800 X37.1 Y94.036 E41.87416
G1 F2100 E36.87416
G1 F300 Z0.56
G0 F6000 X30.849 Y106.139 Z0.56
G1 F300 Z0.24
G1 F2100 E41.87416
G1 F1800 X30.85 Y107.753 E41.98055
G1 X30.849 Y108.408 E42.02373
G1 X30.85 Y110.941 E42.19071
G1 X30.85 Y114.033 E42.39454
G1 X37.43 Y114.033 E42.8283
G1 X37.43 Y108.793 E43.17372
G1 X36.847 Y108.964 E43.21377
G1 X36.421 Y109.047 E43.24238
G1 X36.152 Y109.079 E43.26024
G1 X35.584 Y109.102 E43.29772
G1 X35.129 Y109.08 E43.32775
G1 X34.652 Y109.013 E43.3595
G1 X34.179 Y108.895 E43.39163
G1 X33.799 Y108.776 E43.41788
G1 X33.766 Y108.764 E43.4202
G1 X33.242 Y108.536 E43.45787
G1 X33.208 Y108.519 E43.46038
G1 X32.704 Y108.225 E43.49884
G1 X32.397 Y108.008 E43.52362
G1 X32.179 Y107.835 E43.54197
G1 X31.773 Y107.452 E43.57876
G1 X31.747 Y107.425 E43.58123
G1 X31.612 Y107.265 E43.59503
G0 F1620 X31.37 Y106.978
G0 X31.346 Y106.947
G0 X31.027 Y106.468
G0 X30.849 Y106.139
G1 F2100 E38.59503
G1 F300 Z0.56
G0 F6000 X36.553 Y109.356 Z0.56
G1 F300 Z0.24
G1 F2100 E43.59503
G1 F1800 X37.099 Y109.903 E43.64598
G0 F6000 X37.099 Y110.836
G1 F1800 X35.691 Y109.428 E43.77724
G0 F6000 X34.678 Y109.349
G1 F1800 X37.099 Y111.77 E44.00294
G0 F6000 X37.099 Y112.703
G1 F1800 X33.328 Y108.931 E44.35455
G1 F2100 E39.35455
G1 F300 Z0.56
G0 F6000 X31.179 Y108.65 Z0.56
G1 F300 Z0.24
G1 F2100 E44.35455
G1 F1800 X36.231 Y113.702 E44.82553
G0 F6000 X37.099 Y113.637
G1 F1800 X31.179 Y107.717 E45.37743
G0 F6000 X31.179 Y109.583
G1 F1800 X35.298 Y113.702 E45.76142
G0 F6000 X34.364 Y113.702
G1 F1800 X31.179 Y110.517 E46.05835
G0 F6000 X31.179 Y111.45
G1 F1800 X33.431 Y113.702 E46.2683
