;FLAVOR:Marlin
;TIME:419
;Filament used: 0.433617m
;Layer height: 0.28
;MINX:107.4
;MINY:97.25
;MINZ:0.24
;MAXX:142.6
;MAXY:118.45
;MAXZ:11.16
;TARGET_MACHINE.NAME:VORON2 250
;Generated with Cura_SteamEngine 5.6.0
M140 S75
M105
M190 S75
M104 S235
M105
M109 S235
M82 ;absolute extrusion mode
START_PRINT
G92 E0
G92 E0
G1 F1800 E-1
;LAYER_COUNT:39
;LAYER:0
M107
M204 S1000
G1 F600 Z0.52
G0 F9000 X108.708 Y99.651 Z0.52
;TYPE:SKIRT
G1 F600 Z0.24
G1 F720 E0
G1 F1800 X108.361 Y100.057 E0.0324
G1 X107.927 Y100.725 E0.08073
G1 X107.651 Y101.396 E0.12474
G1 X107.474 Y102.069 E0.16696
G1 X107.41 Y102.79 E0.21087
G1 X107.4 Y103.492 E0.25347
G1 X107.4 Y112.31 E0.78842
G1 X107.411 Y112.927 E0.82586
G1 X107.45 Y113.438 E0.85695
G1 X107.614 Y114.213 E0.90501
G1 X107.883 Y114.885 E0.94892
G1 X108.247 Y115.496 E0.99207
G1 X108.638 Y115.97 E1.02935
G1 X109.168 Y116.523 E1.07581
G1 X109.803 Y117.141 E1.12957
G1 X110.207 Y117.487 E1.16184
G1 X110.876 Y117.923 E1.21028
G1 X111.547 Y118.199 E1.2543
G1 X112.22 Y118.376 E1.29652
G1 X112.941 Y118.44 E1.34043
G1 X113.642 Y118.45 E1.38296
G1 X136.46 Y118.45 E2.76725
G1 X137.077 Y118.439 E2.80469
G1 X137.592 Y118.399 E2.83602
G1 X138.369 Y118.236 E2.88419
G1 X139.039 Y117.966 E2.92801
G1 X139.566 Y117.652 E2.96523
G1 X140.116 Y117.215 E3.00784
G1 X140.69 Y116.665 E3.05607
G1 X141.288 Y116.052 E3.10802
G1 X141.638 Y115.643 E3.14068
G1 X142.073 Y114.975 E3.18904
G1 X142.349 Y114.304 E3.23306
G1 X142.526 Y113.631 E3.27527
G1 X142.59 Y112.91 E3.31919
G1 X142.6 Y112.208 E3.36178
G1 X142.6 Y103.391 E3.89668
G1 X142.589 Y102.774 E3.93411
G1 X142.55 Y102.264 E3.96514
G1 X142.397 Y101.535 E4.01033
G1 X142.121 Y100.823 E4.05666
G1 X141.755 Y100.205 E4.10023
G1 X141.359 Y99.729 E4.1378
G1 X140.733 Y99.078 E4.19259
G1 X140.194 Y98.555 E4.23815
G1 X139.791 Y98.211 E4.27029
G1 X139.124 Y97.777 E4.31857
G1 X138.453 Y97.501 E4.36259
G1 X137.78 Y97.324 E4.4048
G1 X137.059 Y97.26 E4.44872
G1 X136.358 Y97.25 E4.49125
G1 X113.54 Y97.25 E5.87554
G1 X112.923 Y97.261 E5.91297
G1 X112.408 Y97.301 E5.94431
G1 X111.63 Y97.464 E5.99253
G1 X111.055 Y97.696 E6.03015
G1 X110.357 Y98.092 E6.07883
G1 X109.877 Y98.49 E6.11666
G1 X109.318 Y99.026 E6.16365
G1 X108.997 Y99.354 E6.19149
G0 F1620 X108.708 Y99.651
G0 F9000 X109.167 Y100.098
G1 F1800 X108.849 Y100.472 E6.22127
G1 X108.496 Y101.024 E6.26102
G1 X108.243 Y101.639 E6.30136
G1 X108.106 Y102.183 E6.3354
G1 X108.05 Y102.799 E6.37292
G1 X108.04 Y103.501 E6.41551
G1 X108.04 Y112.299 E6.94926
G1 X108.051 Y112.916 E6.98669
G1 X108.088 Y113.388 E7.01542
G1 X108.228 Y114.026 E7.05504
G1 X108.457 Y114.598 E7.09242
G1 X108.773 Y115.128 E7.12986
G1 X109.132 Y115.563 E7.16407
G1 X109.629 Y116.079 E7.20754
G1 X110.249 Y116.682 E7.26001
G1 X110.622 Y117 E7.28974
G1 X111.175 Y117.354 E7.32957
G1 X111.79 Y117.607 E7.36992
G1 X112.334 Y117.744 E7.40395
G1 X112.95 Y117.8 E7.44148
G1 X113.651 Y117.81 E7.48401
G1 X136.449 Y117.81 E8.86708
G1 X137.066 Y117.799 E8.90452
G1 X137.541 Y117.761 E8.93343
G1 X138.179 Y117.622 E8.97304
G1 X138.753 Y117.391 E9.01058
G1 X139.238 Y117.102 E9.04483
G1 X139.714 Y116.717 E9.08197
G1 X140.246 Y116.204 E9.1268
G1 X140.83 Y115.605 E9.17756
G1 X141.151 Y115.228 E9.2076
G1 X141.504 Y114.676 E9.24735
G1 X141.757 Y114.061 E9.28769
G1 X141.894 Y113.517 E9.32172
G1 X141.95 Y112.901 E9.35925
G1 X141.96 Y112.199 E9.40184
G1 X141.96 Y103.402 E9.93552
G1 X141.949 Y102.785 E9.97296
G1 X141.912 Y102.314 E10.00162
G1 X141.782 Y101.72 E10.03851
G1 X141.543 Y101.104 E10.07859
G1 X141.229 Y100.573 E10.11602
G1 X140.867 Y100.138 E10.15035
G1 X140.273 Y99.523 E10.20222
G1 X139.749 Y99.015 E10.2465
G1 X139.377 Y98.699 E10.27611
G1 X138.825 Y98.346 E10.31586
G1 X138.21 Y98.093 E10.3562
G1 X137.666 Y97.956 E10.39024
G1 X137.05 Y97.9 E10.42776
G1 X136.349 Y97.89 E10.47029
G1 X113.551 Y97.89 E11.85337
G1 X112.934 Y97.901 E11.8908
G1 X112.459 Y97.939 E11.91971
G1 X111.82 Y98.078 E11.95939
G1 X111.294 Y98.29 E11.99379
G1 X110.723 Y98.62 E12.0338
G1 X110.285 Y98.983 E12.06831
G1 X109.762 Y99.487 E12.11237
G1 X109.456 Y99.801 E12.13897
G0 F1620 X109.167 Y100.098
G0 F9000 X109.626 Y100.544
G1 F1800 X109.338 Y100.885 E12.16605
G1 X109.065 Y101.322 E12.19731
G1 X108.864 Y101.796 E12.22855
G1 X108.738 Y102.295 E12.25977
G1 X108.69 Y102.808 E12.29103
G1 X108.68 Y103.51 E12.33362
G1 X108.68 Y112.288 E12.86615
G1 X108.691 Y112.905 E12.90359
G1 X108.726 Y113.336 E12.92982
G1 X108.842 Y113.838 E12.96108
G1 X109.034 Y114.316 E12.99233
G1 X109.297 Y114.758 E13.02353
G1 X109.625 Y115.155 E13.05477
G1 X110.089 Y115.634 E13.09523
G1 X110.695 Y116.223 E13.1465
G1 X111.036 Y116.512 E13.17361
G1 X111.473 Y116.785 E13.20487
G1 X111.947 Y116.986 E13.23611
G1 X112.446 Y117.112 E13.26733
G1 X112.959 Y117.16 E13.29859
G1 X113.66 Y117.17 E13.34112
G1 X136.438 Y117.17 E14.72298
G1 X137.055 Y117.159 E14.76042
G1 X137.488 Y117.123 E14.78678
G1 X137.989 Y117.008 E14.81796
G1 X138.467 Y116.816 E14.84921
G1 X138.91 Y116.552 E14.8805
G1 X139.306 Y116.224 E14.91169
G1 X139.8 Y115.745 E14.95344
G1 X140.372 Y115.158 E15.00316
G1 X140.662 Y114.815 E15.03041
G1 X140.935 Y114.378 E15.06167
G1 X141.136 Y113.904 E15.0929
G1 X141.262 Y113.405 E15.12413
G1 X141.31 Y112.892 E15.15538
G1 X141.32 Y112.19 E15.19798
G1 X141.32 Y103.413 E15.73045
G1 X141.309 Y102.796 E15.76788
G1 X141.274 Y102.366 E15.79406
G1 X141.158 Y101.864 E15.82531
G1 X140.967 Y101.386 E15.85654
G1 X140.704 Y100.943 E15.88779
G1 X140.375 Y100.547 E15.91903
G1 X139.814 Y99.969 E15.96789
G1 X139.304 Y99.475 E16.01097
G1 X138.964 Y99.188 E16.03796
G1 X138.527 Y98.915 E16.06922
G1 X138.053 Y98.714 E16.10046
G1 X137.554 Y98.588 E16.13168
G1 X137.041 Y98.54 E16.16294
G1 X136.34 Y98.53 E16.20547
G1 X113.562 Y98.53 E17.58733
G1 X112.945 Y98.541 E17.62477
G1 X112.512 Y98.577 E17.65113
G1 X112.01 Y98.692 E17.68237
G1 X111.533 Y98.884 E17.71356
G1 X111.09 Y99.147 E17.74482
G1 X110.693 Y99.476 E17.7761
G1 X110.207 Y99.947 E17.81716
G1 X109.915 Y100.247 E17.84255
G0 F1620 X109.626 Y100.544
G1 F1800 E16.84255
G1 F600 Z0.52
;MESH:aza-mount-outer.stl
G0 F9000 X128.492 Y103.63 Z0.52
;TYPE:WALL-INNER
G1 F600 Z0.24
G1 F720 E17.84255
G1 F1800 X128.646 Y103.834 E17.85786
G1 X128.745 Y103.985 E17.86867
G1 X128.913 Y104.274 E17.88868
G1 X129.121 Y104.727 E17.91852
G1 X129.18 Y104.886 E17.92867
G1 X129.279 Y105.207 E17.94879
G1 X129.32 Y105.372 E17.95896
G1 X129.383 Y105.705 E17.97925
G1 X129.406 Y105.885 E17.99012
G1 X129.429 Y106.39 E18.02038
G1 X129.41 Y106.773 E18.04334
G1 X129.34 Y107.236 E18.07137
G1 X129.212 Y107.721 E18.1014
G1 X129.031 Y108.185 E18.13122
G1 X128.954 Y108.345 E18.14185
G1 X128.709 Y108.769 E18.17117
G1 X128.513 Y109.047 E18.19153
G1 X128.401 Y109.187 E18.20227
G1 X128.171 Y109.442 E18.22283
G1 X128.046 Y109.565 E18.23333
G1 X127.801 Y109.78 E18.25284
G1 X127.671 Y109.882 E18.26273
G1 X127.389 Y110.079 E18.28333
G1 X127.242 Y110.17 E18.29368
G1 X126.951 Y110.327 E18.31347
G1 X126.788 Y110.402 E18.32421
G1 X126.358 Y110.566 E18.35177
G1 X126.013 Y110.661 E18.37319
G1 X125.693 Y110.724 E18.39272
G1 X125.184 Y110.774 E18.42334
G1 X125.013 Y110.778 E18.43358
G1 X124.677 Y110.767 E18.4537
G1 X124.504 Y110.752 E18.4641
G1 X124.177 Y110.702 E18.4839
G1 X123.691 Y110.583 E18.51386
G1 X123.523 Y110.527 E18.52446
G1 X123.205 Y110.402 E18.54492
G1 X123.043 Y110.325 E18.55565
G1 X122.755 Y110.169 E18.57526
G1 X122.61 Y110.08 E18.58545
G1 X122.328 Y109.884 E18.60601
G1 X121.953 Y109.566 E18.63545
G1 X121.83 Y109.445 E18.64578
G1 X121.601 Y109.192 E18.66621
G1 X121.484 Y109.045 E18.67745
G1 X121.209 Y108.637 E18.70691
G1 X121.041 Y108.332 E18.72776
G1 X120.968 Y108.18 E18.73785
G1 X120.847 Y107.884 E18.757
G1 X120.79 Y107.719 E18.76745
G1 X120.695 Y107.385 E18.78824
G1 X120.659 Y107.221 E18.79829
G1 X120.591 Y106.773 E18.82542
G1 X120.572 Y106.388 E18.84849
G1 X120.595 Y105.884 E18.8787
G1 X120.619 Y105.701 E18.88975
G1 X120.682 Y105.371 E18.90986
G1 X120.771 Y105.037 E18.93056
G1 X120.931 Y104.604 E18.95819
G1 X121.002 Y104.445 E18.96862
G1 X121.157 Y104.148 E18.98867
G1 X121.492 Y103.63 E19.02561
G1 X113.78 Y103.63 E19.48731
G1 X113.78 Y112.07 E19.9926
G1 X136.22 Y112.07 E21.33604
G1 X136.22 Y103.63 E21.84133
G1 X128.935 Y103.63 E22.27747
G0 F1620 X128.492 Y103.63
G1 F1800 E21.27747
G1 F600 Z0.52
G0 F9000 X126.903 Y103.029 Z0.52
G1 F600 Z0.24
G1 F720 E22.27747
G1 F1800 X127.256 Y103.257 E22.30263
G1 X127.59 Y103.53 E22.32845
G1 X127.898 Y103.847 E22.35491
G1 X128.226 Y104.285 E22.38767
G1 X128.393 Y104.574 E22.40766
G1 X128.571 Y104.968 E22.43354
G1 X128.706 Y105.384 E22.45972
G1 X128.807 Y105.924 E22.49261
G1 X128.83 Y106.361 E22.51881
G1 X128.812 Y106.726 E22.54069
G1 X128.749 Y107.132 E22.56529
G1 X128.634 Y107.558 E22.5917
G1 X128.476 Y107.957 E22.6174
G1 X128.269 Y108.343 E22.64362
G1 X128.022 Y108.701 E22.66966
G1 X127.725 Y109.04 E22.69664
G1 X127.405 Y109.329 E22.72245
G1 X126.957 Y109.642 E22.75517
G1 X126.568 Y109.844 E22.78142
G1 X126.186 Y109.991 E22.80592
G1 X125.899 Y110.072 E22.82377
G1 X125.48 Y110.148 E22.84927
G1 X125.032 Y110.178 E22.87615
G1 X124.593 Y110.158 E22.90246
G1 X124.266 Y110.109 E22.92225
G1 X123.845 Y110.003 E22.94824
G1 X123.426 Y109.844 E22.97507
G1 X123.041 Y109.642 E23.0011
G1 X122.672 Y109.392 E23.02779
G1 X122.275 Y109.043 E23.05943
G1 X121.976 Y108.701 E23.08663
G1 X121.735 Y108.348 E23.11222
G1 X121.523 Y107.952 E23.13911
G1 X121.401 Y107.656 E23.15828
G1 X121.273 Y107.222 E23.18537
G1 X121.198 Y106.8 E23.21103
G1 X121.171 Y106.36 E23.23742
G1 X121.197 Y105.87 E23.2668
G1 X121.29 Y105.404 E23.29524
G1 X121.373 Y105.129 E23.31244
G1 X121.534 Y104.723 E23.33859
G1 X121.741 Y104.339 E23.36471
G1 X121.925 Y104.066 E23.38442
G1 X122.214 Y103.721 E23.41136
G1 X122.609 Y103.36 E23.4434
G1 X123.07 Y103.031 E23.4773
G1 X113.487 Y103.03 E24.05102
G1 X113.18 Y103.337 E24.07701
G1 X113.18 Y112.363 E24.61738
G1 X113.487 Y112.67 E24.64338
G1 X136.513 Y112.67 E26.0219
G1 X136.82 Y112.363 E26.0479
G1 X136.82 Y103.337 E26.58827
G1 X136.513 Y103.03 E26.61426
G1 X127.346 Y103.029 E27.16307
G0 F1620 X126.903 Y103.029
G1 F1800 E26.16307
G1 F600 Z0.52
G0 F9000 X125.087 Y109.578 Z0.52
;TYPE:WALL-OUTER
G1 F600 Z0.24
G1 F720 E27.16307
G1 F1800 X124.682 Y109.564 E27.18733
G1 X124.323 Y109.508 E27.20908
G1 X123.999 Y109.423 E27.22914
G1 X123.647 Y109.286 E27.25175
G1 X123.298 Y109.096 E27.27554
G1 X123.016 Y108.9 E27.2961
G1 X122.72 Y108.64 E27.31969
G1 X122.491 Y108.387 E27.34012
G1 X122.261 Y108.058 E27.36415
G1 X122.078 Y107.723 E27.387
G1 X121.956 Y107.427 E27.40617
G1 X121.843 Y107.027 E27.43106
G1 X121.79 Y106.703 E27.45071
G1 X121.771 Y106.297 E27.47504
G1 X121.793 Y105.963 E27.49508
G1 X121.867 Y105.57 E27.51902
G1 X121.933 Y105.343 E27.53318
G1 X122.066 Y105.001 E27.55515
G1 X122.221 Y104.704 E27.5752
G1 X122.445 Y104.373 E27.59913
G1 X122.668 Y104.114 E27.61959
G1 X122.963 Y103.844 E27.64353
G1 X123.235 Y103.645 E27.66371
G1 X123.586 Y103.445 E27.6879
G1 X123.899 Y103.312 E27.70826
G1 F1761.8 X124.275 Y103.189 E27.73245
G1 F1679.6 X124.608 Y103.114 E27.75435
G1 F1656.4 X125.017 Y103.098 E27.78098
G1 X125.392 Y103.115 E27.8054
G1 F1679.6 X125.724 Y103.19 E27.82724
G1 F1761.8 X126.101 Y103.314 E27.85152
G1 F1800 X126.439 Y103.459 E27.87354
G1 X126.619 Y103.556 E27.88578
G1 X126.952 Y103.778 E27.90974
G1 X127.228 Y104.013 E27.93144
G1 X127.484 Y104.286 E27.95384
G1 X127.706 Y104.585 E27.97614
G1 X127.888 Y104.904 E27.99813
G1 X128.033 Y105.24 E28.02004
G1 X128.14 Y105.594 E28.04218
G1 X128.208 Y105.964 E28.0647
G1 X128.23 Y106.298 E28.08474
G1 X128.214 Y106.679 E28.10757
G1 X128.151 Y107.058 E28.13057
G1 X128.045 Y107.427 E28.15355
G1 X127.906 Y107.761 E28.17521
G1 X127.745 Y108.051 E28.19507
G1 X127.532 Y108.355 E28.21729
G1 X127.254 Y108.663 E28.24213
G1 X126.983 Y108.898 E28.26361
G1 X126.672 Y109.114 E28.28628
G1 X126.381 Y109.271 E28.30607
G1 X126.038 Y109.408 E28.32819
G1 X125.785 Y109.483 E28.34398
G1 X125.527 Y109.532 E28.35971
G0 F1620 X125.432 Y109.55
G0 X125.087 Y109.578
G0 F9000 X124.682 Y109.564
G0 X124.589 Y109.55
G1 F1800 E27.35971
G1 F600 Z0.52
G0 F9000 X136.761 Y113.27 Z0.52
G1 F600 Z0.24
G1 F720 E28.35971
G1 F1800 X137.42 Y112.611 E28.4155
G1 X137.42 Y103.089 E28.98557
G1 X136.761 Y102.43 E29.04136
G1 X126.193 Y102.43 E29.67405
G1 F1717 X125.448 Y102.46 E29.72084
G1 F1656.4 X124.964 Y102.453 E29.75234
G1 X124.552 Y102.459 E29.77914
G1 F1717 X123.806 Y102.431 E29.82599
G1 F1800 X113.239 Y102.43 E30.45862
G1 X112.58 Y103.089 E30.51442
G1 X112.58 Y112.611 E31.08448
G1 X113.239 Y113.27 E31.14028
G1 X136.318 Y113.27 E32.52198
G0 F1620 X136.761 Y113.27
G0 F9000 X137.114 Y112.917
G1 F1800 E31.52198
G1 F600 Z0.52
G0 F9000 X125.797 Y111.393 Z0.52
;TYPE:SKIN
G1 F600 Z0.24
G1 F720 E32.52198
G1 F1517.8 X126.507 Y111.106 E32.57997
G1 F1800 X127.016 Y110.914 E32.61472
G1 X127.192 Y110.832 E32.62711
G1 X127.51 Y110.66 E32.6502
G1 X127.693 Y110.548 E32.6639
G1 X128.151 Y110.217 E32.69999
G1 X128.412 Y109.988 E32.72216
G1 X128.575 Y109.827 E32.73679
G1 X128.818 Y109.556 E32.76004
G1 X128.959 Y109.382 E32.77434
G1 X129.165 Y109.091 E32.79711
G1 X129.275 Y108.916 E32.81031
G1 X129.438 Y108.623 E32.83172
G1 X129.539 Y108.418 E32.84631
G1 X129.672 Y108.093 E32.86874
G1 X129.754 Y107.858 E32.88463
G1 X129.894 Y107.321 E32.92007
G1 X129.967 Y106.824 E32.95215
G1 X129.987 Y106.412 E32.97849
G1 X129.985 Y106.182 E32.99318
G1 X129.963 Y105.843 E33.01487
G1 X129.933 Y105.614 E33.02962
G1 X129.867 Y105.263 E33.05243
G1 X129.815 Y105.052 E33.06631
G1 X129.712 Y104.716 E33.08875
G1 X129.638 Y104.514 E33.10249
G1 X129.489 Y104.19 E33.12526
G1 X135.662 Y104.189 E33.51946
G1 X135.662 Y111.512 E33.98711
G1 X126.561 Y111.512 E34.56829
G1 F1674.4 X126.177 Y111.464 E34.59486
G1 F1427.5 X125.797 Y111.393 E34.62599
G1 F1800 E33.62599
G1 F600 Z0.52
G0 F9000 X124.088 Y111.384 Z0.52
G1 F600 Z0.24
G1 F720 E34.62599
G1 F1492.2 X123.48 Y111.507 E34.67377
G1 F1786 X114.338 Y111.512 E35.26213
G1 F1800 X114.339 Y104.189 E35.72978
G1 X120.506 Y104.189 E36.1236
G1 X120.406 Y104.41 E36.13909
G1 X120.289 Y104.719 E36.16019
G1 X120.177 Y105.082 E36.18445
G1 X120.068 Y105.607 E36.21869
G1 X120.039 Y105.831 E36.23311
G1 X120.016 Y106.184 E36.2557
G1 X120.014 Y106.424 E36.27103
G1 X120.034 Y106.824 E36.29661
G1 X120.115 Y107.355 E36.33091
G1 X120.249 Y107.858 E36.36415
G1 X120.332 Y108.106 E36.38085
G1 X120.451 Y108.391 E36.40057
G1 X120.543 Y108.584 E36.41423
G1 X120.719 Y108.903 E36.43749
G1 X120.826 Y109.076 E36.45048
G1 X121.024 Y109.361 E36.47264
G1 X121.17 Y109.547 E36.48774
G1 X121.412 Y109.816 E36.51085
G1 X121.573 Y109.975 E36.5253
G1 X121.839 Y110.211 E36.54801
G1 X121.99 Y110.329 E36.56025
G1 X122.301 Y110.545 E36.58443
G1 X122.477 Y110.654 E36.59765
G1 X122.774 Y110.815 E36.61922
G1 X122.978 Y110.912 E36.63364
G1 X123.328 Y111.052 E36.65772
G1 F1786 X123.54 Y111.125 E36.67215
G1 F1492.2 X124.088 Y111.384 E36.71884
G1 F1324.1 X124.42 Y111.408 E36.74773
G1 F1386.3 X125.015 Y111.424 E36.79709
G1 F1406.6 X125.246 Y111.421 E36.81597
G1 F1355.3 X125.797 Y111.393 E36.86276
G1 F1800 E35.86276
G1 F600 Z0.52
G0 F9000 X114.812 Y111.191 Z0.52
G1 F600 Z0.24
G1 F720 E36.86276
G1 F1800 X114.657 Y111.036 E36.87676
G0 F9000 X114.657 Y110.131
G1 F1800 X115.717 Y111.191 E36.97249
G0 F9000 X116.622 Y111.191
G1 F1800 X114.657 Y109.226 E37.14995
G0 F9000 X114.657 Y108.321
G1 F1800 X117.527 Y111.191 E37.40914
G0 F9000 X118.432 Y111.191
G1 F1800 X114.658 Y107.417 E37.74997
G0 F9000 X114.658 Y106.512
G1 F1800 X119.336 Y111.191 E38.17249
G0 F9000 X120.242 Y111.191
G1 F1800 X114.658 Y105.607 E38.67679
G0 F9000 X114.658 Y104.702
G1 F1800 X121.147 Y111.191 E39.26282
G0 F9000 X122.052 Y111.191
G1 F1800 X115.37 Y104.509 E39.86627
G0 F9000 X116.275 Y104.509
G1 F1800 X120.066 Y108.3 E40.20864
G0 F9000 X119.748 Y107.077
G1 F1800 X117.181 Y104.509 E40.44052
G0 F9000 X118.086 Y104.509
G1 F1800 X119.699 Y106.122 E40.58619
G0 F9000 X119.8 Y105.319
G1 F1800 X118.991 Y104.509 E40.65929
G0 F9000 X119.896 Y104.509
G1 F1800 X119.988 Y104.602 E40.66765
G1 F1800 E39.66765
G1 F600 Z0.52
G0 F9000 X127.384 Y111.092 Z0.52
G1 F600 Z0.24
G1 F720 E40.66765
G1 F1800 X127.483 Y111.191 E40.67659
