;FLAVOR:Marlin
;TIME:4186
;Filament used: 2.55927m
;Layer height: 0.2
;MINX:5.88
;MINY:87.159
;MINZ:0.24
;MAXX:117.658
;MAXY:133.068
;MAXZ:11.16
;Generated with Cura_SteamEngine 5.0.0
M140 S80
M105
M190 S80
M104 S250
M105
M109 S250
M82 ;absolute extrusion mode
; Ender 3 Max Custom Start G-code
G92 E0 ; Reset Extruder
G28 ; Home all axes
G1 Z2.0 F3000 ; Move Z Axis up little to prevent scratching of Heat Bed
G1 X0.1 Y20 Z0.3 F5000.0 ; Move to start position
G1 X0.1 Y200.0 Z0.3 F1500.0 E15 ; Draw the first line
G1 X0.4 Y200.0 Z0.3 F5000.0 ; Move to side a little
G1 X0.4 Y20 Z0.3 F1500.0 E30 ; Draw the second line
G92 E0 ; Reset Extruder
G1 Z2.0 F3000 ; Move Z Axis up little to prevent scratching of Heat Bed
G1 X5 Y20 Z0.3 F5000.0 ; Move over to prevent blob squish
G92 E0
G92 E0
G1 F2100 E-5
;LAYER_COUNT:54
;LAYER:0
M107
G1 F300 Z0.56
G0 F6000 X15.369 Y87.288 Z0.56
G1 F300 Z0.56
G0 F6000 X5.881 Y98.766
;TYPE:SKIRT
G1 F300 Z0.24
G1 F2100 E0
G1 F1800 X5.891 Y98.065 E0.06094
G1 X5.944 Y97.157 E0.14001
G1 X6.076 Y96.258 E0.219
G1 X6.287 Y95.374 E0.298
G1 X6.575 Y94.512 E0.377
G1 X6.938 Y93.679 E0.45599
G1 X7.372 Y92.88 E0.53503
G1 X7.875 Y92.123 E0.61404
G1 X8.724 Y91.105 E0.72927
G1 X9.318 Y90.493 E0.80341
G1 X9.757 Y90.069 E0.85646
G1 X10.437 Y89.467 E0.93541
G1 X11.169 Y88.927 E1.01448
G1 X11.944 Y88.453 E1.09345
G1 X12.759 Y88.05 E1.17249
G1 X13.605 Y87.72 E1.25143
G1 X14.478 Y87.465 E1.33049
G1 X15.369 Y87.288 E1.40946
G1 X16.273 Y87.19 E1.4885
G1 X16.748 Y87.171 E1.52982
G1 X17.49 Y87.159 E1.59433
G1 X25.952 Y87.16 E2.32992
G1 X28.216 Y87.183 E2.52674
G1 X30.899 Y87.159 E2.75998
G1 X39.452 Y87.16 E3.50348
G1 X41.716 Y87.183 E3.7003
G1 X44.399 Y87.159 E3.93354
G1 X52.952 Y87.16 E4.67704
G1 X55.216 Y87.183 E4.87385
G1 X57.899 Y87.159 E5.10709
G1 X66.452 Y87.16 E5.85059
G1 X68.716 Y87.183 E6.04741
G1 X71.399 Y87.159 E6.28065
G1 X79.972 Y87.16 E7.02589
G1 X81.112 Y87.176 E7.125
G1 X83.529 Y87.18 E7.3351
G1 X84.543 Y87.169 E7.42326
G1 X93.024 Y87.17 E8.1605
G1 X94.018 Y87.188 E8.24692
G1 X95.005 Y87.231 E8.3328
G1 X95.967 Y87.286 E8.41656
G1 X98.543 Y87.359 E8.64058
G1 X99.862 Y87.368 E8.75524
G1 X106.05 Y87.369 E9.29316
G1 X106.752 Y87.379 E9.35419
G1 X107.659 Y87.432 E9.43316
G1 X108.559 Y87.564 E9.51224
G1 X109.443 Y87.775 E9.59124
G1 X110.305 Y88.063 E9.67025
G1 X111.138 Y88.426 E9.74923
G1 X111.936 Y88.86 E9.8282
G1 X112.693 Y89.363 E9.90721
G1 X113.701 Y90.201 E10.02116
G1 X114.297 Y90.778 E10.09327
G1 X114.736 Y91.231 E10.1481
G1 X115.339 Y91.911 E10.22711
G1 X115.88 Y92.641 E10.30609
G1 X116.355 Y93.416 E10.38511
G1 X116.76 Y94.23 E10.46414
G1 X117.092 Y95.076 E10.54315
G1 X117.348 Y95.948 E10.62215
G1 X117.526 Y96.839 E10.70113
G1 X117.626 Y97.743 E10.78019
G1 X117.646 Y98.233 E10.82282
G1 X117.658 Y98.971 E10.88699
G1 X117.657 Y121.46 E12.84192
G1 X117.647 Y122.162 E12.90296
G1 X117.594 Y123.069 E12.98193
G1 X117.462 Y123.969 E13.06101
G1 X117.251 Y124.853 E13.14001
G1 X116.963 Y125.715 E13.21901
G1 X116.6 Y126.548 E13.298
G1 X116.166 Y127.346 E13.37697
G1 X115.663 Y128.103 E13.45598
G1 X114.818 Y129.118 E13.57078
G1 X114.228 Y129.727 E13.64449
G1 X113.783 Y130.157 E13.69828
G1 X113.102 Y130.759 E13.7773
G1 X112.371 Y131.299 E13.8563
G1 X111.596 Y131.772 E13.93522
G1 X110.781 Y132.176 E14.0143
G1 X109.935 Y132.507 E14.09327
G1 X109.062 Y132.761 E14.1723
G1 X108.171 Y132.939 E14.25129
G1 X107.268 Y133.037 E14.33025
G1 X106.79 Y133.056 E14.37183
G1 X106.048 Y133.068 E14.43634
G1 X97.567 Y133.067 E15.17358
G1 X96.573 Y133.049 E15.26
G1 X95.586 Y133.006 E15.34588
G1 X94.624 Y132.951 E15.42965
G1 X92.048 Y132.878 E15.65366
G1 X90.729 Y132.869 E15.76833
G1 X84.687 Y132.869 E16.29355
G1 X83.401 Y132.852 E16.40535
G1 X80.984 Y132.848 E16.61546
G1 X79.97 Y132.859 E16.70361
G1 X71.508 Y132.858 E17.4392
G1 X69.244 Y132.835 E17.63601
G1 X66.561 Y132.859 E17.86925
G1 X58.008 Y132.858 E18.61275
G1 X55.744 Y132.835 E18.80957
G1 X53.061 Y132.859 E19.04281
G1 X44.508 Y132.858 E19.78631
G1 X42.244 Y132.835 E19.98313
G1 X39.561 Y132.859 E20.21637
G1 X31.008 Y132.858 E20.95987
G1 X28.744 Y132.835 E21.15668
G1 X26.061 Y132.859 E21.38992
G1 X17.488 Y132.858 E22.13516
G1 X16.786 Y132.848 E22.19619
G1 X15.879 Y132.795 E22.27517
G1 X14.979 Y132.663 E22.35424
G1 X14.095 Y132.452 E22.43325
G1 X13.233 Y132.164 E22.51225
G1 X12.4 Y131.801 E22.59124
G1 X11.602 Y131.367 E22.6702
G1 X10.845 Y130.864 E22.74921
G1 X9.829 Y130.019 E22.86409
G1 X9.236 Y129.445 E22.93583
G1 X8.807 Y129.003 E22.98937
G1 X8.204 Y128.323 E23.06838
G1 X7.662 Y127.593 E23.14741
G1 X7.187 Y126.819 E23.22636
G1 X6.781 Y126.005 E23.30543
G1 X6.449 Y125.16 E23.38435
G1 X6.192 Y124.288 E23.46338
G1 X6.013 Y123.397 E23.54238
G1 X5.913 Y122.493 E23.62144
G1 X5.892 Y121.993 E23.66494
G1 X5.88 Y121.249 E23.72963
G1 X5.881 Y100.129 E25.56556
G0 F1620 X5.881 Y98.766
G1 F2100 E20.56556
G1 F300 Z0.56
;MESH:aza-mount-outer.stl(5)
G0 F6000 X26.793 Y109.581 Z0.56
;TYPE:WALL-OUTER
G1 F300 Z0.24
G1 F2100 E25.56556
G1 F1317.1 X26.805 Y109.996 E25.60816
G1 F1315.6 X26.792 Y110.428 E25.65255
G1 F1258.5 X26.764 Y110.79 E25.69154
G1 F2100 E20.69154
G1 F300 Z0.56
G0 F6000 X25.6 Y114.154 Z0.56
;TYPE:WALL-INNER
G1 F300 Z0.24
G1 F2100 E25.69154
G1 F1800 X25.324 Y114.303 E25.71434
G1 X24.998 Y114.449 E25.74031
G1 X24.443 Y114.631 E25.78278
G1 X23.921 Y114.739 E25.82153
G1 X23.377 Y114.786 E25.86123
G1 X22.844 Y114.772 E25.9
G1 X22.307 Y114.697 E25.93942
G1 X21.911 Y114.599 E25.96908
G1 X21.592 Y114.498 E25.9934
G1 X21.26 Y114.362 E26.01949
G1 X20.773 Y114.106 E26.05949
G1 X20.327 Y113.804 E26.09865
G1 X19.908 Y113.442 E26.13891
G1 X19.546 Y113.053 E26.17754
G1 X19.212 Y112.593 E26.21887
G1 X18.935 Y112.099 E26.26005
G1 X18.835 Y111.873 E26.27801
G1 X18.646 Y111.345 E26.31879
G1 F1802.7 X18.511 Y110.754 E26.3628
G1 F1827.7 X18.492 Y110.482 E26.38232
G1 F1867.9 X18.473 Y110.21 E26.40142
G1 F1885.7 X18.478 Y109.685 E26.43786
G1 F1856.2 X18.503 Y109.411 E26.45726
G1 F1805.5 X18.528 Y109.137 E26.4772
G1 F1789.2 X18.651 Y108.64 E26.51465
G1 F1800 X18.851 Y108.095 E26.55686
G1 X19.1 Y107.606 E26.59675
G1 X19.401 Y107.148 E26.6366
G1 X19.755 Y106.728 E26.67653
G1 X20.149 Y106.355 E26.71598
G1 X20.599 Y106.019 E26.75681
G1 X21.062 Y105.751 E26.7957
G1 X21.593 Y105.519 E26.83783
G1 X21.912 Y105.418 E26.86216
G1 X22.256 Y105.33 E26.88798
G1 X22.636 Y105.269 E26.91596
G1 X23.194 Y105.231 E26.95662
G1 X23.452 Y105.239 E26.97539
G1 X24.007 Y105.298 E27.01597
G1 X24.548 Y105.416 E27.05622
G1 X25.092 Y105.608 E27.09816
G1 X25.593 Y105.857 E27.13884
G1 X25.6 Y105.492 E27.16538
G1 X25.6 Y99.139 E27.62727
G1 X17.86 Y99.139 E28.19
G1 X17.86 Y108.54 E28.87349
G1 F1789.2 X17.864 Y109.089 E28.91365
G1 F1816.5 X17.851 Y109.446 E28.93938
G1 F1865 X17.848 Y109.74 E28.96001
G1 F1888.7 X17.844 Y110.034 E28.98039
G1 X17.847 Y110.303 E28.99903
G1 F1865 X17.851 Y110.572 E29.01791
G1 F1830.5 X17.86 Y110.819 E29.03558
G1 F1805.5 X17.859 Y111.192 E29.06261
G1 F1802.7 X17.862 Y111.48 E29.08352
G1 F1800 X17.86 Y113.015 E29.19512
G1 X17.86 Y120.879 E29.76687
G1 X25.6 Y120.879 E30.32959
G1 X25.6 Y115.517 E30.71943
G0 F1620 X25.6 Y114.154
G1 F2100 E25.71943
G1 F300 Z0.56
G0 F6000 X26.26 Y107.227 Z0.56
G1 F300 Z0.24
G1 F2100 E30.71943
G1 F1800 X26.26 Y98.711 E31.33858
G1 X26.192 Y98.547 E31.35149
G1 X26.028 Y98.479 E31.3644
G1 X17.336 Y98.479 E31.99634
G1 X17.2 Y98.615 E32.01032
G1 X17.2 Y108.293 E32.71395
G1 X17.201 Y110.819 E32.8976
G1 X17.199 Y111.192 E32.92472
G1 X17.201 Y111.48 E32.94566
G1 X17.2 Y121.403 E33.6671
G1 X17.336 Y121.539 E33.68109
G1 X26.124 Y121.539 E34.32001
G1 X26.26 Y121.403 E34.33399
G1 X26.26 Y112.798 E34.95961
G1 X25.933 Y113.116 E34.99277
G1 X25.562 Y113.403 E35.02687
G1 X25.157 Y113.649 E35.06132
G1 X24.73 Y113.846 E35.09551
G1 X24.25 Y113.999 E35.13214
G1 X23.798 Y114.091 E35.16568
G1 X23.336 Y114.128 E35.19937
G1 X22.874 Y114.113 E35.23298
G1 X22.41 Y114.045 E35.26708
G1 X22.087 Y113.963 E35.29131
G1 X21.842 Y113.888 E35.30993
G1 X21.51 Y113.752 E35.33602
G1 X21.092 Y113.528 E35.3705
G1 X20.708 Y113.264 E35.40438
G1 X20.35 Y112.952 E35.4389
G1 X20.037 Y112.612 E35.4725
G1 X19.754 Y112.217 E35.50783
G1 X19.517 Y111.787 E35.54353
G1 X19.457 Y111.652 E35.55427
G1 X19.268 Y111.124 E35.59504
G1 X19.157 Y110.623 E35.63235
G1 X19.115 Y110.163 E35.66593
G1 X19.123 Y109.704 E35.69931
G1 X19.185 Y109.234 E35.73377
G1 F1802.7 X19.291 Y108.806 E35.76578
G1 X19.466 Y108.336 E35.80219
G1 F1800 X19.682 Y107.916 E35.83653
G1 X19.945 Y107.523 E35.87091
G1 X20.251 Y107.164 E35.9052
G1 X20.594 Y106.842 E35.93941
G1 X20.982 Y106.557 E35.97441
G1 X21.383 Y106.327 E36.00802
G1 X21.846 Y106.129 E36.04463
G1 X22.089 Y106.054 E36.06312
G1 X22.37 Y105.98 E36.08425
G1 X22.741 Y105.921 E36.11156
G1 X23.227 Y105.891 E36.14696
G1 X23.382 Y105.895 E36.15823
G1 X23.937 Y105.954 E36.19881
G1 X24.39 Y106.056 E36.23257
G1 X24.859 Y106.226 E36.26884
G1 X25.19 Y106.393 E36.29579
G0 F1620 X25.288 Y106.442
G0 X25.674 Y106.693
G0 X26.042 Y106.999
G0 X26.26 Y107.227
G0 F6000 X26.624 Y109.182
;TYPE:WALL-OUTER
G1 F1447 X26.793 Y109.581 E36.33626
G1 F1427.9 X26.875 Y109.199 E36.37324
G1 F1685.1 X26.92 Y108.786 E36.40655
G1 F1800 X26.92 Y98.711 E37.16293
G1 X26.92 Y98.342 E37.19063
G1 X26.397 Y97.819 E37.24616
G1 X17.063 Y97.819 E37.94691
G1 X16.54 Y98.342 E38.00244
G1 X16.54 Y108.293 E38.7495
G1 X16.54 Y121.676 E39.75423
G1 X17.063 Y122.199 E39.80976
G1 X26.397 Y122.199 E40.51051
G1 X26.92 Y121.676 E40.56603
G1 X26.92 Y111.871 E41.30214
G1 F1775.8 X26.911 Y111.59 E41.32354
G1 F1724.2 X26.901 Y111.309 E41.34557
G1 F1450.5 X26.78 Y110.85 E41.3898
G1 F1242.7 X26.764 Y110.79 E41.39655
G1 F1387.9 X26.525 Y111.179 E41.441
G1 F1652.3 X26.488 Y111.219 E41.44546
G1 F1724.2 X26.361 Y111.469 E41.46744
G1 F1775.8 X26.234 Y111.72 E41.48884
G1 F1800 X26.017 Y112.057 E41.51893
G1 X25.766 Y112.361 E41.54853
G1 X25.478 Y112.638 E41.57853
G1 X25.165 Y112.876 E41.60805
G1 X24.823 Y113.08 E41.63795
G1 X24.462 Y113.242 E41.66765
G1 X24.058 Y113.368 E41.69942
G1 X23.675 Y113.443 E41.72872
G1 X23.295 Y113.469 E41.75732
G1 X22.904 Y113.453 E41.7867
G1 X22.513 Y113.393 E41.81639
G1 X22.263 Y113.327 E41.83581
G1 X21.76 Y113.141 E41.87607
G1 X21.411 Y112.95 E41.90594
G1 X21.088 Y112.725 E41.93549
G1 X20.792 Y112.462 E41.96522
G1 X20.528 Y112.17 E41.99477
G1 X20.297 Y111.841 E42.02495
G1 X20.099 Y111.475 E42.05619
G1 X20.079 Y111.43 E42.05989
G1 X19.89 Y110.902 E42.10199
G1 X19.804 Y110.492 E42.13344
G1 X19.773 Y110.114 E42.16191
G1 X19.783 Y109.722 E42.19135
G1 X19.838 Y109.33 E42.22107
G1 F1802.7 X19.93 Y108.972 E42.24878
G1 X20.081 Y108.576 E42.28055
G1 F1800 X20.265 Y108.226 E42.31023
G1 X20.489 Y107.897 E42.34011
G1 X20.747 Y107.599 E42.36971
G1 X21.039 Y107.33 E42.39951
G1 X21.364 Y107.095 E42.42962
G1 X21.704 Y106.904 E42.4589
G1 X22.098 Y106.739 E42.49097
G1 X22.453 Y106.637 E42.5187
G1 X22.845 Y106.573 E42.54852
G1 X23.26 Y106.55 E42.57972
G1 X23.312 Y106.551 E42.58362
G1 X23.867 Y106.61 E42.62553
G1 X24.231 Y106.697 E42.65362
G1 X24.626 Y106.844 E42.68526
G1 X24.982 Y107.027 E42.71532
G1 X25.308 Y107.242 E42.74463
G1 X25.612 Y107.5 E42.77457
G1 X25.885 Y107.793 E42.80463
G1 X26.118 Y108.104 E42.83381
G1 X26.318 Y108.447 E42.86362
G1 X26.477 Y108.811 E42.89344
G1 F1711.8 X26.624 Y109.182 E42.92494
G0 F6000 X26.748 Y109.476
G1 F2100 E37.92494
G1 F300 Z0.56
G0 F6000 X18.441 Y107.612 Z0.56
;TYPE:SKIN
G1 F300 Z0.24
G1 F2100 E42.92494
G1 F1800 X18.702 Y107.143 E42.96523
G1 X18.722 Y107.111 E42.96807
G1 X19.061 Y106.639 E43.01169
G1 X19.086 Y106.608 E43.01468
G1 X19.47 Y106.19 E43.0573
G1 X19.496 Y106.165 E43.06001
G1 X19.94 Y105.776 E43.10432
G1 X19.972 Y105.751 E43.10737
G1 X20.449 Y105.429 E43.15058
G1 X20.48 Y105.41 E43.15331
G1 X21.01 Y105.133 E43.1982
G1 X21.395 Y104.974 E43.22947
G1 X21.764 Y104.858 E43.25851
G1 X22.179 Y104.752 E43.29067
G1 X22.733 Y104.674 E43.33267
G1 X23.192 Y104.652 E43.36717
G1 X23.512 Y104.662 E43.39121
G1 X24.071 Y104.72 E43.4334
G1 X24.379 Y104.775 E43.45689
G1 X24.923 Y104.927 E43.49929
G1 X25.02 Y104.965 E43.50711
G1 X25.02 Y99.719 E43.90096
G1 X18.44 Y99.719 E44.39495
G1 X18.441 Y106.249 E44.88519
G0 F1620 X18.441 Y107.612
G0 F6000 X19.196 Y106
G1 F1800 X18.77 Y105.574 E44.93041
G0 F6000 X19.687 Y105.558
G1 F1800 X18.77 Y104.641 E45.02777
G0 F6000 X18.77 Y103.707
G1 F1800 X20.235 Y105.173 E45.18337
G0 F6000 X20.842 Y104.846
G1 F1800 X18.77 Y102.774 E45.40336
G0 F6000 X18.77 Y101.841
G1 F1800 X21.517 Y104.588 E45.69501
G0 F6000 X22.269 Y104.407
G1 F1800 X18.77 Y100.907 E46.06656
G0 F6000 X18.843 Y100.047
G1 F1800 X23.118 Y104.322 E46.52044
G0 F6000 X24.123 Y104.394
G1 F1800 X19.777 Y100.047 E46.98192
G0 F6000 X20.71 Y100.047
G1 F1800 X24.69 Y104.027 E47.40448
G0 F6000 X24.69 Y103.094
G1 F1800 X21.643 Y100.047 E47.72799
G0 F6000 X22.577 Y100.047
G1 F1800 X24.69 Y102.16 E47.95233
G0 F6000 X24.69 Y101.227
G1 F1800 X23.51 Y100.047 E48.07761
G0 F6000 X24.443 Y100.047
G1 F1800 X24.69 Y100.293 E48.10378
G1 F2100 E43.10378
G1 F300 Z0.56
G0 F6000 X18.44 Y112.403 Z0.56
G1 F300 Z0.24
G1 F2100 E48.10378
G1 F1800 X18.44 Y120.299 E48.69657
G1 X25.02 Y120.299 E49.19057
G1 X25.02 Y115.061 E49.58381
G1 X24.986 Y115.073 E49.58651
G1 X24.406 Y115.238 E49.63179
G1 X24.368 Y115.246 E49.6347
G1 X23.781 Y115.341 E49.67934
G1 X23.742 Y115.345 E49.68229
G1 X23.172 Y115.368 E49.72511
G1 X22.793 Y115.35 E49.7536
G1 X22.246 Y115.279 E49.79501
G1 X21.763 Y115.16 E49.83235
G1 X21.359 Y115.031 E49.86419
G1 X20.829 Y114.8 E49.9076
G1 X20.795 Y114.783 E49.91045
G1 X20.305 Y114.499 E49.95297
G1 X20.274 Y114.479 E49.95574
G1 X19.817 Y114.141 E49.99841
G1 X19.787 Y114.116 E50.00135
G1 X19.37 Y113.724 E50.04431
G1 X19.345 Y113.698 E50.04702
G1 X19.2 Y113.528 E50.0638
G0 F1620 X18.959 Y113.245
G0 X18.935 Y113.213
G0 X18.601 Y112.706
G0 X18.44 Y112.403
G1 F2100 E45.0638
G1 F300 Z0.56
G0 F6000 X24.143 Y115.614 Z0.56
G1 F300 Z0.24
G1 F2100 E50.0638
G1 F1800 X24.69 Y116.161 E50.12187
G0 F6000 X24.69 Y117.094
G1 F1800 X23.289 Y115.693 E50.27062
G0 F6000 X22.276 Y115.614
G1 F1800 X24.69 Y118.028 E50.52692
G0 F6000 X24.69 Y118.961
G1 F1800 X20.931 Y115.202 E50.92602
G1 F2100 E45.92602
G1 F300 Z0.56
G0 F6000 X18.77 Y114.908 Z0.56
G1 F300 Z0.24
G1 F2100 E50.92602
G1 F1800 X23.83 Y119.968 E51.46325
G0 F6000 X24.69 Y119.894
G1 F1800 X18.77 Y113.975 E52.09173
G0 F6000 X18.77 Y115.841
G1 F1800 X22.896 Y119.968 E52.52985
G0 F6000 X21.963 Y119.968
G1 F1800 X18.77 Y116.775 E52.86885
G0 F6000 X18.77 Y117.708
G1 F1800 X21.03 Y119.968 E53.1088
G0 F6000 X20.096 Y119.968
G1 F1800 X18.77 Y118.641 E53.24964
G0 F6000 X18.77 Y119.575
G1 F1800 X19.163 Y119.968 E53.29136
G1 F2100 E48.29136
G1 F300 Z0.56
;MESH:aza-mount-outer.stl(1)
G0 F6000 X39.1 Y114.154 Z0.56
;TYPE:WALL-INNER
G1 F300 Z0.24
G1 F2100 E53.29136
G1 F1800 X38.824 Y114.303 E53.31417
G1 X38.498 Y114.449 E53.34014
G1 X37.943 Y114.631 E53.3826
G1 X37.421 Y114.739 E53.42136
G1 X36.877 Y114.786 E53.46106
G1 X36.344 Y114.772 E53.49982
G1 X35.807 Y114.697 E53.53924
G1 X35.411 Y114.599 E53.5689
G1 X35.092 Y114.498 E53.59323
G1 X34.76 Y114.362 E53.61931
G1 X34.273 Y114.106 E53.65931
G1 X33.827 Y113.804 E53.69847
G1 X33.408 Y113.442 E53.73873
G1 X33.046 Y113.053 E53.77736
G1 X32.712 Y112.593 E53.81869
G1 X32.435 Y112.099 E53.85987
G1 X32.335 Y111.873 E53.87784
G1 X32.146 Y111.345 E53.91861
G1 F1802.7 X32.011 Y110.754 E53.96262
G1 F1827.7 X31.992 Y110.482 E53.98214
G1 F1867.9 X31.973 Y110.21 E54.00125
G1 F1885.7 X31.978 Y109.685 E54.03768
G1 F1856.2 X32.003 Y109.411 E54.05708
G1 F1805.5 X32.028 Y109.137 E54.07702
G1 F1789.2 X32.151 Y108.64 E54.11447
G1 F1800 X32.351 Y108.095 E54.15668
G1 X32.6 Y107.606 E54.19658
G1 X32.901 Y107.148 E54.23642
G1 X33.255 Y106.728 E54.27636
G1 X33.649 Y106.355 E54.3158
G1 X34.099 Y106.019 E54.35663
G1 X34.562 Y105.751 E54.39553
G1 X35.093 Y105.519 E54.43766
G1 X35.412 Y105.418 E54.46199
G1 X35.756 Y105.33 E54.4878
G1 X36.136 Y105.269 E54.51578
G1 X36.694 Y105.231 E54.55645
G1 X36.952 Y105.239 E54.57521
G1 X37.507 Y105.298 E54.61579
G1 X38.048 Y105.416 E54.65605
G1 X38.592 Y105.608 E54.69799
G1 X39.093 Y105.857 E54.73866
G1 X39.1 Y105.492 E54.76521
G1 X39.1 Y99.139 E55.2271
