;FLAVOR:Marlin
;TIME:487
;Filament used: 0.610491m
;Layer height: 0.32
;MINX:125.289
;MINY:128.318
;MINZ:0.24
;MAXX:174.709
;MAXY:171.687
;MAXZ:6.32
;Generated with Cura_SteamEngine 5.0.0
M140 S70
M105
M190 S70
M104 S245
M105
M109 S245
M82 ;absolute extrusion mode
; Ender 3 Max Custom Start G-code
G92 E0 ; Reset Extruder
G28 ; Home all axes
G1 Z2.0 F3000 ; Move Z Axis up little to prevent scratching of Heat Bed
G1 X0.1 Y20 Z0.3 F5000.0 ; Move to start position
G1 X0.1 Y200.0 Z0.3 F1500.0 E15 ; Draw the first line
G1 X0.4 Y200.0 Z0.3 F5000.0 ; Move to side a little
G1 X0.4 Y20 Z0.3 F1500.0 E30 ; Draw the second line
G92 E0 ; Reset Extruder
G1 Z2.0 F3000 ; Move Z Axis up little to prevent scratching of Heat Bed
G1 X5 Y20 Z0.3 F5000.0 ; Move over to prevent blob squish
G92 E0
G92 E0
G1 F2100 E-5
;LAYER_COUNT:19
;LAYER:0
M107
G1 F300 Z0.56
G0 F6000 X128.696 Y132.76 Z0.56
G1 F300 Z0.56
G0 F6000 X125.291 Y141.461
;TYPE:SKIRT
G1 F300 Z0.24
G1 F2100 E0
G1 F1800 X125.306 Y140.731 E0.05289
G1 X125.366 Y139.796 E0.12076
G1 X125.504 Y138.869 E0.18866
G1 X125.669 Y138.147 E0.24231
G1 X125.742 Y137.871 E0.26299
G1 X126.02 Y136.976 E0.33088
G1 X126.374 Y136.107 E0.39885
G1 X126.8 Y135.272 E0.46676
G1 X127.376 Y134.36 E0.5449
G1 X127.492 Y134.195 E0.55951
G1 X128.064 Y133.452 E0.62743
G1 X128.696 Y132.76 E0.69532
G1 X129.386 Y132.125 E0.76325
G1 X129.903 Y131.713 E0.81114
G1 X130.101 Y131.565 E0.82905
G1 X130.875 Y131.037 E0.89692
G1 X131.692 Y130.576 E0.96488
G1 X132.544 Y130.186 E1.03275
G1 X133.427 Y129.871 E1.10067
G1 X134.324 Y129.634 E1.16788
G1 X134.702 Y129.551 E1.19591
G1 X136.022 Y129.344 E1.2927
G1 X136.583 Y129.291 E1.33352
G1 X139.135 Y129.012 E1.51949
G1 X141.891 Y128.628 E1.72107
G1 X143.06 Y128.451 E1.80671
G1 X144.345 Y128.334 E1.90019
G1 X144.836 Y128.318 E1.93577
G1 X145.773 Y128.327 E2.00365
G1 X146.588 Y128.401 E2.06293
G1 X148.89 Y128.695 E2.23105
G1 X151.439 Y128.954 E2.41665
G1 X153.936 Y129.136 E2.59801
G1 X156.435 Y129.247 E2.77922
G1 X159.251 Y129.29 E2.98324
G1 X160.358 Y129.291 E3.06343
G1 X161.056 Y129.302 E3.114
G1 X161.992 Y129.357 E3.18192
G1 X162.92 Y129.491 E3.24984
G1 X163.833 Y129.704 E3.31776
G1 X164.724 Y129.994 E3.38563
G1 X165.588 Y130.359 E3.45358
G1 X166.417 Y130.796 E3.52146
G1 X167.206 Y131.302 E3.58936
G1 X167.949 Y131.874 E3.65729
G1 X168.496 Y132.365 E3.71054
G1 X168.984 Y132.837 E3.75972
G1 X171.118 Y134.972 E3.97839
G1 X171.576 Y135.443 E4.02598
G1 X172.2 Y136.143 E4.09391
G1 X172.763 Y136.893 E4.16185
G1 X173.259 Y137.688 E4.22973
G1 X173.686 Y138.523 E4.29766
G1 X174.04 Y139.391 E4.36557
G1 X174.319 Y140.286 E4.43348
G1 X174.521 Y141.201 E4.50136
G1 X174.639 Y142.062 E4.56432
G1 X174.705 Y143.264 E4.65152
G1 X174.709 Y156.335 E5.59839
G1 X174.699 Y157.037 E5.64925
G1 X174.646 Y157.972 E5.71709
G1 X174.513 Y158.9 E5.785
G1 X174.301 Y159.814 E5.85297
G1 X174.013 Y160.706 E5.92087
G1 X173.649 Y161.57 E5.98879
G1 X173.213 Y162.4 E6.0567
G1 X172.708 Y163.19 E6.12463
G1 X172.138 Y163.933 E6.19246
G1 X171.664 Y164.463 E6.24397
G1 X171.156 Y164.992 E6.2971
G1 X169.058 Y167.09 E6.51203
G1 X168.552 Y167.583 E6.56321
G1 X167.854 Y168.208 E6.63108
G1 X167.104 Y168.771 E6.69902
G1 X166.309 Y169.268 E6.76693
G1 X165.475 Y169.696 E6.83484
G1 X164.608 Y170.051 E6.90271
G1 X163.713 Y170.33 E6.97062
G1 X162.798 Y170.533 E7.03851
G1 X161.868 Y170.657 E7.10648
G1 X161.09 Y170.699 E7.16292
G1 X160.351 Y170.711 E7.21646
G1 X159.219 Y170.711 E7.29846
G1 X156.611 Y170.748 E7.48741
G1 X154.09 Y170.855 E7.6702
G1 X151.595 Y171.032 E7.85139
G1 X149.097 Y171.279 E8.03323
G1 X146.55 Y171.602 E8.21921
G1 X145.616 Y171.68 E8.28711
G1 X144.973 Y171.687 E8.33369
G1 X144.58 Y171.68 E8.36216
G1 X143.645 Y171.624 E8.43002
G1 X143.122 Y171.557 E8.46821
G1 X140.852 Y171.211 E8.63455
G1 X136.969 Y170.751 E8.9178
G1 X135.76 Y170.629 E9.00583
G1 X134.832 Y170.495 E9.07375
G1 X133.919 Y170.283 E9.14165
G1 X132.974 Y169.974 E9.21367
G1 X132.765 Y169.895 E9.22986
G1 X131.903 Y169.527 E9.29776
G1 X131.076 Y169.086 E9.36565
G1 X130.289 Y168.576 E9.43358
G1 X129.632 Y168.072 E9.49357
G1 X129.432 Y167.906 E9.5124
G1 X128.737 Y167.277 E9.5803
G1 X128.098 Y166.591 E9.64821
G1 X127.52 Y165.853 E9.71612
G1 X126.915 Y164.912 E9.79716
G1 X126.805 Y164.72 E9.81319
G1 X126.374 Y163.888 E9.88107
G1 X126.016 Y163.021 E9.94902
G1 X125.733 Y162.128 E10.01688
G1 X125.525 Y161.207 E10.08527
G1 X125.472 Y160.913 E10.10692
G1 X125.346 Y159.984 E10.17483
G1 X125.299 Y159.115 E10.23787
G1 X125.289 Y158.312 E10.29605
G1 X125.291 Y142.824 E11.41801
G0 F1620 X125.291 Y141.461
G0 F6000 X125.951 Y141.475
G1 F1800 X125.966 Y140.745 E11.4709
G1 X126.025 Y139.838 E11.53674
G1 X126.163 Y138.94 E11.60256
G1 X126.307 Y138.316 E11.64895
G1 X126.38 Y138.04 E11.66963
G1 X126.651 Y137.172 E11.7355
G1 X126.997 Y136.332 E11.80131
G1 X127.416 Y135.525 E11.86718
G1 X127.916 Y134.74 E11.9346
G1 X128.032 Y134.575 E11.94921
G1 X128.587 Y133.855 E12.01507
G1 X129.203 Y133.187 E12.08089
G1 X129.876 Y132.575 E12.14679
G1 X130.496 Y132.094 E12.20363
G1 X131.248 Y131.582 E12.26953
G1 X132.041 Y131.139 E12.33533
G1 X132.87 Y130.767 E12.40116
G1 X133.729 Y130.469 E12.46702
G1 X134.466 Y130.278 E12.52217
G1 X134.844 Y130.195 E12.55021
G1 X136.084 Y130.001 E12.64113
G1 X136.652 Y129.947 E12.68246
G1 X139.228 Y129.666 E12.87017
G1 X142 Y129.279 E13.07293
G1 X143.159 Y129.104 E13.15784
G1 X144.367 Y128.993 E13.24571
G1 X144.858 Y128.977 E13.2813
G1 X145.766 Y128.988 E13.34708
G1 X146.504 Y129.055 E13.40076
G1 X148.851 Y129.355 E13.57216
G1 X151.362 Y129.61 E13.755
G1 X153.895 Y129.794 E13.93897
G1 X156.428 Y129.907 E14.12265
G1 X159.241 Y129.95 E14.32645
G1 X160.348 Y129.951 E14.40664
G1 X161.046 Y129.962 E14.45721
G1 X161.953 Y130.017 E14.52303
G1 X162.852 Y130.15 E14.58887
G1 X163.736 Y130.363 E14.65474
G1 X164.597 Y130.652 E14.72053
G1 X165.43 Y131.016 E14.78638
G1 X166.228 Y131.451 E14.85222
G1 X166.984 Y131.955 E14.91804
G1 X167.693 Y132.524 E14.98389
G1 X168.039 Y132.841 E15.01789
G1 X168.517 Y133.304 E15.06609
G1 X170.645 Y135.433 E15.28415
G1 X171.103 Y135.904 E15.33174
G1 X171.707 Y136.582 E15.39752
G1 X172.25 Y137.312 E15.46343
G1 X172.726 Y138.086 E15.52925
G1 X173.132 Y138.899 E15.59508
G1 X173.465 Y139.744 E15.66087
G1 X173.723 Y140.616 E15.72675
G1 X173.903 Y141.507 E15.7926
G1 X173.983 Y142.134 E15.83838
G1 X174.045 Y143.264 E15.92037
G1 X174.049 Y156.325 E16.86651
G1 X174.039 Y157.027 E16.91737
G1 X173.986 Y157.934 E16.98319
G1 X173.854 Y158.834 E17.04908
G1 X173.643 Y159.718 E17.11492
G1 X173.355 Y160.58 E17.18075
G1 X172.992 Y161.413 E17.24658
G1 X172.558 Y162.211 E17.31238
G1 X172.055 Y162.968 E17.37822
G1 X171.187 Y164.008 E17.47635
G1 X170.689 Y164.526 E17.5284
G1 X168.598 Y166.617 E17.74262
G1 X168.092 Y167.11 E17.7938
G1 X167.414 Y167.715 E17.85962
G1 X166.685 Y168.258 E17.92547
G1 X165.911 Y168.735 E17.99133
G1 X165.098 Y169.142 E18.05719
G1 X164.253 Y169.476 E18.12301
G1 X163.382 Y169.734 E18.18882
G1 X162.491 Y169.915 E18.25468
G1 X161.588 Y170.017 E18.32051
G1 X161.077 Y170.039 E18.35756
G1 X160.351 Y170.051 E18.41016
G1 X159.21 Y170.051 E18.49282
G1 X156.608 Y170.088 E18.68133
G1 X154.052 Y170.196 E18.86665
G1 X151.55 Y170.374 E19.04835
G1 X148.989 Y170.628 E19.23478
G1 X146.467 Y170.947 E19.41894
G1 X145.561 Y171.022 E19.48479
G1 X144.985 Y171.027 E19.52652
G1 X144.592 Y171.02 E19.55499
G1 X143.685 Y170.964 E19.62082
G1 X143.222 Y170.904 E19.65464
G1 X140.97 Y170.561 E19.81966
G1 X137.003 Y170.09 E20.10905
G1 X135.826 Y169.972 E20.19474
G1 X134.926 Y169.841 E20.26062
G1 X134.042 Y169.632 E20.32643
G1 X133.208 Y169.357 E20.39004
G1 X132.999 Y169.278 E20.40623
G1 X132.163 Y168.919 E20.47213
G1 X131.363 Y168.489 E20.53793
G1 X130.603 Y167.99 E20.60379
G1 X130.054 Y167.564 E20.65413
G1 X129.854 Y167.398 E20.67296
G1 X129.18 Y166.787 E20.73886
G1 X128.564 Y166.12 E20.80463
G1 X128.008 Y165.401 E20.87047
G1 X127.488 Y164.584 E20.94062
G1 X127.378 Y164.392 E20.95665
G1 X126.961 Y163.584 E21.02252
G1 X126.617 Y162.743 E21.08834
G1 X126.348 Y161.875 E21.15417
G1 X126.175 Y161.09 E21.2124
G1 X126.122 Y160.796 E21.23404
G1 X126 Y159.895 E21.29991
G1 X125.959 Y159.106 E21.35714
G1 X125.949 Y158.312 E21.41466
G1 X125.951 Y142.838 E22.53561
G0 F1620 X125.951 Y141.475
G1 F2100 E17.53561
G1 F300 Z0.56
;MESH:OPTIONAL_12x_mounter-inner-more-clearance.stl
G0 F6000 X140.446 Y144.921 Z0.56
;TYPE:WALL-INNER
G1 F300 Z0.24
G1 F2100 E22.53561
G1 F1800 X140.274 Y144.562 E22.55973
G1 X140.182 Y144.285 E22.57741
G1 X140.105 Y143.93 E22.59942
G1 X140.08 Y143.691 E22.61398
G1 X140.072 Y143.52 E22.62435
G1 X140.072 Y141.928 E22.7208
G1 X137.929 Y141.929 E22.85064
G1 X137.93 Y145.172 E23.04712
G1 X138.274 Y145.014 E23.07006
G1 X138.531 Y144.958 E23.08599
G1 X138.882 Y144.922 E23.10737
G1 X139.083 Y144.921 E23.11955
G0 F1620 X140.446 Y144.921
G1 F2100 E18.11955
G1 F300 Z0.56
G0 F6000 X137.265 Y146.948 Z0.56
G1 F300 Z0.24
G1 F2100 E23.11955
G1 F1816.5 X137.366 Y146.622 E23.14004
G1 F1805.5 X137.506 Y146.349 E23.15857
G1 F1800 X137.789 Y146.016 E23.18505
G1 X138.028 Y145.836 E23.20318
G1 X138.414 Y145.66 E23.22888
G1 X138.671 Y145.604 E23.24481
G1 X139.01 Y145.582 E23.2654
G1 X140.695 Y145.581 E23.36749
G1 X141.847 Y145.582 E23.43728
G1 X142.108 Y145.58 E23.45309
G1 X141.881 Y145.469 E23.4684
G1 X141.64 Y145.311 E23.48586
G1 X141.271 Y144.963 E23.51659
G1 X140.993 Y144.551 E23.54671
G1 X140.808 Y144.075 E23.57765
G1 X140.742 Y143.661 E23.60305
G1 X140.732 Y143.52 E23.61161
G1 X140.732 Y141.268 E23.74805
G1 X137.269 Y141.269 E23.95786
G1 X137.269 Y146.291 E24.26213
G1 F1811 X137.265 Y146.948 E24.3017
G1 F2100 E19.3017
G1 F300 Z0.56
G0 F6000 X140.449 Y155.08 Z0.56
G1 F300 Z0.24
G1 F2100 E24.3017
G1 F1800 X138.9 Y155.08 E24.39554
G1 X138.5 Y155.041 E24.41989
G1 X137.96 Y154.869 E24.45423
G1 X137.93 Y154.853 E24.45629
G1 X137.929 Y158.071 E24.65126
G1 X140.071 Y158.071 E24.78103
G1 X140.072 Y156.478 E24.87755
G1 X140.082 Y156.381 E24.88346
G0 F1620 X140.122 Y155.982
G0 X140.21 Y155.624
G0 X140.31 Y155.353
G0 X140.449 Y155.08
G0 F6000 X142.106 Y154.421
G1 F1800 X138.9 Y154.42 E25.0777
G1 X138.59 Y154.387 E25.09659
G1 X138.267 Y154.284 E25.11713
G1 X137.998 Y154.142 E25.13556
G1 X137.666 Y153.861 E25.16191
G1 X137.486 Y153.623 E25.17999
G1 F1816.5 X137.317 Y153.241 E25.20507
G1 F1850.5 X137.262 Y152.984 E25.22055
G1 F1867.9 X137.257 Y152.939 E25.2232
G1 F1850.5 X137.264 Y153.246 E25.2413
G1 F1816.5 X137.269 Y153.695 E25.26825
G1 F1800 X137.269 Y158.731 E25.57337
G1 X140.731 Y158.731 E25.78312
G1 X140.732 Y156.478 E25.91962
G1 X140.777 Y156.067 E25.94467
G1 X140.929 Y155.581 E25.97552
G1 X141.094 Y155.302 E25.99516
G0 F1620 X141.189 Y155.14
G0 X141.537 Y154.772
G0 X141.949 Y154.493
G0 X142.106 Y154.421
G1 F2100 E20.99516
G1 F300 Z0.56
G0 F6000 X146.604 Y159.253 Z0.56
;TYPE:WALL-OUTER
G1 F300 Z0.24
G1 F2100 E25.99516
G1 F1257.1 X146.685 Y159.25 E26.00212
G1 F1261.1 X152.02 Y159.249 E26.45844
G1 F1233.6 X152.372 Y159.228 E26.48927
G1 F2100 E21.48927
G1 F300 Z0.56
G0 F6000 X146.604 Y159.253 Z0.56
G1 F300 Z0.24
G1 F2100 E26.48927
G1 F1375 X146.263 Y159.17 E26.5168
G1 F1650 X145.989 Y159.109 E26.53516
G1 F1800 X143.627 Y159.108 E26.67671
G1 X143.661 Y159.346 E26.69111
G1 X143.77 Y159.636 E26.70968
G1 X143.961 Y159.916 E26.72999
G1 X144.207 Y160.135 E26.74973
G1 X144.502 Y160.293 E26.76978
G1 X144.818 Y160.373 E26.78932
G1 X145.153 Y160.377 E26.8094
G1 X145.472 Y160.304 E26.82901
G1 X145.773 Y160.148 E26.84933
G1 X146.025 Y159.931 E26.86925
G1 X146.25 Y159.616 E26.89245
G1 F1550.9 X146.48 Y159.335 E26.91771
G1 F1305.5 X146.604 Y159.253 E26.92999
G0 F6000 X146.293 Y159.178
G0 X145.086 Y159.743
;TYPE:WALL-INNER
G1 F1960.4 X144.9 Y159.742 E26.94034
G1 F2100 E21.94034
G1 F300 Z0.56
G0 F6000 X162.07 Y153.022 Z0.56
G1 F300 Z0.24
G1 F2100 E26.94034
G1 F1800 X162.034 Y153.074 E26.94417
G1 X161.483 Y153.687 E26.99411
G1 X161.181 Y153.95 E27.01837
G1 X160.501 Y154.411 E27.06815
G1 X160.275 Y154.54 E27.08391
G1 X160.152 Y154.592 E27.092
G1 X159.374 Y154.881 E27.14229
G1 X159.082 Y154.961 E27.16063
G1 X158.994 Y154.974 E27.16602
G1 X158.221 Y155.067 E27.21319
G1 X158.023 Y155.078 E27.22521
G1 X154.554 Y155.079 E27.43538
G1 X154.731 Y155.452 E27.4604
G1 X154.819 Y155.719 E27.47743
G1 X154.892 Y156.052 E27.49808
G1 X154.918 Y156.293 E27.51277
G1 X154.928 Y156.576 E27.52993
G1 X154.929 Y157.498 E27.58579
G1 X154.894 Y157.93 E27.61205
G1 X154.864 Y158.07 E27.62072
G1 X160.204 Y158.071 E27.94425
G1 X162.07 Y156.203 E28.10422
G1 X162.07 Y154.385 E28.21437
G0 F1620 X162.07 Y153.022
G1 F2100 E23.21437
G1 F300 Z0.56
G0 F6000 X162.51 Y150.714 Z0.56
G1 F300 Z0.24
G1 F2100 E28.21437
G1 F1299.8 X162.399 Y150.954 E28.23656
G1 F1463.1 X162.287 Y151.195 E28.25636
G1 F1673.2 X162.175 Y151.436 E28.27369
G1 F1800 X162.072 Y151.703 E28.29102
G1 X161.68 Y152.437 E28.34144
G1 X161.543 Y152.633 E28.35593
G1 X160.992 Y153.246 E28.40587
G1 X160.811 Y153.404 E28.42042
G1 X160.131 Y153.865 E28.4702
G1 X159.921 Y153.974 E28.48453
G1 X159.143 Y154.263 E28.53481
G1 X158.916 Y154.319 E28.54898
G1 X158.142 Y154.412 E28.59621
G1 X158.023 Y154.418 E28.60343
G1 X152.892 Y154.42 E28.9143
G1 X153.119 Y154.531 E28.92961
G1 X153.36 Y154.689 E28.94707
G1 X153.728 Y155.037 E28.97776
G1 X154.01 Y155.454 E29.00826
G1 X154.192 Y155.926 E29.0389
G1 X154.262 Y156.366 E29.0659
G1 X154.268 Y156.577 E29.07869
G1 X154.269 Y157.499 E29.13455
G1 X154.237 Y157.862 E29.15663
G1 X154.105 Y158.34 E29.18667
G1 X153.897 Y158.73 E29.21345
G1 X160.477 Y158.731 E29.61211
G1 X162.73 Y156.477 E29.8052
G1 X162.73 Y151.503 E30.10655
G1 F1673.2 X162.68 Y151.243 E30.12381
G1 F1463.1 X162.629 Y150.983 E30.14356
G1 F1299.8 X162.578 Y150.722 E30.16587
G1 F1201.2 X162.553 Y150.64 E30.17366
G1 X162.51 Y150.714 E30.18143
G1 F2100 E25.18143
G1 F300 Z0.56
G0 F6000 X162.07 Y146.973 Z0.56
G1 F300 Z0.24
G1 F2100 E30.18143
G1 F1800 X162.07 Y144.319 E30.34222
G1 X162.07 Y143.797 E30.37385
G1 X160.203 Y141.93 E30.53382
G1 X154.866 Y141.931 E30.85717
G1 X154.918 Y142.293 E30.87933
G1 X154.928 Y142.475 E30.89037
G1 X154.929 Y143.498 E30.95235
G1 X154.894 Y143.931 E30.97867
G1 X154.82 Y144.275 E30.99999
G1 X154.731 Y144.548 E31.01739
G1 X154.572 Y144.892 E31.04035
G1 X154.999 Y144.919 E31.06627
G1 X155.288 Y144.921 E31.08378
G1 X156.046 Y144.919 E31.1297
G1 X156.424 Y144.921 E31.1526
G1 X158 Y144.92 E31.24809
G1 X158.198 Y144.931 E31.2601
G1 X158.995 Y145.027 E31.30874
G1 X159.372 Y145.119 E31.33225
G1 X160.15 Y145.408 E31.38254
G1 X160.501 Y145.588 E31.40643
G1 X161.115 Y146.006 E31.45144
G0 F1620 X161.179 Y146.049
G0 X161.481 Y146.311
G0 X162.034 Y146.926
G0 X162.07 Y146.973
G1 F2100 E26.45144
G1 F300 Z0.56
G0 F6000 X152.892 Y145.58 Z0.56
G1 F300 Z0.24
G1 F2100 E31.45144
G1 F1800 X158 Y145.58 E31.76091
G1 X158.119 Y145.586 E31.76813
G1 X158.916 Y145.682 E31.81677
G1 X159.142 Y145.737 E31.83086
G1 X159.92 Y146.026 E31.88114
G1 X160.131 Y146.135 E31.89553
G1 X160.809 Y146.595 E31.94517
G1 X160.991 Y146.753 E31.95978
G1 X161.543 Y147.367 E32.0098
G1 X161.713 Y147.616 E32.02807
G1 X162.092 Y148.35 E32.07812
G1 X162.173 Y148.564 E32.09198
G1 F1689.9 X162.277 Y148.805 E32.10892
G1 F1505.7 X162.382 Y149.047 E32.12802
G1 F1357.7 X162.486 Y149.289 E32.14918
G1 F1234.9 X162.557 Y149.428 E32.16296
G1 X162.601 Y149.276 E32.17694
G1 F1357.7 X162.643 Y149.017 E32.19801
G1 F1505.7 X162.686 Y148.757 E32.2171
G1 F1689.9 X162.729 Y148.497 E32.23411
G1 F1800 X162.73 Y144.319 E32.48724
G1 X162.73 Y143.524 E32.53541
G1 X160.476 Y141.27 E32.72853
G1 X153.897 Y141.27 E33.12713
G1 X154.104 Y141.658 E33.15378
G1 X154.192 Y141.926 E33.17087
G1 X154.262 Y142.366 E33.19786
G1 X154.268 Y142.476 E33.20454
G1 X154.269 Y143.499 E33.26652
G1 X154.237 Y143.862 E33.28859
G1 X154.103 Y144.342 E33.31879
G1 X153.908 Y144.703 E33.34365
G0 F1620 X153.86 Y144.792
G0 X153.53 Y145.17
G0 X153.12 Y145.469
G0 X152.892 Y145.58
G1 F2100 E28.34365
G1 F300 Z0.56
G0 F6000 X152.372 Y140.772 Z0.56
;TYPE:WALL-OUTER
G1 F300 Z0.24
G1 F2100 E33.34365
G1 F1233.6 X152.021 Y140.751 E33.37439
G1 F1262.5 X149.351 Y140.751 E33.60253
G1 F1263.8 X146.681 Y140.75 E33.83042
G1 F2100 E28.83042
G1 F300 Z0.56
