;FLAVOR:Marlin
;TIME:988
;Filament used: 0.728931m
;Layer height: 0.2
;MINX:125.69
;MINY:110.189
;MINZ:0.24
;MAXX:174.311
;MAXY:147.81
;MAXZ:11.36
;Generated with Cura_SteamEngine 5.0.0
M140 S70
M105
M190 S70
M104 S245
M105
M109 S245
M82 ;absolute extrusion mode
; Ender 3 Max Custom Start G-code
G92 E0 ; Reset Extruder
G28 ; Home all axes
G1 Z2.0 F3000 ; Move Z Axis up little to prevent scratching of Heat Bed
G1 X0.1 Y20 Z0.3 F5000.0 ; Move to start position
G1 X0.1 Y200.0 Z0.3 F1500.0 E15 ; Draw the first line
G1 X0.4 Y200.0 Z0.3 F5000.0 ; Move to side a little
G1 X0.4 Y20 Z0.3 F1500.0 E30 ; Draw the second line
G92 E0 ; Reset Extruder
G1 Z2.0 F3000 ; Move Z Axis up little to prevent scratching of Heat Bed
G1 X5 Y20 Z0.3 F5000.0 ; Move over to prevent blob squish
G92 E0
G92 E0
G1 F2100 E-5
;LAYER_COUNT:55
;LAYER:0
M107
G1 F300 Z0.56
G0 F6000 X128.749 Y115.189 Z0.56
G1 F300 Z0.56
G0 F6000 X125.691 Y123.332
;TYPE:SKIRT
G1 F300 Z0.24
G1 F2100 E0
G1 F1800 X125.701 Y122.63 E0.05086
G1 X125.754 Y121.695 E0.1187
G1 X125.887 Y120.767 E0.18661
G1 X126.099 Y119.853 E0.25458
G1 X126.387 Y118.961 E0.32248
G1 X126.751 Y118.097 E0.3904
G1 X127.187 Y117.267 E0.45831
G1 X127.692 Y116.477 E0.52624
G1 X128.262 Y115.734 E0.59407
G1 X128.749 Y115.189 E0.64702
G1 X129.241 Y114.679 E0.69835
G1 X130.166 Y113.753 E0.79317
G1 X130.625 Y113.307 E0.83953
G1 X131.325 Y112.683 E0.90746
G1 X132.075 Y112.121 E0.97535
G1 X132.87 Y111.625 E1.04323
G1 X133.705 Y111.198 E1.11117
G1 X134.573 Y110.844 E1.17908
G1 X135.468 Y110.566 E1.24696
G1 X136.384 Y110.364 E1.31491
G1 X137.313 Y110.242 E1.38279
G1 X138.095 Y110.201 E1.43952
G1 X138.864 Y110.189 E1.49523
G1 X161.013 Y110.189 E3.09972
G1 X161.872 Y110.2 E3.16195
G1 X162.807 Y110.253 E3.22979
G1 X163.735 Y110.386 E3.2977
G1 X164.649 Y110.598 E3.36567
G1 X165.541 Y110.886 E3.43357
G1 X166.405 Y111.25 E3.50149
G1 X167.235 Y111.686 E3.5694
G1 X168.025 Y112.191 E3.63732
G1 X168.768 Y112.761 E3.70516
G1 X169.295 Y113.231 E3.75631
G1 X169.797 Y113.714 E3.80678
G1 X170.724 Y114.642 E3.9018
G1 X171.195 Y115.127 E3.95077
G1 X171.819 Y115.826 E4.01865
G1 X172.381 Y116.577 E4.0866
G1 X172.877 Y117.372 E4.15448
G1 X173.303 Y118.207 E4.22238
G1 X173.657 Y119.075 E4.29029
G1 X173.935 Y119.97 E4.35818
G1 X174.136 Y120.886 E4.42611
G1 X174.258 Y121.815 E4.49399
G1 X174.299 Y122.586 E4.54992
G1 X174.311 Y123.342 E4.60469
G1 X174.31 Y134.669 E5.42523
G1 X174.3 Y135.371 E5.47609
G1 X174.247 Y136.306 E5.54393
G1 X174.114 Y137.234 E5.61184
G1 X173.902 Y138.148 E5.67981
G1 X173.614 Y139.04 E5.74771
G1 X173.25 Y139.904 E5.81562
G1 X172.814 Y140.734 E5.88354
G1 X172.309 Y141.524 E5.95146
G1 X171.739 Y142.267 E6.0193
G1 X171.23 Y142.834 E6.0745
G1 X170.73 Y143.351 E6.1266
G1 X169.821 Y144.257 E6.21957
G1 X169.313 Y144.744 E6.27055
G1 X168.61 Y145.364 E6.33845
G1 X167.856 Y145.921 E6.40635
G1 X167.057 Y146.411 E6.47425
G1 X166.219 Y146.832 E6.54219
G1 X165.349 Y147.18 E6.61007
G1 X164.452 Y147.453 E6.67799
G1 X163.535 Y147.648 E6.7459
G1 X162.605 Y147.764 E6.81379
G1 X161.887 Y147.8 E6.86587
G1 X161.154 Y147.81 E6.91897
G1 X157.381 Y147.809 E7.19229
G1 X156.675 Y147.799 E7.24344
G1 X156.229 Y147.784 E7.27577
G1 X153.817 Y147.652 E7.45076
G1 X151.28 Y147.58 E7.63461
G1 X148.791 Y147.58 E7.81492
G1 X146.217 Y147.653 E8.00145
G1 X143.516 Y147.795 E8.19739
G1 X142.856 Y147.81 E8.24521
G1 X138.778 Y147.81 E8.54062
G1 X138.12 Y147.8 E8.58829
G1 X137.184 Y147.746 E8.65621
G1 X136.256 Y147.612 E8.72413
G1 X135.343 Y147.399 E8.79205
G1 X134.452 Y147.11 E8.8599
G1 X133.588 Y146.746 E8.92782
G1 X132.758 Y146.309 E8.99577
G1 X131.969 Y145.803 E9.06367
G1 X131.226 Y145.232 E9.13155
G1 X130.664 Y144.727 E9.18628
G1 X130.106 Y144.187 E9.24253
G1 X129.246 Y143.324 E9.33079
G1 X128.786 Y142.848 E9.37874
G1 X128.164 Y142.147 E9.44663
G1 X127.604 Y141.395 E9.51455
G1 X127.11 Y140.598 E9.58248
G1 X126.686 Y139.762 E9.65038
G1 X126.334 Y138.893 E9.7183
G1 X126.058 Y137.998 E9.78615
G1 X125.859 Y137.081 E9.85412
G1 X125.739 Y136.152 E9.92198
G1 X125.7 Y135.389 E9.97732
G1 X125.69 Y134.654 E10.03057
G1 X125.691 Y124.695 E10.75201
G0 F1620 X125.691 Y123.332
G0 F6000 X126.351 Y123.342
G1 F1800 X126.361 Y122.64 E10.80287
G1 X126.414 Y121.733 E10.86868
G1 X126.546 Y120.833 E10.93458
G1 X126.757 Y119.949 E11.00041
G1 X127.045 Y119.087 E11.06625
G1 X127.408 Y118.254 E11.13207
G1 X127.842 Y117.456 E11.19788
G1 X128.345 Y116.699 E11.26372
G1 X128.912 Y115.989 E11.32954
G1 X129.226 Y115.646 E11.36322
G1 X129.709 Y115.145 E11.41364
G1 X130.626 Y114.226 E11.50768
G1 X131.085 Y113.78 E11.55404
G1 X131.764 Y113.176 E11.61987
G1 X132.494 Y112.634 E11.68574
G1 X133.268 Y112.158 E11.75156
G1 X134.081 Y111.753 E11.81736
G1 X134.927 Y111.42 E11.88322
G1 X135.799 Y111.162 E11.9491
G1 X136.69 Y110.983 E12.01493
G1 X137.593 Y110.882 E12.08075
G1 X138.106 Y110.861 E12.11794
G1 X138.864 Y110.849 E12.17286
G1 X161.013 Y110.849 E13.77735
G1 X161.862 Y110.86 E13.83885
G1 X162.769 Y110.913 E13.90467
G1 X163.669 Y111.045 E13.97056
G1 X164.553 Y111.256 E14.0364
G1 X165.415 Y111.544 E14.10224
G1 X166.248 Y111.907 E14.16806
G1 X167.046 Y112.341 E14.23386
G1 X167.803 Y112.844 E14.2997
G1 X168.84 Y113.709 E14.39753
G1 X169.331 Y114.181 E14.44687
G1 X170.251 Y115.101 E14.54112
G1 X170.722 Y115.586 E14.59009
G1 X171.325 Y116.266 E14.65593
G1 X171.867 Y116.995 E14.72173
G1 X172.343 Y117.77 E14.78762
G1 X172.749 Y118.583 E14.85345
G1 X173.081 Y119.429 E14.91928
G1 X173.338 Y120.3 E14.98507
G1 X173.518 Y121.191 E15.05092
G1 X173.618 Y122.095 E15.1168
G1 X173.639 Y122.598 E15.15327
G1 X173.651 Y123.342 E15.20718
G1 X173.65 Y134.659 E16.02699
G1 X173.64 Y135.361 E16.07784
G1 X173.587 Y136.268 E16.14366
G1 X173.455 Y137.168 E16.20955
G1 X173.244 Y138.052 E16.27539
G1 X172.956 Y138.914 E16.34123
G1 X172.593 Y139.747 E16.40705
G1 X172.159 Y140.545 E16.47285
G1 X171.656 Y141.302 E16.53869
G1 X171.089 Y142.012 E16.60451
G1 X170.755 Y142.377 E16.64036
G1 X170.263 Y142.884 E16.69153
G1 X169.365 Y143.781 E16.78348
G1 X168.857 Y144.268 E16.83446
G1 X168.174 Y144.867 E16.90027
G1 X167.44 Y145.405 E16.96619
G1 X166.663 Y145.875 E17.03197
G1 X165.847 Y146.276 E17.09784
G1 X164.999 Y146.603 E17.16368
G1 X164.126 Y146.854 E17.22948
G1 X163.234 Y147.028 E17.29531
G1 X161.876 Y147.14 E17.39402
G1 X161.154 Y147.15 E17.44633
G1 X157.391 Y147.149 E17.71892
G1 X156.266 Y147.125 E17.80044
G1 X153.835 Y146.992 E17.9768
G1 X151.299 Y146.92 E18.16059
G1 X148.772 Y146.92 E18.34364
G1 X146.204 Y146.993 E18.52975
G1 X143.496 Y147.135 E18.72618
G1 X142.856 Y147.15 E18.77256
G1 X138.788 Y147.15 E19.06725
G1 X138.13 Y147.14 E19.11492
G1 X137.223 Y147.086 E19.18074
G1 X136.324 Y146.953 E19.24657
G1 X135.44 Y146.741 E19.31243
G1 X134.578 Y146.452 E19.37828
G1 X133.745 Y146.089 E19.44411
G1 X132.947 Y145.654 E19.50995
G1 X132.191 Y145.15 E19.57577
G1 X131.481 Y144.582 E19.64163
G1 X131.122 Y144.252 E19.67696
G1 X130.573 Y143.72 E19.73234
G1 X129.721 Y142.866 E19.81972
G1 X129.261 Y142.39 E19.86767
G1 X128.659 Y141.709 E19.93352
G1 X128.119 Y140.978 E19.99935
G1 X127.645 Y140.202 E20.06523
G1 X127.241 Y139.388 E20.13106
G1 X126.911 Y138.541 E20.1969
G1 X126.656 Y137.669 E20.26272
G1 X126.478 Y136.778 E20.32854
G1 X126.38 Y135.874 E20.39441
G1 X126.36 Y135.378 E20.43037
G1 X126.35 Y134.654 E20.48282
G1 X126.351 Y124.705 E21.20353
G0 F1620 X126.351 Y123.342
G1 F2100 E16.20353
G1 F300 Z0.56
;MESH:M_12x_mounter-outer.stl
G0 F6000 X146.409 Y122.829 Z0.56
;TYPE:WALL-INNER
G1 F300 Z0.24
G1 F2100 E21.20353
G1 F1800 X138.963 Y122.829 E21.65466
G1 X138.33 Y123.463 E21.70894
G1 X138.33 Y134.537 E22.37988
G1 X138.963 Y135.171 E22.43416
G1 X141.52 Y135.17 E22.58908
G1 X141.52 Y130.5 E22.87202
G1 X141.529 Y130.317 E22.88312
G1 X141.695 Y128.823 E22.97419
G1 X141.776 Y128.465 E22.99643
G1 X142.278 Y127.016 E23.08934
G1 X142.438 Y126.682 E23.11178
G1 X143.247 Y125.388 E23.20424
G1 X143.51 Y125.057 E23.22985
G1 X144.555 Y124.011 E23.31943
G1 X144.887 Y123.747 E23.34513
G1 X145.239 Y123.526 E23.37031
G0 F1620 X146.181 Y122.938
G0 X146.409 Y122.829
G1 F2100 E18.37031
G1 F300 Z0.56
G0 F6000 X153.59 Y122.83 Z0.56
G1 F300 Z0.24
G1 F2100 E23.37031
G1 F1800 X153.817 Y122.939 E23.38557
G1 X155.112 Y123.746 E23.47801
G1 X155.445 Y124.011 E23.5038
G1 X156.49 Y125.057 E23.59338
G1 X156.648 Y125.239 E23.60798
G1 X156.751 Y125.385 E23.61881
G1 X157.561 Y126.679 E23.7113
G1 X157.723 Y127.016 E23.73395
G1 X158.223 Y128.461 E23.82659
G1 X158.304 Y128.817 E23.84872
G1 X158.468 Y130.294 E23.93875
G1 X158.478 Y130.477 E23.94986
G1 X158.48 Y135.17 E24.23419
G1 X161.037 Y135.17 E24.38911
G1 X161.671 Y134.537 E24.44339
G1 X161.671 Y123.909 E25.0873
G1 X161.671 Y123.462 E25.11439
G1 X161.038 Y122.829 E25.16862
G1 X154.953 Y122.83 E25.53729
G0 F1620 X153.59 Y122.83
G1 F2100 E20.53729
G1 F300 Z0.56
G0 F6000 X142.18 Y135.83 Z0.56
G1 F300 Z0.24
G1 F2100 E25.53729
G1 F1800 X142.18 Y130.5 E25.86022
G1 X142.185 Y130.39 E25.86689
G1 X142.351 Y128.896 E25.95796
G1 X142.4 Y128.681 E25.97132
G1 X142.902 Y127.232 E26.06423
G1 X143.183 Y126.735 E26.09883
G1 X143.807 Y125.738 E26.17009
G1 X143.977 Y125.524 E26.18664
G1 X145.022 Y124.478 E26.27623
G1 X145.237 Y124.307 E26.29287
G1 X146.531 Y123.498 E26.38533
G1 X146.731 Y123.402 E26.39877
G1 F1794.6 X147.212 Y123.234 E26.42973
G1 F1783.8 X147.693 Y123.065 E26.4609
G1 F1773.1 X148.175 Y122.897 E26.4923
G1 F1767.9 X148.39 Y122.846 E26.50593
G1 F1783.8 X148.637 Y122.826 E26.52108
G1 F1822.1 X148.884 Y122.805 E26.53591
G1 F1862.1 X149.131 Y122.784 E26.55043
G1 F1903.8 X149.378 Y122.764 E26.56463
G1 F1947.5 X149.625 Y122.743 E26.57851
G1 F1993.3 X149.873 Y122.722 E26.59213
G1 F2017 X150.084 Y122.722 E26.60353
G1 F1996.6 X150.338 Y122.742 E26.61745
G1 F1950.7 X150.592 Y122.763 E26.6317
G1 F1906.9 X150.846 Y122.784 E26.64627
G1 F1865 X151.1 Y122.804 E26.66117
G1 F1824.9 X151.354 Y122.825 E26.6764
G1 F1786.5 X151.608 Y122.846 E26.69196
G1 F1778.4 X151.825 Y122.899 E26.70566
G1 F1794.6 X153.268 Y123.403 E26.79855
G1 F1800 X153.468 Y123.499 E26.81199
G1 X154.763 Y124.306 E26.90444
G1 X154.978 Y124.478 E26.92112
G1 X156.023 Y125.524 E27.0107
G1 X156.192 Y125.736 E27.02712
G1 X157.002 Y127.03 E27.11962
G1 X157.099 Y127.232 E27.13319
G1 X157.599 Y128.677 E27.22583
G1 X157.648 Y128.891 E27.23913
G1 X157.812 Y130.367 E27.32911
G1 X157.818 Y130.477 E27.33579
G1 X157.82 Y135.83 E27.66011
G1 X161.31 Y135.83 E27.87155
G1 X162.331 Y134.81 E27.95899
G1 X162.331 Y123.909 E28.61945
G1 X162.331 Y123.189 E28.66307
G1 X161.311 Y122.169 E28.75047
G1 X153.476 Y122.17 E29.22516
G1 F1794.6 X151.947 Y122.172 E29.31808
G1 F1778.4 X151.643 Y122.176 E29.33672
G1 F1786.5 X151.388 Y122.169 E29.3523
G1 F1824.9 X151.133 Y122.162 E29.36754
G1 F1865 X150.878 Y122.155 E29.38246
G1 F1906.9 X150.623 Y122.148 E29.39705
G1 F1950.7 X150.368 Y122.141 E29.41131
G1 F1996.6 X150.113 Y122.134 E29.42524
G1 F2017 X149.84 Y122.134 E29.44
G1 F1993.3 X149.592 Y122.14 E29.45357
G1 F1947.5 X149.344 Y122.147 E29.46747
G1 F1903.8 X149.096 Y122.154 E29.48168
G1 F1862.1 X148.848 Y122.161 E29.49621
G1 F1822.1 X148.6 Y122.168 E29.51106
G1 F1783.8 X148.352 Y122.175 E29.52623
G1 F1767.9 X148.055 Y122.175 E29.54455
G1 F1773.1 X147.545 Y122.174 E29.57591
G1 F1783.8 X147.035 Y122.172 E29.6071
G1 F1794.6 X146.525 Y122.17 E29.63809
G1 F1800 X138.69 Y122.169 E30.11278
G1 X137.67 Y123.19 E30.20022
G1 X137.67 Y134.81 E30.90424
G1 X138.69 Y135.831 E30.99168
G1 X140.817 Y135.83 E31.12055
G0 F1620 X142.18 Y135.83
G0 F6000 X142.84 Y136.49
;TYPE:WALL-OUTER
G1 F1800 X142.841 Y130.463 E31.48173
G1 X143.007 Y128.969 E31.57182
G1 X143.024 Y128.897 E31.57625
G1 X143.526 Y127.448 E31.66815
G1 X143.743 Y127.085 E31.6935
G1 X144.388 Y126.057 E31.76622
G1 X144.444 Y125.99 E31.77146
G1 X145.489 Y124.944 E31.86006
G1 X145.587 Y124.867 E31.86753
G1 X146.881 Y124.058 E31.95899
G1 X146.947 Y124.026 E31.96338
G1 F1802.7 X148.394 Y123.526 E32.05499
G1 X148.465 Y123.508 E32.05937
G1 F1800 X149.943 Y123.342 E32.14851
G1 X150.016 Y123.342 E32.15288
G1 X151.534 Y123.508 E32.24439
G1 F1802.7 X151.607 Y123.526 E32.24889
G1 X153.052 Y124.027 E32.34041
G1 F1800 X153.118 Y124.059 E32.3448
G1 X154.413 Y124.866 E32.43624
G1 X154.511 Y124.944 E32.44375
G1 X155.556 Y125.99 E32.53236
G1 X155.632 Y126.086 E32.5397
G1 X156.443 Y127.38 E32.63121
G1 X156.475 Y127.448 E32.63572
G1 X156.975 Y128.893 E32.72735
G1 X156.992 Y128.964 E32.73173
G1 X157.156 Y130.441 E32.82078
G1 X157.158 Y130.477 E32.82295
G1 X157.16 Y136.49 E33.18329
G1 X161.583 Y136.49 E33.44836
G1 X162.991 Y135.084 E33.5676
G1 X162.991 Y123.909 E34.2373
G1 X162.991 Y122.915 E34.29687
G1 X161.585 Y121.509 E34.41603
G1 X138.416 Y121.509 E35.8045
G1 X137.01 Y122.917 E35.92374
G1 X137.01 Y135.083 E36.65283
G1 X138.416 Y136.491 E36.77207
G1 X141.477 Y136.49 E36.95551
G0 F1620 X142.84 Y136.49
G0 F6000 X142.84 Y136.17
G1 F2100 E31.95551
G1 F300 Z0.56
G0 F6000 X144.363 Y123.409 Z0.56
;TYPE:SKIN
G1 F300 Z0.24
G1 F2100 E36.95551
G1 F1800 X139.202 Y123.409 E37.2648
G1 X138.91 Y123.702 E37.28959
G1 X138.911 Y130.141 E37.67547
G1 X138.91 Y134.298 E37.92459
G1 X139.202 Y134.591 E37.94938
G1 X140.94 Y134.59 E38.05354
G1 X140.94 Y130.487 E38.29942
G1 X140.952 Y130.253 E38.31346
G1 X141.118 Y128.757 E38.40367
G1 X141.218 Y128.311 E38.43106
G1 X141.228 Y128.277 E38.43318
G1 X141.729 Y126.824 E38.52529
G1 X141.93 Y126.401 E38.55335
G1 X142.13 Y126.076 E38.57622
G1 X142.764 Y125.064 E38.64779
G1 X142.91 Y124.861 E38.66277
G1 X143.099 Y124.648 E38.67984
G1 X143.386 Y124.36 E38.70421
G0 F1620 X144.157 Y123.588
G0 X144.346 Y123.421
G0 X144.363 Y123.409
G0 F6000 X143.44 Y123.839
G1 F1800 X143.341 Y123.74 E38.7126
G0 F6000 X142.974 Y124.306
G1 F1800 X142.407 Y123.74 E38.76061
G0 F6000 X141.473 Y123.739
G1 F1800 X142.542 Y124.807 E38.85116
G0 F6000 X142.179 Y125.378
G1 F1800 X140.54 Y123.739 E38.99007
G0 F6000 X139.606 Y123.739
G1 F1800 X141.82 Y125.953 E39.17771
G0 F6000 X141.491 Y126.557
G1 F1800 X139.239 Y124.305 E39.36857
G0 F6000 X139.239 Y125.238
G1 F1800 X141.238 Y127.237 E39.53799
G0 F6000 X140.999 Y127.932
G1 F1800 X139.239 Y126.171 E39.68719
G0 F6000 X139.239 Y127.105
G1 F1800 X140.801 Y128.667 E39.81957
G0 F6000 X140.703 Y129.503
G1 F1800 X139.239 Y128.038 E39.94369
G0 F6000 X139.239 Y128.972
G1 F1800 X140.615 Y130.348 E40.06031
G0 F6000 X140.609 Y131.275
G1 F1800 X139.239 Y129.905 E40.17642
G0 F6000 X139.239 Y130.838
G1 F1800 X140.609 Y132.209 E40.29257
G0 F6000 X140.609 Y133.142
G1 F1800 X139.239 Y131.772 E40.40868
G0 F6000 X139.239 Y132.705
G1 F1800 X140.609 Y134.075 E40.52479
G0 F6000 X139.86 Y134.26
G1 F1800 X139.239 Y133.638 E40.57746
G1 F2100 E35.57746
G1 F300 Z0.56
G0 F6000 X155.639 Y123.41 Z0.56
G1 F300 Z0.24
G1 F2100 E40.57746
G1 F1800 X155.856 Y123.6 E40.59474
G1 X156.914 Y124.661 E40.68454
G1 X157.082 Y124.85 E40.69969
G1 X157.243 Y125.074 E40.71622
G1 X158.051 Y126.365 E40.8075
G1 X158.257 Y126.789 E40.83574
G1 X158.271 Y126.824 E40.838
G1 X158.771 Y128.269 E40.92964
G1 X158.874 Y128.714 E40.95701
G1 X158.88 Y128.751 E40.95926
G1 X159.046 Y130.245 E41.04934
G1 X159.058 Y130.474 E41.06308
G1 X159.06 Y134.59 E41.30975
G1 X160.798 Y134.59 E41.4139
G1 X161.091 Y134.298 E41.43869
G1 X161.091 Y123.701 E42.07375
G1 X160.799 Y123.409 E42.0985
G1 X157.002 Y123.41 E42.32604
G0 F1620 X155.639 Y123.41
G1 F2100 E37.32604
G1 F300 Z0.56
G0 F6000 X160.76 Y124.358 Z0.56
G1 F300 Z0.24
G1 F2100 E42.32604
G1 F1800 X160.141 Y123.739 E42.37851
G0 F6000 X159.208 Y123.74
G1 F1800 X160.76 Y125.292 E42.51004
G0 F6000 X160.76 Y126.225
G1 F1800 X158.275 Y123.74 E42.72065
G0 F6000 X157.343 Y123.741
G1 F1800 X160.76 Y127.159 E43.01028
G0 F6000 X160.76 Y128.092
G1 F1800 X157.4 Y124.732 E43.29505
G1 F2100 E38.29505
G1 F300 Z0.56
G0 F6000 X158.645 Y126.91 Z0.56
G1 F300 Z0.24
G1 F2100 E43.29505
G1 F1800 X160.76 Y129.025 E43.4743
G0 F6000 X160.76 Y129.959
G1 F1800 X159.119 Y128.317 E43.61341
G0 F6000 X159.282 Y129.414
G1 F1800 X160.76 Y130.892 E43.73868
G0 F6000 X160.76 Y131.825
G1 F1800 X159.386 Y130.451 E43.85512
G0 F6000 X159.386 Y131.384
G1 F1800 X160.76 Y132.759 E43.97162
G0 F6000 X160.76 Y133.692
G1 F1800 X159.386 Y132.318 E44.08806
G0 F6000 X159.387 Y133.252
