(Project filing-cabinet-base)
(Created by Estlcam version 11 build 11.245)
(Machining time about 00:12:55 hours)

(Required tools:)
(1/8")
G21
G90
G94
M03 S10000
G00 X0.0000 Y0.0000 Z0.0000 F4000
G00 Z8.0000 F


(No. 1: Drill 1)
G00 F4000
G00 Z0.5000 F
G01 Z-6.0000 F120 S10000
G00 Z0.5000 F
G00 Z-5.5000
G01 Z-10.0000 F120
G00 Z8.0000 F


(No. 2: Hole 30)
G00 X35.3313 Y34.3775 Z8.0000 F4000
G00 Z0.5000 F
G01 Z0.0000 F120
G01 X38.7954 Z-3.0000
G01 X35.3313 Z-6.0000
G01 X41.7139 F1200
G01 X41.8508 Y34.5365
G01 X35.1945
G01 X35.0678 Y34.6955
G01 X41.9774
G01 X42.0948 Y34.8545
G01 X34.9505
G01 X34.8484 Y35.0135
G01 X42.1968
G01 X42.2943 Y35.1725
G01 X34.7509
G01 X34.6669 Y35.3315
G01 X42.3784
G01 X42.4574 Y35.4905
G01 X34.5879
G01 X34.5185 Y35.6495
G01 X42.5267
G01 X42.5896 Y35.8085
G01 X34.4557
G01 X34.4000 Y35.9675
G01 X42.6452
G01 X42.6937 Y36.1265
G01 X34.3515
G01 X34.3089 Y36.2855
G01 X42.7363
G01 X42.7718 Y36.4445
G01 X34.2735
G01 X34.2434 Y36.6035
G01 X42.8018
G01 X42.8250 Y36.7625
G01 X34.2202
G01 X34.2023 Y36.9215
G01 X42.8429
G01 X42.8544 Y37.0805
G01 X34.1909
G01 X34.1849 Y37.2395
G01 X42.8603
G01 Y37.3985
G01 X34.1849
G01 X34.1909 Y37.5575
G01 X42.8544
G01 X42.8429 Y37.7165
G01 X34.2023
G01 X34.2202 Y37.8755
G01 X42.8250
G01 X42.8018 Y38.0345
G01 X34.2434
G01 X34.2735 Y38.1935
G01 X42.7718
G01 X42.7363 Y38.3525
G01 X34.3089
G01 X34.3515 Y38.5115
G01 X42.6937
G01 X42.6452 Y38.6705
G01 X34.4000
G01 X34.4557 Y38.8295
G01 X42.5896
G01 X42.5267 Y38.9885
G01 X34.5185
G01 X34.5879 Y39.1475
G01 X42.4574
G01 X42.3784 Y39.3065
G01 X34.6669
G01 X34.7509 Y39.4655
G01 X42.2943
G01 X42.1968 Y39.6245
G01 X34.8484
G01 X34.9505 Y39.7835
G01 X42.0948
G01 X41.9774 Y39.9425
G01 X35.0678
G01 X35.1945 Y40.1015
G01 X41.8508
G01 X41.7139 Y40.2605
G01 X35.3313
G01 X35.4888 Y40.4195
G01 X41.5565
G01 X41.3849 Y40.5785
G01 X35.6604
G01 X35.8499 Y40.7375
G01 X41.1953
G01 X40.9799 Y40.8965
G01 X36.0653
G01 X36.3163 Y41.0555
G01 X40.7290
G01 X40.4349 Y41.2145
G01 X36.6103
G01 X36.9765 Y41.3735
G01 X40.0688
G01 X39.5569 Y41.5325
G01 X37.4883
G01 X35.4888 Y34.2185
G01 X41.5565
G01 X41.3849 Y34.0595
G01 X35.6604
G01 X35.8499 Y33.9005
G01 X41.1953
G01 X40.9799 Y33.7415
G01 X36.0653
G01 X36.3163 Y33.5825
G01 X40.7290
G01 X40.4349 Y33.4235
G01 X36.6103
G01 X36.9765 Y33.2645
G01 X40.0688
G01 X39.5569 Y33.1055
G01 X37.4883
G01 X37.3371 Y32.8168
G02 X39.5593 Y41.8611 I1.1844 J4.5041
G02 X37.3371 Y32.8168 I-1.0347 J-4.5409
G01 X37.4883 Y33.1055
G01 X39.5569 Z-7.7915 F120
G01 X39.7869 Y33.1769 Z-8.0000
G01 X39.5569 Y33.1055 Z-8.2085
G01 X37.4883 Z-10.0000
G01 X39.5569 F1200
G01 X40.0688 Y33.2645
G01 X36.9765
G01 X36.6103 Y33.4235
G01 X40.4349
G01 X40.7290 Y33.5825
G01 X36.3163
G01 X36.0653 Y33.7415
G01 X40.9799
G01 X41.1953 Y33.9005
G01 X35.8499
G01 X35.6604 Y34.0595
G01 X41.3849
G01 X41.5565 Y34.2185
G01 X35.4888
G01 X35.3313 Y34.3775
G01 X41.7139
G01 X41.8508 Y34.5365
G01 X35.1945
G01 X35.0678 Y34.6955
G01 X41.9774
G01 X42.0948 Y34.8545
G01 X34.9505
G01 X34.8484 Y35.0135
G01 X42.1968
G01 X42.2943 Y35.1725
G01 X34.7509
G01 X34.6669 Y35.3315
G01 X42.3784
G01 X42.4574 Y35.4905
G01 X34.5879
G01 X34.5185 Y35.6495
G01 X42.5267
G01 X42.5896 Y35.8085
G01 X34.4557
G01 X34.4000 Y35.9675
G01 X42.6452
G01 X42.6937 Y36.1265
G01 X34.3515
G01 X34.3089 Y36.2855
G01 X42.7363
G01 X42.7718 Y36.4445
G01 X34.2735
G01 X34.2434 Y36.6035
G01 X42.8018
G01 X42.8250 Y36.7625
G01 X34.2202
G01 X34.2023 Y36.9215
G01 X42.8429
G01 X42.8544 Y37.0805
G01 X34.1909
G01 X34.1849 Y37.2395
G01 X42.8603
G01 Y37.3985
G01 X34.1849
G01 X34.1909 Y37.5575
G01 X42.8544
G01 X42.8429 Y37.7165
G01 X34.2023
G01 X34.2202 Y37.8755
G01 X42.8250
G01 X42.8018 Y38.0345
G01 X34.2434
G01 X34.2735 Y38.1935
G01 X42.7718
G01 X42.7363 Y38.3525
G01 X34.3089
G01 X34.3515 Y38.5115
G01 X42.6937
G01 X42.6452 Y38.6705
G01 X34.4000
G01 X34.4557 Y38.8295
G01 X42.5896
G01 X42.5267 Y38.9885
G01 X34.5185
G01 X34.5879 Y39.1475
G01 X42.4574
G01 X42.3784 Y39.3065
G01 X34.6669
G01 X34.7509 Y39.4655
G01 X42.2943
G01 X42.1968 Y39.6245
G01 X34.8484
G01 X34.9505 Y39.7835
G01 X42.0948
G01 X41.9774 Y39.9425
G01 X35.0678
G01 X35.1945 Y40.1015
G01 X41.8508
G01 X41.7139 Y40.2605
G01 X35.3313
G01 X35.4888 Y40.4195
G01 X41.5565
G01 X41.3849 Y40.5785
G01 X35.6604
G01 X35.8499 Y40.7375
G01 X41.1953
G01 X40.9799 Y40.8965
G01 X36.0653
G01 X36.3163 Y41.0555
G01 X40.7290
G01 X40.4349 Y41.2145
G01 X36.6103
G01 X36.9765 Y41.3735
G01 X40.0688
G01 X39.5569 Y41.5325
G01 X37.4883
G01 X37.3371 Y41.8212
G02 X39.8959 Y32.8671 I1.1875 J-4.5033
G02 X37.3371 Y41.8212 I-1.3744 J4.4499
G01 X37.4883 Y41.5325
G00 Z8.0000 F


(No. 3: Hole 29)
G00 X164.5619 Y10.6165 Z8.0000 F4000
G00 Z0.5000 F
G01 Z0.0000 F120
G01 X168.0260 Z-3.0000
G01 X164.5619 Z-6.0000
G01 X172.9894 F1200
G01 X173.0248 Y10.4575
G01 X164.5265
G01 X164.4964 Y10.2985
G01 X173.0549
G01 X173.0780 Y10.1395
G01 X164.4733
G01 X164.4554 Y9.9805
G01 X173.0959
G01 X173.1074 Y9.8215
G01 X164.4439
G01 X164.4380 Y9.6625
G01 X173.1133
G01 Y9.5035
G01 X164.4380
G01 X164.4439 Y9.3445
G01 X173.1074
G01 X173.0959 Y9.1855
G01 X164.4554
G01 X164.4733 Y9.0265
G01 X173.0780
G01 X173.0549 Y8.8675
G01 X164.4964
G01 X164.5265 Y8.7085
G01 X173.0248
G01 X172.9894 Y8.5495
G01 X164.5619
G01 X164.6045 Y8.3905
G01 X172.9468
G01 X172.8983 Y8.2315
G01 X164.6531
G01 X164.7087 Y8.0725
G01 X172.8426
G01 X172.7798 Y7.9135
G01 X164.7716
G01 X164.8409 Y7.7545
G01 X172.7104
G01 X172.6314 Y7.5955
G01 X164.9199
G01 X165.0039 Y7.4365
G01 X172.5474
G01 X172.4499 Y7.2775
G01 X165.1015
G01 X165.2035 Y7.1185
G01 X172.3478
G01 X172.2305 Y6.9595
G01 X165.3208
G01 X165.4475 Y6.8005
G01 X172.1038
G01 X171.9670 Y6.6415
G01 X165.5843
G01 X165.7418 Y6.4825
G01 X171.8095
G01 X171.6379 Y6.3235
G01 X165.9134
G01 X166.1029 Y6.1645
G01 X171.4484
G01 X171.2329 Y6.0055
G01 X166.3184
G01 X166.5693 Y5.8465
G01 X170.9820
G01 X170.6880 Y5.6875
G01 X166.8634
G01 X167.2295 Y5.5285
G01 X170.3218
G01 X169.8100 Y5.3695
G01 X167.7413
G01 X164.6045 Y10.7755
G01 X172.9468
G01 X172.8983 Y10.9345
G01 X164.6531
G01 X164.7087 Y11.0935
G01 X172.8426
G01 X172.7798 Y11.2525
G01 X164.7716
G01 X164.8409 Y11.4115
G01 X172.7104
G01 X172.6314 Y11.5705
G01 X164.9199
G01 X165.0039 Y11.7295
G01 X172.5474
G01 X172.4499 Y11.8885
G01 X165.1015
G01 X165.2035 Y12.0475
G01 X172.3478
G01 X172.2305 Y12.2065
G01 X165.3208
G01 X165.4475 Y12.3655
G01 X172.1038
G01 X171.9670 Y12.5245
G01 X165.5843
G01 X165.7418 Y12.6835
G01 X171.8095
G01 X171.6379 Y12.8425
G01 X165.9134
G01 X166.1029 Y13.0015
G01 X171.4484
G01 X171.2329 Y13.1605
G01 X166.3184
G01 X166.5693 Y13.3195
G01 X170.9820
G01 X170.6880 Y13.4785
G01 X166.8634
G01 X167.2295 Y13.6375
G01 X170.3218
G01 X169.8100 Y13.7965
G01 X167.7413
G01 X167.5901 Y14.0852
G02 X170.1489 Y5.1311 I1.1875 J-4.5033
G02 X167.5901 Y14.0852 I-1.3744 J4.4499
G01 X167.7413 Y13.7965
G01 X169.8100 Z-7.7915 F120
G01 X170.0399 Y13.7250 Z-8.0000
G01 X169.8100 Y13.7965 Z-8.2085
G01 X167.7413 Z-10.0000
G01 X169.8100 F1200
G01 X170.3218 Y13.6375
G01 X167.2295
G01 X166.8634 Y13.4785
G01 X170.6880
G01 X170.9820 Y13.3195
G01 X166.5693
G01 X166.3184 Y13.1605
G01 X171.2329
G01 X171.4484 Y13.0015
G01 X166.1029
G01 X165.9134 Y12.8425
G01 X171.6379
G01 X171.8095 Y12.6835
G01 X165.7418
G01 X165.5843 Y12.5245
G01 X171.9670
G01 X172.1038 Y12.3655
G01 X165.4475
G01 X165.3208 Y12.2065
G01 X172.2305
G01 X172.3478 Y12.0475
G01 X165.2035
G01 X165.1015 Y11.8885
G01 X172.4499
G01 X172.5474 Y11.7295
G01 X165.0039
G01 X164.9199 Y11.5705
G01 X172.6314
G01 X172.7104 Y11.4115
G01 X164.8409
G01 X164.7716 Y11.2525
G01 X172.7798
G01 X172.8426 Y11.0935
G01 X164.7087
G01 X164.6531 Y10.9345
G01 X172.8983
G01 X172.9468 Y10.7755
G01 X164.6045
G01 X164.5619 Y10.6165
G01 X172.9894
G01 X173.0248 Y10.4575
G01 X164.5265
G01 X164.4964 Y10.2985
G01 X173.0549
G01 X173.0780 Y10.1395
G01 X164.4733
G01 X164.4554 Y9.9805
G01 X173.0959
G01 X173.1074 Y9.8215
G01 X164.4439
G01 X164.4380 Y9.6625
G01 X173.1133
G01 Y9.5035
G01 X164.4380
G01 X164.4439 Y9.3445
G01 X173.1074
G01 X173.0959 Y9.1855
G01 X164.4554
G01 X164.4733 Y9.0265
G01 X173.0780
G01 X173.0549 Y8.8675
G01 X164.4964
G01 X164.5265 Y8.7085
G01 X173.0248
G01 X172.9894 Y8.5495
G01 X164.5619
G01 X164.6045 Y8.3905
G01 X172.9468
G01 X172.8983 Y8.2315
G01 X164.6531
G01 X164.7087 Y8.0725
G01 X172.8426
G01 X172.7798 Y7.9135
G01 X164.7716
G01 X164.8409 Y7.7545
G01 X172.7104
G01 X172.6314 Y7.5955
G01 X164.9199
G01 X165.0039 Y7.4365
G01 X172.5474
G01 X172.4499 Y7.2775
G01 X165.1015
G01 X165.2035 Y7.1185
G01 X172.3478
G01 X172.2305 Y6.9595
G01 X165.3208
G01 X165.4475 Y6.8005
G01 X172.1038
G01 X171.9670 Y6.6415
G01 X165.5843
G01 X165.7418 Y6.4825
G01 X171.8095
G01 X171.6379 Y6.3235
G01 X165.9134
G01 X166.1029 Y6.1645
G01 X171.4484
G01 X171.2329 Y6.0055
G01 X166.3184
G01 X166.5693 Y5.8465
G01 X170.9820
G01 X170.6880 Y5.6875
G01 X166.8634
G01 X167.2295 Y5.5285
G01 X170.3218
G01 X169.8100 Y5.3695
G01 X167.7413
G01 X167.5901 Y5.0808
G02 X169.8124 Y14.1250 I1.1844 J4.5041
G02 X167.5901 Y5.0808 I-1.0347 J-4.5409
G01 X167.7413 Y5.3695
G00 Z8.0000 F


(No. 4: Hole 28)
G00 X332.7123 Y9.9738 Z8.0000 F4000
G00 Z0.5000 F
G01 Z0.0000 F120
G01 X336.1764 Z-3.0000
G01 X332.7123 Z-6.0000
G01 X341.3877 F1200
G01 Y10.1328
G01 X332.7123
G01 X332.7183 Y10.2918
G01 X341.3817
G01 X341.3703 Y10.4508
G01 X332.7297
G01 X332.7476 Y10.6098
G01 X341.3524
G01 X341.3292 Y10.7688
G01 X332.7708
G01 X332.8009 Y10.9278
G01 X341.2991
G01 X341.2637 Y11.0868
G01 X332.8363
G01 X332.8789 Y11.2458
G01 X341.2211
G01 X341.1726 Y11.4048
G01 X332.9274
G01 X332.9830 Y11.5638
G01 X341.1170
G01 X341.0541 Y11.7228
G01 X333.0459
G01 X333.1153 Y11.8818
G01 X340.9847
G01 X340.9058 Y12.0408
G01 X333.1942
G01 X333.2783 Y12.1998
G01 X340.8217
G01 X340.7242 Y12.3588
G01 X333.3758
G01 X333.4778 Y12.5178
G01 X340.6222
G01 X340.5048 Y12.6768
G01 X333.5952
G01 X333.7219 Y12.8358
G01 X340.3781
G01 X340.2413 Y12.9948
G01 X333.8587
G01 X334.0162 Y13.1538
G01 X340.0838
G01 X339.9123 Y13.3128
G01 X334.1877
G01 X334.3773 Y13.4718
G01 X339.7227
G01 X339.5073 Y13.6308
G01 X334.5927
G01 X334.8437 Y13.7898
G01 X339.2563
G01 X338.9623 Y13.9488
G01 X335.1377
G01 X335.5039 Y14.1078
G01 X338.5961
G01 X338.0843 Y14.2668
G01 X336.0157
G01 X332.7183 Y9.8148
G01 X341.3817
G01 X341.3703 Y9.6558
G01 X332.7297
G01 X332.7476 Y9.4968
G01 X341.3524
G01 X341.3292 Y9.3378
G01 X332.7708
G01 X332.8009 Y9.1788
G01 X341.2991
G01 X341.2637 Y9.0198
G01 X332.8363
G01 X332.8789 Y8.8608
G01 X341.2211
G01 X341.1726 Y8.7018
G01 X332.9274
G01 X332.9830 Y8.5428
G01 X341.1170
G01 X341.0541 Y8.3838
G01 X333.0459
G01 X333.1153 Y8.2248
G01 X340.9847
G01 X340.9058 Y8.0658
G01 X333.1942
G01 X333.2783 Y7.9068
G01 X340.8217
G01 X340.7242 Y7.7478
G01 X333.3758
G01 X333.4778 Y7.5888
G01 X340.6222
G01 X340.5048 Y7.4298
G01 X333.5952
G01 X333.7219 Y7.2708
G01 X340.3781
G01 X340.2413 Y7.1118
G01 X333.8587
G01 X334.0162 Y6.9528
G01 X340.0838
G01 X339.9123 Y6.7938
G01 X334.1877
G01 X334.3773 Y6.6348
G01 X339.7227
G01 X339.5073 Y6.4758
G01 X334.5927
G01 X334.8437 Y6.3168
G01 X339.2563
G01 X338.9623 Y6.1578
G01 X335.1377
G01 X335.5039 Y5.9988
G01 X338.5961
G01 X338.0843 Y5.8398
G01 X336.0157
G01 X335.8645 Y5.5511
G02 X338.0867 Y14.5954 I1.1844 J4.5041
G02 X335.8645 Y5.5511 I-1.0347 J-4.5409
G01 X336.0157 Y5.8398
G01 X338.0843 Z-7.7915 F120
G01 X338.3142 Y5.9112 Z-8.0000
G01 X338.0843 Y5.8398 Z-8.2085
G01 X336.0157 Z-10.0000
G01 X338.0843 F1200
G01 X338.5961 Y5.9988
G01 X335.5039
G01 X335.1377 Y6.1578
G01 X338.9623
G01 X339.2563 Y6.3168
G01 X334.8437
G01 X334.5927 Y6.4758
G01 X339.5073
G01 X339.7227 Y6.6348
G01 X334.3773
G01 X334.1877 Y6.7938
G01 X339.9123
G01 X340.0838 Y6.9528
G01 X334.0162
G01 X333.8587 Y7.1118
G01 X340.2413
G01 X340.3781 Y7.2708
G01 X333.7219
G01 X333.5952 Y7.4298
G01 X340.5048
G01 X340.6222 Y7.5888
G01 X333.4778
G01 X333.3758 Y7.7478
G01 X340.7242
G01 X340.8217 Y7.9068
G01 X333.2783
G01 X333.1942 Y8.0658
G01 X340.9058
G01 X340.9847 Y8.2248
G01 X333.1153
G01 X333.0459 Y8.3838
G01 X341.0541
G01 X341.1170 Y8.5428
G01 X332.9830
G01 X332.9274 Y8.7018
G01 X341.1726
G01 X341.2211 Y8.8608
G01 X332.8789
G01 X332.8363 Y9.0198
G01 X341.2637
G01 X341.2991 Y9.1788
G01 X332.8009
G01 X332.7708 Y9.3378
G01 X341.3292
G01 X341.3524 Y9.4968
G01 X332.7476
G01 X332.7297 Y9.6558
G01 X341.3703
G01 X341.3817 Y9.8148
G01 X332.7183
G01 X332.7123 Y9.9738
G01 X341.3877
G01 Y10.1328
G01 X332.7123
G01 X332.7183 Y10.2918
G01 X341.3817
G01 X341.3703 Y10.4508
G01 X332.7297
G01 X332.7476 Y10.6098
G01 X341.3524
G01 X341.3292 Y10.7688
G01 X332.7708
G01 X332.8009 Y10.9278
G01 X341.2991
G01 X341.2637 Y11.0868
G01 X332.8363
G01 X332.8789 Y11.2458
G01 X341.2211
G01 X341.1726 Y11.4048
G01 X332.9274
G01 X332.9830 Y11.5638
G01 X341.1170
G01 X341.0541 Y11.7228
G01 X333.0459
G01 X333.1153 Y11.8818
G01 X340.9847
G01 X340.9058 Y12.0408
G01 X333.1942
G01 X333.2783 Y12.1998
G01 X340.8217
G01 X340.7242 Y12.3588
G01 X333.3758
G01 X333.4778 Y12.5178
G01 X340.6222
G01 X340.5048 Y12.6768
G01 X333.5952
G01 X333.7219 Y12.8358
G01 X340.3781
G01 X340.2413 Y12.9948
G01 X333.8587
G01 X334.0162 Y13.1538
G01 X340.0838
G01 X339.9123 Y13.3128
G01 X334.1877
G01 X334.3773 Y13.4718
G01 X339.7227
G01 X339.5073 Y13.6308
G01 X334.5927
G01 X334.8437 Y13.7898
G01 X339.2563
G01 X338.9623 Y13.9488
G01 X335.1377
G01 X335.5039 Y14.1078
G01 X338.5961
G01 X338.0843 Y14.2668
G01 X336.0157
G01 X335.8645 Y14.5555
G02 X338.4232 Y5.6014 I1.1875 J-4.5033
G02 X335.8645 Y14.5555 I-1.3744 J4.4499
G01 X336.0157 Y14.2668
G00 Z8.0000 F


(No. 5: Hole 27)
G00 X500.9867 Y10.6031 Z8.0000 F4000
G00 Z0.5000 F
G01 Z0.0000 F120
G01 X504.4508 Z-3.0000
G01 X500.9867 Z-6.0000
G01 X509.6620 F1200
G01 Y10.4441
G01 X500.9867
G01 X500.9926 Y10.2851
G01 X509.6561
G01 X509.6446 Y10.1261
G01 X501.0041
G01 X501.0220 Y9.9671
G01 X509.6267
G01 X509.6036 Y9.8081
G01 X501.0451
G01 X501.0752 Y9.6491
G01 X509.5735
G01 X509.5381 Y9.4901
G01 X501.1106
G01 X501.1532 Y9.3311
G01 X509.4955
G01 X509.4469 Y9.1721
G01 X501.2017
G01 X501.2574 Y9.0131
G01 X509.3913
G01 X509.3284 Y8.8541
G01 X501.3202
G01 X501.3896 Y8.6951
G01 X509.2591
G01 X509.1801 Y8.5361
G01 X501.4686
G01 X501.5526 Y8.3771
G01 X509.0961
G01 X508.9985 Y8.2181
G01 X501.6501
G01 X501.7522 Y8.0591
G01 X508.8965
G01 X508.7792 Y7.9001
G01 X501.8695
G01 X501.9962 Y7.7411
G01 X508.6525
G01 X508.5157 Y7.5821
G01 X502.1330
G01 X502.2905 Y7.4231
G01 X508.3582
G01 X508.1866 Y7.2641
G01 X502.4621
G01 X502.6516 Y7.1051
G01 X507.9971
G01 X507.7816 Y6.9461
G01 X502.8671
G01 X503.1180 Y6.7871
G01 X507.5307
G01 X507.2366 Y6.6281
G01 X503.4120
G01 X503.7782 Y6.4691
G01 X506.8705
G01 X506.3587 Y6.3101
G01 X504.2900
G01 X500.9926 Y10.7621
G01 X509.6561
G01 X509.6446 Y10.9211
G01 X501.0041
G01 X501.0220 Y11.0801
G01 X509.6267
G01 X509.6036 Y11.2391
G01 X501.0451
G01 X501.0752 Y11.3981
G01 X509.5735
G01 X509.5381 Y11.5571
G01 X501.1106
G01 X501.1532 Y11.7161
G01 X509.4955
G01 X509.4469 Y11.8751
G01 X501.2017
G01 X501.2574 Y12.0341
G01 X509.3913
G01 X509.3284 Y12.1931
G01 X501.3202
G01 X501.3896 Y12.3521
G01 X509.2591
G01 X509.1801 Y12.5111
G01 X501.4686
G01 X501.5526 Y12.6701
G01 X509.0961
G01 X508.9985 Y12.8291
G01 X501.6501
G01 X501.7522 Y12.9881
G01 X508.8965
G01 X508.7792 Y13.1471
G01 X501.8695
G01 X501.9962 Y13.3061
G01 X508.6525
G01 X508.5157 Y13.4651
G01 X502.1330
G01 X502.2905 Y13.6241
G01 X508.3582
G01 X508.1866 Y13.7831
G01 X502.4621
G01 X502.6516 Y13.9421
G01 X507.9971
G01 X507.7816 Y14.1011
G01 X502.8671
G01 X503.1180 Y14.2601
G01 X507.5307
G01 X507.2366 Y14.4191
G01 X503.4120
G01 X503.7782 Y14.5781
G01 X506.8705
G01 X506.3587 Y14.7371
G01 X504.2900
G01 X504.1388 Y15.0258
G02 X506.6976 Y6.0717 I1.1875 J-4.5033
G02 X504.1388 Y15.0258 I-1.3744 J4.4499
G01 X504.2900 Y14.7371
G01 X506.3587 Z-7.7915 F120
G01 X506.5886 Y14.6657 Z-8.0000
G01 X506.3587 Y14.7371 Z-8.2085
G01 X504.2900 Z-10.0000
G01 X506.3587 F1200
G01 X506.8705 Y14.5781
G01 X503.7782
G01 X503.4120 Y14.4191
G01 X507.2366
G01 X507.5307 Y14.2601
G01 X503.1180
G01 X502.8671 Y14.1011
G01 X507.7816
G01 X507.9971 Y13.9421
G01 X502.6516
G01 X502.4621 Y13.7831
G01 X508.1866
G01 X508.3582 Y13.6241
G01 X502.2905
G01 X502.1330 Y13.4651
G01 X508.5157
G01 X508.6525 Y13.3061
G01 X501.9962
G01 X501.8695 Y13.1471
G01 X508.7792
G01 X508.8965 Y12.9881
G01 X501.7522
G01 X501.6501 Y12.8291
G01 X508.9985
G01 X509.0961 Y12.6701
G01 X501.5526
G01 X501.4686 Y12.5111
G01 X509.1801
G01 X509.2591 Y12.3521
G01 X501.3896
G01 X501.3202 Y12.1931
G01 X509.3284
G01 X509.3913 Y12.0341
G01 X501.2574
G01 X501.2017 Y11.8751
G01 X509.4469
G01 X509.4955 Y11.7161
G01 X501.1532
G01 X501.1106 Y11.5571
G01 X509.5381
G01 X509.5735 Y11.3981
G01 X501.0752
G01 X501.0451 Y11.2391
G01 X509.6036
G01 X509.6267 Y11.0801
G01 X501.0220
G01 X501.0041 Y10.9211
G01 X509.6446
G01 X509.6561 Y10.7621
G01 X500.9926
G01 X500.9867 Y10.6031
G01 X509.6620
G01 Y10.4441
G01 X500.9867
G01 X500.9926 Y10.2851
G01 X509.6561
G01 X509.6446 Y10.1261
G01 X501.0041
G01 X501.0220 Y9.9671
G01 X509.6267
G01 X509.6036 Y9.8081
G01 X501.0451
G01 X501.0752 Y9.6491
G01 X509.5735
G01 X509.5381 Y9.4901
G01 X501.1106
G01 X501.1532 Y9.3311
G01 X509.4955
G01 X509.4469 Y9.1721
G01 X501.2017
G01 X501.2574 Y9.0131
G01 X509.3913
G01 X509.3284 Y8.8541
G01 X501.3202
G01 X501.3896 Y8.6951
G01 X509.2591
G01 X509.1801 Y8.5361
G01 X501.4686
G01 X501.5526 Y8.3771
G01 X509.0961
G01 X508.9985 Y8.2181
G01 X501.6501
G01 X501.7522 Y8.0591
G01 X508.8965
G01 X508.7792 Y7.9001
G01 X501.8695
G01 X501.9962 Y7.7411
G01 X508.6525
G01 X508.5157 Y7.5821
G01 X502.1330
G01 X502.2905 Y7.4231
G01 X508.3582
G01 X508.1866 Y7.2641
G01 X502.4621
G01 X502.6516 Y7.1051
G01 X507.9971
G01 X507.7816 Y6.9461
G01 X502.8671
G01 X503.1180 Y6.7871
G01 X507.5307
G01 X507.2366 Y6.6281
G01 X503.4120
G01 X503.7782 Y6.4691
G01 X506.8705
G01 X506.3587 Y6.3101
G01 X504.2900
G01 X504.1388 Y6.0215
G02 X506.3610 Y15.0657 I1.1844 J4.5041
G02 X504.1388 Y6.0215 I-1.0347 J-4.5409
G01 X504.2900 Y6.3101
G00 Z8.0000 F


(No. 6: Hole 26)
G00 X633.1481 Y37.4645 Z8.0000 F4000
G00 Z0.5000 F
G01 Z0.0000 F120
G01 X636.6122 Z-3.0000
G01 X633.1481 Z-6.0000
G01 X641.5755 F1200
G01 X641.6109 Y37.6235
G01 X633.1127
G01 X633.0826 Y37.7825
G01 X641.6410
G01 X641.6642 Y37.9415
G01 X633.0594
G01 X633.0415 Y38.1005
G01 X641.6821
G01 X641.6935 Y38.2595
G01 X633.0301
G01 X633.0241 Y38.4185
G01 X641.6995
G01 Y38.5775
G01 X633.0241
G01 X633.0301 Y38.7365
G01 X641.6935
G01 X641.6821 Y38.8955
G01 X633.0415
G01 X633.0594 Y39.0545
G01 X641.6642
G01 X641.6410 Y39.2135
G01 X633.0826
G01 X633.1127 Y39.3725
G01 X641.6109
G01 X641.5755 Y39.5315
G01 X633.1481
G01 X633.1907 Y39.6905
G01 X641.5329
G01 X641.4844 Y39.8495
G01 X633.2392
G01 X633.2948 Y40.0085
G01 X641.4288
G01 X641.3659 Y40.1675
G01 X633.3577
G01 X633.4271 Y40.3265
G01 X641.2965
G01 X641.2176 Y40.4855
G01 X633.5060
G01 X633.5901 Y40.6445
G01 X641.1335
G01 X641.0360 Y40.8035
G01 X633.6876
G01 X633.7896 Y40.9625
G01 X640.9340
G01 X640.8166 Y41.1215
G01 X633.9070
G01 X634.0337 Y41.2805
G01 X640.6899
G01 X640.5531 Y41.4395
G01 X634.1705
G01 X634.3280 Y41.5985
G01 X640.3956
G01 X640.2241 Y41.7575
G01 X634.4995
G01 X634.6891 Y41.9165
G01 X640.0345
G01 X639.8191 Y42.0755
G01 X634.9045
G01 X635.1555 Y42.2345
G01 X639.5681
G01 X639.2741 Y42.3935
G01 X635.4495
G01 X635.8157 Y42.5525
G01 X638.9079
G01 X638.3961 Y42.7115
G01 X636.3275
G01 X633.1907 Y37.3055
G01 X641.5329
G01 X641.4844 Y37.1465
G01 X633.2392
G01 X633.2948 Y36.9875
G01 X641.4288
G01 X641.3659 Y36.8285
G01 X633.3577
G01 X633.4271 Y36.6695
G01 X641.2965
G01 X641.2176 Y36.5105
G01 X633.5060
G01 X633.5901 Y36.3515
G01 X641.1335
G01 X641.0360 Y36.1925
G01 X633.6876
G01 X633.7896 Y36.0335
G01 X640.9340
G01 X640.8166 Y35.8745
G01 X633.9070
G01 X634.0337 Y35.7155
G01 X640.6899
G01 X640.5531 Y35.5565
G01 X634.1705
G01 X634.3280 Y35.3975
G01 X640.3956
G01 X640.2241 Y35.2385
G01 X634.4995
G01 X634.6891 Y35.0795
G01 X640.0345
G01 X639.8191 Y34.9205
G01 X634.9045
G01 X635.1555 Y34.7615
G01 X639.5681
G01 X639.2741 Y34.6025
G01 X635.4495
G01 X635.8157 Y34.4435
G01 X638.9079
G01 X638.3961 Y34.2845
G01 X636.3275
G01 X636.1763 Y33.9958
G02 X638.3985 Y43.0401 I1.1844 J4.5041
G02 X636.1763 Y33.9958 I-1.0347 J-4.5409
G01 X636.3275 Y34.2845
G01 X638.3961 Z-7.7915 F120
G01 X638.6260 Y34.3560 Z-8.0000
G01 X638.3961 Y34.2845 Z-8.2085
G01 X636.3275 Z-10.0000
G01 X638.3961 F1200
G01 X638.9079 Y34.4435
G01 X635.8157
G01 X635.4495 Y34.6025
G01 X639.2741
G01 X639.5681 Y34.7615
G01 X635.1555
G01 X634.9045 Y34.9205
G01 X639.8191
G01 X640.0345 Y35.0795
G01 X634.6891
G01 X634.4995 Y35.2385
G01 X640.2241
G01 X640.3956 Y35.3975
G01 X634.3280
G01 X634.1705 Y35.5565
G01 X640.5531
G01 X640.6899 Y35.7155
G01 X634.0337
G01 X633.9070 Y35.8745
G01 X640.8166
G01 X640.9340 Y36.0335
G01 X633.7896
G01 X633.6876 Y36.1925
G01 X641.0360
G01 X641.1335 Y36.3515
G01 X633.5901
G01 X633.5060 Y36.5105
G01 X641.2176
G01 X641.2965 Y36.6695
G01 X633.4271
G01 X633.3577 Y36.8285
G01 X641.3659
G01 X641.4288 Y36.9875
G01 X633.2948
G01 X633.2392 Y37.1465
G01 X641.4844
G01 X641.5329 Y37.3055
G01 X633.1907
G01 X633.1481 Y37.4645
G01 X641.5755
G01 X641.6109 Y37.6235
G01 X633.1127
G01 X633.0826 Y37.7825
G01 X641.6410
G01 X641.6642 Y37.9415
G01 X633.0594
G01 X633.0415 Y38.1005
G01 X641.6821
G01 X641.6935 Y38.2595
G01 X633.0301
G01 X633.0241 Y38.4185
G01 X641.6995
G01 Y38.5775
G01 X633.0241
G01 X633.0301 Y38.7365
G01 X641.6935
G01 X641.6821 Y38.8955
G01 X633.0415
G01 X633.0594 Y39.0545
G01 X641.6642
G01 X641.6410 Y39.2135
G01 X633.0826
G01 X633.1127 Y39.3725
G01 X641.6109
G01 X641.5755 Y39.5315
G01 X633.1481
G01 X633.1907 Y39.6905
G01 X641.5329
G01 X641.4844 Y39.8495
G01 X633.2392
G01 X633.2948 Y40.0085
G01 X641.4288
G01 X641.3659 Y40.1675
G01 X633.3577
G01 X633.4271 Y40.3265
G01 X641.2965
G01 X641.2176 Y40.4855
G01 X633.5060
G01 X633.5901 Y40.6445
G01 X641.1335
G01 X641.0360 Y40.8035
G01 X633.6876
G01 X633.7896 Y40.9625
G01 X640.9340
G01 X640.8166 Y41.1215
G01 X633.9070
G01 X634.0337 Y41.2805
G01 X640.6899
G01 X640.5531 Y41.4395
G01 X634.1705
G01 X634.3280 Y41.5985
G01 X640.3956
G01 X640.2241 Y41.7575
G01 X634.4995
G01 X634.6891 Y41.9165
G01 X640.0345
G01 X639.8191 Y42.0755
G01 X634.9045
G01 X635.1555 Y42.2345
G01 X639.5681
G01 X639.2741 Y42.3935
G01 X635.4495
G01 X635.8157 Y42.5525
G01 X638.9079
G01 X638.3961 Y42.7115
G01 X636.3275
G01 X636.1763 Y43.0002
G02 X638.7350 Y34.0461 I1.1875 J-4.5033
G02 X636.1763 Y43.0002 I-1.3744 J4.4499
G01 X636.3275 Y42.7115
G00 Z8.0000 F


(No. 7: Hole 25)
G00 X636.1557 Y184.8032 Z8.0000 F4000
G00 Z0.5000 F
G01 Z0.0000 F120
G01 X638.2243 Z-1.7915
G01 X638.7361 Y184.9622 Z-2.2556
G01 X637.8766 Z-3.0000
G01 X638.7361 Z-3.7444
G01 X638.2243 Y184.8032 Z-4.2085
G01 X636.1557 Z-6.0000
G01 X638.2243 F1200
G01 X638.7361 Y184.9622
G01 X635.6439
G01 X635.2777 Y185.1212
G01 X639.1023
G01 X639.3963 Y185.2802
G01 X634.9836
G01 X634.7327 Y185.4392
G01 X639.6473
G01 X639.8627 Y185.5982
G01 X634.5173
G01 X634.3277 Y185.7572
G01 X640.0522
G01 X640.2238 Y185.9162
G01 X634.1561
G01 X633.9987 Y186.0752
G01 X640.3813
G01 X640.5181 Y186.2342
G01 X633.8618
G01 X633.7352 Y186.3932
G01 X640.6448
G01 X640.7622 Y186.5522
G01 X633.6178
G01 X633.5158 Y186.7112
G01 X640.8642
G01 X640.9617 Y186.8702
G01 X633.4183
G01 X633.3342 Y187.0292
G01 X641.0457
G01 X641.1247 Y187.1882
G01 X633.2553
G01 X633.1859 Y187.3472
G01 X641.1941
G01 X641.2570 Y187.5062
G01 X633.1230
G01 X633.0674 Y187.6652
G01 X641.3126
G01 X641.3611 Y187.8242
G01 X633.0189
G01 X632.9763 Y187.9832
G01 X641.4037
G01 X641.4391 Y188.1422
G01 X632.9409
G01 X632.9108 Y188.3012
G01 X641.4692
G01 X641.4924 Y188.4602
G01 X632.8876
G01 X632.8697 Y188.6192
G01 X641.5103
G01 X641.5217 Y188.7782
G01 X632.8582
G01 X632.8523 Y188.9372
G01 X641.5277
G01 Y189.0962
G01 X632.8523
G01 X632.8582 Y189.2552
G01 X641.5217
G01 X641.5103 Y189.4142
G01 X632.8697
G01 X632.8876 Y189.5732
G01 X641.4924
G01 X641.4692 Y189.7322
G01 X632.9108
G01 X632.9409 Y189.8912
G01 X641.4391
G01 X641.4037 Y190.0502
G01 X632.9763
G01 X633.0189 Y190.2092
G01 X641.3611
G01 X641.3126 Y190.3682
G01 X633.0674
G01 X633.1230 Y190.5272
G01 X641.2570
G01 X641.1941 Y190.6862
G01 X633.1859
G01 X633.2553 Y190.8452
G01 X641.1247
G01 X641.0457 Y191.0042
G01 X633.3342
G01 X633.4183 Y191.1632
G01 X640.9617
G01 X640.8642 Y191.3222
G01 X633.5158
G01 X633.6178 Y191.4812
G01 X640.7622
G01 X640.6448 Y191.6402
G01 X633.7352
G01 X633.8618 Y191.7992
G01 X640.5181
G01 X640.3813 Y191.9582
G01 X633.9987
G01 X634.1561 Y192.1172
G01 X640.2238
G01 X640.0522 Y192.2762
G01 X634.3277
G01 X634.5173 Y192.4352
G01 X639.8627
G01 X639.6473 Y192.5942
G01 X634.7327
G01 X634.9836 Y192.7532
G01 X639.3963
G01 X639.1023 Y192.9122
G01 X635.2777
G01 X635.6439 Y193.0712
G01 X638.7361
G01 X638.2243 Y193.2302
G01 X636.1557
G01 X636.0044 Y193.5189
G02 X638.5632 Y184.5648 I1.1875 J-4.5033
G02 X636.0044 Y193.5189 I-1.3744 J4.4499
G01 X636.1557 Y193.2302
G01 X638.2243 Z-7.7915 F120
G01 X638.4542 Y193.1588 Z-8.0000
G01 X638.2243 Y193.2302 Z-8.2085
G01 X636.1557 Z-10.0000
G01 X638.2243 F1200
G01 X638.7361 Y193.0712
G01 X635.6439
G01 X635.2777 Y192.9122
G01 X639.1023
G01 X639.3963 Y192.7532
G01 X634.9836
G01 X634.7327 Y192.5942
G01 X639.6473
G01 X639.8627 Y192.4352
G01 X634.5173
G01 X634.3277 Y192.2762
G01 X640.0522
G01 X640.2238 Y192.1172
G01 X634.1561
G01 X633.9987 Y191.9582
G01 X640.3813
G01 X640.5181 Y191.7992
G01 X633.8618
G01 X633.7352 Y191.6402
G01 X640.6448
G01 X640.7622 Y191.4812
G01 X633.6178
G01 X633.5158 Y191.3222
G01 X640.8642
G01 X640.9617 Y191.1632
G01 X633.4183
G01 X633.3342 Y191.0042
G01 X641.0457
G01 X641.1247 Y190.8452
G01 X633.2553
G01 X633.1859 Y190.6862
G01 X641.1941
G01 X641.2570 Y190.5272
G01 X633.1230
G01 X633.0674 Y190.3682
G01 X641.3126
G01 X641.3611 Y190.2092
G01 X633.0189
G01 X632.9763 Y190.0502
G01 X641.4037
G01 X641.4391 Y189.8912
G01 X632.9409
G01 X632.9108 Y189.7322
G01 X641.4692
G01 X641.4924 Y189.5732
G01 X632.8876
G01 X632.8697 Y189.4142
G01 X641.5103
G01 X641.5217 Y189.2552
G01 X632.8582
G01 X632.8523 Y189.0962
G01 X641.5277
G01 Y188.9372
G01 X632.8523
G01 X632.8582 Y188.7782
G01 X641.5217
G01 X641.5103 Y188.6192
G01 X632.8697
G01 X632.8876 Y188.4602
G01 X641.4924
G01 X641.4692 Y188.3012
G01 X632.9108
G01 X632.9409 Y188.1422
G01 X641.4391
G01 X641.4037 Y187.9832
G01 X632.9763
G01 X633.0189 Y187.8242
G01 X641.3611
G01 X641.3126 Y187.6652
G01 X633.0674
G01 X633.1230 Y187.5062
G01 X641.2570
G01 X641.1941 Y187.3472
G01 X633.1859
G01 X633.2553 Y187.1882
G01 X641.1247
G01 X641.0457 Y187.0292
G01 X633.3342
G01 X633.4183 Y186.8702
G01 X640.9617
G01 X640.8642 Y186.7112
G01 X633.5158
G01 X633.6178 Y186.5522
G01 X640.7622
G01 X640.6448 Y186.3932
G01 X633.7352
G01 X633.8618 Y186.2342
G01 X640.5181
G01 X640.3813 Y186.0752
G01 X633.9987
G01 X634.1561 Y185.9162
G01 X640.2238
G01 X640.0522 Y185.7572
G01 X634.3277
G01 X634.5173 Y185.5982
G01 X639.8627
G01 X639.6473 Y185.4392
G01 X634.7327
G01 X634.9836 Y185.2802
G01 X639.3963
G01 X639.1023 Y185.1212
G01 X635.2777
G01 X635.6439 Y184.9622
G01 X638.7361
G01 X638.2243 Y184.8032
G01 X636.1557
G01 X636.0044 Y184.5145
G02 X638.2267 Y193.5588 I1.1844 J4.5041
G02 X636.0044 Y184.5145 I-1.0347 J-4.5409
G01 X636.1557 Y184.8032
G00 Z8.0000 F


(No. 8: Hole 24)
G00 X635.9058 Y336.0063 Z8.0000 F4000
G00 Z0.5000 F
G01 Z0.0000 F120
G01 X637.9744 Z-1.7915
G01 X638.4863 Y336.1653 Z-2.2556
G01 X637.6267 Z-3.0000
G01 X638.4863 Z-3.7444
G01 X637.9744 Y336.0063 Z-4.2085
G01 X635.9058 Z-6.0000
G01 X637.9744 F1200
G01 X638.4863 Y336.1653
G01 X635.3940
G01 X635.0278 Y336.3243
G01 X638.8524
G01 X639.1465 Y336.4833
G01 X634.7338
G01 X634.4829 Y336.6423
G01 X639.3974
G01 X639.6128 Y336.8013
G01 X634.2674
G01 X634.0779 Y336.9603
G01 X639.8024
G01 X639.9740 Y337.1193
G01 X633.9063
G01 X633.7488 Y337.2783
G01 X640.1314
G01 X640.2683 Y337.4373
G01 X633.6120
G01 X633.4853 Y337.5963
G01 X640.3950
G01 X640.5123 Y337.7553
G01 X633.3680
G01 X633.2659 Y337.9143
G01 X640.6143
G01 X640.7119 Y338.0733
G01 X633.1684
G01 X633.0844 Y338.2323
G01 X640.7959
G01 X640.8749 Y338.3913
G01 X633.0054
G01 X632.9360 Y338.5503
G01 X640.9442
G01 X641.0071 Y338.7093
G01 X632.8732
G01 X632.8175 Y338.8683
G01 X641.0627
G01 X641.1112 Y339.0273
G01 X632.7690
G01 X632.7264 Y339.1863
G01 X641.1538
G01 X641.1893 Y339.3453
G01 X632.6910
G01 X632.6609 Y339.5043
G01 X641.2193
G01 X641.2425 Y339.6633
G01 X632.6378
G01 X632.6198 Y339.8223
G01 X641.2604
G01 X641.2719 Y339.9813
G01 X632.6084
G01 X632.6024 Y340.1403
G01 X641.2778
G01 Y340.2993
G01 X632.6024
G01 X632.6084 Y340.4583
G01 X641.2719
G01 X641.2604 Y340.6173
G01 X632.6198
G01 X632.6378 Y340.7763
G01 X641.2425
G01 X641.2193 Y340.9353
G01 X632.6609
G01 X632.6910 Y341.0943
G01 X641.1893
G01 X641.1538 Y341.2533
G01 X632.7264
G01 X632.7690 Y341.4123
G01 X641.1112
G01 X641.0627 Y341.5713
G01 X632.8175
G01 X632.8732 Y341.7303
G01 X641.0071
G01 X640.9442 Y341.8893
G01 X632.9360
G01 X633.0054 Y342.0483
G01 X640.8749
G01 X640.7959 Y342.2073
G01 X633.0844
G01 X633.1684 Y342.3663
G01 X640.7119
G01 X640.6143 Y342.5253
G01 X633.2659
G01 X633.3680 Y342.6843
G01 X640.5123
G01 X640.3950 Y342.8433
G01 X633.4853
G01 X633.6120 Y343.0023
G01 X640.2683
G01 X640.1314 Y343.1613
G01 X633.7488
G01 X633.9063 Y343.3203
G01 X639.9740
G01 X639.8024 Y343.4793
G01 X634.0779
G01 X634.2674 Y343.6383
G01 X639.6128
G01 X639.3974 Y343.7973
G01 X634.4829
G01 X634.7338 Y343.9563
G01 X639.1465
G01 X638.8524 Y344.1153
G01 X635.0278
G01 X635.3940 Y344.2743
G01 X638.4863
G01 X637.9744 Y344.4333
G01 X635.9058
G01 X635.7546 Y344.7220
G02 X638.3134 Y335.7679 I1.1875 J-4.5033
G02 X635.7546 Y344.7220 I-1.3744 J4.4499
G01 X635.9058 Y344.4333
G01 X637.9744 Z-7.7915 F120
G01 X638.2044 Y344.3618 Z-8.0000
G01 X637.9744 Y344.4333 Z-8.2085
G01 X635.9058 Z-10.0000
G01 X637.9744 F1200
G01 X638.4863 Y344.2743
G01 X635.3940
G01 X635.0278 Y344.1153
G01 X638.8524
G01 X639.1465 Y343.9563
G01 X634.7338
G01 X634.4829 Y343.7973
G01 X639.3974
G01 X639.6128 Y343.6383
G01 X634.2674
G01 X634.0779 Y343.4793
G01 X639.8024
G01 X639.9740 Y343.3203
G01 X633.9063
G01 X633.7488 Y343.1613
G01 X640.1314
G01 X640.2683 Y343.0023
G01 X633.6120
G01 X633.4853 Y342.8433
G01 X640.3950
G01 X640.5123 Y342.6843
G01 X633.3680
G01 X633.2659 Y342.5253
G01 X640.6143
G01 X640.7119 Y342.3663
G01 X633.1684
G01 X633.0844 Y342.2073
G01 X640.7959
G01 X640.8749 Y342.0483
G01 X633.0054
G01 X632.9360 Y341.8893
G01 X640.9442
G01 X641.0071 Y341.7303
G01 X632.8732
G01 X632.8175 Y341.5713
G01 X641.0627
G01 X641.1112 Y341.4123
G01 X632.7690
G01 X632.7264 Y341.2533
G01 X641.1538
G01 X641.1893 Y341.0943
G01 X632.6910
G01 X632.6609 Y340.9353
G01 X641.2193
G01 X641.2425 Y340.7763
G01 X632.6378
G01 X632.6198 Y340.6173
G01 X641.2604
G01 X641.2719 Y340.4583
G01 X632.6084
G01 X632.6024 Y340.2993
G01 X641.2778
G01 Y340.1403
G01 X632.6024
G01 X632.6084 Y339.9813
G01 X641.2719
G01 X641.2604 Y339.8223
G01 X632.6198
G01 X632.6378 Y339.6633
G01 X641.2425
G01 X641.2193 Y339.5043
G01 X632.6609
G01 X632.6910 Y339.3453
G01 X641.1893
G01 X641.1538 Y339.1863
G01 X632.7264
G01 X632.7690 Y339.0273
G01 X641.1112
G01 X641.0627 Y338.8683
G01 X632.8175
G01 X632.8732 Y338.7093
G01 X641.0071
G01 X640.9442 Y338.5503
G01 X632.9360
G01 X633.0054 Y338.3913
G01 X640.8749
G01 X640.7959 Y338.2323
G01 X633.0844
G01 X633.1684 Y338.0733
G01 X640.7119
G01 X640.6143 Y337.9143
G01 X633.2659
G01 X633.3680 Y337.7553
G01 X640.5123
G01 X640.3950 Y337.5963
G01 X633.4853
G01 X633.6120 Y337.4373
G01 X640.2683
G01 X640.1314 Y337.2783
G01 X633.7488
G01 X633.9063 Y337.1193
G01 X639.9740
G01 X639.8024 Y336.9603
G01 X634.0779
G01 X634.2674 Y336.8013
G01 X639.6128
G01 X639.3974 Y336.6423
G01 X634.4829
G01 X634.7338 Y336.4833
G01 X639.1465
G01 X638.8524 Y336.3243
G01 X635.0278
G01 X635.3940 Y336.1653
G01 X638.4863
G01 X637.9744 Y336.0063
G01 X635.9058
G01 X635.7546 Y335.7176
G02 X637.9768 Y344.7618 I1.1844 J4.5041
G02 X635.7546 Y335.7176 I-1.0347 J-4.5409
G01 X635.9058 Y336.0063
G00 Z8.0000 F


(No. 9: Hole 23)
G00 X509.0387 Y366.7915 Z8.0000 F4000
G00 Z0.5000 F
G01 Z0.0000 F120
G01 X505.5746 Z-3.0000
G01 X509.0387 Z-6.0000
G01 X500.6113 F1200
G01 X500.5759 Y366.9505
G01 X509.0741
G01 X509.1042 Y367.1095
G01 X500.5458
G01 X500.5226 Y367.2685
G01 X509.1274
G01 X509.1453 Y367.4275
G01 X500.5047
G01 X500.4933 Y367.5865
G01 X509.1567
G01 X509.1627 Y367.7455
G01 X500.4873
G01 Y367.9045
G01 X509.1627
G01 X509.1567 Y368.0635
G01 X500.4933
G01 X500.5047 Y368.2225
G01 X509.1453
G01 X509.1274 Y368.3815
G01 X500.5226
G01 X500.5458 Y368.5405
G01 X509.1042
G01 X509.0741 Y368.6995
G01 X500.5759
G01 X500.6113 Y368.8585
G01 X509.0387
G01 X508.9961 Y369.0175
G01 X500.6539
G01 X500.7024 Y369.1765
G01 X508.9476
G01 X508.8920 Y369.3355
G01 X500.7580
G01 X500.8209 Y369.4945
G01 X508.8291
G01 X508.7597 Y369.6535
G01 X500.8903
G01 X500.9692 Y369.8125
G01 X508.6808
G01 X508.5967 Y369.9715
G01 X501.0533
G01 X501.1508 Y370.1305
G01 X508.4992
G01 X508.3972 Y370.2895
G01 X501.2528
G01 X501.3702 Y370.4485
G01 X508.2798
G01 X508.1531 Y370.6075
G01 X501.4969
G01 X501.6337 Y370.7665
G01 X508.0163
G01 X507.8588 Y370.9255
G01 X501.7912
G01 X501.9627 Y371.0845
G01 X507.6873
G01 X507.4977 Y371.2435
G01 X502.1523
G01 X502.3677 Y371.4025
G01 X507.2823
G01 X507.0313 Y371.5615
G01 X502.6187
G01 X502.9127 Y371.7205
G01 X506.7373
G01 X506.3711 Y371.8795
G01 X503.2789
G01 X503.7907 Y372.0385
G01 X505.8593
G01 X500.6539 Y366.6325
G01 X508.9961
G01 X508.9476 Y366.4735
G01 X500.7024
G01 X500.7580 Y366.3145
G01 X508.8920
G01 X508.8291 Y366.1555
G01 X500.8209
G01 X500.8903 Y365.9965
G01 X508.7597
G01 X508.6808 Y365.8375
G01 X500.9692
G01 X501.0533 Y365.6785
G01 X508.5967
G01 X508.4992 Y365.5195
G01 X501.1508
G01 X501.2528 Y365.3605
G01 X508.3972
G01 X508.2798 Y365.2015
G01 X501.3702
G01 X501.4969 Y365.0425
G01 X508.1531
G01 X508.0163 Y364.8835
G01 X501.6337
G01 X501.7912 Y364.7245
G01 X507.8588
G01 X507.6873 Y364.5655
G01 X501.9627
G01 X502.1523 Y364.4065
G01 X507.4977
G01 X507.2823 Y364.2475
G01 X502.3677
G01 X502.6187 Y364.0885
G01 X507.0313
G01 X506.7373 Y363.9295
G01 X502.9127
G01 X503.2789 Y363.7705
G01 X506.3711
G01 X505.8593 Y363.6115
G01 X503.7907
G01 X503.6395 Y363.3228
G02 X505.8617 Y372.3671 I1.1844 J4.5041
G02 X503.6395 Y363.3228 I-1.0347 J-4.5409
G01 X503.7907 Y363.6115
G01 X505.8593 Z-7.7915 F120
G01 X506.0892 Y363.6829 Z-8.0000
G01 X505.8593 Y363.6115 Z-8.2085
G01 X503.7907 Z-10.0000
G01 X505.8593 F1200
G01 X506.3711 Y363.7705
G01 X503.2789
G01 X502.9127 Y363.9295
G01 X506.7373
G01 X507.0313 Y364.0885
G01 X502.6187
G01 X502.3677 Y364.2475
G01 X507.2823
G01 X507.4977 Y364.4065
G01 X502.1523
G01 X501.9627 Y364.5655
G01 X507.6873
G01 X507.8588 Y364.7245
G01 X501.7912
G01 X501.6337 Y364.8835
G01 X508.0163
G01 X508.1531 Y365.0425
G01 X501.4969
G01 X501.3702 Y365.2015
G01 X508.2798
G01 X508.3972 Y365.3605
G01 X501.2528
G01 X501.1508 Y365.5195
G01 X508.4992
G01 X508.5967 Y365.6785
G01 X501.0533
G01 X500.9692 Y365.8375
G01 X508.6808
G01 X508.7597 Y365.9965
G01 X500.8903
G01 X500.8209 Y366.1555
G01 X508.8291
G01 X508.8920 Y366.3145
G01 X500.7580
G01 X500.7024 Y366.4735
G01 X508.9476
G01 X508.9961 Y366.6325
G01 X500.6539
G01 X500.6113 Y366.7915
G01 X509.0387
G01 X509.0741 Y366.9505
G01 X500.5759
G01 X500.5458 Y367.1095
G01 X509.1042
G01 X509.1274 Y367.2685
G01 X500.5226
G01 X500.5047 Y367.4275
G01 X509.1453
G01 X509.1567 Y367.5865
G01 X500.4933
G01 X500.4873 Y367.7455
G01 X509.1627
G01 Y367.9045
G01 X500.4873
G01 X500.4933 Y368.0635
G01 X509.1567
G01 X509.1453 Y368.2225
G01 X500.5047
G01 X500.5226 Y368.3815
G01 X509.1274
G01 X509.1042 Y368.5405
G01 X500.5458
G01 X500.5759 Y368.6995
G01 X509.0741
G01 X509.0387 Y368.8585
G01 X500.6113
G01 X500.6539 Y369.0175
G01 X508.9961
G01 X508.9476 Y369.1765
G01 X500.7024
G01 X500.7580 Y369.3355
G01 X508.8920
G01 X508.8291 Y369.4945
G01 X500.8209
G01 X500.8903 Y369.6535
G01 X508.7597
G01 X508.6808 Y369.8125
G01 X500.9692
G01 X501.0533 Y369.9715
G01 X508.5967
G01 X508.4992 Y370.1305
G01 X501.1508
G01 X501.2528 Y370.2895
G01 X508.3972
G01 X508.2798 Y370.4485
G01 X501.3702
G01 X501.4969 Y370.6075
G01 X508.1531
G01 X508.0163 Y370.7665
G01 X501.6337
G01 X501.7912 Y370.9255
G01 X507.8588
G01 X507.6873 Y371.0845
G01 X501.9627
G01 X502.1523 Y371.2435
G01 X507.4977
G01 X507.2823 Y371.4025
G01 X502.3677
G01 X502.6187 Y371.5615
G01 X507.0313
G01 X506.7373 Y371.7205
G01 X502.9127
G01 X503.2789 Y371.8795
G01 X506.3711
G01 X505.8593 Y372.0385
G01 X503.7907
G01 X503.6395 Y372.3272
G02 X506.1982 Y363.3731 I1.1875 J-4.5033
G02 X503.6395 Y372.3272 I-1.3744 J4.4499
G01 X503.7907 Y372.0385
G00 Z8.0000 F


(No. 10: Hole 22)
G00 X340.8877 Y367.9045 Z8.0000 F4000
G00 Z0.5000 F
G01 Z0.0000 F120
G01 X337.4236 Z-3.0000
G01 X340.8877 Z-6.0000
G01 X332.2123 F1200
G01 Y367.7455
G01 X340.8877
G01 X340.8817 Y367.5865
G01 X332.2183
G01 X332.2297 Y367.4275
G01 X340.8703
G01 X340.8524 Y367.2685
G01 X332.2476
G01 X332.2708 Y367.1095
G01 X340.8292
G01 X340.7991 Y366.9505
G01 X332.3009
G01 X332.3363 Y366.7915
G01 X340.7637
G01 X340.7211 Y366.6325
G01 X332.3789
G01 X332.4274 Y366.4735
G01 X340.6726
G01 X340.6170 Y366.3145
G01 X332.4830
G01 X332.5459 Y366.1555
G01 X340.5541
G01 X340.4847 Y365.9965
G01 X332.6153
G01 X332.6942 Y365.8375
G01 X340.4058
G01 X340.3217 Y365.6785
G01 X332.7783
G01 X332.8758 Y365.5195
G01 X340.2242
G01 X340.1222 Y365.3605
G01 X332.9778
G01 X333.0952 Y365.2015
G01 X340.0048
G01 X339.8781 Y365.0425
G01 X333.2219
G01 X333.3587 Y364.8835
G01 X339.7413
G01 X339.5838 Y364.7245
G01 X333.5162
G01 X333.6877 Y364.5655
G01 X339.4123
G01 X339.2227 Y364.4065
G01 X333.8773
G01 X334.0927 Y364.2475
G01 X339.0073
G01 X338.7563 Y364.0885
G01 X334.3437
G01 X334.6377 Y363.9295
G01 X338.4623
G01 X338.0961 Y363.7705
G01 X335.0039
G01 X335.5157 Y363.6115
G01 X337.5843
G01 X332.2183 Y368.0635
G01 X340.8817
G01 X340.8703 Y368.2225
G01 X332.2297
G01 X332.2476 Y368.3815
G01 X340.8524
G01 X340.8292 Y368.5405
G01 X332.2708
G01 X332.3009 Y368.6995
G01 X340.7991
G01 X340.7637 Y368.8585
G01 X332.3363
G01 X332.3789 Y369.0175
G01 X340.7211
G01 X340.6726 Y369.1765
G01 X332.4274
G01 X332.4830 Y369.3355
G01 X340.6170
G01 X340.5541 Y369.4945
G01 X332.5459
G01 X332.6153 Y369.6535
G01 X340.4847
G01 X340.4058 Y369.8125
G01 X332.6942
G01 X332.7783 Y369.9715
G01 X340.3217
G01 X340.2242 Y370.1305
G01 X332.8758
G01 X332.9778 Y370.2895
G01 X340.1222
G01 X340.0048 Y370.4485
G01 X333.0952
G01 X333.2219 Y370.6075
G01 X339.8781
G01 X339.7413 Y370.7665
G01 X333.3587
G01 X333.5162 Y370.9255
G01 X339.5838
G01 X339.4123 Y371.0845
G01 X333.6877
G01 X333.8773 Y371.2435
G01 X339.2227
G01 X339.0073 Y371.4025
G01 X334.0927
G01 X334.3437 Y371.5615
G01 X338.7563
G01 X338.4623 Y371.7205
G01 X334.6377
G01 X335.0039 Y371.8795
G01 X338.0961
G01 X337.5843 Y372.0385
G01 X335.5157
G01 X335.3645 Y372.3272
G02 X337.9232 Y363.3731 I1.1875 J-4.5033
G02 X335.3645 Y372.3272 I-1.3744 J4.4499
G01 X335.5157 Y372.0385
G01 X337.5843 Z-7.7915 F120
G01 X337.8142 Y371.9671 Z-8.0000
G01 X337.5843 Y372.0385 Z-8.2085
G01 X335.5157 Z-10.0000
G01 X337.5843 F1200
G01 X338.0961 Y371.8795
G01 X335.0039
G01 X334.6377 Y371.7205
G01 X338.4623
G01 X338.7563 Y371.5615
G01 X334.3437
G01 X334.0927 Y371.4025
G01 X339.0073
G01 X339.2227 Y371.2435
G01 X333.8773
G01 X333.6877 Y371.0845
G01 X339.4123
G01 X339.5838 Y370.9255
G01 X333.5162
G01 X333.3587 Y370.7665
G01 X339.7413
G01 X339.8781 Y370.6075
G01 X333.2219
G01 X333.0952 Y370.4485
G01 X340.0048
G01 X340.1222 Y370.2895
G01 X332.9778
G01 X332.8758 Y370.1305
G01 X340.2242
G01 X340.3217 Y369.9715
G01 X332.7783
G01 X332.6942 Y369.8125
G01 X340.4058
G01 X340.4847 Y369.6535
G01 X332.6153
G01 X332.5459 Y369.4945
G01 X340.5541
G01 X340.6170 Y369.3355
G01 X332.4830
G01 X332.4274 Y369.1765
G01 X340.6726
G01 X340.7211 Y369.0175
G01 X332.3789
G01 X332.3363 Y368.8585
G01 X340.7637
G01 X340.7991 Y368.6995
G01 X332.3009
G01 X332.2708 Y368.5405
G01 X340.8292
G01 X340.8524 Y368.3815
G01 X332.2476
G01 X332.2297 Y368.2225
G01 X340.8703
G01 X340.8817 Y368.0635
G01 X332.2183
G01 X332.2123 Y367.9045
G01 X340.8877
G01 Y367.7455
G01 X332.2123
G01 X332.2183 Y367.5865
G01 X340.8817
G01 X340.8703 Y367.4275
G01 X332.2297
G01 X332.2476 Y367.2685
G01 X340.8524
G01 X340.8292 Y367.1095
G01 X332.2708
G01 X332.3009 Y366.9505
G01 X340.7991
G01 X340.7637 Y366.7915
G01 X332.3363
G01 X332.3789 Y366.6325
G01 X340.7211
G01 X340.6726 Y366.4735
G01 X332.4274
G01 X332.4830 Y366.3145
G01 X340.6170
G01 X340.5541 Y366.1555
G01 X332.5459
G01 X332.6153 Y365.9965
G01 X340.4847
G01 X340.4058 Y365.8375
G01 X332.6942
G01 X332.7783 Y365.6785
G01 X340.3217
G01 X340.2242 Y365.5195
G01 X332.8758
G01 X332.9778 Y365.3605
G01 X340.1222
G01 X340.0048 Y365.2015
G01 X333.0952
G01 X333.2219 Y365.0425
G01 X339.8781
G01 X339.7413 Y364.8835
G01 X333.3587
G01 X333.5162 Y364.7245
G01 X339.5838
G01 X339.4123 Y364.5655
G01 X333.6877
G01 X333.8773 Y364.4065
G01 X339.2227
G01 X339.0073 Y364.2475
G01 X334.0927
G01 X334.3437 Y364.0885
G01 X338.7563
G01 X338.4623 Y363.9295
G01 X334.6377
G01 X335.0039 Y363.7705
G01 X338.0961
G01 X337.5843 Y363.6115
G01 X335.5157
G01 X335.3645 Y363.3228
G02 X337.5867 Y372.3671 I1.1844 J4.5041
G02 X335.3645 Y363.3228 I-1.0347 J-4.5409
G01 X335.5157 Y363.6115
G00 Z8.0000 F


(No. 11: Hole 19)
G00 X172.6127 Y367.7455 Z8.0000 F4000
G00 Z0.5000 F
G01 Z0.0000 F120
G01 X169.1486 Z-3.0000
G01 X172.6127 Z-6.0000
G01 X163.9373 F1200
G01 Y367.9045
G01 X172.6127
G01 X172.6067 Y368.0635
G01 X163.9433
G01 X163.9547 Y368.2225
G01 X172.5953
G01 X172.5774 Y368.3815
G01 X163.9726
G01 X163.9958 Y368.5405
G01 X172.5542
G01 X172.5241 Y368.6995
G01 X164.0259
G01 X164.0613 Y368.8585
G01 X172.4887
G01 X172.4461 Y369.0175
G01 X164.1039
G01 X164.1524 Y369.1765
G01 X172.3976
G01 X172.3420 Y369.3355
G01 X164.2080
G01 X164.2709 Y369.4945
G01 X172.2791
G01 X172.2097 Y369.6535
G01 X164.3403
G01 X164.4192 Y369.8125
G01 X172.1308
G01 X172.0467 Y369.9715
G01 X164.5033
G01 X164.6008 Y370.1305
G01 X171.9492
G01 X171.8472 Y370.2895
G01 X164.7028
G01 X164.8202 Y370.4485
G01 X171.7298
G01 X171.6031 Y370.6075
G01 X164.9469
G01 X165.0837 Y370.7665
G01 X171.4663
G01 X171.3088 Y370.9255
G01 X165.2412
G01 X165.4127 Y371.0845
G01 X171.1373
G01 X170.9477 Y371.2435
G01 X165.6023
G01 X165.8177 Y371.4025
G01 X170.7323
G01 X170.4813 Y371.5615
G01 X166.0687
G01 X166.3627 Y371.7205
G01 X170.1873
G01 X169.8211 Y371.8795
G01 X166.7289
G01 X167.2407 Y372.0385
G01 X169.3093
G01 X163.9433 Y367.5865
G01 X172.6067
G01 X172.5953 Y367.4275
G01 X163.9547
G01 X163.9726 Y367.2685
G01 X172.5774
G01 X172.5542 Y367.1095
G01 X163.9958
G01 X164.0259 Y366.9505
G01 X172.5241
G01 X172.4887 Y366.7915
G01 X164.0613
G01 X164.1039 Y366.6325
G01 X172.4461
G01 X172.3976 Y366.4735
G01 X164.1524
G01 X164.2080 Y366.3145
G01 X172.3420
G01 X172.2791 Y366.1555
G01 X164.2709
G01 X164.3403 Y365.9965
G01 X172.2097
G01 X172.1308 Y365.8375
G01 X164.4192
G01 X164.5033 Y365.6785
G01 X172.0467
G01 X171.9492 Y365.5195
G01 X164.6008
G01 X164.7028 Y365.3605
G01 X171.8472
G01 X171.7298 Y365.2015
G01 X164.8202
G01 X164.9469 Y365.0425
G01 X171.6031
G01 X171.4663 Y364.8835
G01 X165.0837
G01 X165.2412 Y364.7245
G01 X171.3088
G01 X171.1373 Y364.5655
G01 X165.4127
G01 X165.6023 Y364.4065
G01 X170.9477
G01 X170.7323 Y364.2475
G01 X165.8177
G01 X166.0687 Y364.0885
G01 X170.4813
G01 X170.1873 Y363.9295
G01 X166.3627
G01 X166.7289 Y363.7705
G01 X169.8211
G01 X169.3093 Y363.6115
G01 X167.2407
G01 X167.0895 Y363.3228
G02 X169.3117 Y372.3671 I1.1844 J4.5041
G02 X167.0895 Y363.3228 I-1.0347 J-4.5409
G01 X167.2407 Y363.6115
G01 X169.3093 Z-7.7915 F120
G01 X169.5392 Y363.6829 Z-8.0000
G01 X169.3093 Y363.6115 Z-8.2085
G01 X167.2407 Z-10.0000
G01 X169.3093 F1200
G01 X169.8211 Y363.7705
G01 X166.7289
G01 X166.3627 Y363.9295
G01 X170.1873
G01 X170.4813 Y364.0885
G01 X166.0687
G01 X165.8177 Y364.2475
G01 X170.7323
G01 X170.9477 Y364.4065
G01 X165.6023
G01 X165.4127 Y364.5655
G01 X171.1373
G01 X171.3088 Y364.7245
G01 X165.2412
G01 X165.0837 Y364.8835
G01 X171.4663
G01 X171.6031 Y365.0425
G01 X164.9469
G01 X164.8202 Y365.2015
G01 X171.7298
G01 X171.8472 Y365.3605
G01 X164.7028
G01 X164.6008 Y365.5195
G01 X171.9492
G01 X172.0467 Y365.6785
G01 X164.5033
G01 X164.4192 Y365.8375
G01 X172.1308
G01 X172.2097 Y365.9965
G01 X164.3403
G01 X164.2709 Y366.1555
G01 X172.2791
G01 X172.3420 Y366.3145
G01 X164.2080
G01 X164.1524 Y366.4735
G01 X172.3976
G01 X172.4461 Y366.6325
G01 X164.1039
G01 X164.0613 Y366.7915
G01 X172.4887
G01 X172.5241 Y366.9505
G01 X164.0259
G01 X163.9958 Y367.1095
G01 X172.5542
G01 X172.5774 Y367.2685
G01 X163.9726
G01 X163.9547 Y367.4275
G01 X172.5953
G01 X172.6067 Y367.5865
G01 X163.9433
G01 X163.9373 Y367.7455
G01 X172.6127
G01 Y367.9045
G01 X163.9373
G01 X163.9433 Y368.0635
G01 X172.6067
G01 X172.5953 Y368.2225
G01 X163.9547
G01 X163.9726 Y368.3815
G01 X172.5774
G01 X172.5542 Y368.5405
G01 X163.9958
G01 X164.0259 Y368.6995
G01 X172.5241
G01 X172.4887 Y368.8585
G01 X164.0613
G01 X164.1039 Y369.0175
G01 X172.4461
G01 X172.3976 Y369.1765
G01 X164.1524
G01 X164.2080 Y369.3355
G01 X172.3420
G01 X172.2791 Y369.4945
G01 X164.2709
G01 X164.3403 Y369.6535
G01 X172.2097
G01 X172.1308 Y369.8125
G01 X164.4192
G01 X164.5033 Y369.9715
G01 X172.0467
G01 X171.9492 Y370.1305
G01 X164.6008
G01 X164.7028 Y370.2895
G01 X171.8472
G01 X171.7298 Y370.4485
G01 X164.8202
G01 X164.9469 Y370.6075
G01 X171.6031
G01 X171.4663 Y370.7665
G01 X165.0837
G01 X165.2412 Y370.9255
G01 X171.3088
G01 X171.1373 Y371.0845
G01 X165.4127
G01 X165.6023 Y371.2435
G01 X170.9477
G01 X170.7323 Y371.4025
G01 X165.8177
G01 X166.0687 Y371.5615
G01 X170.4813
G01 X170.1873 Y371.7205
G01 X166.3627
G01 X166.7289 Y371.8795
G01 X169.8211
G01 X169.3093 Y372.0385
G01 X167.2407
G01 X167.0895 Y372.3272
G02 X169.6482 Y363.3731 I1.1875 J-4.5033
G02 X167.0895 Y372.3272 I-1.3744 J4.4499
G01 X167.2407 Y372.0385
G00 Z8.0000 F


(No. 12: Hole 18)
G00 X42.3137 Y340.7585 Z8.0000 F4000
G00 Z0.5000 F
G01 Z0.0000 F120
G01 X38.8496 Z-3.0000
G01 X42.3137 Z-6.0000
G01 X33.8863 F1200
G01 X33.8509 Y340.5995
G01 X42.3491
G01 X42.3792 Y340.4405
G01 X33.8208
G01 X33.7976 Y340.2815
G01 X42.4024
G01 X42.4203 Y340.1225
G01 X33.7797
G01 X33.7683 Y339.9635
G01 X42.4317
G01 X42.4377 Y339.8045
G01 X33.7623
G01 Y339.6455
G01 X42.4377
G01 X42.4317 Y339.4865
G01 X33.7683
G01 X33.7797 Y339.3275
G01 X42.4203
G01 X42.4024 Y339.1685
G01 X33.7976
G01 X33.8208 Y339.0095
G01 X42.3792
G01 X42.3491 Y338.8505
G01 X33.8509
G01 X33.8863 Y338.6915
G01 X42.3137
G01 X42.2711 Y338.5325
G01 X33.9289
G01 X33.9774 Y338.3735
G01 X42.2226
G01 X42.1670 Y338.2145
G01 X34.0330
G01 X34.0959 Y338.0555
G01 X42.1041
G01 X42.0347 Y337.8965
G01 X34.1653
G01 X34.2442 Y337.7375
G01 X41.9558
G01 X41.8717 Y337.5785
G01 X34.3283
G01 X34.4258 Y337.4195
G01 X41.7742
G01 X41.6722 Y337.2605
G01 X34.5278
G01 X34.6452 Y337.1015
G01 X41.5548
G01 X41.4281 Y336.9425
G01 X34.7719
G01 X34.9087 Y336.7835
G01 X41.2913
G01 X41.1338 Y336.6245
G01 X35.0662
G01 X35.2377 Y336.4655
G01 X40.9623
G01 X40.7727 Y336.3065
G01 X35.4273
G01 X35.6427 Y336.1475
G01 X40.5573
G01 X40.3063 Y335.9885
G01 X35.8937
G01 X36.1877 Y335.8295
G01 X40.0123
G01 X39.6461 Y335.6705
G01 X36.5539
G01 X37.0657 Y335.5115
G01 X39.1343
G01 X33.9289 Y340.9175
G01 X42.2711
G01 X42.2226 Y341.0765
G01 X33.9774
G01 X34.0330 Y341.2355
G01 X42.1670
G01 X42.1041 Y341.3945
G01 X34.0959
G01 X34.1653 Y341.5535
G01 X42.0347
G01 X41.9558 Y341.7125
G01 X34.2442
G01 X34.3283 Y341.8715
G01 X41.8717
G01 X41.7742 Y342.0305
G01 X34.4258
G01 X34.5278 Y342.1895
G01 X41.6722
G01 X41.5548 Y342.3485
G01 X34.6452
G01 X34.7719 Y342.5075
G01 X41.4281
G01 X41.2913 Y342.6665
G01 X34.9087
G01 X35.0662 Y342.8255
G01 X41.1338
G01 X40.9623 Y342.9845
G01 X35.2377
G01 X35.4273 Y343.1435
G01 X40.7727
G01 X40.5573 Y343.3025
G01 X35.6427
G01 X35.8937 Y343.4615
G01 X40.3063
G01 X40.0123 Y343.6205
G01 X36.1877
G01 X36.5539 Y343.7795
G01 X39.6461
G01 X39.1343 Y343.9385
G01 X37.0657
G01 X36.9145 Y344.2272
G02 X39.4732 Y335.2731 I1.1875 J-4.5033
G02 X36.9145 Y344.2272 I-1.3744 J4.4499
G01 X37.0657 Y343.9385
G01 X39.1343 Z-7.7915 F120
G01 X39.3642 Y343.8671 Z-8.0000
G01 X39.1343 Y343.9385 Z-8.2085
G01 X37.0657 Z-10.0000
G01 X39.1343 F1200
G01 X39.6461 Y343.7795
G01 X36.5539
G01 X36.1877 Y343.6205
G01 X40.0123
G01 X40.3063 Y343.4615
G01 X35.8937
G01 X35.6427 Y343.3025
G01 X40.5573
G01 X40.7727 Y343.1435
G01 X35.4273
G01 X35.2377 Y342.9845
G01 X40.9623
G01 X41.1338 Y342.8255
G01 X35.0662
G01 X34.9087 Y342.6665
G01 X41.2913
G01 X41.4281 Y342.5075
G01 X34.7719
G01 X34.6452 Y342.3485
G01 X41.5548
G01 X41.6722 Y342.1895
G01 X34.5278
G01 X34.4258 Y342.0305
G01 X41.7742
G01 X41.8717 Y341.8715
G01 X34.3283
G01 X34.2442 Y341.7125
G01 X41.9558
G01 X42.0347 Y341.5535
G01 X34.1653
G01 X34.0959 Y341.3945
G01 X42.1041
G01 X42.1670 Y341.2355
G01 X34.0330
G01 X33.9774 Y341.0765
G01 X42.2226
G01 X42.2711 Y340.9175
G01 X33.9289
G01 X33.8863 Y340.7585
G01 X42.3137
G01 X42.3491 Y340.5995
G01 X33.8509
G01 X33.8208 Y340.4405
G01 X42.3792
G01 X42.4024 Y340.2815
G01 X33.7976
G01 X33.7797 Y340.1225
G01 X42.4203
G01 X42.4317 Y339.9635
G01 X33.7683
G01 X33.7623 Y339.8045
G01 X42.4377
G01 Y339.6455
G01 X33.7623
G01 X33.7683 Y339.4865
G01 X42.4317
G01 X42.4203 Y339.3275
G01 X33.7797
G01 X33.7976 Y339.1685
G01 X42.4024
G01 X42.3792 Y339.0095
G01 X33.8208
G01 X33.8509 Y338.8505
G01 X42.3491
G01 X42.3137 Y338.6915
G01 X33.8863
G01 X33.9289 Y338.5325
G01 X42.2711
G01 X42.2226 Y338.3735
G01 X33.9774
G01 X34.0330 Y338.2145
G01 X42.1670
G01 X42.1041 Y338.0555
G01 X34.0959
G01 X34.1653 Y337.8965
G01 X42.0347
G01 X41.9558 Y337.7375
G01 X34.2442
G01 X34.3283 Y337.5785
G01 X41.8717
G01 X41.7742 Y337.4195
G01 X34.4258
G01 X34.5278 Y337.2605
G01 X41.6722
G01 X41.5548 Y337.1015
G01 X34.6452
G01 X34.7719 Y336.9425
G01 X41.4281
G01 X41.2913 Y336.7835
G01 X34.9087
G01 X35.0662 Y336.6245
G01 X41.1338
G01 X40.9623 Y336.4655
G01 X35.2377
G01 X35.4273 Y336.3065
G01 X40.7727
G01 X40.5573 Y336.1475
G01 X35.6427
G01 X35.8937 Y335.9885
G01 X40.3063
G01 X40.0123 Y335.8295
G01 X36.1877
G01 X36.5539 Y335.6705
G01 X39.6461
G01 X39.1343 Y335.5115
G01 X37.0657
G01 X36.9145 Y335.2228
G02 X39.1367 Y344.2671 I1.1844 J4.5041
G02 X36.9145 Y335.2228 I-1.0347 J-4.5409
G01 X37.0657 Y335.5115
G00 Z8.0000 F


(No. 13: Hole 31)
G00 X37.0657 Y192.7352 Z8.0000 F4000
G00 Z0.5000 F
G01 Z0.0000 F120
G01 X39.1343 Z-1.7915
G01 X39.6461 Y192.5762 Z-2.2556
G01 X38.7866 Z-3.0000
G01 X39.6461 Z-3.7444
G01 X39.1343 Y192.7352 Z-4.2085
G01 X37.0657 Z-6.0000
G01 X39.1343 F1200
G01 X39.6461 Y192.5762
G01 X36.5539
G01 X36.1877 Y192.4172
G01 X40.0123
G01 X40.3063 Y192.2582
G01 X35.8937
G01 X35.6427 Y192.0992
G01 X40.5573
G01 X40.7727 Y191.9402
G01 X35.4273
G01 X35.2377 Y191.7812
G01 X40.9623
G01 X41.1338 Y191.6222
G01 X35.0662
G01 X34.9087 Y191.4632
G01 X41.2913
G01 X41.4281 Y191.3042
G01 X34.7719
G01 X34.6452 Y191.1452
G01 X41.5548
G01 X41.6722 Y190.9862
G01 X34.5278
G01 X34.4258 Y190.8272
G01 X41.7742
G01 X41.8717 Y190.6682
G01 X34.3283
G01 X34.2442 Y190.5092
G01 X41.9558
G01 X42.0347 Y190.3502
G01 X34.1653
G01 X34.0959 Y190.1912
G01 X42.1041
G01 X42.1670 Y190.0322
G01 X34.0330
G01 X33.9774 Y189.8732
G01 X42.2226
G01 X42.2711 Y189.7142
G01 X33.9289
G01 X33.8863 Y189.5552
G01 X42.3137
G01 X42.3491 Y189.3962
G01 X33.8509
G01 X33.8208 Y189.2372
G01 X42.3792
G01 X42.4024 Y189.0782
G01 X33.7976
G01 X33.7797 Y188.9192
G01 X42.4203
G01 X42.4317 Y188.7602
G01 X33.7683
G01 X33.7623 Y188.6012
G01 X42.4377
G01 Y188.4422
G01 X33.7623
G01 X33.7683 Y188.2832
G01 X42.4317
G01 X42.4203 Y188.1242
G01 X33.7797
G01 X33.7976 Y187.9652
G01 X42.4024
G01 X42.3792 Y187.8062
G01 X33.8208
G01 X33.8509 Y187.6472
G01 X42.3491
G01 X42.3137 Y187.4882
G01 X33.8863
G01 X33.9289 Y187.3292
G01 X42.2711
G01 X42.2226 Y187.1702
G01 X33.9774
G01 X34.0330 Y187.0112
G01 X42.1670
G01 X42.1041 Y186.8522
G01 X34.0959
G01 X34.1653 Y186.6932
G01 X42.0347
G01 X41.9558 Y186.5342
G01 X34.2442
G01 X34.3283 Y186.3752
G01 X41.8717
G01 X41.7742 Y186.2162
G01 X34.4258
G01 X34.5278 Y186.0572
G01 X41.6722
G01 X41.5548 Y185.8982
G01 X34.6452
G01 X34.7719 Y185.7392
G01 X41.4281
G01 X41.2913 Y185.5802
G01 X34.9087
G01 X35.0662 Y185.4212
G01 X41.1338
G01 X40.9623 Y185.2622
G01 X35.2377
G01 X35.4273 Y185.1032
G01 X40.7727
G01 X40.5573 Y184.9442
G01 X35.6427
G01 X35.8937 Y184.7852
G01 X40.3063
G01 X40.0123 Y184.6262
G01 X36.1877
G01 X36.5539 Y184.4672
G01 X39.6461
G01 X39.1343 Y184.3082
G01 X37.0657
G01 X36.9145 Y184.0195
G02 X39.1367 Y193.0638 I1.1844 J4.5041
G02 X36.9145 Y184.0195 I-1.0347 J-4.5409
G01 X37.0657 Y184.3082
G01 X39.1343 Z-7.7915 F120
G01 X39.3642 Y184.3796 Z-8.0000
G01 X39.1343 Y184.3082 Z-8.2085
G01 X37.0657 Z-10.0000
G01 X39.1343 F1200
G01 X39.6461 Y184.4672
G01 X36.5539
G01 X36.1877 Y184.6262
G01 X40.0123
G01 X40.3063 Y184.7852
G01 X35.8937
G01 X35.6427 Y184.9442
G01 X40.5573
G01 X40.7727 Y185.1032
G01 X35.4273
G01 X35.2377 Y185.2622
G01 X40.9623
G01 X41.1338 Y185.4212
G01 X35.0662
G01 X34.9087 Y185.5802
G01 X41.2913
G01 X41.4281 Y185.7392
G01 X34.7719
G01 X34.6452 Y185.8982
G01 X41.5548
G01 X41.6722 Y186.0572
G01 X34.5278
G01 X34.4258 Y186.2162
G01 X41.7742
G01 X41.8717 Y186.3752
G01 X34.3283
G01 X34.2442 Y186.5342
G01 X41.9558
G01 X42.0347 Y186.6932
G01 X34.1653
G01 X34.0959 Y186.8522
G01 X42.1041
G01 X42.1670 Y187.0112
G01 X34.0330
G01 X33.9774 Y187.1702
G01 X42.2226
G01 X42.2711 Y187.3292
G01 X33.9289
G01 X33.8863 Y187.4882
G01 X42.3137
G01 X42.3491 Y187.6472
G01 X33.8509
G01 X33.8208 Y187.8062
G01 X42.3792
G01 X42.4024 Y187.9652
G01 X33.7976
G01 X33.7797 Y188.1242
G01 X42.4203
G01 X42.4317 Y188.2832
G01 X33.7683
G01 X33.7623 Y188.4422
G01 X42.4377
G01 Y188.6012
G01 X33.7623
G01 X33.7683 Y188.7602
G01 X42.4317
G01 X42.4203 Y188.9192
G01 X33.7797
G01 X33.7976 Y189.0782
G01 X42.4024
G01 X42.3792 Y189.2372
G01 X33.8208
G01 X33.8509 Y189.3962
G01 X42.3491
G01 X42.3137 Y189.5552
G01 X33.8863
G01 X33.9289 Y189.7142
G01 X42.2711
G01 X42.2226 Y189.8732
G01 X33.9774
G01 X34.0330 Y190.0322
G01 X42.1670
G01 X42.1041 Y190.1912
G01 X34.0959
G01 X34.1653 Y190.3502
G01 X42.0347
G01 X41.9558 Y190.5092
G01 X34.2442
G01 X34.3283 Y190.6682
G01 X41.8717
G01 X41.7742 Y190.8272
G01 X34.4258
G01 X34.5278 Y190.9862
G01 X41.6722
G01 X41.5548 Y191.1452
G01 X34.6452
G01 X34.7719 Y191.3042
G01 X41.4281
G01 X41.2913 Y191.4632
G01 X34.9087
G01 X35.0662 Y191.6222
G01 X41.1338
G01 X40.9623 Y191.7812
G01 X35.2377
G01 X35.4273 Y191.9402
G01 X40.7727
G01 X40.5573 Y192.0992
G01 X35.6427
G01 X35.8937 Y192.2582
G01 X40.3063
G01 X40.0123 Y192.4172
G01 X36.1877
G01 X36.5539 Y192.5762
G01 X39.6461
G01 X39.1343 Y192.7352
G01 X37.0657
G01 X36.9145 Y193.0239
G02 X39.4732 Y184.0698 I1.1875 J-4.5033
G02 X36.9145 Y193.0239 I-1.3744 J4.4499
G01 X37.0657 Y192.7352
G00 Z8.0000 F
G00 X0.0000 Y0.0000 F4000

M05
M30
