(Project filing-cabinet-base)
(Created by Estlcam version 11 build 11.245)
(Machining time about 00:05:58 hours)

(Required tools:)
(1/8")
G21
G90
G94
M03 S10000
G00 X0.0000 Y0.0000 Z0.0000 F4000
G00 Z8.0000 F


(No. 1: Drill 1)
G00 F4000
G00 Z0.5000 F
G01 Z-6.0000 F120 S10000
G00 Z0.5000 F
G00 Z-5.5000
G01 Z-12.0000 F120
G00 Z0.5000 F
G00 Z-11.5000
G01 Z-18.0000 F120
G00 Z8.0000 F


(No. 2: Hole 35)
G00 X37.7028 Y36.4992 Z8.0000 F4000
G00 Z0.5000 F
G01 Z0.0000 F120
G02 X38.2226 Y38.4389 Z-2.1029 I0.8198 J0.8198
G02 X39.2073 Y38.2546 Z-3.0000 I0.3001 J-1.1199
G03 X38.2226 Y38.4389 Z-3.8971 I-0.6846 J-0.9356
G03 X37.7028 Y36.4992 Z-6.0000 I0.3001 J-1.1199
G02 X38.2226 Y38.4389 I0.8198 J0.8198 F1200
G02 X39.6425 Y37.0189 I0.3001 J-1.1199
G02 X37.7028 Y36.4992 I-1.1199 J0.3001
G02 X38.2226 Y38.4389 Z-8.1029 I0.8198 J0.8198 F120
G02 X39.2073 Y38.2546 Z-9.0000 I0.3001 J-1.1199
G03 X38.2226 Y38.4389 Z-9.8971 I-0.6846 J-0.9356
G03 X37.7028 Y36.4992 Z-12.0000 I0.3001 J-1.1199
G02 X38.2226 Y38.4389 I0.8198 J0.8198 F1200
G02 X39.6425 Y37.0189 I0.3001 J-1.1199
G02 X37.7028 Y36.4992 I-1.1199 J0.3001
G02 X38.2226 Y38.4389 Z-14.1029 I0.8198 J0.8198 F120
G02 X39.2073 Y38.2546 Z-15.0000 I0.3001 J-1.1199
G03 X38.2226 Y38.4389 Z-15.8971 I-0.6846 J-0.9356
G03 X37.7028 Y36.4992 Z-18.0000 I0.3001 J-1.1199
G02 X38.2226 Y38.4389 I0.8198 J0.8198 F1200
G02 X39.6425 Y37.0189 I0.3001 J-1.1199
G02 X37.7028 Y36.4992 I-1.1199 J0.3001
G00 Z8.0000 F


(No. 3: Hole 36)
G00 X167.6181 Y9.5180 Z8.0000 F4000
G00 Z0.5000 F
G01 Z0.0000 F120
G02 X169.2981 Y10.6179 Z-2.1029 I1.1576 J0.0650
G02 X169.9096 Y9.8244 Z-3.0000 I-0.5225 J-1.0350
G03 X169.2981 Y10.6179 Z-3.8971 I-1.1340 J-0.2414
G03 X167.6181 Y9.5180 Z-6.0000 I-0.5225 J-1.0350
G02 X169.2981 Y10.6179 I1.1576 J0.0650 F1200
G02 X169.4107 Y8.6130 I-0.5225 J-1.0350
G02 X167.6181 Y9.5180 I-0.6351 J0.9700
G02 X169.2981 Y10.6179 Z-8.1029 I1.1576 J0.0650 F120
G02 X169.9096 Y9.8244 Z-9.0000 I-0.5225 J-1.0350
G03 X169.2981 Y10.6179 Z-9.8971 I-1.1340 J-0.2414
G03 X167.6181 Y9.5180 Z-12.0000 I-0.5225 J-1.0350
G02 X169.2981 Y10.6179 I1.1576 J0.0650 F1200
G02 X169.4107 Y8.6130 I-0.5225 J-1.0350
G02 X167.6181 Y9.5180 I-0.6351 J0.9700
G02 X169.2981 Y10.6179 Z-14.1029 I1.1576 J0.0650 F120
G02 X169.9096 Y9.8244 Z-15.0000 I-0.5225 J-1.0350
G03 X169.2981 Y10.6179 Z-15.8971 I-1.1340 J-0.2414
G03 X167.6181 Y9.5180 Z-18.0000 I-0.5225 J-1.0350
G02 X169.2981 Y10.6179 I1.1576 J0.0650 F1200
G02 X169.4107 Y8.6130 I-0.5225 J-1.0350
G02 X167.6181 Y9.5180 I-0.6351 J0.9700
G00 Z8.0000 F


(No. 4: Hole 37)
G00 X335.8924 Y9.9883 Z8.0000 F4000
G00 Z0.5000 F
G01 Z0.0000 F120
G02 X337.5725 Y11.0883 Z-2.1029 I1.1576 J0.0650
G02 X338.1840 Y10.2947 Z-3.0000 I-0.5225 J-1.0350
G03 X337.5725 Y11.0883 Z-3.8971 I-1.1340 J-0.2414
G03 X335.8924 Y9.9883 Z-6.0000 I-0.5225 J-1.0350
G02 X337.5725 Y11.0883 I1.1576 J0.0650 F1200
G02 X337.6851 Y9.0833 I-0.5225 J-1.0350
G02 X335.8924 Y9.9883 I-0.6351 J0.9700
G02 X337.5725 Y11.0883 Z-8.1029 I1.1576 J0.0650 F120
G02 X338.1840 Y10.2947 Z-9.0000 I-0.5225 J-1.0350
G03 X337.5725 Y11.0883 Z-9.8971 I-1.1340 J-0.2414
G03 X335.8924 Y9.9883 Z-12.0000 I-0.5225 J-1.0350
G02 X337.5725 Y11.0883 I1.1576 J0.0650 F1200
G02 X337.6851 Y9.0833 I-0.5225 J-1.0350
G02 X335.8924 Y9.9883 I-0.6351 J0.9700
G02 X337.5725 Y11.0883 Z-14.1029 I1.1576 J0.0650 F120
G02 X338.1840 Y10.2947 Z-15.0000 I-0.5225 J-1.0350
G03 X337.5725 Y11.0883 Z-15.8971 I-1.1340 J-0.2414
G03 X335.8924 Y9.9883 Z-18.0000 I-0.5225 J-1.0350
G02 X337.5725 Y11.0883 I1.1576 J0.0650 F1200
G02 X337.6851 Y9.0833 I-0.5225 J-1.0350
G02 X335.8924 Y9.9883 I-0.6351 J0.9700
G00 Z8.0000 F


(No. 5: Hole 43)
G00 X504.1650 Y10.5236 Z8.0000 F4000
G00 Z0.5000 F
G01 Z0.0000 F120
G02 X505.9040 Y11.5277 Z-2.1029 I1.1594 J0.0000
G02 X506.4701 Y10.7011 Z-3.0000 I-0.5797 J-1.0040
G03 X505.9040 Y11.5277 Z-3.8971 I-1.1457 J-0.1775
G03 X504.1650 Y10.5236 Z-6.0000 I-0.5797 J-1.0040
G02 X505.9040 Y11.5277 I1.1594 J0.0000 F1200
G02 Y9.5196 I-0.5797 J-1.0040
G02 X504.1650 Y10.5236 I-0.5797 J1.0040
G02 X505.9040 Y11.5277 Z-8.1029 I1.1594 J0.0000 F120
G02 X506.4701 Y10.7011 Z-9.0000 I-0.5797 J-1.0040
G03 X505.9040 Y11.5277 Z-9.8971 I-1.1457 J-0.1775
G03 X504.1650 Y10.5236 Z-12.0000 I-0.5797 J-1.0040
G02 X505.9040 Y11.5277 I1.1594 J0.0000 F1200
G02 Y9.5196 I-0.5797 J-1.0040
G02 X504.1650 Y10.5236 I-0.5797 J1.0040
G02 X505.9040 Y11.5277 Z-14.1029 I1.1594 J0.0000 F120
G02 X506.4701 Y10.7011 Z-15.0000 I-0.5797 J-1.0040
G03 X505.9040 Y11.5277 Z-15.8971 I-1.1457 J-0.1775
G03 X504.1650 Y10.5236 Z-18.0000 I-0.5797 J-1.0040
G02 X505.9040 Y11.5277 I1.1594 J0.0000 F1200
G02 Y9.5196 I-0.5797 J-1.0040
G02 X504.1650 Y10.5236 I-0.5797 J1.0040
G00 Z8.0000 F


(No. 6: Hole 42)
G00 X636.2042 Y38.4330 Z8.0000 F4000
G00 Z0.5000 F
G01 Z0.0000 F120
G02 X637.8843 Y39.5330 Z-2.1029 I1.1576 J0.0650
G02 X638.4958 Y38.7395 Z-3.0000 I-0.5225 J-1.0350
G03 X637.8843 Y39.5330 Z-3.8971 I-1.1340 J-0.2414
G03 X636.2042 Y38.4330 Z-6.0000 I-0.5225 J-1.0350
G02 X637.8843 Y39.5330 I1.1576 J0.0650 F1200
G02 X637.9969 Y37.5281 I-0.5225 J-1.0350
G02 X636.2042 Y38.4330 I-0.6351 J0.9700
G02 X637.8843 Y39.5330 Z-8.1029 I1.1576 J0.0650 F120
G02 X638.4958 Y38.7395 Z-9.0000 I-0.5225 J-1.0350
G03 X637.8843 Y39.5330 Z-9.8971 I-1.1340 J-0.2414
G03 X636.2042 Y38.4330 Z-12.0000 I-0.5225 J-1.0350
G02 X637.8843 Y39.5330 I1.1576 J0.0650 F1200
G02 X637.9969 Y37.5281 I-0.5225 J-1.0350
G02 X636.2042 Y38.4330 I-0.6351 J0.9700
G02 X637.8843 Y39.5330 Z-14.1029 I1.1576 J0.0650 F120
G02 X638.4958 Y38.7395 Z-15.0000 I-0.5225 J-1.0350
G03 X637.8843 Y39.5330 Z-15.8971 I-1.1340 J-0.2414
G03 X636.2042 Y38.4330 Z-18.0000 I-0.5225 J-1.0350
G02 X637.8843 Y39.5330 I1.1576 J0.0650 F1200
G02 X637.9969 Y37.5281 I-0.5225 J-1.0350
G02 X636.2042 Y38.4330 I-0.6351 J0.9700
G00 Z8.0000 F


(No. 7: Hole 41)
G00 X636.0759 Y188.6957 Z8.0000 F4000
G00 Z0.5000 F
G01 Z0.0000 F120
G02 X637.4691 Y190.1420 Z-2.1029 I1.1141 J0.3210
G02 X638.2418 Y189.5044 Z-3.0000 I-0.2791 J-1.1253
G03 X637.4691 Y190.1420 Z-3.8971 I-1.0518 J-0.4877
G03 X636.0759 Y188.6957 Z-6.0000 I-0.2791 J-1.1253
G02 X637.4691 Y190.1420 I1.1141 J0.3210 F1200
G02 X638.0250 Y188.2124 I-0.2791 J-1.1253
G02 X636.0759 Y188.6957 I-0.8350 J0.8043
G02 X637.4691 Y190.1420 Z-8.1029 I1.1141 J0.3210 F120
G02 X638.2418 Y189.5044 Z-9.0000 I-0.2791 J-1.1253
G03 X637.4691 Y190.1420 Z-9.8971 I-1.0518 J-0.4877
G03 X636.0759 Y188.6957 Z-12.0000 I-0.2791 J-1.1253
G02 X637.4691 Y190.1420 I1.1141 J0.3210 F1200
G02 X638.0250 Y188.2124 I-0.2791 J-1.1253
G02 X636.0759 Y188.6957 I-0.8350 J0.8043
G02 X637.4691 Y190.1420 Z-14.1029 I1.1141 J0.3210 F120
G02 X638.2418 Y189.5044 Z-15.0000 I-0.2791 J-1.1253
G03 X637.4691 Y190.1420 Z-15.8971 I-1.0518 J-0.4877
G03 X636.0759 Y188.6957 Z-18.0000 I-0.2791 J-1.1253
G02 X637.4691 Y190.1420 I1.1141 J0.3210 F1200
G02 X638.0250 Y188.2124 I-0.2791 J-1.1253
G02 X636.0759 Y188.6957 I-0.8350 J0.8043
G00 Z8.0000 F


(No. 8: Hole 40)
G00 X635.9254 Y339.6590 Z8.0000 F4000
G00 Z0.5000 F
G01 Z0.0000 F120
G02 X636.9618 Y341.3789 Z-2.1029 I1.0147 J0.5608
G02 X637.8570 Y340.9293 Z-3.0000 I-0.0217 J-1.1592
G03 X636.9618 Y341.3789 Z-3.8971 I-0.9169 J-0.7095
G03 X635.9254 Y339.6590 Z-6.0000 I-0.0217 J-1.1592
G02 X636.9618 Y341.3789 I1.0147 J0.5608 F1200
G02 X637.9332 Y339.6214 I-0.0217 J-1.1592
G02 X635.9254 Y339.6590 I-0.9930 J0.5984
G02 X636.9618 Y341.3789 Z-8.1029 I1.0147 J0.5608 F120
G02 X637.8570 Y340.9293 Z-9.0000 I-0.0217 J-1.1592
G03 X636.9618 Y341.3789 Z-9.8971 I-0.9169 J-0.7095
G03 X635.9254 Y339.6590 Z-12.0000 I-0.0217 J-1.1592
G02 X636.9618 Y341.3789 I1.0147 J0.5608 F1200
G02 X637.9332 Y339.6214 I-0.0217 J-1.1592
G02 X635.9254 Y339.6590 I-0.9930 J0.5984
G02 X636.9618 Y341.3789 Z-14.1029 I1.0147 J0.5608 F120
G02 X637.8570 Y340.9293 Z-15.0000 I-0.0217 J-1.1592
G03 X636.9618 Y341.3789 Z-15.8971 I-0.9169 J-0.7095
G03 X635.9254 Y339.6590 Z-18.0000 I-0.0217 J-1.1592
G02 X636.9618 Y341.3789 I1.0147 J0.5608 F1200
G02 X637.9332 Y339.6214 I-0.0217 J-1.1592
G02 X635.9254 Y339.6590 I-0.9930 J0.5984
G00 Z8.0000 F


(No. 9: Hole 39)
G00 X503.8795 Y367.1541 Z8.0000 F4000
G00 Z0.5000 F
G01 Z0.0000 F120
G02 X504.7168 Y368.9793 Z-2.1029 I0.9455 J0.6709
G02 X505.6567 Y368.6327 Z-3.0000 I0.1082 J-1.1543
G03 X504.7168 Y368.9793 Z-3.8971 I-0.8317 J-0.8077
G03 X503.8795 Y367.1541 Z-6.0000 I0.1082 J-1.1543
G02 X504.7168 Y368.9793 I0.9455 J0.6709 F1200
G02 X505.8788 Y367.3416 I0.1082 J-1.1543
G02 X503.8795 Y367.1541 I-1.0538 J0.4834
G02 X504.7168 Y368.9793 Z-8.1029 I0.9455 J0.6709 F120
G02 X505.6567 Y368.6327 Z-9.0000 I0.1082 J-1.1543
G03 X504.7168 Y368.9793 Z-9.8971 I-0.8317 J-0.8077
G03 X503.8795 Y367.1541 Z-12.0000 I0.1082 J-1.1543
G02 X504.7168 Y368.9793 I0.9455 J0.6709 F1200
G02 X505.8788 Y367.3416 I0.1082 J-1.1543
G02 X503.8795 Y367.1541 I-1.0538 J0.4834
G02 X504.7168 Y368.9793 Z-14.1029 I0.9455 J0.6709 F120
G02 X505.6567 Y368.6327 Z-15.0000 I0.1082 J-1.1543
G03 X504.7168 Y368.9793 Z-15.8971 I-0.8317 J-0.8077
G03 X503.8795 Y367.1541 Z-18.0000 I0.1082 J-1.1543
G02 X504.7168 Y368.9793 I0.9455 J0.6709 F1200
G02 X505.8788 Y367.3416 I0.1082 J-1.1543
G02 X503.8795 Y367.1541 I-1.0538 J0.4834
G00 Z8.0000 F


(No. 10: Hole 38)
G00 X335.7775 Y366.9605 Z8.0000 F4000
G00 Z0.5000 F
G01 Z0.0000 F120
G02 X336.1876 Y368.9263 Z-2.1029 I0.7725 J0.8645
G02 X337.1811 Y368.7976 Z-3.0000 I0.3624 J-1.1013
G03 X336.1876 Y368.9263 Z-3.8971 I-0.6311 J-0.9726
G03 X335.7775 Y366.9605 Z-6.0000 I0.3624 J-1.1013
G02 X336.1876 Y368.9263 I0.7725 J0.8645 F1200
G02 X337.6849 Y367.5882 I0.3624 J-1.1013
G02 X335.7775 Y366.9605 I-1.1349 J0.2368
G02 X336.1876 Y368.9263 Z-8.1029 I0.7725 J0.8645 F120
G02 X337.1811 Y368.7976 Z-9.0000 I0.3624 J-1.1013
G03 X336.1876 Y368.9263 Z-9.8971 I-0.6311 J-0.9726
G03 X335.7775 Y366.9605 Z-12.0000 I0.3624 J-1.1013
G02 X336.1876 Y368.9263 I0.7725 J0.8645 F1200
G02 X337.6849 Y367.5882 I0.3624 J-1.1013
G02 X335.7775 Y366.9605 I-1.1349 J0.2368
G02 X336.1876 Y368.9263 Z-14.1029 I0.7725 J0.8645 F120
G02 X337.1811 Y368.7976 Z-15.0000 I0.3624 J-1.1013
G03 X336.1876 Y368.9263 Z-15.8971 I-0.6311 J-0.9726
G03 X335.7775 Y366.9605 Z-18.0000 I0.3624 J-1.1013
G02 X336.1876 Y368.9263 I0.7725 J0.8645 F1200
G02 X337.6849 Y367.5882 I0.3624 J-1.1013
G02 X335.7775 Y366.9605 I-1.1349 J0.2368
G00 Z8.0000 F


(No. 11: Hole 33)
G00 X167.7720 Y366.7804 Z8.0000 F4000
G00 Z0.5000 F
G01 Z0.0000 F120
G02 X167.6219 Y368.7829 Z-2.1029 I0.5030 J1.0446
G02 X168.6122 Y368.9343 Z-3.0000 I0.6531 J-0.9579
G03 X167.6219 Y368.7829 Z-3.8971 I-0.3372 J-1.1093
G03 X167.7720 Y366.7804 Z-6.0000 I0.6531 J-0.9579
G02 X167.6219 Y368.7829 I0.5030 J1.0446 F1200
G02 X169.4311 Y367.9116 I0.6531 J-0.9579
G02 X167.7720 Y366.7804 I-1.1561 J-0.0866
G02 X167.6219 Y368.7829 Z-8.1029 I0.5030 J1.0446 F120
G02 X168.6122 Y368.9343 Z-9.0000 I0.6531 J-0.9579
G03 X167.6219 Y368.7829 Z-9.8971 I-0.3372 J-1.1093
G03 X167.7720 Y366.7804 Z-12.0000 I0.6531 J-0.9579
G02 X167.6219 Y368.7829 I0.5030 J1.0446 F1200
G02 X169.4311 Y367.9116 I0.6531 J-0.9579
G02 X167.7720 Y366.7804 I-1.1561 J-0.0866
G02 X167.6219 Y368.7829 Z-14.1029 I0.5030 J1.0446 F120
G02 X168.6122 Y368.9343 Z-15.0000 I0.6531 J-0.9579
G03 X167.6219 Y368.7829 Z-15.8971 I-0.3372 J-1.1093
G03 X167.7720 Y366.7804 Z-18.0000 I0.6531 J-0.9579
G02 X167.6219 Y368.7829 I0.5030 J1.0446 F1200
G02 X169.4311 Y367.9116 I0.6531 J-0.9579
G02 X167.7720 Y366.7804 I-1.1561 J-0.0866
G00 Z8.0000 F


(No. 12: Hole 32)
G00 X37.9702 Y338.5729 Z8.0000 F4000
G00 Z0.5000 F
G01 Z0.0000 F120
G02 X37.1672 Y340.4135 Z-2.1029 I0.1298 J1.1521
G02 X38.0519 Y340.8834 Z-3.0000 I0.9328 J-0.6885
G03 X37.1672 Y340.4135 Z-3.8971 I0.0481 J-1.1584
G03 X37.9702 Y338.5729 Z-6.0000 I0.9328 J-0.6885
G02 X37.1672 Y340.4135 I0.1298 J1.1521 F1200
G02 X39.1626 Y340.1886 I0.9328 J-0.6885
G02 X37.9702 Y338.5729 I-1.0626 J-0.4636
G02 X37.1672 Y340.4135 Z-8.1029 I0.1298 J1.1521 F120
G02 X38.0519 Y340.8834 Z-9.0000 I0.9328 J-0.6885
G03 X37.1672 Y340.4135 Z-9.8971 I0.0481 J-1.1584
G03 X37.9702 Y338.5729 Z-12.0000 I0.9328 J-0.6885
G02 X37.1672 Y340.4135 I0.1298 J1.1521 F1200
G02 X39.1626 Y340.1886 I0.9328 J-0.6885
G02 X37.9702 Y338.5729 I-1.0626 J-0.4636
G02 X37.1672 Y340.4135 Z-14.1029 I0.1298 J1.1521 F120
G02 X38.0519 Y340.8834 Z-15.0000 I0.9328 J-0.6885
G03 X37.1672 Y340.4135 Z-15.8971 I0.0481 J-1.1584
G03 X37.9702 Y338.5729 Z-18.0000 I0.9328 J-0.6885
G02 X37.1672 Y340.4135 I0.1298 J1.1521 F1200
G02 X39.1626 Y340.1886 I0.9328 J-0.6885
G02 X37.9702 Y338.5729 I-1.0626 J-0.4636
G00 Z8.0000 F


(No. 13: Hole 34)
G00 X37.8420 Y187.3914 Z8.0000 F4000
G00 Z0.5000 F
G01 Z0.0000 F120
G02 X37.2501 Y189.3103 Z-2.1029 I0.2580 J1.1303
G02 X38.1819 Y189.6782 Z-3.0000 I0.8499 J-0.7886
G03 X37.2501 Y189.3103 Z-3.8971 I-0.0819 J-1.1565
G03 X37.8420 Y187.3914 Z-6.0000 I0.8499 J-0.7886
G02 X37.2501 Y189.3103 I0.2580 J1.1303 F1200
G02 X39.2079 Y188.8634 I0.8499 J-0.7886
G02 X37.8420 Y187.3914 I-1.1079 J-0.3417
G02 X37.2501 Y189.3103 Z-8.1029 I0.2580 J1.1303 F120
G02 X38.1819 Y189.6782 Z-9.0000 I0.8499 J-0.7886
G03 X37.2501 Y189.3103 Z-9.8971 I-0.0819 J-1.1565
G03 X37.8420 Y187.3914 Z-12.0000 I0.8499 J-0.7886
G02 X37.2501 Y189.3103 I0.2580 J1.1303 F1200
G02 X39.2079 Y188.8634 I0.8499 J-0.7886
G02 X37.8420 Y187.3914 I-1.1079 J-0.3417
G02 X37.2501 Y189.3103 Z-14.1029 I0.2580 J1.1303 F120
G02 X38.1819 Y189.6782 Z-15.0000 I0.8499 J-0.7886
G03 X37.2501 Y189.3103 Z-15.8971 I-0.0819 J-1.1565
G03 X37.8420 Y187.3914 Z-18.0000 I0.8499 J-0.7886
G02 X37.2501 Y189.3103 I0.2580 J1.1303 F1200
G02 X39.2079 Y188.8634 I0.8499 J-0.7886
G02 X37.8420 Y187.3914 I-1.1079 J-0.3417
G00 Z8.0000 F
G00 X0.0000 Y0.0000 F4000

M05
M30
