(Project filing-cabinet-base)
(Created by Estlcam version 11 build 11.245)
(Machining time about 00:15:13 hours)

(Required tools:)
(1/8")
G21
G90
G94
M03 S10000
G00 X0.0000 Y0.0000 Z0.0000 F4000
G00 Z8.0000 F


(No. 1: Drill 1)
G00 F4000
G00 Z0.5000 F
G01 Z-4.5000 F120 S10000
G00 Z0.5000 F
G00 Z-4.0000
G01 Z-9.0000 F120
G00 Z0.5000 F
G00 Z-8.5000
G01 Z-13.5000 F120
G00 Z0.5000 F
G00 Z-13.0000
G01 Z-18.0000 F120
G00 Z8.0000 F


(No. 2: Part 1)
G00 X1.5714 Y0.6696 Z8.0000 F4000
G00 Z0.5000 F
G01 Z0.0000 F120
G03 X3.7285 Y-0.7646 Z-2.2500 I6.4246 J7.3236
G02 X1.5714 Y0.6696 Z-4.5000 I4.2675 J8.7578
G03 X7.9714 Y-1.7490 I6.4246 J7.3236 F1200
G01 X665.1286
G03 X674.8490 Y7.9714 I-0.0264 J9.7468
G01 Y369.8536
G03 X665.1286 Y379.5740 I-9.7468 J-0.0264
G01 X7.9714
G03 X-1.7490 Y369.8536 I0.0264 J-9.7468
G01 Y7.9714
G03 X1.5714 Y0.6696 I9.7452 J0.0257
G03 X3.7285 Y-0.7646 Z-6.7500 I6.4246 J7.3236 F120
G02 X1.5714 Y0.6696 Z-9.0000 I4.2675 J8.7578
G03 X7.9714 Y-1.7490 I6.4246 J7.3236 F1200
G01 X665.1286
G03 X674.8490 Y7.9714 I-0.0264 J9.7468
G01 Y369.8536
G03 X665.1286 Y379.5740 I-9.7468 J-0.0264
G01 X7.9714
G03 X-1.7490 Y369.8536 I0.0264 J-9.7468
G01 Y7.9714
G03 X1.5714 Y0.6696 I9.7452 J0.0257
G03 X3.7285 Y-0.7646 Z-11.2500 I6.4246 J7.3236 F120
G02 X1.5714 Y0.6696 Z-13.5000 I4.2675 J8.7578
G03 X7.9714 Y-1.7490 I6.4246 J7.3236 F1200
G01 X665.1286
G03 X674.8490 Y7.9714 I-0.0264 J9.7468
G01 Y369.8536
G03 X665.1286 Y379.5740 I-9.7468 J-0.0264
G01 X7.9714
G03 X-1.7490 Y369.8536 I0.0264 J-9.7468
G01 Y7.9714
G03 X1.5714 Y0.6696 I9.7452 J0.0257
G03 X3.7285 Y-0.7646 Z-15.7500 I6.4246 J7.3236 F120
G02 X1.5714 Y0.6696 Z-18.0000 I4.2675 J8.7578
G03 X7.9714 Y-1.7490 I6.4246 J7.3236 F1200
G01 X665.1286
G03 X674.8490 Y7.9714 I-0.0264 J9.7468
G01 Y369.8536
G03 X665.1286 Y379.5740 I-9.7468 J-0.0264
G01 X7.9714
G03 X-1.7490 Y369.8536 I0.0264 J-9.7468
G01 Y7.9714
G03 X1.5714 Y0.6696 I9.7452 J0.0257
G00 Z8.0000 F


(No. 3: Part 1)
G00 X1.5714 Y0.6696 Z8.0000 F4000
G00 Z0.5000 F
G01 Z-4.5000 F120
G01 X1.6763 Y0.7892 F1200
G03 X7.9740 Y-1.5900 I6.3201 J7.2046
G01 X665.1260
G03 X674.6900 Y7.9740 I-0.0240 J9.5880
G01 Y369.8510
G03 X665.1260 Y379.4150 I-9.5880 J-0.0240
G01 X7.9740
G03 X-1.5900 Y369.8510 I0.0240 J-9.5880
G01 Y7.9740
G03 X1.6763 Y0.7892 I9.5865 J0.0233
G01 X1.5714 Y0.6696
G00 Z0.0000 F
G01 Z-9.0000 F120
G01 X1.6763 Y0.7892 F1200
G03 X7.9740 Y-1.5900 I6.3201 J7.2046
G01 X665.1260
G03 X674.6900 Y7.9740 I-0.0240 J9.5880
G01 Y369.8510
G03 X665.1260 Y379.4150 I-9.5880 J-0.0240
G01 X7.9740
G03 X-1.5900 Y369.8510 I0.0240 J-9.5880
G01 Y7.9740
G03 X1.6763 Y0.7892 I9.5865 J0.0233
G01 X1.5714 Y0.6696
G00 Z0.0000 F
G01 Z-13.5000 F120
G01 X1.6763 Y0.7892 F1200
G03 X7.9740 Y-1.5900 I6.3201 J7.2046
G01 X665.1260
G03 X674.6900 Y7.9740 I-0.0240 J9.5880
G01 Y369.8510
G03 X665.1260 Y379.4150 I-9.5880 J-0.0240
G01 X7.9740
G03 X-1.5900 Y369.8510 I0.0240 J-9.5880
G01 Y7.9740
G03 X1.6763 Y0.7892 I9.5865 J0.0233
G01 X1.5714 Y0.6696
G00 Z0.0000 F
G01 Z-18.0000 F120
G01 X1.6763 Y0.7892 F1200
G03 X7.9740 Y-1.5900 I6.3201 J7.2046
G01 X665.1260
G03 X674.6900 Y7.9740 I-0.0240 J9.5880
G01 Y369.8510
G03 X665.1260 Y379.4150 I-9.5880 J-0.0240
G01 X7.9740
G03 X-1.5900 Y369.8510 I0.0240 J-9.5880
G01 Y7.9740
G03 X1.6763 Y0.7892 I9.5865 J0.0233
G01 X1.5714 Y0.6696
G00 Z0.0000 F
G00 Z8.0000
G00 X0.0000 Y0.0000 F4000

M05
M30
