;FLAVOR:Marlin
;TIME:3719
;Filament used: 4.66508m
;Layer height: 0.32
;MINX:14.533
;MINY:115.688
;MINZ:0.24
;MAXX:143.123
;MAXY:188.648
;MAXZ:36.4
;Generated with Cura_SteamEngine 5.0.0
M140 S80
M105
M190 S80
M104 S245
M105
M109 S245
M82 ;absolute extrusion mode
; Ender 3 Max Custom Start G-code
G92 E0 ; Reset Extruder
G28 ; Home all axes
G1 Z2.0 F3000 ; Move Z Axis up little to prevent scratching of Heat Bed
G1 X0.1 Y20 Z0.3 F5000.0 ; Move to start position
G1 X0.1 Y200.0 Z0.3 F1500.0 E15 ; Draw the first line
G1 X0.4 Y200.0 Z0.3 F5000.0 ; Move to side a little
G1 X0.4 Y20 Z0.3 F1500.0 E30 ; Draw the second line
G92 E0 ; Reset Extruder
G1 Z2.0 F3000 ; Move Z Axis up little to prevent scratching of Heat Bed
G1 X5 Y20 Z0.3 F5000.0 ; Move over to prevent blob squish
G92 E0
G92 E0
G1 F2100 E-5
;LAYER_COUNT:113
;LAYER:0
M107
G1 F300 Z0.56
G0 F6000 X39.566 Y117.374 Z0.56
G1 F300 Z0.56
G0 F6000 X30.801 Y121.634
;TYPE:SKIRT
G1 F300 Z0.24
G1 F2100 E0
G1 F1800 X31.506 Y121.173 E0.07322
G1 X32.748 Y120.414 E0.19975
G1 X33.444 Y120.023 E0.26915
G1 X34.862 Y119.279 E0.40835
G1 X35.519 Y118.966 E0.47161
G1 X36.918 Y118.347 E0.6046
G1 X37.608 Y118.071 E0.6692
G1 X38.782 Y117.638 E0.77797
G1 X39.566 Y117.374 E0.84989
G1 X40.964 Y116.955 E0.97675
G1 X41.702 Y116.758 E1.04315
G1 X43.245 Y116.405 E1.18075
G1 X44.044 Y116.248 E1.25153
G1 X45.475 Y116.02 E1.3775
G1 X46.263 Y115.919 E1.44656
G1 X47.812 Y115.776 E1.58178
G1 X48.625 Y115.726 E1.65259
G1 X50.142 Y115.688 E1.7845
G1 X51.24 Y115.701 E1.87996
G1 X52.783 Y115.776 E2.01425
G1 X53.733 Y115.852 E2.09709
G1 X55.593 Y116.035 E2.25956
G1 X58.108 Y116.209 E2.47871
G1 X60.631 Y116.313 E2.69822
G1 X63.156 Y116.345 E2.91773
G1 X65.765 Y116.304 E3.14455
G1 X67.989 Y116.219 E3.33802
G1 X68.965 Y116.227 E3.42287
G1 X69.285 Y116.245 E3.45073
G1 X70.224 Y116.341 E3.53278
G1 X70.668 Y116.407 E3.5718
G1 X71.745 Y116.627 E3.66736
G1 X72.134 Y116.728 E3.70229
G1 X73.215 Y117.073 E3.80093
G1 X73.635 Y117.233 E3.84
G1 X74.517 Y117.616 E3.92359
G1 X74.883 Y117.796 E3.95905
G1 X75.909 Y118.376 E4.0615
G1 X76.284 Y118.617 E4.10025
G1 X77.167 Y119.252 E4.19479
G1 X77.502 Y119.521 E4.23214
G1 X77.934 Y119.888 E4.28142
G1 X80.096 Y121.829 E4.53399
G1 X82.041 Y123.473 E4.75537
G1 X83.998 Y125.036 E4.97309
G1 X86.027 Y126.564 E5.19389
G1 X88.104 Y128.04 E5.41538
G1 X90.212 Y129.447 E5.6357
G1 X92.364 Y130.799 E5.85662
G1 X94.546 Y132.084 E6.07675
G1 X96.742 Y133.295 E6.29475
G1 X99.031 Y134.475 E6.51861
G1 X101.318 Y135.573 E6.73914
G1 X103.61 Y136.594 E6.95726
G1 X105.96 Y137.563 E7.17822
G1 X108.368 Y138.477 E7.40212
G1 X110.734 Y139.299 E7.61985
G1 X113.145 Y140.062 E7.83968
G1 X115.569 Y140.753 E8.05879
G1 X118.117 Y141.401 E8.28734
G1 X120.405 Y141.922 E8.49132
G1 X121.282 Y142.162 E8.57036
G1 X122.134 Y142.479 E8.64938
G1 X122.954 Y142.869 E8.72832
G1 X123.738 Y143.33 E8.80738
G1 X124.478 Y143.858 E8.8864
G1 X125.168 Y144.448 E8.96532
G1 X125.804 Y145.098 E9.04437
G1 X126.261 Y145.645 E9.10633
G1 X126.794 Y146.329 E9.18171
G1 X127.321 Y147.069 E9.26069
G1 X127.78 Y147.854 E9.33973
G1 X128.327 Y149.073 E9.45588
G1 X128.362 Y149.167 E9.4646
G1 X128.716 Y150.322 E9.56961
G1 X129.032 Y151.617 E9.68549
G1 X129.071 Y151.752 E9.6977
G1 X129.262 Y152.556 E9.76954
G1 X130.145 Y155.812 E10.0628
G1 X130.344 Y156.699 E10.14182
G1 X130.426 Y157.244 E10.18973
G1 X130.619 Y158.799 E10.32594
G1 X130.692 Y159.705 E10.40496
G1 X130.684 Y160.613 E10.48389
G1 X130.596 Y161.518 E10.56293
G1 X130.429 Y162.411 E10.64191
G1 X130.24 Y163.113 E10.7051
G1 X129.674 Y164.949 E10.87212
G1 X128.961 Y167.437 E11.0971
G1 X128.693 Y168.448 E11.18802
G1 X128.422 Y169.316 E11.26707
G1 X128.075 Y170.156 E11.34607
G1 X127.656 Y170.962 E11.42504
G1 X127.131 Y171.779 E11.50946
G1 X126.864 Y172.155 E11.54955
G1 X126.374 Y172.791 E11.61934
G1 X126.042 Y173.189 E11.66439
G1 X125.43 Y173.861 E11.7434
G1 X124.761 Y174.476 E11.8224
G1 X124.041 Y175.03 E11.90137
G1 X123.274 Y175.518 E11.9804
G1 X122.468 Y175.938 E12.0594
G1 X121.293 Y176.399 E12.16912
G1 X120.506 Y176.653 E12.24101
G1 X119.182 Y177.06 E12.36142
G1 X116.73 Y177.903 E12.58681
G1 X115.912 Y178.176 E12.66178
G1 X115.268 Y178.369 E12.72022
G1 X114.719 Y178.507 E12.76943
G1 X114.197 Y178.623 E12.81591
G1 X113.21 Y178.793 E12.90297
G1 X110.474 Y179.128 E13.14259
G1 X107.962 Y179.5 E13.36333
G1 X105.5 Y179.938 E13.58071
G1 X102.998 Y180.455 E13.8028
G1 X100.522 Y181.04 E14.02396
G1 X98.11 Y181.684 E14.24098
G1 X95.643 Y182.417 E14.4647
G1 X93.234 Y183.208 E14.68511
G1 X90.831 Y184.073 E14.90712
G1 X88.503 Y184.986 E15.1245
G1 X86.165 Y185.98 E15.34534
G1 X83.757 Y187.085 E15.57565
G1 X82.664 Y187.608 E15.68098
G1 X81.828 Y187.964 E15.75997
G1 X80.964 Y188.244 E15.83892
G1 X80.078 Y188.448 E15.91796
G1 X78.884 Y188.597 E16.02256
G1 X78.473 Y188.624 E16.05836
G1 X77.797 Y188.646 E16.11716
G1 X51.665 Y188.648 E18.38878
G1 X50.956 Y188.638 E18.45041
G1 X49.791 Y188.556 E18.55194
G1 X46.809 Y188.211 E18.81289
G1 X44.316 Y187.998 E19.03039
G1 X41.795 Y187.854 E19.24989
G1 X39.237 Y187.781 E19.47235
G1 X36.71 Y187.781 E19.69202
G1 X34.165 Y187.852 E19.91334
G1 X30.932 Y188.032 E20.19481
G1 X29.888 Y188.037 E20.28557
G1 X29.449 Y188.017 E20.32377
G1 X28.391 Y187.914 E20.41617
G1 X27.963 Y187.85 E20.45379
G1 X26.938 Y187.643 E20.54469
G1 X26.546 Y187.543 E20.57986
G1 X25.467 Y187.204 E20.67818
G1 X25.057 Y187.05 E20.71625
G1 X24.138 Y186.653 E20.80327
G1 X23.759 Y186.467 E20.83997
G1 X22.753 Y185.902 E20.94027
G1 X22.391 Y185.671 E20.9776
G1 X21.567 Y185.087 E21.06539
G1 X21.25 Y184.838 E21.10044
G1 X20.426 Y184.116 E21.19567
G1 X20.088 Y183.787 E21.23667
G1 X19.279 Y182.903 E21.34084
G1 X19 Y182.56 E21.37928
G1 X18.359 Y181.68 E21.47392
G1 X18.131 Y181.33 E21.51023
G1 X17.625 Y180.466 E21.59727
G1 X17.428 Y180.088 E21.63432
G1 X16.978 Y179.1 E21.72869
G1 X16.824 Y178.709 E21.76522
G1 X16.47 Y177.643 E21.86287
G1 X16.354 Y177.218 E21.90116
G1 X16.126 Y176.172 E21.99423
G1 X16.058 Y175.758 E22.0307
G1 X15.938 Y174.684 E22.12464
G1 X15.913 Y174.254 E22.16208
G1 X15.897 Y173.536 E22.22451
G1 X15.912 Y172.232 E22.33787
G1 X15.904 Y169.597 E22.56693
G1 X15.826 Y167.071 E22.78662
G1 X15.674 Y164.518 E23.00894
G1 X15.454 Y162.019 E23.22702
G1 X15.154 Y159.44 E23.45272
G1 X15.049 Y158.695 E23.51812
G1 X14.734 Y156.26 E23.73155
G1 X14.63 Y155.215 E23.82284
G1 X14.599 Y154.767 E23.86188
G1 X14.547 Y153.712 E23.9537
G1 X14.534 Y153.224 E23.99614
G1 X14.533 Y151.005 E24.18903
G1 X14.559 Y150.144 E24.26391
G1 X14.632 Y148.901 E24.37215
G1 X14.716 Y147.972 E24.45324
G1 X14.869 Y146.707 E24.564
G1 X15 Y145.86 E24.63851
G1 X15.246 Y144.524 E24.7566
G1 X15.428 Y143.695 E24.83038
G1 X15.741 Y142.432 E24.94349
G1 X15.982 Y141.589 E25.0197
G1 X16.388 Y140.308 E25.13652
G1 X16.674 Y139.5 E25.21103
G1 X17.151 Y138.267 E25.32595
G1 X17.483 Y137.488 E25.39956
G1 X18.045 Y136.268 E25.51633
G1 X18.443 Y135.472 E25.59369
G1 X19.046 Y134.351 E25.70434
G1 X19.489 Y133.591 E25.78081
G1 X20.176 Y132.485 E25.89399
G1 X20.68 Y131.728 E25.97305
G1 X21.426 Y130.677 E26.08509
G1 X21.959 Y129.979 E26.16143
G1 X22.794 Y128.947 E26.27683
G1 X23.427 Y128.218 E26.36075
G1 X24.372 Y127.191 E26.48207
G1 X25.452 Y126.071 E26.61732
G1 X26.047 Y125.485 E26.68992
G1 X27.144 Y124.466 E26.82007
G1 X27.727 Y123.963 E26.88701
G1 X28.952 Y122.968 E27.0242
G1 X29.558 Y122.512 E27.09013
G1 X29.688 Y122.42 E27.10397
G0 F1620 X30.801 Y121.634
G1 F2100 E22.10397
G1 F300 Z0.56
;MESH:aza-biqu-h2-revo-duct.stl
G0 F6000 X31.622 Y137.289 Z0.56
;TYPE:WALL-INNER
G1 F300 Z0.24
G1 F2100 E27.10397
G1 F1383 X31.927 Y137.151 E27.13565
G1 F1650 X32.27 Y137.003 E27.16528
G1 F1800 X32.53 Y136.869 E27.18654
G1 X32.872 Y136.727 E27.21346
G1 X33.171 Y136.637 E27.23617
G1 X33.534 Y136.562 E27.26312
G1 X33.832 Y136.53 E27.28491
G1 X34.198 Y136.523 E27.31152
G1 X34.463 Y136.539 E27.33082
G1 X34.884 Y136.61 E27.36186
G1 X35.009 Y136.637 E27.37116
G1 X35.369 Y136.266 E27.40874
G1 X36.011 Y135.61 E27.47548
G1 X36.098 Y135.528 E27.48417
G1 X37.103 Y134.639 E27.58172
G1 X37.193 Y134.566 E27.59015
G1 X38.254 Y133.753 E27.68733
G1 X38.35 Y133.684 E27.69592
G1 X39.541 Y132.901 E27.79955
G1 X40.804 Y132.192 E27.90486
G1 X42.124 Y131.571 E28.01091
G1 X43.415 Y131.067 E28.11167
G1 X43.526 Y131.029 E28.1202
G1 X44.861 Y130.615 E28.22182
G1 X44.922 Y130.599 E28.22641
G1 X46.272 Y130.284 E28.3272
G1 X47.702 Y130.054 E28.4325
G1 X48.157 Y130.012 E28.46572
G1 X49.151 Y129.924 E28.53827
G1 X50.589 Y129.897 E28.64284
G1 X50.883 Y129.907 E28.66422
G1 X52.05 Y129.969 E28.74919
G1 X52.262 Y129.992 E28.76469
G1 X53.495 Y130.145 E28.85503
G1 X53.61 Y130.164 E28.8635
G1 X54.97 Y130.432 E28.96428
G1 X56.424 Y130.828 E29.07384
G1 X56.428 Y130.832 E29.07425
G1 X57.65 Y131.253 E29.16822
G1 X57.807 Y131.314 E29.18047
G1 X59.041 Y131.844 E29.27811
G1 X59.145 Y131.893 E29.28647
G1 X60.416 Y132.549 E29.39046
G1 X60.442 Y132.567 E29.39275
G1 X61.634 Y133.295 E29.4943
G1 X62.777 Y134.103 E29.59607
G1 X63.22 Y134.462 E29.63753
G1 X63.957 Y135.067 E29.70685
G1 X64.931 Y135.998 E29.80481
G1 X65.193 Y136.268 E29.83216
G1 X65.539 Y136.647 E29.86947
G1 X66.023 Y136.549 E29.90538
G1 X66.333 Y136.523 E29.92799
G1 X66.704 Y136.528 E29.95497
G1 X67.005 Y136.559 E29.97697
G1 X67.434 Y136.644 E30.00877
G1 X68.004 Y136.852 E30.05288
G1 X68.275 Y136.99 E30.07499
G1 X68.588 Y137.188 E30.10192
G1 F1781.1 X68.841 Y137.374 E30.12499
G1 F1719.2 X69.153 Y137.642 E30.1563
G1 X68.927 Y137.299 E30.18756
G1 F1781.1 X68.739 Y137.027 E30.21186
G1 F1800 X68.323 Y136.451 E30.26352
G1 X68.173 Y136.184 E30.28578
G1 X68.069 Y135.875 E30.30949
G1 X68.008 Y135.608 E30.3294
G1 X68.003 Y135.183 E30.3603
G1 X68.049 Y134.946 E30.37785
G1 X68.128 Y134.719 E30.39533
G1 X67.874 Y134.703 E30.41383
G1 X67.635 Y134.668 E30.43139
G1 X67.224 Y134.579 E30.46196
G1 X66.935 Y134.484 E30.48408
G1 X66.615 Y134.345 E30.50945
G1 X66.384 Y134.222 E30.52847
G1 X66.154 Y134.045 E30.54958
G1 X65.812 Y133.73 E30.58338
G1 X65.142 Y133.136 E30.64848
G1 X64.929 Y132.907 E30.67122
G1 X64.744 Y132.632 E30.69531
G1 X64.606 Y132.369 E30.71691
G1 X64.509 Y132.145 E30.73465
G1 X64.394 Y131.816 E30.75999
G1 X64.273 Y131.291 E30.79916
G1 X63.989 Y131.388 E30.82098
G1 X63.529 Y131.463 E30.85487
G1 X63.147 Y131.427 E30.88276
G1 X62.764 Y131.321 E30.91166
G1 X62.54 Y131.212 E30.92977
G1 X61.165 Y130.409 E31.04553
G1 X59.808 Y129.733 E31.15576
G1 X58.414 Y129.149 E31.26564
G1 X56.933 Y128.644 E31.3794
G1 X55.479 Y128.251 E31.48891
G1 X54.007 Y127.961 E31.59799
G1 X52.508 Y127.764 E31.70791
G1 X50.976 Y127.665 E31.81952
G1 X49.472 Y127.668 E31.92887
G1 X48.998 Y127.7 E31.96341
G1 X48.944 Y127.706 E31.96736
G1 X47.943 Y127.774 E32.0403
G1 X46.445 Y127.979 E32.15023
G1 X45.944 Y128.081 E32.1874
G1 X44.973 Y128.279 E32.25945
G1 X44.375 Y128.443 E32.30453
G1 X43.484 Y128.686 E32.37168
G1 X42.03 Y129.193 E32.48363
G1 X41.33 Y129.49 E32.53891
G1 X40.641 Y129.78 E32.59326
G1 X39.283 Y130.467 E32.70391
G1 X37.981 Y131.238 E32.81392
G1 X37.109 Y131.834 E32.89072
G1 X36.723 Y132.098 E32.92471
G1 X35.798 Y132.824 E33.01021
G1 X35.506 Y133.058 E33.03741
G1 X34.394 Y134.059 E33.14619
G1 X33.304 Y135.179 E33.25981
G1 X32.965 Y135.543 E33.29598
G1 X32.312 Y136.239 E33.36537
G1 X31.966 Y136.657 E33.40482
G1 F1650 X31.776 Y136.98 E33.43454
G1 F1383 X31.622 Y137.289 E33.46721
G1 F2100 E28.46721
G1 F300 Z0.56
G0 F6000 X29.575 Y140.427 Z0.56
G1 F300 Z0.24
G1 F2100 E33.46721
G1 F1274.7 X29.378 Y140.621 E33.49559
G1 F1569.4 X29.13 Y140.87 E33.5249
G1 F1800 X28.914 Y141.306 E33.56027
G1 X28.538 Y142.097 E33.62395
G1 X28.418 Y142.36 E33.64497
G1 X27.909 Y143.627 E33.74424
G1 X27.455 Y144.996 E33.8491
G1 X27.085 Y146.397 E33.95445
G1 X26.808 Y147.805 E34.05878
G1 X26.618 Y149.233 E34.16352
G1 X26.517 Y150.656 E34.26724
G1 X26.499 Y152.461 E34.39847
G1 X26.521 Y153.488 E34.47316
G1 X26.585 Y154.489 E34.54608
G1 X26.701 Y155.555 E34.62404
G1 X26.858 Y156.589 E34.70008
G1 X27.047 Y157.547 E34.77107
G1 X27.301 Y158.61 E34.85053
G1 X27.584 Y159.583 E34.92421
G1 X27.913 Y160.555 E34.99881
G1 X28.32 Y161.604 E35.08062
G1 X28.715 Y162.508 E35.15234
G1 X29.152 Y163.397 E35.22436
G1 X29.671 Y164.348 E35.30313
G1 X30.208 Y165.238 E35.3787
G1 X30.845 Y166.194 E35.46222
G1 X31.091 Y166.695 E35.5028
G1 X31.246 Y167.243 E35.54421
G1 X31.29 Y167.676 E35.57585
G1 X31.284 Y168.01 E35.60014
G1 X31.191 Y168.446 E35.63255
G1 X31.113 Y168.742 E35.65481
G1 X31.01 Y168.978 E35.67353
G1 X30.876 Y169.206 E35.69275
G1 X30.687 Y169.498 E35.71804
G1 X30.65 Y169.544 E35.72233
G1 X30.894 Y169.576 E35.74023
G1 X31.207 Y169.627 E35.76328
G1 X31.634 Y169.749 E35.79557
G1 X31.868 Y169.836 E35.81372
G1 X32.194 Y169.987 E35.83984
G1 X32.405 Y170.104 E35.85738
G1 X32.698 Y170.296 E35.88285
G1 X33.15 Y170.669 E35.92546
G1 X33.331 Y170.854 E35.94427
G1 X33.565 Y171.132 E35.97069
G1 X33.735 Y171.378 E35.99243
G1 X33.921 Y171.682 E36.01834
G1 X34.03 Y171.904 E36.03632
G1 X34.175 Y172.263 E36.06447
G1 X34.272 Y172.579 E36.08851
G1 X34.336 Y172.845 E36.1084
G1 X34.547 Y172.692 E36.12735
G1 X34.876 Y172.502 E36.15497
G1 X35.122 Y172.386 E36.17474
G1 X35.36 Y172.317 E36.19276
G1 X35.731 Y172.238 E36.22034
G1 X35.991 Y172.205 E36.23939
G1 X36.246 Y172.213 E36.25794
G1 X36.623 Y172.253 E36.2855
G1 X37.076 Y172.371 E36.31954
G1 X37.393 Y172.504 E36.34453
G1 X37.601 Y172.608 E36.36144
G1 X38.504 Y173.149 E36.43797
G1 X39.436 Y173.654 E36.51504
G1 X40.36 Y174.104 E36.58976
G1 X41.263 Y174.495 E36.6613
G1 X42.223 Y174.864 E36.73608
G1 X43.238 Y175.205 E36.81392
G1 X44.214 Y175.488 E36.88781
G1 X45.254 Y175.736 E36.96554
G1 X45.497 Y175.782 E36.98352
G1 X45.899 Y175.862 E37.01332
G1 X46.255 Y175.928 E37.03964
G1 X47.21 Y176.076 E37.1099
G1 X48.29 Y176.192 E37.18888
G1 X49.319 Y176.257 E37.26384
G1 X50.355 Y176.279 E37.33918
G1 X50.8 Y176.349 E37.37193
G1 X51.173 Y176.49 E37.40092
G1 X51.469 Y176.669 E37.42607
G1 X56.249 Y176.668 E37.77359
G1 X77.519 Y176.666 E39.32001
G1 X88.969 Y165.221 E40.49703
G1 X89.212 Y165.021 E40.51991
G1 X89.456 Y164.873 E40.54066
G1 X89.702 Y164.771 E40.56002
G1 X90.018 Y164.701 E40.58355
G1 X90.319 Y164.693 E40.60544
G1 X90.608 Y164.739 E40.62672
G1 X90.915 Y164.749 E40.64905
G1 X91.094 Y164.749 E40.66206
G1 X91.076 Y164.447 E40.68406
G1 X91.075 Y164.167 E40.70442
G1 X91.101 Y163.746 E40.73508
G1 X91.155 Y163.346 E40.76443
G1 X91.263 Y162.882 E40.79906
G1 X91.444 Y162.339 E40.84068
G1 X91.714 Y161.765 E40.8868
G1 X92.045 Y161.239 E40.93198
G1 X92.357 Y160.841 E40.96875
G1 X92.779 Y160.41 E41.0126
G1 X93.137 Y160.11 E41.04656
G1 X93.585 Y159.804 E41.08601
G1 X93.919 Y159.614 E41.11394
G1 X94.483 Y159.368 E41.15868
G1 X95.118 Y159.176 E41.20691
G1 X95.305 Y159.135 E41.22083
G1 X95.951 Y159.032 E41.26839
G1 X96.304 Y158.997 E41.29418
G1 X96.902 Y158.993 E41.33766
G1 X97.386 Y159.036 E41.37298
G1 X97.906 Y159.135 E41.41147
G1 X98.404 Y159.281 E41.4492
G1 X98.878 Y159.47 E41.4863
G1 X99.211 Y159.633 E41.51326
G1 X99.382 Y159.734 E41.52769
G1 X99.881 Y160.068 E41.57135
G1 X100.209 Y160.328 E41.60178
G1 X100.471 Y160.572 E41.62781
G1 X100.704 Y160.816 E41.65234
G1 X100.931 Y161.087 E41.67804
G1 X101.129 Y161.353 E41.70215
G1 X101.323 Y161.654 E41.72819
G1 X101.448 Y161.875 E41.74664
G1 X101.568 Y162.109 E41.76576
G1 X101.677 Y162.344 E41.7846
G1 X101.769 Y162.567 E41.80214
G1 X101.905 Y162.99 E41.83444
G1 X101.976 Y163.25 E41.85404
G1 X102.076 Y163.736 E41.89011
G1 X102.138 Y164.403 E41.93881
G1 X102.137 Y164.752 E41.96419
G1 X106.094 Y164.751 E42.25188
G1 X106.076 Y164.447 E42.27402
G1 X106.075 Y164.166 E42.29445
G1 X106.101 Y163.747 E42.32497
G1 X106.156 Y163.346 E42.3544
G1 X106.212 Y163.083 E42.37395
G1 X106.297 Y162.764 E42.39795
G1 X106.462 Y162.29 E42.43444
G1 X106.675 Y161.843 E42.47044
G1 X106.788 Y161.631 E42.4879
G1 X107.053 Y161.226 E42.52309
G1 X107.322 Y160.883 E42.55478
G1 X107.779 Y160.41 E42.6026
G1 X108.137 Y160.11 E42.63656
G1 X108.585 Y159.804 E42.676
G1 X108.919 Y159.614 E42.70394
G1 X109.483 Y159.368 E42.74868
G1 X110.118 Y159.176 E42.79691
G1 X110.305 Y159.135 E42.81083
G1 X110.95 Y159.032 E42.85832
G1 X111.304 Y158.997 E42.88418
G1 X111.902 Y158.993 E42.92766
