;FLAVOR:Marlin
;TIME:3484
;Filament used: 6.01022m
;Layer height: 0.2
;MINX:61.817
;MINY:54.391
;MINZ:0.24
;MAXX:184.613
;MAXY:113.918
;MAXZ:43.92
;TARGET_MACHINE.NAME:VORON2 250
;Generated with Cura_SteamEngine 5.6.0
M140 S80
M105
M190 S80
M104 S245
M105
M109 S245
M82 ;absolute extrusion mode
START_PRINT
G92 E0
G92 E0
G1 F300 E-0.5
;LAYER_COUNT:218
;LAYER:0
M107
M204 S1000
G1 F600 Z0.52
G0 F9000 X69.14 Y64.48 Z0.52
;TYPE:SKIRT
G1 F600 Z0.24
G1 F120 E0
G1 F1800 X69.602 Y63.983 E0.04333
G1 X70.959 Y62.573 E0.1683
G1 X71.9 Y61.673 E0.25145
G1 X72.691 Y60.985 E0.3184
G1 X73.324 Y60.465 E0.37071
G1 X74.34 Y59.699 E0.45197
G1 X75.294 Y59.043 E0.5259
G1 X76.53 Y58.273 E0.6189
G1 X77.483 Y57.735 E0.68878
G1 X78.199 Y57.362 E0.74034
G1 X79.333 Y56.826 E0.82044
G1 X79.998 Y56.541 E0.86664
G1 X80.957 Y56.157 E0.93261
G1 X81.906 Y55.829 E0.99673
G1 X82.975 Y55.494 E1.06827
G1 X83.538 Y55.336 E1.10561
G1 X84.249 Y55.157 E1.15243
G1 X84.879 Y55.015 E1.19367
G1 X85.762 Y54.84 E1.25116
G1 X86.437 Y54.725 E1.29488
G1 X87.728 Y54.557 E1.37802
G1 X88.478 Y54.485 E1.42613
G1 X89.354 Y54.425 E1.48221
G1 X89.776 Y54.408 E1.50918
G1 X90.969 Y54.391 E1.58537
G1 X91.599 Y54.402 E1.62561
G1 X92.22 Y54.426 E1.66529
G1 X94.15 Y54.579 E1.78893
G1 X95.308 Y54.695 E1.86325
G1 X98.081 Y54.894 E2.04079
G1 X100.789 Y55.011 E2.21388
G1 X103.535 Y55.051 E2.38925
G1 X106.298 Y55.014 E2.56571
G1 X108.639 Y54.922 E2.71532
G1 X108.925 Y54.923 E2.73359
G1 X109.374 Y54.944 E2.76229
G1 X109.708 Y54.976 E2.78372
G1 X110.151 Y55.042 E2.81232
G1 X110.503 Y55.114 E2.83527
G1 X110.942 Y55.229 E2.86425
G1 X111.275 Y55.335 E2.88656
G1 X111.664 Y55.482 E2.91312
G1 X111.939 Y55.601 E2.93225
G1 X112.405 Y55.827 E2.96533
G1 X112.831 Y56.074 E2.99677
G1 X113.278 Y56.38 E3.03137
G1 X113.515 Y56.558 E3.05029
G1 X113.886 Y56.87 E3.08125
G1 X114.638 Y57.56 E3.14642
G1 X116.718 Y59.416 E3.32444
G1 X118.807 Y61.175 E3.49884
G1 X120.949 Y62.879 E3.67363
G1 X123.117 Y64.507 E3.84677
G1 X125.367 Y66.098 E4.02274
G1 X127.631 Y67.604 E4.19639
G1 X129.975 Y69.07 E4.37294
G1 X132.313 Y70.441 E4.54602
G1 X134.718 Y71.763 E4.72127
G1 X137.136 Y73.003 E4.8948
G1 X139.618 Y74.189 E5.07047
G1 X142.135 Y75.304 E5.24627
G1 X144.633 Y76.33 E5.41872
G1 X147.197 Y77.297 E5.59371
G1 X149.778 Y78.189 E5.7681
G1 X152.376 Y79.006 E5.94202
G1 X155.053 Y79.764 E6.11969
G1 X157.117 Y80.293 E6.25576
G1 X158.083 Y80.53 E6.31928
G1 X158.49 Y80.649 E6.34635
G1 X158.956 Y80.831 E6.3783
G1 X159.245 Y80.97 E6.39878
G1 X159.739 Y81.263 E6.43546
G1 X160.035 Y81.475 E6.45871
G1 X160.46 Y81.837 E6.49436
G1 X160.679 Y82.058 E6.51423
G1 X160.959 Y82.379 E6.54143
G1 X161.661 Y83.299 E6.61533
G1 X162.006 Y83.769 E6.65256
G1 X162.162 Y84.002 E6.67047
G1 X162.51 Y84.572 E6.71312
G1 X164.479 Y87.935 E6.96198
G1 X164.838 Y88.566 E7.00834
G1 X165.049 Y89.012 E7.03985
G1 X165.144 Y89.258 E7.05669
G1 X165.292 Y89.751 E7.08956
G1 X165.347 Y90.089 E7.11143
G1 X165.378 Y90.369 E7.12942
G1 X165.398 Y90.736 E7.15289
G1 X165.396 Y93.722 E7.34357
G1 X165.342 Y94.316 E7.38166
G1 X165.278 Y94.667 E7.40444
G1 X165.147 Y95.164 E7.43727
G1 X164.968 Y95.582 E7.4663
G1 X164.668 Y96.157 E7.50772
G1 X162.557 Y99.765 E7.77467
G1 X162.18 Y100.389 E7.82122
G1 X161.88 Y100.808 E7.85413
G1 X161.519 Y101.175 E7.887
G1 X161.106 Y101.482 E7.91987
G1 X160.65 Y101.722 E7.95277
G1 X160.294 Y101.851 E7.97695
G1 X159.166 Y102.19 E8.05217
G1 X156.52 Y103.025 E8.22936
G1 X154.601 Y103.682 E8.35889
G1 X153.87 Y103.908 E8.40775
G1 X153.54 Y103.992 E8.42949
G1 X153.027 Y104.088 E8.46282
G1 X152.424 Y104.174 E8.50172
G1 X150.197 Y104.443 E8.64497
G1 X147.442 Y104.855 E8.82286
G1 X144.807 Y105.325 E8.99378
G1 X142.077 Y105.892 E9.17184
G1 X139.482 Y106.507 E9.34214
G1 X136.795 Y107.227 E9.51979
G1 X134.202 Y108.001 E9.6926
G1 X131.574 Y108.865 E9.86926
G1 X129.018 Y109.788 E10.0428
G1 X126.457 Y110.795 E10.21853
G1 X123.955 Y111.862 E10.39223
G1 X121.47 Y113.006 E10.56693
G1 X120.293 Y113.576 E10.65044
G1 X119.813 Y113.764 E10.68336
G1 X119.31 Y113.875 E10.71625
G1 X118.905 Y113.907 E10.7422
G1 X118.292 Y113.918 E10.78135
G1 X92.795 Y113.909 E12.40957
G1 X91.986 Y113.874 E12.46128
G1 X91.727 Y113.852 E12.47788
G1 X88.722 Y113.473 E12.6713
G1 X85.974 Y113.208 E12.8476
G1 X83.272 Y113.025 E13.02055
G1 X80.561 Y112.918 E13.1938
G1 X77.815 Y112.887 E13.36917
G1 X75.065 Y112.934 E13.54481
G1 X71.01 Y113.135 E13.80408
G1 X70.696 Y113.136 E13.82413
G1 X70.231 Y113.115 E13.85386
G1 X69.892 Y113.082 E13.87561
G1 X69.449 Y113.016 E13.90421
G1 X69.097 Y112.944 E13.92715
G1 X68.658 Y112.829 E13.95613
G1 X68.325 Y112.723 E13.97845
G1 X67.936 Y112.576 E14.00501
G1 X67.661 Y112.457 E14.02414
G1 X67.255 Y112.26 E14.05296
G1 X66.929 Y112.078 E14.0768
G1 X66.485 Y111.797 E14.11036
G1 X66.112 Y111.524 E14.13987
G1 X65.71 Y111.183 E14.17354
G1 X65.285 Y110.772 E14.21129
G1 X65.07 Y110.535 E14.23173
G1 X64.779 Y110.18 E14.26104
G1 X64.575 Y109.902 E14.28306
G1 X64.32 Y109.515 E14.31266
G1 X64.143 Y109.213 E14.33501
G1 X63.946 Y108.832 E14.3624
G1 X63.808 Y108.528 E14.38372
G1 X63.647 Y108.121 E14.41167
G1 X63.533 Y107.781 E14.43457
G1 X63.411 Y107.338 E14.46391
G1 X63.338 Y107.006 E14.48562
G1 X63.263 Y106.559 E14.51457
G1 X63.226 Y106.249 E14.5345
G1 X63.198 Y105.803 E14.56304
G1 X63.192 Y105.343 E14.59242
G1 X63.205 Y104.415 E14.65169
G1 X63.205 Y101.694 E14.82545
G1 X63.126 Y98.947 E15.00094
G1 X62.971 Y96.205 E15.17632
G1 X62.74 Y93.498 E15.34982
G1 X62.429 Y90.758 E15.52592
G1 X62.002 Y87.624 E15.7279
G1 X61.884 Y86.318 E15.81164
G1 X61.829 Y85.159 E15.88574
G1 X61.817 Y83.505 E15.99137
G1 X61.84 Y82.372 E16.06373
G1 X61.93 Y80.959 E16.15415
G1 X62.064 Y79.753 E16.23164
G1 X62.299 Y78.29 E16.32626
G1 X62.397 Y77.792 E16.35867
G1 X62.6 Y76.872 E16.41884
G1 X62.703 Y76.454 E16.44633
G1 X62.969 Y75.486 E16.51044
G1 X63.083 Y75.108 E16.53565
G1 X63.379 Y74.209 E16.59609
G1 X63.564 Y73.693 E16.6311
G1 X63.927 Y72.761 E16.69497
G1 X64.351 Y71.784 E16.76298
G1 X64.753 Y70.93 E16.82326
G1 X65.071 Y70.303 E16.86815
G1 X65.323 Y69.834 E16.90215
G1 X65.789 Y69.02 E16.96205
G1 X66.097 Y68.514 E16.99988
G1 X66.611 Y67.716 E17.06049
G1 X66.849 Y67.367 E17.08747
G1 X67.408 Y66.588 E17.1487
G1 X67.706 Y66.196 E17.18014
G1 X68.317 Y65.43 E17.24272
G1 X68.678 Y65.003 E17.27842
G1 X69.14 Y64.48 E17.32299
G1 F300 E16.82299
G1 F600 Z0.52
;MESH:aza-biqu-h2-revo-duct-v2.stl
G0 F9000 X106.086 Y60.676 Z0.52
M204 S2200
;TYPE:WALL-INNER
G1 F600 Z0.24
G1 F120 E17.32299
G1 F2933.6 X106.45 Y60.25 E17.37101
G1 F2975.2 X106.583 Y60.122 E17.38661
G1 F2964.7 X106.857 Y59.894 E17.41685
G1 F2971.7 X107.223 Y59.661 E17.45356
G1 F2975.2 X107.622 Y59.474 E17.4908
G1 F2971.7 X108.039 Y59.344 E17.52776
G1 F2957.7 X108.425 Y59.278 E17.56105
G1 F2954.3 X108.771 Y59.258 E17.59055
G1 F2961.2 X109.118 Y59.271 E17.62003
G1 F2968.2 X109.445 Y59.32 E17.64804
G1 F2964.7 X109.775 Y59.406 E17.67697
G1 F2978.7 X109.959 Y59.468 E17.69336
G1 F2992.9 X110.358 Y59.65 E17.7302
G1 X110.769 Y59.908 E17.77097
G1 F3000 X111.134 Y60.232 E17.81188
G1 F2982.2 X111.435 Y60.587 E17.85112
G1 F2954.3 X111.622 Y60.874 E17.88027
G1 F2947.4 X111.774 Y61.164 E17.90821
G1 F2968.2 X111.883 Y61.428 E17.9324
G1 F2971.7 X111.994 Y61.813 E17.96631
G1 F2950.8 X112.049 Y62.15 E17.9954
G1 F2957.7 X112.073 Y62.493 E18.02463
G1 F2975.2 X112.059 Y62.847 E18.05458
G1 F2968.2 X112.007 Y63.174 E18.08262
G1 F2957.7 X111.952 Y63.427 E18.10464
G1 F2971.7 X111.79 Y63.863 E18.14399
G1 F2996.4 X111.583 Y64.254 E18.18112
G1 X111.339 Y64.597 E18.21644
G1 F2933.6 X110.955 Y65.017 E18.26522
M204 S1000
G1 F300 E17.76522
G1 F600 Z0.52
G0 F9000 X91.306 Y102.717 Z0.52
M204 S2200
G1 F600 Z0.24
G1 F120 E18.26522
G1 F4200 X90.219 Y102.716 E18.33029
G1 X89.043 Y102.651 E18.40081
G1 X87.996 Y102.535 E18.46387
G1 X86.879 Y102.349 E18.53166
G1 X85.719 Y102.086 E18.60287
G1 X84.642 Y101.779 E18.66992
G1 X83.664 Y101.441 E18.73187
G1 X82.56 Y100.99 E18.80327
G1 X81.537 Y100.501 E18.87115
G1 X80.64 Y100.016 E18.9322
G1 X79.692 Y99.435 E18.99876
G1 X78.734 Y98.77 E19.06858
G1 X77.909 Y98.128 E19.13117
G1 X77.01 Y97.347 E19.20246
G1 X76.255 Y96.613 E19.2655
G1 X75.443 Y95.732 E19.33723
G1 X74.801 Y94.949 E19.39785
G1 X74.062 Y93.945 E19.47249
G1 X73.459 Y93.015 E19.53884
G1 X72.911 Y92.058 E19.60486
G1 X72.412 Y91.064 E19.67145
G1 X71.975 Y90.069 E19.73651
G1 X71.57 Y88.976 E19.8063
G1 X71.238 Y87.901 E19.87365
G1 X70.967 Y86.818 E19.94049
G1 X70.761 Y85.754 E20.00537
G1 X70.608 Y84.636 E20.07293
G1 X70.524 Y83.605 E20.13486
G1 X70.491 Y82.413 E20.20625
G1 X70.524 Y81.3 E20.27291
G1 X70.608 Y80.268 E20.3349
G1 X70.761 Y79.15 E20.40246
G1 X71 Y77.921 E20.47741
G1 X71.261 Y76.921 E20.53929
G1 X71.586 Y75.882 E20.60446
G1 X71.973 Y74.844 E20.67078
G1 X72.423 Y73.817 E20.73791
G1 X72.951 Y72.772 E20.80801
G1 X73.516 Y71.798 E20.87542
G1 X74.14 Y70.847 E20.94351
G1 X74.808 Y69.948 E21.01057
G1 X75.5 Y69.111 E21.07559
G1 X76.276 Y68.272 E21.14401
G1 X77.034 Y67.536 E21.20726
G1 X77.854 Y66.823 E21.27231
G1 X78.758 Y66.12 E21.34087
G1 X79.67 Y65.485 E21.4074
G1 X80.644 Y64.885 E21.47589
G1 X81.67 Y64.333 E21.54564
G1 X82.662 Y63.869 E21.61121
G1 X83.669 Y63.464 E21.67619
G1 X84.77 Y63.085 E21.7459
G1 X85.77 Y62.806 E21.80805
G1 X86.908 Y62.55 E21.87789
G1 X87.988 Y62.372 E21.94342
G1 X89.085 Y62.251 E22.00949
G1 X90.223 Y62.188 E22.07772
G1 X91.305 Y62.189 E22.1425
G1 X92.417 Y62.249 E22.20917
G1 X93.547 Y62.373 E22.27723
G1 X94.641 Y62.554 E22.34362
G1 X95.728 Y62.799 E22.41032
G1 X96.882 Y63.126 E22.48213
G1 X97.923 Y63.486 E22.54808
G1 X98.962 Y63.915 E22.61537
G1 X99.953 Y64.386 E22.68106
G1 X100.918 Y64.906 E22.74669
G1 X101.832 Y65.47 E22.81099
G1 X102.782 Y66.128 E22.88017
G1 X103.681 Y66.83 E22.94846
G1 X104.487 Y67.533 E23.01249
G1 X105.277 Y68.301 E23.07845
G1 X106.081 Y69.175 E23.14955
G1 X106.757 Y69.999 E23.21336
G1 X107.461 Y70.959 E23.28463
G1 X108.066 Y71.89 E23.3511
G1 X108.601 Y72.821 E23.41539
G1 X109.102 Y73.815 E23.48203
G1 X109.555 Y74.849 E23.54961
G1 X109.942 Y75.887 E23.61593
G1 X110.272 Y76.949 E23.68251
G1 X110.546 Y78.033 E23.74945
G1 X110.754 Y79.095 E23.81424
G1 X110.911 Y80.215 E23.88195
G1 X111.001 Y81.306 E23.94748
G1 X111.034 Y82.444 E24.01564
G1 X111.004 Y83.545 E24.08158
G1 X110.916 Y84.638 E24.14723
G1 X110.749 Y85.834 E24.21953
G1 X110.517 Y87.01 E24.29129
G1 X110.25 Y88.027 E24.35424
G1 X109.93 Y89.052 E24.41852
G1 X109.56 Y90.039 E24.48163
G1 X109.103 Y91.085 E24.54997
G1 X108.573 Y92.133 E24.62028
G1 X108.012 Y93.1 E24.68721
G1 X107.384 Y94.057 E24.75573
G1 X106.766 Y94.894 E24.81802
G1 X106.022 Y95.797 E24.88807
G1 X105.305 Y96.574 E24.95137
G1 X104.444 Y97.411 E25.02326
G1 X103.681 Y98.073 E25.08373
G1 X102.715 Y98.823 E25.15695
G1 X101.862 Y99.415 E25.21911
G1 X100.844 Y100.041 E25.29066
G1 X99.858 Y100.57 E25.35765
G1 X98.848 Y101.041 E25.42437
G1 X97.855 Y101.441 E25.48846
G1 X96.842 Y101.792 E25.55264
G1 X95.679 Y102.117 E25.62493
G1 X94.603 Y102.356 E25.69092
G1 X93.503 Y102.538 E25.75767
G1 X92.398 Y102.658 E25.82422
G1 X91.306 Y102.717 E25.88969
M204 S1000
G0 F9000 X91.285 Y102.117
M204 S2200
G1 F4200 X90.199 Y102.115 E25.9547
G1 X89.109 Y102.054 E26.02006
G1 X88.012 Y101.931 E26.08615
G1 X86.97 Y101.755 E26.14942
G1 X85.93 Y101.521 E26.21324
G1 X84.886 Y101.227 E26.27817
G1 X83.82 Y100.859 E26.34569
G1 X82.816 Y100.447 E26.41066
G1 X81.897 Y100.012 E26.47153
G1 X80.866 Y99.454 E26.54171
G1 X80.007 Y98.924 E26.60214
G1 X79.068 Y98.271 E26.67061
G1 X78.277 Y97.655 E26.73064
G1 X77.417 Y96.906 E26.79891
G1 X76.675 Y96.184 E26.86089
G1 X75.907 Y95.351 E26.92872
G1 X75.237 Y94.532 E26.99207
G1 X74.565 Y93.618 E27.05999
G1 X73.979 Y92.716 E27.12439
G1 X73.447 Y91.788 E27.18843
G1 X72.961 Y90.822 E27.25317
G1 X72.529 Y89.837 E27.31756
G1 X72.143 Y88.797 E27.38397
G1 X71.82 Y87.755 E27.44928
G1 X71.556 Y86.704 E27.51416
G1 X71.356 Y85.671 E27.57715
G1 X71.206 Y84.588 E27.64261
G1 X71.122 Y83.557 E27.70454
G1 X71.091 Y82.43 E27.77203
G1 X71.122 Y81.348 E27.83684
G1 X71.206 Y80.317 E27.89877
G1 X71.364 Y79.185 E27.96719
G1 X71.575 Y78.102 E28.03325
G1 X71.847 Y77.056 E28.09796
G1 X72.175 Y76.015 E28.1633
G1 X72.554 Y75.008 E28.22772
G1 X72.992 Y74.016 E28.29264
G1 X73.471 Y73.072 E28.35601
G1 X74.019 Y72.126 E28.42146
G1 X74.623 Y71.204 E28.48745
G1 X75.243 Y70.366 E28.54986
G1 X75.942 Y69.518 E28.61565
G1 X76.694 Y68.703 E28.68204
G1 X77.446 Y67.973 E28.74479
G1 X78.243 Y67.28 E28.80802
G1 X79.122 Y66.597 E28.87466
G1 X80.046 Y65.956 E28.94198
G1 X80.966 Y65.392 E29.00659
G1 X81.925 Y64.876 E29.07179
G1 X82.893 Y64.423 E29.13577
G1 X83.866 Y64.031 E29.19857
G1 X84.932 Y63.663 E29.26609
G1 X85.931 Y63.384 E29.32819
G1 X87.022 Y63.139 E29.39513
G1 X88.067 Y62.966 E29.45854
G1 X89.159 Y62.847 E29.5243
G1 X90.242 Y62.788 E29.58924
G1 X91.325 Y62.79 E29.65408
G1 X92.377 Y62.847 E29.71715
G1 X93.473 Y62.968 E29.78316
G1 X94.537 Y63.145 E29.84774
G1 X95.642 Y63.396 E29.91558
G1 X96.657 Y63.684 E29.97874
G1 X97.699 Y64.043 E30.04473
G1 X98.706 Y64.457 E30.10991
G1 X99.668 Y64.914 E30.17367
G1 X100.622 Y65.43 E30.2386
G1 X101.56 Y66.009 E30.3046
G1 X102.43 Y66.615 E30.36807
G1 X103.286 Y67.282 E30.43304
G1 X104.088 Y67.982 E30.49677
G1 X104.893 Y68.767 E30.56409
G1 X105.617 Y69.556 E30.6282
G1 X106.289 Y70.375 E30.69162
G1 X106.957 Y71.282 E30.75906
G1 X107.546 Y72.189 E30.8238
G1 X108.069 Y73.099 E30.88664
G1 X108.564 Y74.083 E30.95259
G1 X108.998 Y75.072 E31.01725
G1 X109.374 Y76.082 E31.08177
G1 X109.695 Y77.114 E31.14647
G1 X109.962 Y78.169 E31.21162
G1 X110.163 Y79.2 E31.27451
G1 X110.316 Y80.291 E31.34046
G1 X110.403 Y81.352 E31.4042
G1 X110.434 Y82.446 E31.46972
G1 X110.405 Y83.52 E31.53404
G1 X110.312 Y84.639 E31.60127
G1 X110.16 Y85.719 E31.66656
G1 X109.949 Y86.804 E31.73273
G1 X109.678 Y87.848 E31.79731
G1 X109.351 Y88.888 E31.86258
G1 X108.98 Y89.873 E31.92559
G1 X108.533 Y90.889 E31.99204
G1 X108.054 Y91.833 E32.05542
G1 X107.51 Y92.772 E32.12039
G1 X106.902 Y93.7 E32.18681
G1 X106.284 Y94.537 E32.2491
G1 X105.581 Y95.39 E32.31527
G1 X104.83 Y96.202 E32.38149
G1 X104.088 Y96.923 E32.44343
G1 X103.25 Y97.65 E32.50985
G1 X102.373 Y98.33 E32.57629
G1 X101.52 Y98.922 E32.63845
G1 X100.56 Y99.513 E32.70594
G1 X99.603 Y100.027 E32.77097
G1 X98.622 Y100.485 E32.83579
G1 X97.701 Y100.858 E32.89528
G1 X96.645 Y101.225 E32.96221
G1 X95.547 Y101.532 E33.03046
G1 X94.552 Y101.755 E33.09151
G1 X93.437 Y101.941 E33.15919
G1 X92.384 Y102.057 E33.22261
G1 X91.285 Y102.117 E33.2885
M204 S1000
G1 F300 E32.7885
G1 F600 Z0.52
G0 F9000 X73.567 Y107.314 Z0.52
M204 S2200
G1 F600 Z0.24
G1 F120 E33.2885
G1 F2903.2 X73.296 Y107.651 E33.32596
G1 F2975.2 X73.037 Y107.92 E33.35752
G1 F2968.2 X72.741 Y108.163 E33.38996
G1 F2954.3 X72.46 Y108.349 E33.41864
G1 F2961.2 X72.164 Y108.506 E33.44709
G1 F2978.7 X71.732 Y108.667 E33.48601
G1 F2964.7 X71.516 Y108.721 E33.50489
G1 F2950.8 X71.175 Y108.779 E33.53437
G1 F2961.2 X70.829 Y108.803 E33.56382
G1 X70.482 Y108.785 E33.59332
G1 F2964.7 X70.319 Y108.767 E33.60723
G1 X70.155 Y108.736 E33.62139
G1 X69.825 Y108.654 E33.65022
G1 F2971.7 X69.483 Y108.526 E33.68112
G1 F2964.7 X69.191 Y108.378 E33.70889
G1 F2961.2 X68.907 Y108.198 E33.73744
G1 F2968.2 X68.58 Y107.935 E33.77299
G1 F2978.7 X68.285 Y107.622 E33.8093
G1 F2968.2 X68.166 Y107.469 E33.82572
G1 F2957.7 X67.966 Y107.168 E33.85644
G1 F2964.7 X67.816 Y106.874 E33.88443
G1 F2957.7 X67.696 Y106.562 E33.91285
G1 F2954.3 X67.607 Y106.246 E33.94079
G1 F2961.2 X67.553 Y105.945 E33.96676
G1 F2957.7 X67.528 Y105.553 E34.00015
G1 F2954.3 X67.544 Y105.211 E34.02929
G1 F2968.2 X67.59 Y104.886 E34.0571
G1 F2971.7 X67.679 Y104.543 E34.08708
G1 F2957.7 X67.802 Y104.222 E34.11631
G1 F2954.3 X67.955 Y103.914 E34.14558
G1 F2961.2 X68.162 Y103.59 E34.17822
G1 F2957.7 X68.411 Y103.284 E34.21176
G1 F2883.3 X68.722 Y102.969 E34.25037
M204 S1000
G1 F300 E33.75037
G1 F600 Z0.52
G0 F9000 X70.349 Y101.81 Z0.52
M204 S2200
G1 F600 Z0.24
G1 F120 E34.25037
G1 F4200 X70.639 Y101.785 E34.26779
G1 X71.11 Y101.792 E34.29599
G1 X71.563 Y101.857 E34.32339
G1 X71.724 Y101.895 E34.33329
G1 X72.148 Y102.028 E34.3599
G1 X72.607 Y102.244 E34.39027
G1 X73.035 Y102.517 E34.42066
