(Project mat-cont)
(Created by Estlcam version 11 build 11.245)
(Machining time about 00:01:48 hours)

(Required tools:)
(1/8")
G21
G90
G94
M03 S10000
G00 X0.0000 Y0.0000 Z0.0000 F4000
G00 Z8.0000 F


(No. 1: Part 12)
G00 X-1.5900 Y49.8313 F4000
G00 Z0.5000 F
G01 Z0.0000 F120 S10000
G01 Y46.6559 Z-2.7500
G01 Y49.8313 Z-5.5000
G01 Y4.2426 F1200
G03 X-1.1243 Y3.1183 I1.5900 J0.0000
G01 X3.1183 Y-1.1243
G03 X4.2426 Y-1.5900 I1.1243 J1.1243
G01 X47.0029
G00 Z-4.0000 F
G01 X53.1829 F1200
G01 X54.0489 Z-4.7500 F120
G01 X53.1829 Z-5.5000
G01 X95.9431 F1200
G03 X97.0674 Y-1.1243 I0.0000 J1.5900
G01 X102.7243 Y4.5326
G03 X103.1900 Y5.6569 I-1.1243 J1.1243
G01 Y47.3764
G00 Z-4.0000 F
G01 Y53.5564 F1200
G01 Y54.4225 Z-4.7500 F120
G01 Y53.5564 Z-5.5000
G01 Y95.2760 F1200
G03 X95.2760 Y103.1900 I-7.9380 J-0.0241
G01 X50.7280
G00 Z-4.0000 F
G01 X44.5480 F1200
G01 X43.6820 Z-4.7500 F120
G01 X44.5480 Z-5.5000
G01 X0.0000 F1200
G03 X-1.5900 Y101.6000 I0.0000 J-1.5900
G01 Y56.0113
G00 Z-4.0000 F
G01 Y49.8313 F1200
G00 Z8.0000 F
G00 X0.0000 Y0.0000 F4000

M05
M30
