(Project mat-hole-logo)
(Created by Estlcam version 11 build 11.245)
(Machining time about 00:06:55 hours)

(Required tools:)
(1/8")
(1mm)
G21
G90
G94
M03 S10000
G00 X0.0000 Y0.0000 Z0.0000 F4000
G00 Z8.0000 F


(No. 1: Hole 16)
G00 X25.9379 Y25.5659 F4000
G00 Z0.5000 F
G01 Z0.0000 F120 S10000
G01 X26.6596 Z-0.6250
G01 X25.9379 Z-1.2500
G01 X31.4031 F1200
G01 X31.2050 Y25.7249
G01 X25.7813
G01 X25.6248 Y25.8839
G01 X31.0099
G01 X30.8181 Y26.0429
G01 X25.4724
G01 X25.3207 Y26.2019
G01 X30.6291
G01 X30.4431 Y26.3609
G01 X25.1705
G01 X25.0235 Y26.5199
G01 X30.2600
G01 X30.0795 Y26.6789
G01 X24.8764
G01 X24.7328 Y26.8379
G01 X29.9021
G01 X29.7265 Y26.9969
G01 X24.5902
G01 X24.4483 Y27.1559
G01 X29.5546
G01 X29.3838 Y27.3149
G01 X24.3103
G01 X24.1722 Y27.4739
G01 X29.2171
G01 X29.0507 Y27.6329
G01 X24.0362
G01 X23.9024 Y27.7919
G01 X28.8891
G01 X28.7276 Y27.9509
G01 X23.7686
G01 X23.6381 Y28.1099
G01 X28.5702
G01 X28.4137 Y28.2689
G01 X23.5085
G01 X23.3793 Y28.4279
G01 X28.2600
G01 X28.1083 Y28.5869
G01 X23.2538
G01 X23.1282 Y28.7459
G01 X27.9580
G01 X27.8109 Y28.9049
G01 X23.0040
G01 X22.8825 Y29.0639
G01 X27.6639
G01 X27.5214 Y29.2229
G01 X22.7610
G01 X22.6415 Y29.3819
G01 X27.3788
G01 X27.2392 Y29.5409
G01 X22.5239
G01 X22.4063 Y29.6999
G01 X27.1011
G01 X26.9643 Y29.8589
G01 X22.2914
G01 X22.1775 Y30.0179
G01 X26.8305
G01 X26.6967 Y30.1769
G01 X22.0637
G01 X21.9531 Y30.3359
G01 X26.5666
G01 X26.4370 Y30.4949
G01 X21.8430
G01 X21.7329 Y30.6539
G01 X26.3091
G01 X26.1836 Y30.8129
G01 X21.6264
G01 X21.5199 Y30.9719
G01 X26.0581
G01 X25.9364 Y31.1309
G01 X21.4138
G01 X21.3109 Y31.2899
G01 X25.8149
G01 X25.6952 Y31.4489
G01 X21.2080
G01 X21.1055 Y31.6079
G01 X25.5775
G01 X25.4599 Y31.7669
G01 X21.0062
G01 X20.9068 Y31.9259
G01 X25.3458
G01 X25.2320 Y32.0849
G01 X20.8079
G01 X20.7120 Y32.2439
G01 X25.1196
G01 X25.0095 Y32.4029
G01 X20.6160
G01 X20.5206 Y32.5619
G01 X24.8994
G01 X24.7922 Y32.7209
G01 X20.4280
G01 X20.3355 Y32.8799
G01 X24.6857
G01 X24.5799 Y33.0389
G01 X20.2433
G01 X20.1541 Y33.1979
G01 X24.4770
G01 X24.3741 Y33.3569
G01 X20.0648
G01 X19.9758 Y33.5159
G01 X24.2732
G01 X24.1738 Y33.6749
G01 X19.8898
G01 X19.8038 Y33.8339
G01 X24.0744
G01 X23.9780 Y33.9929
G01 X19.7178
G01 X19.6350 Y34.1519
G01 X23.8821
G01 X23.7868 Y34.3109
G01 X19.5522
G01 X19.4694 Y34.4699
G01 X23.6942
G01 X23.6016 Y34.6289
G01 X19.3894
G01 X19.3098 Y34.7879
G01 X23.5106
G01 X23.4214 Y34.9469
G01 X19.2301
G01 X19.1528 Y35.1059
G01 X23.3321
G01 X23.2452 Y35.2649
G01 X19.0763
G01 X18.9998 Y35.4239
G01 X23.1592
G01 X23.0732 Y35.5829
G01 X18.9250
G01 X18.8516 Y35.7419
G01 X22.9903
G01 X22.9075 Y35.9009
G01 X18.7782
G01 X18.7059 Y36.0599
G01 X22.8252
G01 X22.7456 Y36.2189
G01 X18.6355
G01 X18.5651 Y36.3779
G01 X22.6660
G01 X22.5875 Y36.5369
G01 X18.4952
G01 X18.4278 Y36.6959
G01 X22.5110
G01 X22.4345 Y36.8549
G01 X18.3604
G01 X18.2929 Y37.0139
G01 X22.3595
G01 X22.2861 Y37.1729
G01 X18.2283
G01 X18.1638 Y37.3319
G01 X22.2126
G01 X22.1412 Y37.4909
G01 X18.0993
G01 X18.0369 Y37.6499
G01 X22.0707
G01 X22.0003 Y37.8089
G01 X17.9753
G01 X17.9138 Y37.9679
G01 X21.9322
G01 X21.8648 Y38.1269
G01 X17.8534
G01 X17.7947 Y38.2859
G01 X21.7974
G01 X21.7326 Y38.4449
G01 X17.7360
G01 X17.6778 Y38.6039
G01 X21.6681
G01 X21.6036 Y38.7629
G01 X17.6219
G01 X17.5661 Y38.9219
G01 X21.5419
G01 X21.4803 Y39.0809
G01 X17.5102
G01 X17.4567 Y39.2399
G01 X21.4188
G01 X21.3601 Y39.3989
G01 X17.4037
G01 X17.3507 Y39.5579
G01 X21.3014
G01 X21.2430 Y39.7169
G01 X17.2991
G01 X17.2488 Y39.8759
G01 X21.1871
G01 X21.1313 Y40.0349
G01 X17.1985
G01 X17.1488 Y40.1939
G01 X21.0757
G01 X21.0226 Y40.3529
G01 X17.1013
G01 X17.0538 Y40.5119
G01 X20.9696
G01 X20.9169 Y40.6709
G01 X17.0063
G01 X16.9610 Y40.8299
G01 X20.8666
G01 X20.8164 Y40.9889
G01 X16.9162
G01 X16.8714 Y41.1479
G01 X20.7664
G01 X20.7189 Y41.3069
G01 X16.8278
G01 X16.7858 Y41.4659
G01 X20.6715
G01 X20.6242 Y41.6249
G01 X16.7437
G01 X16.7018 Y41.7839
G01 X20.5795
G01 X20.5347 Y41.9429
G01 X16.6624
G01 X16.6230 Y42.1019
G01 X20.4901
G01 X20.4480 Y42.2609
G01 X16.5836
G01 X16.5459 Y42.4199
G01 X20.4060
G01 X20.3640 Y42.5789
G01 X16.5092
G01 X16.4725 Y42.7379
G01 X20.3246
G01 X20.2852 Y42.8969
G01 X16.4364
G01 X16.4023 Y43.0559
G01 X20.2458
G01 X20.2090 Y43.2149
G01 X16.3682
G01 X16.3341 Y43.3739
G01 X20.1723
G01 X20.1356 Y43.5329
G01 X16.3022
G01 X16.2707 Y43.6919
G01 X20.1012
G01 X20.0672 Y43.8509
G01 X16.2392
G01 X16.2087 Y44.0099
G01 X20.0331
G01 X20.0012 Y44.1689
G01 X16.1798
G01 X16.1510 Y44.3279
G01 X19.9697
G01 X19.9382 Y44.4869
G01 X16.1221
G01 X16.0956 Y44.6459
G01 X19.9087
G01 X19.8798 Y44.8049
G01 X16.0693
G01 X16.0430 Y44.9639
G01 X19.8509
G01 X19.8237 Y45.1229
G01 X16.0179
G01 X15.9942 Y45.2819
G01 X19.7975
G01 X19.7712 Y45.4409
G01 X15.9705
G01 X15.9468 Y45.5999
G01 X19.7463
G01 X19.7226 Y45.7589
G01 X15.9255
G01 X15.9044 Y45.9179
G01 X19.6989
G01 X19.6762 Y46.0769
G01 X15.8832
G01 X15.8633 Y46.2359
G01 X19.6551
G01 X19.6339 Y46.3949
G01 X15.8447
G01 X15.8260 Y46.5539
G01 X19.6135
G01 X19.5949 Y46.7129
G01 X15.8075
G01 X15.7914 Y46.8719
G01 X19.5763
G01 X19.5581 Y47.0309
G01 X15.7753
G01 X15.7592 Y47.1899
G01 X19.5420
G01 X19.5259 Y47.3489
G01 X15.7444
G01 X15.7308 Y47.5079
G01 X19.5099
G01 X19.4963 Y47.6669
G01 X15.7172
G01 X15.7037 Y47.8259
G01 X19.4827
G01 X19.4691 Y47.9849
G01 X15.6926
G01 X15.6815 Y48.1439
G01 X19.4578
G01 X19.4467 Y48.3029
G01 X15.6703
G01 X15.6606 Y48.4619
G01 X19.4356
G01 X19.4264 Y48.6209
G01 X15.6520
G01 X15.6434 Y48.7799
G01 X19.4178
G01 X19.4092 Y48.9389
G01 X15.6348
G01 X15.6287 Y49.0979
G01 X19.4022
G01 X19.3960 Y49.2569
G01 X15.6225
G01 X15.6164 Y49.4159
G01 X19.3899
G01 X19.3850 Y49.5749
G01 X15.6115
G01 X15.6078 Y49.7339
G01 X19.3813
G01 X19.3776 Y49.8929
G01 X15.6042
G01 X15.6005 Y50.0519
G01 X19.3748
G01 X19.3736 Y50.2109
G01 X15.5993
G01 X15.5980 Y50.3699
G01 X19.3724
G01 X19.3717 Y50.5289
G01 X15.5968
G01 Y50.6879
G01 X19.3729
G01 X19.3741 Y50.8469
G01 X15.5981
G01 X15.5993 Y51.0059
G01 X19.3756
G01 X19.3792 Y51.1649
G01 X15.6005
G01 X15.6042 Y51.3239
G01 X19.3829
G01 X19.3866 Y51.4829
G01 X15.6079
G01 X15.6115 Y51.6419
G01 X19.3925
G01 X19.3987 Y51.8009
G01 X15.6164
G01 X15.6225 Y51.9599
G01 X19.4048
G01 X19.4129 Y52.1189
G01 X15.6287
G01 X15.6348 Y52.2779
G01 X19.4215
G01 X19.4302 Y52.4369
G01 X15.6434
G01 X15.6520 Y52.5959
G01 X19.4404
G01 X19.4515 Y52.7549
G01 X15.6606
G01 X15.6704 Y52.9139
G01 X19.4626
G01 X19.4750 Y53.0729
G01 X15.6815
G01 X15.6926 Y53.2319
G01 X19.4886
G01 X19.5022 Y53.3909
G01 X15.7037
G01 X15.7172 Y53.5499
G01 X19.5167
G01 X19.5328 Y53.7089
G01 X15.7308
G01 X15.7444 Y53.8679
G01 X19.5489
G01 X19.5657 Y54.0269
G01 X15.7592
G01 X15.7753 Y54.1859
G01 X19.5843
G01 X19.6029 Y54.3449
G01 X15.7914
G01 X15.8075 Y54.5039
G01 X19.6218
G01 X19.6430 Y54.6629
G01 X15.8261
G01 X15.8447 Y54.8219
G01 X19.6642
G01 X19.6854 Y54.9809
G01 X15.8634
G01 X15.8832 Y55.1399
G01 X19.7091
G01 X19.7328 Y55.2989
G01 X15.9044
G01 X15.9256 Y55.4579
G01 X19.7565
G01 X19.7825 Y55.6169
G01 X15.9468
G01 X15.9705 Y55.7759
G01 X19.8088
G01 X19.8351 Y55.9349
G01 X15.9942
G01 X16.0180 Y56.0939
G01 X19.8634
G01 X19.8923 Y56.2529
G01 X16.0431
G01 X16.0694 Y56.4119
G01 X19.9211
G01 X19.9518 Y56.5709
G01 X16.0957
G01 X16.1222 Y56.7299
G01 X19.9833
G01 X20.0147 Y56.8889
G01 X16.1510
G01 X16.1799 Y57.0479
G01 X20.0478
G01 X20.0818 Y57.2069
G01 X16.2088
G01 X16.2393 Y57.3659
G01 X20.1159
G01 X20.1514 Y57.5249
G01 X16.2707
G01 X16.3022 Y57.6839
G01 X20.1881
G01 X20.2249 Y57.8429
G01 X16.3342
G01 X16.3683 Y58.0019
G01 X20.2628
G01 X20.3022 Y58.1609
G01 X16.4024
G01 X16.4365 Y58.3199
G01 X20.3415
G01 X20.3820 Y58.4789
G01 X16.4726
G01 X16.5093 Y58.6379
G01 X20.4241
G01 X20.4662 Y58.7969
G01 X16.5460
G01 X16.5837 Y58.9559
G01 X20.5092
G01 X20.5540 Y59.1149
G01 X16.6231
G01 X16.6625 Y59.2739
G01 X20.5987
G01 X20.6444 Y59.4329
G01 X16.7019
G01 X16.7438 Y59.5919
G01 X20.6919
G01 X20.7394 Y59.7509
G01 X16.7859
G01 X16.8279 Y59.9099
G01 X20.7877
G01 X20.8380 Y60.0689
G01 X16.8715
G01 X16.9163 Y60.2279
G01 X20.8883
G01 X20.9394 Y60.3869
G01 X16.9610
G01 X17.0063 Y60.5459
G01 X20.9925
G01 X21.0455 Y60.7049
G01 X17.0538
G01 X17.1013 Y60.8639
G01 X21.0995
G01 X21.1553 Y61.0229
G01 X17.1488
G01 X17.1986 Y61.1819
G01 X21.2111
G01 X21.2680 Y61.3409
G01 X17.2489
G01 X17.2991 Y61.4999
G01 X21.3267
G01 X21.3854 Y61.6589
G01 X17.3508
G01 X17.4038 Y61.8179
G01 X21.4453
G01 X21.5068 Y61.9769
G01 X17.4568
G01 X17.5103 Y62.1359
G01 X21.5684
G01 X21.6314 Y62.2949
G01 X17.5662
G01 X17.6221 Y62.4539
G01 X21.6958
G01 X21.7603 Y62.6129
G01 X17.6779
G01 X17.7362 Y62.7719
G01 X21.8264
G01 X21.8938 Y62.9309
G01 X17.7949
G01 X17.8536 Y63.0899
G01 X21.9613
G01 X22.0306 Y63.2489
G01 X17.9139
G01 X17.9755 Y63.4079
G01 X22.1011
G01 X22.1715 Y63.5669
G01 X18.0370
G01 X18.0995 Y63.7259
G01 X22.2442
G01 X22.3177 Y63.8849
G01 X18.1639
G01 X18.2284 Y64.0439
G01 X22.3911
G01 X22.4674 Y64.2029
G01 X18.2930
G01 X18.3605 Y64.3619
G01 X22.5439
G01 X22.6206 Y64.5209
G01 X18.4279
G01 X18.4953 Y64.6799
G01 X22.7003
G01 X22.7799 Y64.8389
G01 X18.5652
G01 X18.6356 Y64.9979
G01 X22.8603
G01 X22.9431 Y65.1569
G01 X18.7060
G01 X18.7783 Y65.3159
G01 X23.0259
G01 X23.1102 Y65.4749
G01 X18.8517
G01 X18.9251 Y65.6339
G01 X23.1962
G01 X23.2822 Y65.7929
G01 X18.9999
G01 X19.0764 Y65.9519
G01 X23.3705
G01 X23.4598 Y66.1109
G01 X19.1529
G01 X19.2303 Y66.2699
G01 X23.5490
G01 X23.6414 Y66.4289
G01 X19.3099
G01 X19.3895 Y66.5879
G01 X23.7340
G01 X23.8274 Y66.7469
G01 X19.4695
G01 X19.5523 Y66.9059
G01 X23.9233
G01 X24.0193 Y67.0649
G01 X19.6351
G01 X19.7179 Y67.2239
G01 X24.1171
G01 X24.2165 Y67.3829
G01 X19.8039
G01 X19.8899 Y67.5419
G01 X24.3159
G01 X24.4184 Y67.7009
G01 X19.9759
G01 X20.0649 Y67.8599
G01 X24.5213
G01 X24.6251 Y68.0189
G01 X20.1542
G01 X20.2434 Y68.1779
G01 X24.7315
G01 X24.8380 Y68.3369
G01 X20.3356
G01 X20.4282 Y68.4959
G01 X24.9467
G01 X25.0568 Y68.6549
G01 X20.5207
G01 X20.6162 Y68.8139
G01 X25.1671
G01 X25.2809 Y68.9729
G01 X20.7121
G01 X20.8081 Y69.1319
G01 X25.3948
G01 X25.5105 Y69.2909
G01 X20.9069
G01 X21.0063 Y69.4499
G01 X25.6281
G01 X25.7458 Y69.6089
G01 X21.1057
G01 X21.2081 Y69.7679
G01 X25.8671
G01 X25.9887 Y69.9269
G01 X21.3110
G01 X21.4139 Y70.0859
G01 X26.1120
G01 X26.2376 Y70.2449
G01 X21.5201
G01 X21.6266 Y70.4039
G01 X26.3631
G01 X26.4926 Y70.5629
G01 X21.7331
G01 X21.8432 Y70.7219
G01 X26.6222
G01 X26.7542 Y70.8809
G01 X21.9533
G01 X22.0639 Y71.0399
G01 X26.8880
G01 X27.0224 Y71.1989
G01 X22.1777
G01 X22.2915 Y71.3579
G01 X27.1605
G01 X27.2986 Y71.5169
G01 X22.4064
G01 X22.5241 Y71.6759
G01 X27.4401
G01 X27.5826 Y71.8349
G01 X22.6417
G01 X22.7611 Y71.9939
G01 X27.7271
G01 X27.8741 Y72.1529
G01 X22.8826
G01 X23.0042 Y72.3119
G01 X28.0217
G01 X28.1734 Y72.4709
G01 X23.1284
G01 X23.2539 Y72.6299
G01 X28.3252
G01 X28.4809 Y72.7889
G01 X23.3794
G01 X23.5087 Y72.9479
G01 X28.6375
G01 X28.7970 Y73.1069
G01 X23.6383
G01 X23.7687 Y73.2659
G01 X28.9585
G01 X29.1221 Y73.4249
G01 X23.9025
G01 X24.0363 Y73.5839
G01 X29.2887
G01 X29.4565 Y73.7429
G01 X24.1723
G01 X24.3104 Y73.9019
G01 X29.6285
G01 X29.8009 Y74.0609
G01 X24.4485
G01 X24.5904 Y74.2199
G01 X29.9782
G01 X30.1556 Y74.3789
G01 X24.7329
G01 X24.8765 Y74.5379
G01 X30.3386
G01 X30.5217 Y74.6969
G01 X25.0236
G01 X25.1707 Y74.8559
G01 X30.7102
G01 X30.8992 Y75.0149
G01 X25.3208
G01 X25.4726 Y75.1739
G01 X31.0937
G01 X31.2888 Y75.3329
G01 X25.6249
G01 X25.7815 Y75.4919
G01 X31.4896
G01 X31.6910 Y75.6509
G01 X25.9380
G01 X26.0977 Y75.8099
G01 X31.8988
G01 X32.1072 Y75.9689
G01 X26.2592
G01 X26.4216 Y76.1279
G01 X32.3221
G01 X32.5383 Y76.2869
G01 X26.5882
G01 X26.7548 Y76.4459
G01 X32.7604
G01 X32.9852 Y76.6049
G01 X26.9254
G01 X27.0973 Y76.7639
G01 X33.2148
G01 X33.4488 Y76.9229
G01 X27.2713
G01 X27.4487 Y77.0819
G01 X33.6863
G01 X33.9305 Y77.2409
G01 X27.6262
G01 X27.8093 Y77.3999
G01 X34.1771
G01 X34.4314 Y77.5589
G01 X27.9924
G01 X28.1797 Y77.7179
G01 X34.6898
G01 X34.9534 Y77.8769
G01 X28.3686
G01 X28.5604 Y78.0359
G01 X35.2247
G01 X35.5001 Y78.1949
G01 X28.7555
G01 X28.9521 Y78.3539
G01 X35.7834
G01 X36.0740 Y78.5129
G01 X29.1535
G01 X29.3554 Y78.6719
G01 X36.3702
G01 X36.6756 Y78.8309
G01 X29.5634
G01 X29.7715 Y78.9899
G01 X36.9900
G01 X37.3118 Y79.1489
G01 X29.9860
G01 X30.2009 Y79.3079
G01 X37.6422
G01 X37.9860 Y79.4669
G01 X30.4219
G01 X30.6440 Y79.6259
G01 X38.3397
G01 X38.7047 Y79.7849
G01 X30.8723
G01 X31.1019 Y79.9439
G01 X39.0821
G01 X39.4742 Y80.1029
G01 X31.3379
G01 X31.5754 Y80.2619
G01 X39.8839
G01 X40.3111 Y80.4209
G01 X31.8200
G01 X32.0657 Y80.5799
G01 X40.7579
G01 X41.2271 Y80.7389
G01 X32.3198
G01 X32.5751 Y80.8979
G01 X41.7220
G01 X42.2468 Y81.0569
G01 X32.8386
G01 X33.1049 Y81.2159
G01 X42.8064
G01 X43.4146 Y81.3749
G01 X33.3780
G01 X33.6564 Y81.5339
G01 X44.0764
G01 X44.8069 Y81.6929
G01 X33.9397
G01 X34.2317 Y81.8519
G01 X45.6428
G01 X46.6340 Y82.0109
G01 X34.5273
G01 X34.8327 Y82.1699
G01 X47.9244
G01 X50.4393 Y82.3289
G01 X35.1445
G01 X35.4620 Y82.4879
G01 X66.7306
G01 X67.0481 Y82.3289
G01 X51.9930
G01 X54.5081 Y82.1699
G01 X67.3598
G01 X67.6652 Y82.0109
G01 X55.7984
G01 X56.7896 Y81.8519
G01 X67.9608
G01 X68.2528 Y81.6929
G01 X57.6256
G01 X58.3560 Y81.5339
G01 X68.5361
G01 X68.8145 Y81.3749
G01 X59.0179
G01 X59.6260 Y81.2159
G01 X69.0876
G01 X69.3539 Y81.0569
G01 X60.1856
G01 X60.7104 Y80.8979
G01 X69.6174
G01 X69.8727 Y80.7389
G01 X61.2053
G01 X61.6744 Y80.5799
G01 X70.1268
G01 X70.3725 Y80.4209
G01 X62.1212
G01 X62.5483 Y80.2619
G01 X70.6171
G01 X70.8546 Y80.1029
G01 X62.9581
G01 X63.3502 Y79.9439
G01 X71.0906
G01 X71.3202 Y79.7849
G01 X63.7276
G01 X64.0925 Y79.6259
G01 X71.5485
G01 X71.7705 Y79.4669
G01 X64.4463
G01 X64.7900 Y79.3079
G01 X71.9916
G01 X72.2065 Y79.1489
G01 X65.1205
G01 X65.4423 Y78.9899
G01 X72.4210
G01 X72.6290 Y78.8309
G01 X65.7567
G01 X66.0620 Y78.6719
G01 X72.8371
G01 X73.0390 Y78.5129
G01 X66.3582
G01 X66.6489 Y78.3539
G01 X73.2404
G01 X73.4370 Y78.1949
G01 X66.9321
G01 X67.2076 Y78.0359
G01 X73.6321
G01 X73.8239 Y77.8769
G01 X67.4789
G01 X67.7424 Y77.7179
G01 X74.0128
G01 X74.2001 Y77.5589
G01 X68.0007
G01 X68.2551 Y77.3999
G01 X74.3832
G01 X74.5663 Y77.2409
G01 X68.5017
G01 X68.7459 Y77.0819
G01 X74.7438
G01 X74.9212 Y76.9229
G01 X68.9833
G01 X69.2174 Y76.7639
G01 X75.0951
G01 X75.2671 Y76.6049
G01 X69.4470
G01 X69.6718 Y76.4459
G01 X75.4377
G01 X75.6043 Y76.2869
G01 X69.8938
G01 X70.1101 Y76.1279
G01 X75.7709
G01 X75.9333 Y75.9689
G01 X70.3249
G01 X70.5333 Y75.8099
G01 X76.0948
G01 X76.2545 Y75.6509
G01 X70.7411
G01 X70.9425 Y75.4919
G01 X76.4110
G01 X76.5676 Y75.3329
G01 X71.1434
G01 X71.3385 Y75.1739
G01 X76.7199
G01 X76.8716 Y75.0149
G01 X71.5330
G01 X71.7219 Y74.8559
G01 X77.0218
G01 X77.1689 Y74.6969
G01 X71.9104
G01 X72.0935 Y74.5379
G01 X77.3159
G01 X77.4596 Y74.3789
G01 X72.2765
G01 X72.4539 Y74.2199
G01 X77.6021
G01 X77.7440 Y74.0609
G01 X72.6313
G01 X72.8037 Y73.9019
G01 X77.8821
G01 X78.0202 Y73.7429
G01 X72.9756
G01 X73.1434 Y73.5839
G01 X78.1562
G01 X78.2900 Y73.4249
G01 X73.3101
G01 X73.4736 Y73.2659
G01 X78.4238
G01 X78.5542 Y73.1069
G01 X73.6351
G01 X73.7946 Y72.9479
G01 X78.6838
G01 X78.8131 Y72.7889
G01 X73.9512
G01 X74.1069 Y72.6299
G01 X78.9386
G01 X79.0641 Y72.4709
G01 X74.2587
G01 X74.4104 Y72.3119
G01 X79.1883
G01 X79.3098 Y72.1529
G01 X74.5580
G01 X74.7050 Y71.9939
G01 X79.4314
G01 X79.5508 Y71.8349
G01 X74.8495
G01 X74.9920 Y71.6759
G01 X79.6684
G01 X79.7861 Y71.5169
G01 X75.1335
G01 X75.2716 Y71.3579
G01 X79.9010
G01 X80.0148 Y71.1989
G01 X75.4097
G01 X75.5442 Y71.0399
G01 X80.1286
G01 X80.2392 Y70.8809
G01 X75.6779
G01 X75.8099 Y70.7219
G01 X80.3493
G01 X80.4594 Y70.5629
G01 X75.9395
G01 X76.0690 Y70.4039
G01 X80.5659
G01 X80.6724 Y70.2449
G01 X76.1945
G01 X76.3201 Y70.0859
G01 X80.7786
G01 X80.8815 Y69.9269
G01 X76.4434
G01 X76.5650 Y69.7679
G01 X80.9844
G01 X81.0868 Y69.6089
G01 X76.6864
G01 X76.8040 Y69.4499
G01 X81.1862
G01 X81.2856 Y69.2909
G01 X76.9217
G01 X77.0373 Y69.1319
G01 X81.3844
G01 X81.4803 Y68.9729
G01 X77.1512
G01 X77.2650 Y68.8139
G01 X81.5763
G01 X81.6717 Y68.6549
G01 X77.3753
G01 X77.4854 Y68.4959
G01 X81.7643
G01 X81.8569 Y68.3369
G01 X77.5941
G01 X77.7006 Y68.1779
G01 X81.9490
G01 X82.0383 Y68.0189
G01 X77.8070
G01 X77.9108 Y67.8599
G01 X82.1275
G01 X82.2166 Y67.7009
G01 X78.0137
G01 X78.1162 Y67.5419
G01 X82.3025
G01 X82.3885 Y67.3829
G01 X78.2156
G01 X78.3150 Y67.2239
G01 X82.4745
G01 X82.5574 Y67.0649
G01 X78.4128
G01 X78.5087 Y66.9059
G01 X82.6401
G01 X82.7229 Y66.7469
G01 X78.6047
G01 X78.6981 Y66.5879
G01 X82.8030
G01 X82.8826 Y66.4289
G01 X78.7906
G01 X78.8831 Y66.2699
G01 X82.9622
G01 X83.0395 Y66.1109
G01 X78.9723
G01 X79.0616 Y65.9519
G01 X83.1160
G01 X83.1925 Y65.7929
G01 X79.1499
G01 X79.2359 Y65.6339
G01 X83.2673
G01 X83.3407 Y65.4749
G01 X79.3219
G01 X79.4062 Y65.3159
G01 X83.4142
G01 X83.4864 Y65.1569
G01 X79.4890
G01 X79.5717 Y64.9979
G01 X83.5568
G01 X83.6273 Y64.8389
G01 X79.6522
G01 X79.7318 Y64.6799
G01 X83.6971
G01 X83.7646 Y64.5209
G01 X79.8114
G01 X79.8882 Y64.3619
G01 X83.8320
G01 X83.8994 Y64.2029
G01 X79.9647
G01 X80.0410 Y64.0439
G01 X83.9640
G01 X84.0285 Y63.8849
G01 X80.1144
G01 X80.1879 Y63.7259
G01 X84.0930
G01 X84.1554 Y63.5669
G01 X80.2606
G01 X80.3310 Y63.4079
G01 X84.2170
G01 X84.2786 Y63.2489
G01 X80.4014
G01 X80.4708 Y63.0899
G01 X84.3389
G01 X84.3976 Y62.9309
G01 X80.5382
G01 X80.6057 Y62.7719
G01 X84.4563
G01 X84.5146 Y62.6129
G01 X80.6718
G01 X80.7363 Y62.4539
G01 X84.5704
G01 X84.6263 Y62.2949
G01 X80.8007
G01 X80.8637 Y62.1359
G01 X84.6821
G01 X84.7356 Y61.9769
G01 X80.9253
G01 X80.9868 Y61.8179
G01 X84.7886
G01 X84.8417 Y61.6589
G01 X81.0467
G01 X81.1054 Y61.4999
G01 X84.8933
G01 X84.9435 Y61.3409
G01 X81.1641
G01 X81.2209 Y61.1819
G01 X84.9938
G01 X85.0436 Y61.0229
G01 X81.2768
G01 X81.3326 Y60.8639
G01 X85.0911
G01 X85.1386 Y60.7049
G01 X81.3866
G01 X81.4396 Y60.5459
G01 X85.1861
G01 X85.2314 Y60.3869
G01 X81.4927
G01 X81.5438 Y60.2279
G01 X85.2761
G01 X85.3209 Y60.0689
G01 X81.5941
G01 X81.6443 Y59.9099
G01 X85.3645
G01 X85.4066 Y59.7509
G01 X81.6927
G01 X81.7402 Y59.5919
G01 X85.4486
G01 X85.4906 Y59.4329
G01 X81.7877
G01 X81.8333 Y59.2739
G01 X85.5300
G01 X85.5694 Y59.1149
G01 X81.8781
G01 X81.9229 Y58.9559
G01 X85.6087
G01 X85.6464 Y58.7969
G01 X81.9659
G01 X82.0080 Y58.6379
G01 X85.6831
G01 X85.7198 Y58.4789
G01 X82.0501
G01 X82.0905 Y58.3199
G01 X85.7560
G01 X85.7900 Y58.1609
G01 X82.1299
G01 X82.1693 Y58.0019
G01 X85.8241
G01 X85.8582 Y57.8429
G01 X82.2072
G01 X82.2440 Y57.6839
G01 X85.8902
G01 X85.9217 Y57.5249
G01 X82.2807
G01 X82.3162 Y57.3659
G01 X85.9531
G01 X85.9837 Y57.2069
G01 X82.3502
G01 X82.3843 Y57.0479
G01 X86.0125
G01 X86.0414 Y56.8889
G01 X82.4174
G01 X82.4488 Y56.7299
G01 X86.0703
G01 X86.0968 Y56.5709
G01 X82.4803
G01 X82.5109 Y56.4119
G01 X86.1231
G01 X86.1493 Y56.2529
G01 X82.5398
G01 X82.5687 Y56.0939
G01 X86.1745
G01 X86.1982 Y55.9349
G01 X82.5970
G01 X82.6233 Y55.7759
G01 X86.2219
G01 X86.2456 Y55.6169
G01 X82.6496
G01 X82.6756 Y55.4579
G01 X86.2668
G01 X86.2880 Y55.2989
G01 X82.6993
G01 X82.7230 Y55.1399
G01 X86.3092
G01 X86.3291 Y54.9809
G01 X82.7467
G01 X82.7679 Y54.8219
G01 X86.3477
G01 X86.3663 Y54.6629
G01 X82.7891
G01 X82.8102 Y54.5039
G01 X86.3849
G01 X86.4010 Y54.3449
G01 X82.8292
G01 X82.8478 Y54.1859
G01 X86.4171
G01 X86.4332 Y54.0269
G01 X82.8664
G01 X82.8832 Y53.8679
G01 X86.4480
G01 X86.4616 Y53.7089
G01 X82.8993
G01 X82.9154 Y53.5499
G01 X86.4752
G01 X86.4887 Y53.3909
G01 X82.9299
G01 X82.9435 Y53.2319
G01 X86.4998
G01 X86.5109 Y53.0729
G01 X82.9571
G01 X82.9695 Y52.9139
G01 X86.5220
G01 X86.5318 Y52.7549
G01 X82.9806
G01 X82.9917 Y52.5959
G01 X86.5404
G01 X86.5490 Y52.4369
G01 X83.0020
G01 X83.0106 Y52.2779
G01 X86.5576
G01 X86.5637 Y52.1189
G01 X83.0192
G01 X83.0272 Y51.9599
G01 X86.5699
G01 X86.5760 Y51.8009
G01 X83.0334
G01 X83.0396 Y51.6419
G01 X86.5809
G01 X86.5845 Y51.4829
G01 X83.0455
G01 X83.0492 Y51.3239
G01 X86.5882
G01 X86.5919 Y51.1649
G01 X83.0529
G01 X83.0565 Y51.0059
G01 X86.5931
G01 X86.5943 Y50.8469
G01 X83.0580
G01 X83.0592 Y50.6879
G01 X86.5956
G01 Y50.5289
G01 X83.0604
G01 X83.0597 Y50.3699
G01 X86.5943
G01 X86.5931 Y50.2109
G01 X83.0585
G01 X83.0573 Y50.0519
G01 X86.5919
G01 X86.5882 Y49.8929
G01 X83.0545
G01 X83.0508 Y49.7339
G01 X86.5846
G01 X86.5809 Y49.5749
G01 X83.0471
G01 X83.0422 Y49.4159
G01 X86.5760
G01 X86.5699 Y49.2569
G01 X83.0360
G01 X83.0299 Y49.0979
G01 X86.5637
G01 X86.5576 Y48.9389
G01 X83.0229
G01 X83.0143 Y48.7799
G01 X86.5490
G01 X86.5404 Y48.6209
G01 X83.0056
G01 X82.9965 Y48.4619
G01 X86.5318
G01 X86.5220 Y48.3029
G01 X82.9854
G01 X82.9743 Y48.1439
G01 X86.5109
G01 X86.4998 Y47.9849
G01 X82.9630
G01 X82.9494 Y47.8259
G01 X86.4888
G01 X86.4752 Y47.6669
G01 X82.9358
G01 X82.9222 Y47.5079
G01 X86.4616
G01 X86.4480 Y47.3489
G01 X82.9062
G01 X82.8901 Y47.1899
G01 X86.4333
G01 X86.4171 Y47.0309
G01 X82.8740
G01 X82.8558 Y46.8719
G01 X86.4010
G01 X86.3849 Y46.7129
G01 X82.8372
G01 X82.8186 Y46.5539
G01 X86.3664
G01 X86.3477 Y46.3949
G01 X82.7982
G01 X82.7770 Y46.2359
G01 X86.3291
G01 X86.3092 Y46.0769
G01 X82.7558
G01 X82.7332 Y45.9179
G01 X86.2881
G01 X86.2669 Y45.7589
G01 X82.7095
G01 X82.6858 Y45.5999
G01 X86.2457
G01 X86.2220 Y45.4409
G01 X82.6609
G01 X82.6346 Y45.2819
G01 X86.1982
G01 X86.1745 Y45.1229
G01 X82.6083
G01 X82.5811 Y44.9639
G01 X86.1494
G01 X86.1231 Y44.8049
G01 X82.5523
G01 X82.5234 Y44.6459
G01 X86.0968
G01 X86.0703 Y44.4869
G01 X82.4939
G01 X82.4624 Y44.3279
G01 X86.0415
G01 X86.0126 Y44.1689
G01 X82.4309
G01 X82.3990 Y44.0099
G01 X85.9837
G01 X85.9532 Y43.8509
G01 X82.3649
G01 X82.3308 Y43.6919
G01 X85.9218
G01 X85.8903 Y43.5329
G01 X82.2965
G01 X82.2598 Y43.3739
G01 X85.8583
G01 X85.8242 Y43.2149
G01 X82.2231
G01 X82.1863 Y43.0559
G01 X85.7901
G01 X85.7560 Y42.8969
G01 X82.1469
G01 X82.1075 Y42.7379
G01 X85.7199
G01 X85.6832 Y42.5789
G01 X82.0681
G01 X82.0261 Y42.4199
G01 X85.6465
G01 X85.6088 Y42.2609
G01 X81.9841
G01 X81.9420 Y42.1019
G01 X85.5694
G01 X85.5300 Y41.9429
G01 X81.8974
G01 X81.8526 Y41.7839
G01 X85.4907
G01 X85.4487 Y41.6249
G01 X81.8079
G01 X81.7606 Y41.4659
G01 X85.4067
G01 X85.3646 Y41.3069
G01 X81.7132
G01 X81.6657 Y41.1479
G01 X85.3210
G01 X85.2763 Y40.9889
G01 X81.6157
G01 X81.5655 Y40.8299
G01 X85.2315
G01 X85.1862 Y40.6709
G01 X81.5152
G01 X81.4625 Y40.5119
G01 X85.1387
G01 X85.0912 Y40.3529
G01 X81.4094
G01 X81.3564 Y40.1939
G01 X85.0437
G01 X84.9939 Y40.0349
G01 X81.3008
G01 X81.2450 Y39.8759
G01 X84.9437
G01 X84.8934 Y39.7169
G01 X81.1892
G01 X81.1307 Y39.5579
G01 X84.8418
G01 X84.7887 Y39.3989
G01 X81.0720
G01 X81.0133 Y39.2399
G01 X84.7357
G01 X84.6822 Y39.0809
G01 X80.9518
G01 X80.8902 Y38.9219
G01 X84.6264
G01 X84.5705 Y38.7629
G01 X80.8285
G01 X80.7640 Y38.6039
G01 X84.5147
G01 X84.4564 Y38.4449
G01 X80.6995
G01 X80.6347 Y38.2859
G01 X84.3977
G01 X84.3390 Y38.1269
G01 X80.5673
G01 X80.4999 Y37.9679
G01 X84.2787
G01 X84.2171 Y37.8089
G01 X80.4318
G01 X80.3613 Y37.6499
G01 X84.1555
G01 X84.0931 Y37.4909
G01 X80.2909
G01 X80.2195 Y37.3319
G01 X84.0286
G01 X83.9642 Y37.1729
G01 X80.1460
G01 X80.0726 Y37.0139
G01 X83.8995
G01 X83.8321 Y36.8549
G01 X79.9976
G01 X79.9211 Y36.6959
G01 X83.7647
G01 X83.6973 Y36.5369
G01 X79.8446
G01 X79.7661 Y36.3779
G01 X83.6274
G01 X83.5570 Y36.2189
G01 X79.6865
G01 X79.6069 Y36.0599
G01 X83.4866
G01 X83.4143 Y35.9009
G01 X79.5246
G01 X79.4418 Y35.7419
G01 X83.3409
G01 X83.2674 Y35.5829
G01 X79.3589
G01 X79.2729 Y35.4239
G01 X83.1927
G01 X83.1162 Y35.2649
G01 X79.1869
G01 X79.1000 Y35.1059
G01 X83.0397
G01 X82.9623 Y34.9469
G01 X79.0107
G01 X78.9215 Y34.7879
G01 X82.8827
G01 X82.8031 Y34.6289
G01 X78.8305
G01 X78.7379 Y34.4699
G01 X82.7231
G01 X82.6403 Y34.3109
G01 X78.6453
G01 X78.5500 Y34.1519
G01 X82.5575
G01 X82.4747 Y33.9929
G01 X78.4541
G01 X78.3577 Y33.8339
G01 X82.3887
G01 X82.3027 Y33.6749
G01 X78.2583
G01 X78.1589 Y33.5159
G01 X82.2167
G01 X82.1277 Y33.3569
G01 X78.0579
G01 X77.9550 Y33.1979
G01 X82.0384
G01 X81.9492 Y33.0389
G01 X77.8522
G01 X77.7464 Y32.8799
G01 X81.8570
G01 X81.7644 Y32.7209
G01 X77.6399
G01 X77.5327 Y32.5619
G01 X81.6719
G01 X81.5764 Y32.4029
G01 X77.4226
G01 X77.3125 Y32.2439
G01 X81.4805
G01 X81.3845 Y32.0849
G01 X77.2001
G01 X77.0863 Y31.9259
G01 X81.2857
G01 X81.1863 Y31.7669
G01 X76.9722
G01 X76.8546 Y31.6079
G01 X81.0869
G01 X80.9845 Y31.4489
G01 X76.7369
G01 X76.6172 Y31.2899
G01 X80.8816
G01 X80.7787 Y31.1309
G01 X76.4957
G01 X76.3740 Y30.9719
G01 X80.6725
G01 X80.5661 Y30.8129
G01 X76.2485
G01 X76.1230 Y30.6539
G01 X80.4596
G01 X80.3495 Y30.4949
G01 X75.9952
G01 X75.8656 Y30.3359
G01 X80.2393
G01 X80.1288 Y30.1769
G01 X75.7355
G01 X75.6017 Y30.0179
G01 X80.0149
G01 X79.9011 Y29.8589
G01 X75.4678
G01 X75.3310 Y29.6999
G01 X79.7862
G01 X79.6686 Y29.5409
G01 X75.1929
G01 X75.0532 Y29.3819
G01 X79.5509
G01 X79.4315 Y29.2229
G01 X74.9107
G01 X74.7682 Y29.0639
G01 X79.3100
G01 X79.1884 Y28.9049
G01 X74.6212
G01 X74.4741 Y28.7459
G01 X79.0642
G01 X78.9387 Y28.5869
G01 X74.3238
G01 X74.1721 Y28.4279
G01 X78.8132
G01 X78.6839 Y28.2689
G01 X74.0184
G01 X73.8619 Y28.1099
G01 X78.5543
G01 X78.4239 Y27.9509
G01 X73.7045
G01 X73.5430 Y27.7919
G01 X78.2901
G01 X78.1563 Y27.6329
G01 X73.3814
G01 X73.2150 Y27.4739
G01 X78.0203
G01 X77.8822 Y27.3149
G01 X73.0484
G01 X72.8775 Y27.1559
G01 X77.7441
G01 X77.6022 Y26.9969
G01 X72.7056
G01 X72.5301 Y26.8379
G01 X77.4597
G01 X77.3161 Y26.6789
G01 X72.3527
G01 X72.1721 Y26.5199
G01 X77.1690
G01 X77.0220 Y26.3609
G01 X71.9891
G01 X71.8030 Y26.2019
G01 X76.8718
G01 X76.7201 Y26.0429
G01 X71.6141
G01 X71.4222 Y25.8839
G01 X76.5677
G01 X76.4112 Y25.7249
G01 X71.2271
G01 X71.0290 Y25.5659
G01 X76.2546
G01 X76.0949 Y25.4069
G01 X70.8276
G01 X70.6226 Y25.2479
G01 X75.9334
G01 X75.7711 Y25.0889
G01 X70.4146
G01 X70.2023 Y24.9299
G01 X75.6044
G01 X75.4378 Y24.7709
G01 X69.9874
G01 X69.7671 Y24.6119
G01 X75.2672
G01 X75.0953 Y24.4529
G01 X69.5450
G01 X69.3159 Y24.2939
G01 X74.9214
G01 X74.7440 Y24.1349
G01 X69.0853
G01 X68.8478 Y23.9759
G01 X74.5664
G01 X74.3834 Y23.8169
G01 X68.6072
G01 X68.3615 Y23.6579
G01 X74.2003
G01 X74.0129 Y23.4989
G01 X68.1099
G01 X67.8555 Y23.3399
G01 X73.8240
G01 X73.6322 Y23.1809
G01 X67.5919
G01 X67.3247 Y23.0219
G01 X73.4371
G01 X73.2405 Y22.8629
G01 X67.0516
G01 X66.7704 Y22.7039
G01 X73.0391
G01 X72.8372 Y22.5449
G01 X66.4844
G01 X66.1904 Y22.3859
G01 X72.6292
G01 X72.4212 Y22.2269
G01 X65.8877
G01 X65.5785 Y22.0679
G01 X72.2067
G01 X71.9917 Y21.9089
G01 X65.2609
G01 X64.9318 Y21.7499
G01 X71.7707
G01 X71.5486 Y21.5909
G01 X64.5940
G01 X64.2465 Y21.4319
G01 X71.3204
G01 X71.0908 Y21.2729
G01 X63.8875
G01 X63.5134 Y21.1139
G01 X70.8547
G01 X70.6173 Y20.9549
G01 X63.1263
G01 X62.7245 Y20.7959
G01 X70.3726
G01 X70.1269 Y20.6369
G01 X62.3060
G01 X61.8685 Y20.4779
G01 X69.8729
G01 X69.6175 Y20.3189
G01 X61.4097
G01 X60.9261 Y20.1599
G01 X69.3540
G01 X69.0877 Y20.0009
G01 X60.4138
G01 X59.8681 Y19.8419
G01 X68.8146
G01 X68.5362 Y19.6829
G01 X59.2831
G01 X58.6511 Y19.5239
G01 X68.2529
G01 X67.9609 Y19.3649
G01 X57.9472
G01 X57.1650 Y19.2059
G01 X67.6653
G01 X67.3599 Y19.0469
G01 X56.2497
G01 X55.1171 Y18.8879
G01 X67.0482
G01 X66.7306 Y18.7289
G01 X53.4530
G01 Y18.5699
G01 X66.4008
G01 X35.7917
G01 X35.4618 Y18.7289
G01 X48.9797
G01 X47.3152 Y18.8879
G01 X35.1443
G01 X34.8326 Y19.0469
G01 X46.1827
G01 X45.2674 Y19.2059
G01 X34.5272
G01 X34.2315 Y19.3649
G01 X44.4852
G01 X43.7813 Y19.5239
G01 X33.9396
G01 X33.6563 Y19.6829
G01 X43.1493
G01 X42.5643 Y19.8419
G01 X33.3779
G01 X33.1048 Y20.0009
G01 X42.0185
G01 X41.5063 Y20.1599
G01 X32.8385
G01 X32.5750 Y20.3189
G01 X41.0227
G01 X40.5637 Y20.4779
G01 X32.3196
G01 X32.0656 Y20.6369
G01 X40.1264
G01 X39.7079 Y20.7959
G01 X31.8199
G01 X31.5753 Y20.9549
G01 X39.3060
G01 X38.9188 Y21.1139
G01 X31.3378
G01 X31.1017 Y21.2729
G01 X38.5448
G01 X38.1858 Y21.4319
G01 X30.8721
G01 X30.6439 Y21.5909
G01 X37.8383
G01 X37.5005 Y21.7499
G01 X30.4218
G01 X30.2008 Y21.9089
G01 X37.1713
G01 X36.8537 Y22.0679
G01 X29.9859
G01 X29.7713 Y22.2269
G01 X36.5446
G01 X36.2419 Y22.3859
G01 X29.5633
G01 X29.3553 Y22.5449
G01 X35.9479
G01 X35.6618 Y22.7039
G01 X29.1534
G01 X28.9520 Y22.8629
G01 X35.3806
G01 X35.1074 Y23.0219
G01 X28.7554
G01 X28.5603 Y23.1809
G01 X34.8403
G01 X34.5767 Y23.3399
G01 X28.3685
G01 X28.1796 Y23.4989
G01 X34.3223
G01 X34.0708 Y23.6579
G01 X27.9922
G01 X27.8092 Y23.8169
G01 X33.8250
G01 X33.5844 Y23.9759
G01 X27.6261
G01 X27.4485 Y24.1349
G01 X33.3469
G01 X33.1162 Y24.2939
G01 X27.2711
G01 X27.0972 Y24.4529
G01 X32.8872
G01 X32.6651 Y24.6119
G01 X26.9253
G01 X26.7547 Y24.7709
G01 X32.4448
G01 X32.2299 Y24.9299
G01 X26.5881
G01 X26.4214 Y25.0889
G01 X32.0175
G01 X31.8095 Y25.2479
G01 X26.2591
G01 X26.0976 Y25.4069
G01 X31.6046
G01 X31.7350 Y25.7090
G03 X70.9281 Y75.0982 I19.4816 J24.7857
G03 X31.7350 Y25.7090 I-19.7124 J-24.6026
G01 X31.6046 Y25.4069
G01 X36.1281 Y18.4109
G01 X66.0644
G01 X65.7201 Y18.2519
G01 X36.4723
G01 X36.8308 Y18.0929
G01 X65.3617
G01 X64.9940 Y17.9339
G01 X37.1985
G01 X37.5763 Y17.7749
G01 X64.6162
G01 X64.2241 Y17.6159
G01 X37.9684
G01 X38.3763 Y17.4569
G01 X63.8162
G01 X63.3938 Y17.2979
G01 X38.7988
G01 X39.2377 Y17.1389
G01 X62.9549
G01 X62.4971 Y16.9799
G01 X39.6954
G01 X40.1748 Y16.8209
G01 X62.0177
G01 X61.5133 Y16.6619
G01 X40.6791
G01 X41.2127 Y16.5029
G01 X60.9797
G01 X60.4116 Y16.3439
G01 X41.7809
G01 X42.3899 Y16.1849
G01 X59.8027
G01 X59.1443 Y16.0259
G01 X43.0483
G01 X43.7667 Y15.8669
G01 X58.4257
G01 X57.6221 Y15.7079
G01 X44.5704
G01 X45.4912 Y15.5489
G01 X56.7014
G01 X55.5849 Y15.3899
G01 X46.6075
G01 X48.1391 Y15.2309
G01 X54.0532
G00 Z8.0000 F
G00 X66.4008 Y82.4879 F4000
G00 Z0.5000 F
G01 Z-1.2500 F120
G01 Y82.6469 F1200
G01 X35.7918
G01 X36.1282 Y82.8059
G01 X66.0644
G01 X65.7201 Y82.9649
G01 X36.4725
G01 X36.8309 Y83.1239
G01 X65.3616
G01 X64.9940 Y83.2829
G01 X37.1986
G01 X37.5764 Y83.4419
G01 X64.6161
G01 X64.2240 Y83.6009
G01 X37.9685
G01 X38.3764 Y83.7599
G01 X63.8161
G01 X63.3936 Y83.9189
G01 X38.7988
G01 X39.2377 Y84.0779
G01 X62.9547
G01 X62.4970 Y84.2369
G01 X39.6955
G01 X40.1749 Y84.3959
G01 X62.0176
G01 X61.5133 Y84.5549
G01 X40.6793
G01 X41.2129 Y84.7139
G01 X60.9797
G01 X60.4116 Y84.8729
G01 X41.7809
G01 X42.3899 Y85.0319
G01 X59.8025
G01 X59.1442 Y85.1909
G01 X43.0483
G01 X43.7668 Y85.3499
G01 X58.4258
G01 X57.6221 Y85.5089
G01 X44.5704
G01 X45.4912 Y85.6679
G01 X56.7013
G01 X55.5850 Y85.8269
G01 X46.6076
G01 X48.1393 Y85.9859
G01 X54.0534
G01 X54.1430 Y86.2974
G02 X48.2840 Y14.8993 I-3.0463 J-35.6894
G02 X54.1430 Y86.2974 I2.8110 J35.7087
G01 X54.0534 Y85.9859
G00 Z8.0000 F


(No. 2: Hole 21)
M05
M00 (Change tool: 1mm)
M03 S10000
G00 X47.4805 Y45.2225 Z8.0000 F4000
G00 Z0.5000 F
G01 Z0.0000 F120
G01 X47.0133 Z-0.4045
G01 X47.0146 Y44.9679 Z-0.6250
G01 X47.0133 Y45.2225 Z-0.8455
G01 X47.4805 Z-1.2500
G01 X47.0133 F1200
G01 X47.0158 Y44.7225
G01 X47.7608
G01 X48.0412 Y44.2225
G01 X47.0183
G01 X47.0208 Y43.7225
G01 X48.3215
G01 X48.6019 Y43.2225
G01 X47.0233
G01 X47.0258 Y42.7225
G01 X48.8822
G01 X49.1626 Y42.2225
G01 X47.0283
G01 X47.0308 Y41.7225
G01 X49.4430
G01 X49.7233 Y41.2225
G01 X47.0333
G01 X47.0358 Y40.7225
G01 X50.0037
G01 X50.2840 Y40.2225
G01 X47.0383
G01 X47.0407 Y39.7225
G01 X50.5644
G01 X50.8448 Y39.2225
G01 X47.0432
G01 X47.0457 Y38.7225
G01 X51.1251
G01 X51.4055 Y38.2225
G01 X47.0482
G01 X47.0507 Y37.7225
G01 X51.6858
G01 X51.9662 Y37.2225
G01 X47.0532
G01 X47.0557 Y36.7225
G01 X52.2465
G01 X52.5269 Y36.2225
G01 X47.0582
G01 X47.0607 Y35.7225
G01 X52.8073
G01 X53.0876 Y35.2225
G01 X47.0632
G01 X47.0657 Y34.7225
G01 X53.3680
G01 X53.6483 Y34.2225
G01 X47.0682
G01 X47.0707 Y33.7225
G01 X53.9287
G01 X54.2091 Y33.2225
G01 X47.0731
G01 X47.0756 Y32.7225
G01 X54.4894
G01 X54.7803 Y32.2225
G01 X47.0296
G01 Y31.7225
G01 X46.5012
G01 X65.4536
G01 X65.1595 Y31.2225
G01 X36.1239
G01 X36.4128 Y30.7225
G01 X64.8653
G01 X64.5711 Y30.2225
G01 X36.7016
G01 X36.9905 Y29.7225
G01 X64.2770
G01 X63.9828 Y29.2225
G01 X37.2793
G01 X37.5682 Y28.7225
G01 X63.6886
G01 X63.3945 Y28.2225
G01 X37.8571
G01 X37.7488 Y28.2099
G01 X35.6839 Y31.7842
G01 X46.3021 Y31.7890
G03 X46.9768 Y32.4977 I-0.0236 J0.6979
G01 X46.9072 Y46.4525
G01 X54.8026 Y32.3684
G03 X55.4117 Y32.0166 I0.6032 J0.3412
G01 X65.6868 Y31.9217
G01 X63.2529 Y27.7812
G01 X37.8153 Y28.0949
G01 X37.7488 Y28.2099
G01 X37.8571 Y28.2225
G00 Z8.0000 F


(No. 3: Hole 18)
G00 X32.7176 Y37.8016 Z8.0000 F4000
G00 Z0.5000 F
G01 Z0.0000 F120
G01 X32.2584 Z-0.3976
G01 X32.1263 Y38.0285 Z-0.6250
G01 X32.2584 Y37.8016 Z-0.8524
G01 X32.7176 Z-1.2500
G01 X32.2584 F1200
G01 X31.9673 Y38.3016
G01 X32.7219
G01 X32.7262 Y38.8016
G01 X31.6761
G01 X31.3849 Y39.3016
G01 X32.7305
G01 X32.7349 Y39.8016
G01 X31.0937
G01 X30.8025 Y40.3016
G01 X32.7392
G01 X32.7435 Y40.8016
G01 X30.5114
G01 X30.2202 Y41.3016
G01 X32.7478
G01 X32.7522 Y41.8016
G01 X29.9290
G01 X29.6378 Y42.3016
G01 X32.7565
G01 X32.7608 Y42.8016
G01 X29.3466
G01 X29.0554 Y43.3016
G01 X32.7651
G01 X32.7695 Y43.8016
G01 X28.7643
G01 X28.4731 Y44.3016
G01 X32.7738
G01 X32.7781 Y44.8016
G01 X28.1819
G01 X27.8907 Y45.3016
G01 X32.7824
G01 X32.7868 Y45.8016
G01 X27.5995
G01 X27.3084 Y46.3016
G01 X32.7911
G01 X32.7954 Y46.8016
G01 X27.0172
G01 X26.7260 Y47.3016
G01 X32.7997
G01 X32.8041 Y47.8016
G01 X26.4348
G01 X26.1436 Y48.3016
G01 X32.8084
G01 X32.8127 Y48.8016
G01 X25.8524
G01 X25.5613 Y49.3016
G01 X32.8170
G01 X32.8214 Y49.8016
G01 X25.2701
G01 X24.9789 Y50.3016
G01 X32.8257
G01 X32.8300 Y50.8016
G01 X24.6877
G01 X24.6036 Y51.3016
G01 X32.8343
G01 X32.8387 Y51.8016
G01 X24.9067
G01 X25.2097 Y52.3016
G01 X32.8430
G01 X32.8473 Y52.8016
G01 X25.5128
G01 X25.8158 Y53.3016
G01 X32.8516
G01 X32.8560 Y53.8016
G01 X26.1188
G01 X26.4219 Y54.3016
G01 X32.8603
G01 X32.8646 Y54.8016
G01 X26.7249
G01 X27.0280 Y55.3016
G01 X32.8689
G01 X32.8733 Y55.8016
G01 X27.3310
G01 X27.6340 Y56.3016
G01 X32.8776
G01 X32.8819 Y56.8016
G01 X27.9371
G01 X28.2401 Y57.3016
G01 X32.8862
G01 X32.8906 Y57.8016
G01 X28.5432
G01 X28.8462 Y58.3016
G01 X32.8949
G01 X32.8992 Y58.8016
G01 X29.1493
G01 X29.4523 Y59.3016
G01 X32.9036
G01 X32.9079 Y59.8016
G01 X29.7553
G01 X30.0584 Y60.3016
G01 X32.9122
G01 X32.9165 Y60.8016
G01 X30.3614
G01 X30.6645 Y61.3016
G01 X32.9209
G01 X32.9252 Y61.8016
G01 X30.9675
G01 X31.2705 Y62.3016
G01 X32.9295
G01 X32.9338 Y62.8016
G01 X31.5736
G01 X31.8766 Y63.3016
G01 X32.9382
G01 X32.9425 Y63.8016
G01 X32.1797
G01 X32.4827 Y64.3016
G01 X32.9468
G01 X33.0469 Y64.2965
G01 X32.8107 Y36.6547
G01 X24.3814 Y51.1278
G01 X33.0566 Y65.4375
G01 X33.0469 Y64.2965
G01 X32.9468 Y64.3016
G00 Z8.0000 F


(No. 4: Hole 22)
G00 X35.8130 Y69.9100 Z8.0000 F4000
G00 Z0.5000 F
G01 Z0.0000 F120
G01 X36.5347 Z-0.6250
G01 X35.8130 Z-1.2500
G01 X65.5886 F1200
G01 X65.2926 Y70.4100
G01 X36.1112
G01 X36.4094 Y70.9100
G01 X64.9965
G01 X64.7005 Y71.4100
G01 X36.7076
G01 X37.0058 Y71.9100
G01 X64.4044
G01 X64.1084 Y72.4100
G01 X37.3040
G01 X37.6023 Y72.9100
G01 X63.8123
G00 Z8.0000 F
G00 X46.2780 Y69.9100 F4000
G00 Z0.5000 F
G01 Z-1.2500 F120
G01 Y69.4100 F1200
G01 X65.8847
G01 X55.1497
G01 Y68.9100
G01 X46.8896
G01 X47.0651 Y68.4100
G01 X54.7585
G01 X54.4661 Y67.9100
G01 X47.0746
G01 X47.0716 Y67.4100
G01 X54.1737
G01 X53.8814 Y66.9100
G01 X47.0687
G01 X47.0657 Y66.4100
G01 X53.5890
G01 X53.2966 Y65.9100
G01 X47.0628
G01 X47.0598 Y65.4100
G01 X53.0043
G01 X52.7119 Y64.9100
G01 X47.0569
G01 X47.0539 Y64.4100
G01 X52.4196
G01 X52.1272 Y63.9100
G01 X47.0510
G01 X47.0480 Y63.4100
G01 X51.8348
G01 X51.5425 Y62.9100
G01 X47.0450
G01 X47.0421 Y62.4100
G01 X51.2501
G01 X50.9577 Y61.9100
G01 X47.0391
G01 X47.0362 Y61.4100
G01 X50.6654
G01 X50.3730 Y60.9100
G01 X47.0332
G01 X47.0303 Y60.4100
G01 X50.0806
G01 X49.7883 Y59.9100
G01 X47.0273
G01 X47.0244 Y59.4100
G01 X49.4959
G01 X49.2035 Y58.9100
G01 X47.0214
G01 X47.0185 Y58.4100
G01 X48.9112
G01 X48.6188 Y57.9100
G01 X47.0155
G01 X47.0126 Y57.4100
G01 X48.3264
G01 X48.0341 Y56.9100
G01 X47.0096
G01 X47.0067 Y56.4100
G01 X47.7417
G01 X47.4493 Y55.9100
G01 X47.0037
G01 X46.9017 Y55.9149
G01 X46.9767 Y68.2661
G03 X45.8881 Y69.3894 I-1.1321 J-0.0079
G01 X35.6239
G02 X35.4132 Y69.4035 I-0.0030 J1.5411
G02 X35.5081 Y69.5941 I1.3206 J-0.5386
G01 X37.6645 Y73.2096
G02 X37.7879 Y73.2799 I0.1183 J-0.0641
G01 X63.6284
G02 X63.7508 Y73.2102 I0.0050 J-0.1334
G01 X66.0786 Y69.2788
G02 X66.1725 Y69.0914 I-1.3114 J-0.7747
G02 X65.9608 Y69.0738 I-0.2057 J1.1888
G01 X55.9045
G03 X54.9409 Y68.5239 I0.0062 J-1.1301
G01 X46.9019 Y54.7758
G01 X46.8967 Y54.7673
G01 X46.8948 Y54.7871
G01 X46.9017 Y55.9149
G01 X47.0037 Y55.9100
G00 Z8.0000 F


(No. 5: Hole 20)
G00 X59.1785 Y51.5387 Z8.0000 F4000
G00 Z0.5000 F
G01 Z0.0000 F120
G01 X59.9002 Z-0.6250
G01 X59.1785 Z-1.2500
G01 X76.2399 F1200
G01 X76.5299 Y51.0387
G01 X59.3264
G01 X59.6421 Y50.5387
G01 X76.5174
G01 X76.2266 Y50.0387
G01 X59.9579
G01 X60.2736 Y49.5387
G01 X75.9358
G01 X75.6449 Y49.0387
G01 X60.5893
G01 X60.9051 Y48.5387
G01 X75.3541
G01 X75.0633 Y48.0387
G01 X61.2208
G01 X61.5365 Y47.5387
G01 X74.7725
G01 X74.4817 Y47.0387
G01 X61.8523
G01 X62.1680 Y46.5387
G01 X74.1909
G01 X73.9000 Y46.0387
G01 X62.4837
G01 X62.7995 Y45.5387
G01 X73.6092
G01 X73.3184 Y45.0387
G01 X63.1152
G01 X63.4310 Y44.5387
G01 X73.0276
G01 X72.7368 Y44.0387
G01 X63.7467
G01 X64.0624 Y43.5387
G01 X72.4459
G01 X72.1551 Y43.0387
G01 X64.3782
G01 X64.6939 Y42.5387
G01 X71.8643
G01 X71.5735 Y42.0387
G01 X65.0096
G01 X65.3254 Y41.5387
G01 X71.2827
G01 X70.9919 Y41.0387
G01 X65.6411
G01 X65.9568 Y40.5387
G01 X70.7010
G01 X70.4102 Y40.0387
G01 X66.2726
G01 X66.5883 Y39.5387
G01 X70.1194
G01 X69.8286 Y39.0387
G01 X66.9040
G01 X67.2198 Y38.5387
G01 X69.5378
G01 X69.2470 Y38.0387
G01 X67.5355
G01 X67.8512 Y37.5387
G01 X68.9561
G01 X68.6653 Y37.0387
G01 X68.1670
G00 Z8.0000 F
G00 X75.9499 Y51.5387 F4000
G00 Z0.5000 F
G01 Z-1.2500 F120
G01 Y52.0387 F1200
G01 X59.5018
G01 X59.8250 Y52.5387
G01 X75.6599
G01 X75.3699 Y53.0387
G01 X60.1482
G01 X60.4715 Y53.5387
G01 X75.0799
G01 X74.7899 Y54.0387
G01 X60.7947
G01 X61.1180 Y54.5387
G01 X74.4999
G01 X74.2099 Y55.0387
G01 X61.4412
G01 X61.7644 Y55.5387
G01 X73.9199
G01 X73.6299 Y56.0387
G01 X62.0877
G01 X62.4109 Y56.5387
G01 X73.3399
G01 X73.0499 Y57.0387
G01 X62.7341
G01 X63.0574 Y57.5387
G01 X72.7599
G01 X72.4699 Y58.0387
G01 X63.3806
G01 X63.7039 Y58.5387
G01 X72.1799
G01 X71.8899 Y59.0387
G01 X64.0271
G01 X64.3503 Y59.5387
G01 X71.5999
G01 X71.3099 Y60.0387
G01 X64.6736
G01 X64.9968 Y60.5387
G01 X71.0198
G01 X70.7298 Y61.0387
G01 X65.3201
G01 X65.6433 Y61.5387
G01 X70.4398
G01 X70.1498 Y62.0387
G01 X65.9665
G01 X66.2898 Y62.5387
G01 X69.8598
G01 X69.5698 Y63.0387
G01 X66.6130
G01 X66.9362 Y63.5387
G01 X69.2798
G01 X68.9898 Y64.0387
G01 X67.2595
G01 X67.5827 Y64.5387
G01 X68.6998
G01 X68.4098 Y65.0387
G01 X67.9060
G01 X67.8205 Y65.0857
G01 X68.1777 Y65.6381
G01 X76.7855 Y50.8008
G01 X68.4273 Y36.4392
G01 X58.9771 Y51.4113
G01 X67.8205 Y65.0857
G01 X67.9060 Y65.0387
G00 Z8.0000 F
G00 X0.0000 Y0.0000 F4000

M05
M30
