(Project mat-engr)
(Created by Estlcam version 11 build 11.245)
(Machining time about 00:06:28 hours)

(Required tools:)
(Dia Drag 90)
G21
G90
G94
M03 S10000
G00 X0.0000 Y0.0000 Z0.0000 F4000
G00 Z8.0000 F


(No. 1: Engraving 337)
G00 X2.5000 Y2.6000 F4000
G00 Z0.5000 F
G01 Z0.0000 F180 S10000
G01 Z-0.6000
G01 X1.6426 F1500
G00 Z8.0000 F


(No. 2: Engraving 361)
G00 X2.5000 Y3.6000 Z8.0000 F4000
G00 Z0.5000 F
G01 Z0.0000 F180
G01 Z-0.6000
G01 X0.6426 F1500
G00 Z8.0000 F


(No. 3: Engraving 406)
G00 X2.5000 Y4.6000 Z8.0000 F4000
G00 Z0.5000 F
G01 Z0.0000 F180
G01 Z-0.6000
G01 X0.0000 F1500
G00 Z8.0000 F


(No. 4: Engraving 398)
G00 X2.5000 Y5.6000 Z8.0000 F4000
G00 Z0.5000 F
G01 Z0.0000 F180
G01 Z-0.6000
G01 X0.0000 F1500
G00 Z8.0000 F


(No. 5: Engraving 342)
G00 X2.5000 Y7.6000 Z8.0000 F4000
G00 Z0.5000 F
G01 Z0.0000 F180
G01 Z-0.6000
G01 X0.0000 F1500
G00 Z8.0000 F


(No. 6: Engraving 373)
G00 X2.5000 Y8.6000 Z8.0000 F4000
G00 Z0.5000 F
G01 Z0.0000 F180
G01 Z-0.6000
G01 X0.0000 F1500
G00 Z8.0000 F


(No. 7: Engraving 326)
G00 X2.5000 Y9.6000 Z8.0000 F4000
G00 Z0.5000 F
G01 Z0.0000 F180
G01 Z-0.6000
G01 X0.0000 F1500
G00 Z8.0000 F


(No. 8: Engraving 321)
G00 X2.5000 Y10.6000 Z8.0000 F4000
G00 Z0.5000 F
G01 Z0.0000 F180
G01 Z-0.6000
G01 X0.0000 F1500
G00 Z8.0000 F


(No. 9: Engraving 412)
G00 X2.5000 Y12.6000 Z8.0000 F4000
G00 Z0.5000 F
G01 Z0.0000 F180
G01 Z-0.6000
G01 X0.0000 F1500
G00 Z8.0000 F


(No. 10: Engraving 409)
G00 X2.5000 Y13.6000 Z8.0000 F4000
G00 Z0.5000 F
G01 Z0.0000 F180
G01 Z-0.6000
G01 X0.0000 F1500
G00 Z8.0000 F


(No. 11: Engraving 414)
G00 X2.5000 Y14.6000 Z8.0000 F4000
G00 Z0.5000 F
G01 Z0.0000 F180
G01 Z-0.6000
G01 X0.0000 F1500
G00 Z8.0000 F


(No. 12: Engraving 332)
G00 X2.5000 Y15.6000 Z8.0000 F4000
G00 Z0.5000 F
G01 Z0.0000 F180
G01 Z-0.6000
G01 X0.0000 F1500
G00 Z8.0000 F


(No. 13: Engraving 319)
G00 X2.5000 Y17.6000 Z8.0000 F4000
G00 Z0.5000 F
G01 Z0.0000 F180
G01 Z-0.6000
G01 X0.0000 F1500
G00 Z8.0000 F


(No. 14: Engraving 384)
G00 X2.5000 Y18.6000 Z8.0000 F4000
G00 Z0.5000 F
G01 Z0.0000 F180
G01 Z-0.6000
G01 X0.0000 F1500
G00 Z8.0000 F


(No. 15: Engraving 323)
G00 X2.5000 Y19.6000 Z8.0000 F4000
G00 Z0.5000 F
G01 Z0.0000 F180
G01 Z-0.6000
G01 X0.0000 F1500
G00 Z8.0000 F


(No. 16: Engraving 388)
G00 X2.5000 Y20.6000 Z8.0000 F4000
G00 Z0.5000 F
G01 Z0.0000 F180
G01 Z-0.6000
G01 X0.0000 F1500
G00 Z8.0000 F


(No. 17: Engraving 351)
G00 X2.5000 Y22.6000 Z8.0000 F4000
G00 Z0.5000 F
G01 Z0.0000 F180
G01 Z-0.6000
G01 X0.0000 F1500
G00 Z8.0000 F


(No. 18: Engraving 362)
G00 X2.5000 Y23.6000 Z8.0000 F4000
G00 Z0.5000 F
G01 Z0.0000 F180
G01 Z-0.6000
G01 X0.0000 F1500
G00 Z8.0000 F


(No. 19: Engraving 334)
G00 X2.5000 Y24.6000 Z8.0000 F4000
G00 Z0.5000 F
G01 Z0.0000 F180
G01 Z-0.6000
G01 X0.0000 F1500
G00 Z8.0000 F


(No. 20: Engraving 350)
G00 X2.5000 Y25.6000 Z8.0000 F4000
G00 Z0.5000 F
G01 Z0.0000 F180
G01 Z-0.6000
G01 X0.0000 F1500
G00 Z8.0000 F


(No. 21: Engraving 307)
G00 X2.5000 Y27.6000 Z8.0000 F4000
G00 Z0.5000 F
G01 Z0.0000 F180
G01 Z-0.6000
G01 X0.0000 F1500
G00 Z8.0000 F


(No. 22: Engraving 287)
G00 X2.5000 Y28.6000 Z8.0000 F4000
G00 Z0.5000 F
G01 Z0.0000 F180
G01 Z-0.6000
G01 X0.0000 F1500
G00 Z8.0000 F


(No. 23: Engraving 289)
G00 X2.5000 Y29.6000 Z8.0000 F4000
G00 Z0.5000 F
G01 Z0.0000 F180
G01 Z-0.6000
G01 X0.0000 F1500
G00 Z8.0000 F


(No. 24: Engraving 310)
G00 X2.5000 Y30.6000 Z8.0000 F4000
G00 Z0.5000 F
G01 Z0.0000 F180
G01 Z-0.6000
G01 X0.0000 F1500
G00 Z8.0000 F


(No. 25: Engraving 300)
G00 X2.5000 Y32.6000 Z8.0000 F4000
G00 Z0.5000 F
G01 Z0.0000 F180
G01 Z-0.6000
G01 X0.0000 F1500
G00 Z8.0000 F


(No. 26: Engraving 304)
G00 X2.5000 Y33.6000 Z8.0000 F4000
G00 Z0.5000 F
G01 Z0.0000 F180
G01 Z-0.6000
G01 X0.0000 F1500
G00 Z8.0000 F


(No. 27: Engraving 294)
G00 X2.5000 Y34.6000 Z8.0000 F4000
G00 Z0.5000 F
G01 Z0.0000 F180
G01 Z-0.6000
G01 X0.0000 F1500
G00 Z8.0000 F


(No. 28: Engraving 301)
G00 X2.5000 Y35.6000 Z8.0000 F4000
G00 Z0.5000 F
G01 Z0.0000 F180
G01 Z-0.6000
G01 X0.0000 F1500
G00 Z8.0000 F


(No. 29: Engraving 292)
G00 X2.5000 Y37.6000 Z8.0000 F4000
G00 Z0.5000 F
G01 Z0.0000 F180
G01 Z-0.6000
G01 X0.0000 F1500
G00 Z8.0000 F


(No. 30: Engraving 311)
G00 X2.5000 Y38.6000 Z8.0000 F4000
G00 Z0.5000 F
G01 Z0.0000 F180
G01 Z-0.6000
G01 X0.0000 F1500
G00 Z8.0000 F


(No. 31: Engraving 293)
G00 X2.5000 Y39.6000 Z8.0000 F4000
G00 Z0.5000 F
G01 Z0.0000 F180
G01 Z-0.6000
G01 X0.0000 F1500
G00 Z8.0000 F


(No. 32: Engraving 295)
G00 X2.5000 Y40.6000 Z8.0000 F4000
G00 Z0.5000 F
G01 Z0.0000 F180
G01 Z-0.6000
G01 X0.0000 F1500
G00 Z8.0000 F


(No. 33: Engraving 288)
G00 X2.5000 Y42.6000 Z8.0000 F4000
G00 Z0.5000 F
G01 Z0.0000 F180
G01 Z-0.6000
G01 X0.0000 F1500
G00 Z8.0000 F


(No. 34: Engraving 302)
G00 X2.5000 Y43.6000 Z8.0000 F4000
G00 Z0.5000 F
G01 Z0.0000 F180
G01 Z-0.6000
G01 X0.0000 F1500
G00 Z8.0000 F


(No. 35: Engraving 309)
G00 X2.5000 Y44.6000 Z8.0000 F4000
G00 Z0.5000 F
G01 Z0.0000 F180
G01 Z-0.6000
G01 X0.0000 F1500
G00 Z8.0000 F


(No. 36: Engraving 299)
G00 X2.5000 Y45.6000 Z8.0000 F4000
G00 Z0.5000 F
G01 Z0.0000 F180
G01 Z-0.6000
G01 X0.0000 F1500
G00 Z8.0000 F


(No. 37: Engraving 290)
G00 X2.5000 Y47.6000 Z8.0000 F4000
G00 Z0.5000 F
G01 Z0.0000 F180
G01 Z-0.6000
G01 X0.0000 F1500
G00 Z8.0000 F


(No. 38: Engraving 303)
G00 X2.5000 Y48.6000 Z8.0000 F4000
G00 Z0.5000 F
G01 Z0.0000 F180
G01 Z-0.6000
G01 X0.0000 F1500
G00 Z8.0000 F


(No. 39: Engraving 329)
G00 X2.5000 Y49.6000 Z8.0000 F4000
G00 Z0.5000 F
G01 Z0.0000 F180
G01 Z-0.6000
G01 X0.0000 F1500
G00 Z8.0000 F


(No. 40: Engraving 306)
G00 X2.5000 Y50.6000 Z8.0000 F4000
G00 Z0.5000 F
G01 Z0.0000 F180
G01 Z-0.6000
G01 X0.0000 F1500
G00 Z8.0000 F


(No. 41: Engraving 389)
G00 X2.5000 Y52.6000 Z8.0000 F4000
G00 Z0.5000 F
G01 Z0.0000 F180
G01 Z-0.6000
G01 X0.0000 F1500
G00 Z8.0000 F


(No. 42: Engraving 416)
G00 X2.5000 Y53.6000 Z8.0000 F4000
G00 Z0.5000 F
G01 Z0.0000 F180
G01 Z-0.6000
G01 X0.0000 F1500
G00 Z8.0000 F


(No. 43: Engraving 424)
G00 X2.5000 Y54.6000 Z8.0000 F4000
G00 Z0.5000 F
G01 Z0.0000 F180
G01 Z-0.6000
G01 X0.0000 F1500
G00 Z8.0000 F


(No. 44: Engraving 369)
G00 X2.5000 Y55.6000 Z8.0000 F4000
G00 Z0.5000 F
G01 Z0.0000 F180
G01 Z-0.6000
G01 X0.0000 F1500
G00 Z8.0000 F


(No. 45: Engraving 425)
G00 X2.5000 Y57.6000 Z8.0000 F4000
G00 Z0.5000 F
G01 Z0.0000 F180
G01 Z-0.6000
G01 X0.0000 F1500
G00 Z8.0000 F


(No. 46: Engraving 413)
G00 X2.5000 Y58.6000 Z8.0000 F4000
G00 Z0.5000 F
G01 Z0.0000 F180
G01 Z-0.6000
G01 X0.0000 F1500
G00 Z8.0000 F


(No. 47: Engraving 340)
G00 X2.5000 Y59.6000 Z8.0000 F4000
G00 Z0.5000 F
G01 Z0.0000 F180
G01 Z-0.6000
G01 X0.0000 F1500
G00 Z8.0000 F


(No. 48: Engraving 401)
G00 X2.5000 Y60.6000 Z8.0000 F4000
G00 Z0.5000 F
G01 Z0.0000 F180
G01 Z-0.6000
G01 X0.0000 F1500
G00 Z8.0000 F


(No. 49: Engraving 352)
G00 X2.5000 Y62.6000 Z8.0000 F4000
G00 Z0.5000 F
G01 Z0.0000 F180
G01 Z-0.6000
G01 X0.0000 F1500
G00 Z8.0000 F


(No. 50: Engraving 404)
G00 X2.5000 Y63.6000 Z8.0000 F4000
G00 Z0.5000 F
G01 Z0.0000 F180
G01 Z-0.6000
G01 X0.0000 F1500
G00 Z8.0000 F


(No. 51: Engraving 390)
G00 X2.5000 Y64.6000 Z8.0000 F4000
G00 Z0.5000 F
G01 Z0.0000 F180
G01 Z-0.6000
G01 X0.0000 F1500
G00 Z8.0000 F


(No. 52: Engraving 395)
G00 X2.5000 Y65.6000 Z8.0000 F4000
G00 Z0.5000 F
G01 Z0.0000 F180
G01 Z-0.6000
G01 X0.0000 F1500
G00 Z8.0000 F


(No. 53: Engraving 338)
G00 X2.5000 Y67.6000 Z8.0000 F4000
G00 Z0.5000 F
G01 Z0.0000 F180
G01 Z-0.6000
G01 X0.0000 F1500
G00 Z8.0000 F


(No. 54: Engraving 402)
G00 X2.5000 Y68.6000 Z8.0000 F4000
G00 Z0.5000 F
G01 Z0.0000 F180
G01 Z-0.6000
G01 X0.0000 F1500
G00 Z8.0000 F


(No. 55: Engraving 399)
G00 X2.5000 Y69.6000 Z8.0000 F4000
G00 Z0.5000 F
G01 Z0.0000 F180
G01 Z-0.6000
G01 X0.0000 F1500
G00 Z8.0000 F


(No. 56: Engraving 411)
G00 X2.5000 Y70.6000 Z8.0000 F4000
G00 Z0.5000 F
G01 Z0.0000 F180
G01 Z-0.6000
G01 X0.0000 F1500
G00 Z8.0000 F


(No. 57: Engraving 393)
G00 X2.5000 Y72.6000 Z8.0000 F4000
G00 Z0.5000 F
G01 Z0.0000 F180
G01 Z-0.6000
G01 X0.0000 F1500
G00 Z8.0000 F


(No. 58: Engraving 418)
G00 X2.5000 Y73.6000 Z8.0000 F4000
G00 Z0.5000 F
G01 Z0.0000 F180
G01 Z-0.6000
G01 X0.0000 F1500
G00 Z8.0000 F


(No. 59: Engraving 396)
G00 X2.5000 Y74.6000 Z8.0000 F4000
G00 Z0.5000 F
G01 Z0.0000 F180
G01 Z-0.6000
G01 X0.0000 F1500
G00 Z8.0000 F


(No. 60: Engraving 381)
G00 X2.5000 Y75.6000 Z8.0000 F4000
G00 Z0.5000 F
G01 Z0.0000 F180
G01 Z-0.6000
G01 X0.0000 F1500
G00 Z8.0000 F


(No. 61: Engraving 422)
G00 X2.5000 Y77.6000 Z8.0000 F4000
G00 Z0.5000 F
G01 Z0.0000 F180
G01 Z-0.6000
G01 X0.0000 F1500
G00 Z8.0000 F


(No. 62: Engraving 428)
G00 X2.5000 Y78.6000 Z8.0000 F4000
G00 Z0.5000 F
G01 Z0.0000 F180
G01 Z-0.6000
G01 X0.0000 F1500
G00 Z8.0000 F


(No. 63: Engraving 347)
G00 X2.5000 Y79.6000 Z8.0000 F4000
G00 Z0.5000 F
G01 Z0.0000 F180
G01 Z-0.6000
G01 X0.0000 F1500
G00 Z8.0000 F


(No. 64: Engraving 407)
G00 X2.5000 Y80.6000 Z8.0000 F4000
G00 Z0.5000 F
G01 Z0.0000 F180
G01 Z-0.6000
G01 X0.0000 F1500
G00 Z8.0000 F


(No. 65: Engraving 353)
G00 X2.5000 Y82.6000 Z8.0000 F4000
G00 Z0.5000 F
G01 Z0.0000 F180
G01 Z-0.6000
G01 X0.0000 F1500
G00 Z8.0000 F


(No. 66: Engraving 419)
G00 X2.5000 Y83.6000 Z8.0000 F4000
G00 Z0.5000 F
G01 Z0.0000 F180
G01 Z-0.6000
G01 X0.0000 F1500
G00 Z8.0000 F


(No. 67: Engraving 382)
G00 X2.5000 Y84.6000 Z8.0000 F4000
G00 Z0.5000 F
G01 Z0.0000 F180
G01 Z-0.6000
G01 X0.0000 F1500
G00 Z8.0000 F


(No. 68: Engraving 429)
G00 X2.5000 Y85.6000 Z8.0000 F4000
G00 Z0.5000 F
G01 Z0.0000 F180
G01 Z-0.6000
G01 X0.0000 F1500
G00 Z8.0000 F


(No. 69: Engraving 371)
G00 X2.5000 Y87.6000 Z8.0000 F4000
G00 Z0.5000 F
G01 Z0.0000 F180
G01 Z-0.6000
G01 X0.0000 F1500
G00 Z8.0000 F


(No. 70: Engraving 378)
G00 X2.5000 Y88.6000 Z8.0000 F4000
G00 Z0.5000 F
G01 Z0.0000 F180
G01 Z-0.6000
G01 X0.0000 F1500
G00 Z8.0000 F


(No. 71: Engraving 376)
G00 X2.5000 Y89.6000 Z8.0000 F4000
G00 Z0.5000 F
G01 Z0.0000 F180
G01 Z-0.6000
G01 X0.0000 F1500
G00 Z8.0000 F


(No. 72: Engraving 427)
G00 X2.5000 Y90.6000 Z8.0000 F4000
G00 Z0.5000 F
G01 Z0.0000 F180
G01 Z-0.6000
G01 X0.0000 F1500
G00 Z8.0000 F


(No. 73: Engraving 355)
G00 X2.5000 Y92.6000 Z8.0000 F4000
G00 Z0.5000 F
G01 Z0.0000 F180
G01 Z-0.6000
G01 X0.0000 F1500
G00 Z8.0000 F


(No. 74: Engraving 375)
G00 X2.5000 Y93.6000 Z8.0000 F4000
G00 Z0.5000 F
G01 Z0.0000 F180
G01 Z-0.6000
G01 X0.0000 F1500
G00 Z8.0000 F


(No. 75: Engraving 415)
G00 X2.5000 Y94.6000 Z8.0000 F4000
G00 Z0.5000 F
G01 Z0.0000 F180
G01 Z-0.6000
G01 X0.0000 F1500
G00 Z8.0000 F


(No. 76: Engraving 417)
G00 X2.5000 Y95.6000 Z8.0000 F4000
G00 Z0.5000 F
G01 Z0.0000 F180
G01 Z-0.6000
G01 X0.0000 F1500
G00 Z8.0000 F


(No. 77: Engraving 354)
G00 X2.5000 Y97.6000 Z8.0000 F4000
G00 Z0.5000 F
G01 Z0.0000 F180
G01 Z-0.6000
G01 X0.0000 F1500
G00 Z8.0000 F


(No. 78: Engraving 386)
G00 X2.5000 Y98.6000 Z8.0000 F4000
G00 Z0.5000 F
G01 Z0.0000 F180
G01 Z-0.6000
G01 X0.0000 F1500
G00 Z8.0000 F


(No. 79: Engraving 343)
G00 X2.5000 Y99.6000 Z8.0000 F4000
G00 Z0.5000 F
G01 Z0.0000 F180
G01 Z-0.6000
G01 X0.0000 F1500
G00 Z8.0000 F


(No. 80: Engraving 374)
G00 X2.5000 Y100.6000 Z8.0000 F4000
G00 Z0.5000 F
G01 Z0.0000 F180
G01 Z-0.6000
G01 X0.0000 F1500
G00 Z8.0000 F


(No. 81: Engraving 367)
G00 X3.1750 Y98.4250 Z8.0000 F4000
G00 Z0.5000 F
G01 Z0.0000 F180
G01 Z-0.6000
G01 Y101.6000 F1500
G00 Z8.0000 F


(No. 82: Engraving 341)
G00 X5.0000 Y101.6000 Z8.0000 F4000
G00 Z0.5000 F
G01 Z0.0000 F180
G01 Z-0.6000
G01 X0.0000 F1500
G01 X2.5000
G00 Z8.0000 F


(No. 83: Engraving 383)
G00 X5.0000 Y96.6000 Z8.0000 F4000
G00 Z0.5000 F
G01 Z0.0000 F180
G01 Z-0.6000
G01 X0.0000 F1500
G00 Z8.0000 F


(No. 84: Engraving 430)
G00 X6.3500 Y95.2500 Z8.0000 F4000
G00 Z0.5000 F
G01 Z0.0000 F180
G01 Z-0.6000
G01 Y101.6000 F1500
G00 Z8.0000 F


(No. 85: Engraving 324)
G00 X10.0000 Y101.6000 Z8.0000 F4000
G00 Z0.5000 F
G01 Z0.0000 F180
G01 Z-0.6000
G01 X0.0000 F1500
G01 Y88.9000
G00 Z8.0000 F


(No. 86: Engraving 423)
G00 X5.0000 Y86.6000 Z8.0000 F4000
G00 Z0.5000 F
G01 Z0.0000 F180
G01 Z-0.6000
G01 X0.0000 F1500
G00 Z8.0000 F


(No. 87: Engraving 370)
G00 X5.0000 Y76.6000 Z8.0000 F4000
G00 Z0.5000 F
G01 Z0.0000 F180
G01 Z-0.6000
G01 X0.0000 F1500
G00 Z8.0000 F


(No. 88: Engraving 357)
G00 X5.0000 Y66.6000 Z8.0000 F4000
G00 Z0.5000 F
G01 Z0.0000 F180
G01 Z-0.6000
G01 X0.0000 F1500
G00 Z8.0000 F


(No. 89: Engraving 344)
G00 X5.0000 Y56.6000 Z8.0000 F4000
G00 Z0.5000 F
G01 Z0.0000 F180
G01 Z-0.6000
G01 X0.0000 F1500
G00 Z8.0000 F


(No. 90: Engraving 305)
G00 X5.0000 Y46.6000 Z8.0000 F4000
G00 Z0.5000 F
G01 Z0.0000 F180
G01 Z-0.6000
G01 X0.0000 F1500
G00 Z8.0000 F


(No. 91: Engraving 286)
G00 X10.0000 Y41.6000 Z8.0000 F4000
G00 Z0.5000 F
G01 Z0.0000 F180
G01 Z-0.6000
G01 X0.0000 F1500
G00 Z8.0000 F


(No. 92: Engraving 298)
G00 X5.0000 Y36.6000 Z8.0000 F4000
G00 Z0.5000 F
G01 Z0.0000 F180
G01 Z-0.6000
G01 X0.0000 F1500
G00 Z8.0000 F


(No. 93: Engraving 291)
G00 X10.0000 Y31.6000 Z8.0000 F4000
G00 Z0.5000 F
G01 Z0.0000 F180
G01 Z-0.6000
G01 X0.0000 F1500
G00 Z8.0000 F


(No. 94: Engraving 349)
G00 X5.0000 Y26.6000 Z8.0000 F4000
G00 Z0.5000 F
G01 Z0.0000 F180
G01 Z-0.6000
G01 X0.0000 F1500
G00 Z8.0000 F


(No. 95: Engraving 346)
G00 X10.0000 Y21.6000 Z8.0000 F4000
G00 Z0.5000 F
G01 Z0.0000 F180
G01 Z-0.6000
G01 X0.0000 F1500
G00 Z8.0000 F


(No. 96: Engraving 364)
G00 X5.0000 Y16.6000 Z8.0000 F4000
G00 Z0.5000 F
G01 Z0.0000 F180
G01 Z-0.6000
G01 X0.0000 F1500
G00 Z8.0000 F


(No. 97: Engraving 345)
G00 X10.0000 Y11.6000 Z8.0000 F4000
G00 Z0.5000 F
G01 Z0.0000 F180
G01 Z-0.6000
G01 X0.0000 F1500
G00 Z8.0000 F


(No. 98: Engraving 405)
G00 X5.0000 Y6.6000 Z8.0000 F4000
G00 Z0.5000 F
G01 Z0.0000 F180
G01 Z-0.6000
G01 X0.0000 F1500
G00 Z8.0000 F


(No. 99: Engraving 408)
G00 X10.0000 Y1.6000 Z8.0000 F4000
G00 Z0.5000 F
G01 Z0.0000 F180
G01 Z-0.6000
G01 X2.6426 F1500
G00 Z8.0000 F


(No. 100: Engraving 312)
G00 X32.9223 Y35.4692 Z8.0000 F4000
G00 Z0.5000 F
G01 Z0.0000 F180
G01 Z-0.6000
G00 Z8.0000 F


(No. 101: Engraving 368)
G00 X10.0000 Y51.6000 Z8.0000 F4000
G00 Z0.5000 F
G01 Z0.0000 F180
G01 Z-0.6000
G01 X0.0000 F1500
G00 Z8.0000 F


(No. 102: Engraving 426)
G00 X10.0000 Y61.6000 Z8.0000 F4000
G00 Z0.5000 F
G01 Z0.0000 F180
G01 Z-0.6000
G01 X0.0000 F1500
G00 Z8.0000 F


(No. 103: Engraving 379)
G00 X10.0000 Y71.6000 Z8.0000 F4000
G00 Z0.5000 F
G01 Z0.0000 F180
G01 Z-0.6000
G01 X0.0000 F1500
G00 Z8.0000 F


(No. 104: Engraving 410)
G00 X10.0000 Y81.6000 Z8.0000 F4000
G00 Z0.5000 F
G01 Z0.0000 F180
G01 Z-0.6000
G01 X0.0000 F1500
G00 Z8.0000 F


(No. 105: Engraving 420)
G00 X10.0000 Y91.6000 Z8.0000 F4000
G00 Z0.5000 F
G01 Z0.0000 F180
G01 Z-0.6000
G01 X0.0000 F1500
G00 Z8.0000 F


(No. 106: Engraving 385)
G00 X9.5250 Y98.4250 Z8.0000 F4000
G00 Z0.5000 F
G01 Z0.0000 F180
G01 Z-0.6000
G01 Y101.6000 F1500
G00 Z8.0000 F


(No. 107: Engraving 365)
G00 X15.8750 Y98.4250 Z8.0000 F4000
G00 Z0.5000 F
G01 Z0.0000 F180
G01 Z-0.6000
G01 Y101.6000 F1500
G00 Z8.0000 F


(No. 108: Engraving 336)
G00 X19.0500 Y95.2500 Z8.0000 F4000
G00 Z0.5000 F
G01 Z0.0000 F180
G01 Z-0.6000
G01 Y101.6000 F1500
G00 Z8.0000 F


(No. 109: Engraving 339)
G00 X22.2250 Y98.4250 Z8.0000 F4000
G00 Z0.5000 F
G01 Z0.0000 F180
G01 Z-0.6000
G01 Y101.6000 F1500
G00 Z8.0000 F


(No. 110: Engraving 348)
G00 X28.5750 Y98.4250 Z8.0000 F4000
G00 Z0.5000 F
G01 Z0.0000 F180
G01 Z-0.6000
G01 Y101.6000 F1500
G00 Z8.0000 F


(No. 111: Engraving 322)
G00 X31.7500 Y95.2500 Z8.0000 F4000
G00 Z0.5000 F
G01 Z0.0000 F180
G01 Z-0.6000
G01 Y101.6000 F1500
G00 Z8.0000 F


(No. 112: Engraving 359)
G00 X34.9250 Y98.4250 Z8.0000 F4000
G00 Z0.5000 F
G01 Z0.0000 F180
G01 Z-0.6000
G01 Y101.6000 F1500
G00 Z8.0000 F


(No. 113: Engraving 400)
G00 X41.2750 Y98.4250 Z8.0000 F4000
G00 Z0.5000 F
G01 Z0.0000 F180
G01 Z-0.6000
G01 Y101.6000 F1500
G00 Z8.0000 F


(No. 114: Engraving 387)
G00 X44.4500 Y95.2500 Z8.0000 F4000
G00 Z0.5000 F
G01 Z0.0000 F180
G01 Z-0.6000
G01 Y101.6000 F1500
G00 Z8.0000 F


(No. 115: Engraving 394)
G00 X47.6250 Y98.4250 Z8.0000 F4000
G00 Z0.5000 F
G01 Z0.0000 F180
G01 Z-0.6000
G01 Y101.6000 F1500
G00 Z8.0000 F


(No. 116: Engraving 431)
G00 X50.8000 Y101.6000 Z8.0000 F4000
G00 Z0.5000 F
G01 Z0.0000 F180
G01 Z-0.6000
G01 Y88.9000 F1500
G00 Z8.0000 F


(No. 117: Engraving 380)
G00 X57.1500 Y95.2500 Z8.0000 F4000
G00 Z0.5000 F
G01 Z0.0000 F180
G01 Z-0.6000
G01 Y101.6000 F1500
G00 Z8.0000 F


(No. 118: Engraving 421)
G00 X53.9750 Y98.4250 Z8.0000 F4000
G00 Z0.5000 F
G01 Z0.0000 F180
G01 Z-0.6000
G01 Y101.6000 F1500
G00 Z8.0000 F


(No. 119: Engraving 356)
G00 X60.3250 Y98.4250 Z8.0000 F4000
G00 Z0.5000 F
G01 Z0.0000 F180
G01 Z-0.6000
G01 Y101.6000 F1500
G00 Z8.0000 F


(No. 120: Engraving 397)
G00 X66.6750 Y98.4250 Z8.0000 F4000
G00 Z0.5000 F
G01 Z0.0000 F180
G01 Z-0.6000
G01 Y101.6000 F1500
G00 Z8.0000 F


(No. 121: Engraving 377)
G00 X69.8500 Y95.2500 Z8.0000 F4000
G00 Z0.5000 F
G01 Z0.0000 F180
G01 Z-0.6000
G01 Y101.6000 F1500
G00 Z8.0000 F


(No. 122: Engraving 392)
G00 X73.0250 Y98.4250 Z8.0000 F4000
G00 Z0.5000 F
G01 Z0.0000 F180
G01 Z-0.6000
G01 Y101.6000 F1500
G00 Z8.0000 F


(No. 123: Engraving 391)
G00 X79.3750 Y98.4250 Z8.0000 F4000
G00 Z0.5000 F
G01 Z0.0000 F180
G01 Z-0.6000
G01 Y101.6000 F1500
G00 Z8.0000 F


(No. 124: Engraving 320)
G00 X85.7250 Y98.4250 Z8.0000 F4000
G00 Z0.5000 F
G01 Z0.0000 F180
G01 Z-0.6000
G01 Y101.6000 F1500
G00 Z8.0000 F


(No. 125: Engraving 363)
G00 X92.0750 Y98.4250 Z8.0000 F4000
G00 Z0.5000 F
G01 Z0.0000 F180
G01 Z-0.6000
G01 Y101.6000 F1500
G00 Z8.0000 F


(No. 126: Engraving 318)
G00 X95.2500 Y95.2500 Z8.0000 F4000
G00 Z0.5000 F
G01 Z0.0000 F180
G01 Z-0.6000
G01 Y101.6000 F1500
G00 Z8.0000 F


(No. 127: Engraving 358)
G00 X98.4250 Y98.4250 Z8.0000 F4000
G00 Z0.5000 F
G01 Z0.0000 F180
G01 Z-0.6000
G01 Y100.7493 F1500
G00 Z8.0000 F


(No. 128: Engraving 366)
G00 X88.9000 Y92.0750 Z8.0000 F4000
G00 Z0.5000 F
G01 Z0.0000 F180
G01 Z-0.6000
G01 Y101.6000 F1500
G00 Z8.0000 F


(No. 129: Engraving 403)
G00 X82.5500 Y95.2500 Z8.0000 F4000
G00 Z0.5000 F
G01 Z0.0000 F180
G01 Z-0.6000
G01 Y101.6000 F1500
G00 Z8.0000 F


(No. 130: Engraving 333)
G00 X76.2000 Y88.9000 Z8.0000 F4000
G00 Z0.5000 F
G01 Z0.0000 F180
G01 Z-0.6000
G01 Y101.6000 F1500
G00 Z8.0000 F


(No. 131: Engraving 372)
G00 X63.5000 Y92.0750 Z8.0000 F4000
G00 Z0.5000 F
G01 Z0.0000 F180
G01 Z-0.6000
G01 Y101.6000 F1500
G00 Z8.0000 F


(No. 132: Engraving 325)
G00 X38.1000 Y92.0750 Z8.0000 F4000
G00 Z0.5000 F
G01 Z0.0000 F180
G01 Z-0.6000
G01 Y101.6000 F1500
G00 Z8.0000 F


(No. 133: Engraving 335)
G00 X25.4000 Y88.9000 Z8.0000 F4000
G00 Z0.5000 F
G01 Z0.0000 F180
G01 Z-0.6000
G01 Y101.6000 F1500
G00 Z8.0000 F


(No. 134: Engraving 330)
G00 X12.7000 Y92.0750 Z8.0000 F4000
G00 Z0.5000 F
G01 Z0.0000 F180
G01 Z-0.6000
G01 Y101.6000 F1500
G00 Z8.0000 F


(No. 135: Engraving 360)
G00 X45.8601 Y68.8894 Z8.0000 F4000
G00 Z0.5000 F
G01 Z0.0000 F180
G01 Z-0.6000
G00 Z8.0000 F


(No. 136: Engraving 315)
G00 X66.3862 Y32.1251 Z8.0000 F4000
G00 Z0.5000 F
G01 Z0.0000 F180
G01 Z-0.6000
G00 Z8.0000 F
G00 X0.0000 Y0.0000 F4000

M05
M30
