;FLAVOR:Marlin
;TIME:692
;Filament used: 0.96837m
;Layer height: 0.2
;MINX:83.825
;MINY:83.825
;MINZ:0.2
;MAXX:166.175
;MAXY:166.174
;MAXZ:1.4
;Generated with Cura_SteamEngine 5.4.0
M140 S60
M105
M190 S60
M104 S215
M105
M109 S215
M82 ;absolute extrusion mode
START_PRINT
G92 E0
G92 E0
G1 F300 E-0.5
;LAYER_COUNT:5
;LAYER:0
M107
M204 S1800
G1 F600 Z0.6
G0 F4800 X96.088 Y95.684 Z0.6
;TYPE:SKIRT
G1 F600 Z0.2
G1 F120 E0
G1 F1800 X96.764 Y95.034 E0.0496
G1 X97.548 Y94.312 E0.10596
G1 X98.267 Y93.686 E0.15638
G1 X99.042 Y93.037 E0.20984
G1 X99.782 Y92.452 E0.25973
G1 X100.585 Y91.841 E0.31309
G1 X101.368 Y91.281 E0.364
G1 X102.224 Y90.695 E0.41886
G1 X103.039 Y90.169 E0.47016
G1 X103.874 Y89.653 E0.52207
G1 X104.735 Y89.153 E0.57473
G1 X105.524 Y88.714 E0.62248
G1 X106.467 Y88.225 E0.67866
G1 X107.368 Y87.781 E0.73178
G1 X108.268 Y87.372 E0.78406
G1 X109.156 Y86.986 E0.83527
G1 X110.131 Y86.597 E0.89078
G1 X111.095 Y86.234 E0.94526
G1 X112.036 Y85.912 E0.99786
G1 X113.023 Y85.596 E1.05267
G1 X113.981 Y85.321 E1.10538
G1 X114.987 Y85.053 E1.16044
G1 X116.011 Y84.813 E1.21606
G1 X116.89 Y84.625 E1.2636
G1 X118.018 Y84.418 E1.32425
G1 X118.97 Y84.263 E1.37526
G1 X119.72 Y84.165 E1.41526
G1 X121.604 Y83.964 E1.51546
G1 X122.412 Y83.903 E1.55831
G1 X123.383 Y83.853 E1.60973
G1 X124.438 Y83.826 E1.66555
G1 X125.492 Y83.825 E1.72129
G1 X126.635 Y83.854 E1.78176
G1 X127.605 Y83.904 E1.83312
G1 X128.519 Y83.975 E1.88161
G1 X130.325 Y84.171 E1.97768
G1 X131.491 Y84.335 E2.03995
G1 X132.539 Y84.518 E2.09621
G1 X133.552 Y84.715 E2.15079
G1 X134.582 Y84.951 E2.20667
G1 X135.531 Y85.186 E2.25838
G1 X136.56 Y85.474 E2.31489
G1 X137.473 Y85.75 E2.36533
G1 X138.47 Y86.084 E2.42094
G1 X139.408 Y86.417 E2.47358
G1 X140.279 Y86.757 E2.52303
G1 X141.272 Y87.167 E2.57984
G1 X142.182 Y87.575 E2.63258
G1 X143.082 Y87.999 E2.6852
G1 X143.925 Y88.427 E2.7352
G1 X144.898 Y88.946 E2.79352
G1 X145.692 Y89.399 E2.84186
G1 X146.636 Y89.962 E2.89999
G1 X147.428 Y90.466 E2.94964
G1 X148.273 Y91.028 E3.00331
G1 X149.012 Y91.551 E3.05119
G1 X149.872 Y92.184 E3.10766
G1 X150.611 Y92.762 E3.15728
G1 X151.455 Y93.446 E3.21473
G1 X152.153 Y94.05 E3.26355
G1 X152.892 Y94.711 E3.31598
G1 X153.586 Y95.368 E3.36653
G1 X154.321 Y96.09 E3.42101
G1 X154.966 Y96.764 E3.47035
G1 X155.687 Y97.547 E3.52664
G1 X156.314 Y98.267 E3.57713
G1 X156.964 Y99.043 E3.63067
G1 X157.545 Y99.779 E3.68026
G1 X158.159 Y100.585 E3.73384
G1 X158.716 Y101.364 E3.78449
G1 X159.305 Y102.221 E3.83948
G1 X159.836 Y103.043 E3.89124
G1 X160.299 Y103.791 E3.93776
G1 X160.848 Y104.736 E3.99556
G1 X161.286 Y105.524 E4.04324
G1 X161.772 Y106.463 E4.09916
G1 X162.235 Y107.4 E4.15443
G1 X162.638 Y108.286 E4.20591
G1 X163.043 Y109.223 E4.25989
G1 X163.374 Y110.054 E4.3072
G1 X163.769 Y111.101 E4.36638
G1 X164.086 Y112.027 E4.41814
G1 X164.407 Y113.028 E4.47373
G1 X164.68 Y113.979 E4.52606
G1 X164.928 Y114.907 E4.57686
G1 X165.169 Y115.931 E4.63249
G1 X165.395 Y116.987 E4.68961
G1 X165.582 Y118.018 E4.74502
G1 X165.74 Y118.99 E4.7971
G1 X165.85 Y119.841 E4.84248
G1 X166.033 Y121.549 E4.93333
G1 X166.093 Y122.343 E4.97544
G1 X166.147 Y123.383 E5.03051
G1 X166.174 Y124.442 E5.08654
G1 X166.175 Y125.488 E5.14186
G1 X166.146 Y126.635 E5.20253
G1 X166.09 Y127.712 E5.25957
G1 X166.025 Y128.543 E5.30365
G1 X165.837 Y130.27 E5.39552
G1 X165.684 Y131.376 E5.45457
G1 X165.486 Y132.52 E5.51597
G1 X165.235 Y133.784 E5.58413
G1 X164.824 Y135.496 E5.67724
G1 X164.542 Y136.505 E5.73265
G1 X164.241 Y137.505 E5.78788
G1 X163.935 Y138.417 E5.83875
G1 X163.592 Y139.382 E5.89291
G1 X163.219 Y140.339 E5.94723
G1 X162.833 Y141.271 E6.00058
G1 X162.442 Y142.146 E6.05127
G1 X161.997 Y143.09 E6.10646
G1 X161.577 Y143.918 E6.15556
G1 X161.063 Y144.885 E6.21348
G1 X160.603 Y145.691 E6.26256
G1 X160.094 Y146.548 E6.31527
G1 X159.536 Y147.425 E6.37024
G1 X158.994 Y148.241 E6.42205
G1 X158.429 Y149.04 E6.4738
G1 X157.82 Y149.867 E6.52812
G1 X157.224 Y150.63 E6.57932
G1 X156.648 Y151.342 E6.62776
G1 X155.951 Y152.152 E6.68427
G1 X155.323 Y152.856 E6.73416
G1 X154.701 Y153.514 E6.78205
G1 X153.877 Y154.351 E6.84416
G1 X153.236 Y154.965 E6.89111
G1 X152.426 Y155.711 E6.94934
G1 X151.744 Y156.302 E6.99707
G1 X150.955 Y156.966 E7.05161
G1 X150.219 Y157.548 E7.10123
G1 X149.498 Y158.098 E7.14919
G1 X148.635 Y158.717 E7.20536
G1 X147.863 Y159.249 E7.25494
G1 X146.958 Y159.834 E7.31193
G1 X146.126 Y160.347 E7.36362
G1 X145.264 Y160.847 E7.41632
G1 X144.384 Y161.336 E7.46956
G1 X143.554 Y161.764 E7.51895
G1 X142.599 Y162.235 E7.57527
G1 X141.715 Y162.636 E7.6266
G1 X140.777 Y163.043 E7.68068
G1 X139.946 Y163.374 E7.72798
G1 X138.893 Y163.77 E7.78748
G1 X137.967 Y164.087 E7.83924
G1 X136.992 Y164.4 E7.8934
G1 X136.047 Y164.672 E7.9454
G1 X135.012 Y164.948 E8.00205
G1 X134.036 Y165.176 E8.05506
G1 X133.033 Y165.391 E8.10931
G1 X131.982 Y165.582 E8.1658
G1 X131.03 Y165.737 E8.21681
G1 X130.28 Y165.835 E8.25681
G1 X128.396 Y166.036 E8.35702
G1 X127.589 Y166.097 E8.39982
G1 X126.619 Y166.147 E8.45118
G1 X125.578 Y166.174 E8.50626
G1 X124.422 Y166.174 E8.56739
G1 X123.365 Y166.146 E8.62331
G1 X122.394 Y166.096 E8.67473
G1 X121.481 Y166.025 E8.72316
G1 X119.675 Y165.829 E8.81923
G1 X118.509 Y165.665 E8.88151
G1 X117.458 Y165.482 E8.93793
G1 X116.471 Y165.289 E8.99111
G1 X115.425 Y165.051 E9.04784
G1 X114.468 Y164.813 E9.1
G1 X113.465 Y164.533 E9.15507
G1 X112.633 Y164.284 E9.201
G1 X111.529 Y163.916 E9.26254
G1 X110.617 Y163.592 E9.31373
G1 X109.661 Y163.219 E9.368
G1 X108.824 Y162.875 E9.41586
G1 X107.853 Y162.441 E9.47211
G1 X106.906 Y161.995 E9.52746
G1 X106.077 Y161.574 E9.57664
G1 X105.102 Y161.054 E9.63508
G1 X104.308 Y160.601 E9.68342
G1 X103.362 Y160.037 E9.74167
G1 X102.574 Y159.535 E9.79108
G1 X101.811 Y159.029 E9.8395
G1 X100.991 Y158.449 E9.89262
G1 X100.127 Y157.816 E9.94926
G1 X99.431 Y157.272 E9.99598
G1 X98.566 Y156.572 E10.05483
G1 X97.89 Y155.988 E10.10207
G1 X97.073 Y155.256 E10.16008
G1 X96.413 Y154.631 E10.20815
G1 X95.697 Y153.926 E10.2613
G1 X95.057 Y153.258 E10.31022
G1 X94.301 Y152.441 E10.36909
G1 X93.687 Y151.734 E10.41861
G1 X93.044 Y150.967 E10.47154
G1 X92.474 Y150.245 E10.52019
G1 X91.813 Y149.377 E10.57789
G1 X91.299 Y148.656 E10.62472
G1 X90.681 Y147.758 E10.68237
G1 X90.165 Y146.958 E10.73272
G1 X89.649 Y146.122 E10.78467
G1 X89.154 Y145.266 E10.83697
G1 X88.671 Y144.397 E10.88955
G1 X88.225 Y143.53 E10.94111
G1 X87.772 Y142.61 E10.99534
G1 X87.363 Y141.715 E11.04738
G1 X86.953 Y140.766 E11.10205
G1 X86.596 Y139.868 E11.15316
G1 X86.233 Y138.903 E11.20769
G1 X85.911 Y137.96 E11.26039
G1 X85.595 Y136.973 E11.31519
G1 X85.316 Y136.003 E11.36857
G1 X85.063 Y135.055 E11.42046
G1 X84.819 Y134.016 E11.47691
G1 X84.616 Y133.059 E11.52864
G1 X84.418 Y131.982 E11.58656
G1 X84.263 Y131.03 E11.63757
G1 X84.158 Y130.229 E11.68029
G1 X83.963 Y128.414 E11.77683
G1 X83.904 Y127.614 E11.81925
G1 X83.853 Y126.617 E11.87205
G1 X83.826 Y125.557 E11.92813
G1 X83.825 Y124.51 E11.9835
G1 X83.854 Y123.366 E12.04402
G1 X83.908 Y122.327 E12.09904
G1 X83.979 Y121.421 E12.1471
G1 X84.164 Y119.722 E12.23749
G1 X84.335 Y118.508 E12.30232
G1 X84.518 Y117.461 E12.35853
G1 X84.715 Y116.453 E12.41285
G1 X84.942 Y115.449 E12.46729
G1 X85.147 Y114.612 E12.51286
G1 X85.47 Y113.456 E12.57634
G1 X85.759 Y112.499 E12.62921
G1 X86.083 Y111.531 E12.68319
G1 X86.419 Y110.586 E12.73624
G1 X86.758 Y109.718 E12.78552
G1 X87.168 Y108.727 E12.84224
G1 X87.575 Y107.82 E12.89481
G1 X87.998 Y106.919 E12.94745
G1 X88.43 Y106.066 E12.99802
G1 X88.945 Y105.101 E13.05587
G1 X89.4 Y104.306 E13.10431
G1 X89.962 Y103.365 E13.16227
G1 X90.465 Y102.574 E13.21185
G1 X90.971 Y101.811 E13.26027
G1 X91.549 Y100.991 E13.31332
G1 X92.184 Y100.126 E13.37007
G1 X92.765 Y99.385 E13.41987
G1 X93.379 Y98.628 E13.47142
G1 X94.05 Y97.85 E13.52575
G1 X94.711 Y97.108 E13.57831
G1 X95.372 Y96.411 E13.62911
G1 X96.088 Y95.684 E13.68307
G0 F4800 X96.538 Y96.153
G1 F1800 X97.205 Y95.512 E13.732
G1 X97.975 Y94.802 E13.78739
G1 X98.685 Y94.184 E13.83717
G1 X99.445 Y93.547 E13.88961
G1 X100.176 Y92.969 E13.9389
G1 X100.963 Y92.37 E13.9912
G1 X101.736 Y91.817 E14.04147
G1 X102.576 Y91.241 E14.09533
G1 X103.381 Y90.722 E14.14599
G1 X104.2 Y90.215 E14.19693
G1 X105.051 Y89.721 E14.24897
G1 X105.823 Y89.291 E14.2957
G1 X106.755 Y88.808 E14.35121
G1 X107.637 Y88.373 E14.40322
G1 X108.527 Y87.968 E14.45494
G1 X109.397 Y87.59 E14.5051
G1 X110.36 Y87.205 E14.55995
G1 X111.306 Y86.849 E14.61341
G1 X112.234 Y86.531 E14.66529
G1 X113.202 Y86.221 E14.71904
G1 X114.149 Y85.949 E14.77115
G1 X115.135 Y85.686 E14.82512
G1 X116.147 Y85.449 E14.88008
G1 X117.026 Y85.261 E14.92762
G1 X118.122 Y85.06 E14.98655
G1 X119.074 Y84.905 E15.03756
G1 X119.789 Y84.811 E15.0757
G1 X121.653 Y84.612 E15.17484
G1 X122.445 Y84.552 E15.21684
G1 X123.4 Y84.503 E15.26742
G1 X124.439 Y84.476 E15.32238
G1 X125.476 Y84.475 E15.37723
G1 X126.602 Y84.503 E15.43679
G1 X127.555 Y84.552 E15.48726
G1 X128.449 Y84.621 E15.53468
G1 X130.235 Y84.815 E15.62969
G1 X131.379 Y84.975 E15.69078
G1 X132.415 Y85.156 E15.7464
G1 X133.407 Y85.349 E15.79985
G1 X134.426 Y85.582 E15.85513
G1 X135.356 Y85.812 E15.90579
G1 X136.372 Y86.096 E15.96158
G1 X137.267 Y86.366 E16.01102
G1 X138.252 Y86.696 E16.06596
G1 X139.172 Y87.023 E16.1176
G1 X140.031 Y87.358 E16.16636
G1 X141.006 Y87.76 E16.22214
G1 X141.905 Y88.163 E16.27424
G1 X142.788 Y88.579 E16.32586
G1 X143.62 Y89.001 E16.3752
G1 X144.576 Y89.51 E16.43247
G1 X145.359 Y89.957 E16.48016
G1 X146.287 Y90.51 E16.53729
G1 X147.068 Y91.007 E16.58625
G1 X147.897 Y91.558 E16.63889
G1 X148.627 Y92.075 E16.6862
G1 X149.472 Y92.696 E16.74166
G1 X150.202 Y93.267 E16.79067
G1 X151.03 Y93.938 E16.84703
G1 X151.72 Y94.535 E16.89529
G1 X152.445 Y95.183 E16.94671
G1 X153.131 Y95.832 E16.99665
G1 X153.851 Y96.539 E17.05002
G1 X154.488 Y97.205 E17.09876
G1 X155.197 Y97.974 E17.15408
G1 X155.816 Y98.685 E17.20393
G1 X156.454 Y99.446 E17.25645
G1 X157.028 Y100.173 E17.30544
G1 X157.63 Y100.963 E17.35796
G1 X158.18 Y101.732 E17.40796
G1 X158.759 Y102.574 E17.46201
G1 X159.283 Y103.385 E17.51307
G1 X159.737 Y104.118 E17.55867
G1 X160.28 Y105.052 E17.61581
G1 X160.709 Y105.823 E17.66247
G1 X161.189 Y106.751 E17.71772
G1 X161.643 Y107.669 E17.77188
G1 X162.041 Y108.544 E17.82272
G1 X162.439 Y109.464 E17.87573
G1 X162.766 Y110.283 E17.92237
G1 X163.154 Y111.312 E17.98053
G1 X163.467 Y112.225 E18.03157
G1 X163.782 Y113.208 E18.08616
G1 X164.052 Y114.147 E18.13784
G1 X164.295 Y115.056 E18.1876
G1 X164.533 Y116.067 E18.24253
G1 X164.755 Y117.103 E18.29856
G1 X164.94 Y118.122 E18.35333
G1 X165.095 Y119.074 E18.40434
G1 X165.204 Y119.91 E18.44893
G1 X165.385 Y121.598 E18.53871
G1 X165.444 Y122.377 E18.58003
G1 X165.497 Y123.4 E18.6342
G1 X165.524 Y124.443 E18.68938
G1 X165.525 Y125.472 E18.7438
G1 X165.497 Y126.601 E18.80353
G1 X165.442 Y127.662 E18.85971
G1 X165.379 Y128.473 E18.90273
G1 X165.193 Y130.181 E18.99359
G1 X165.043 Y131.265 E19.05147
G1 X164.848 Y132.394 E19.11206
G1 X164.603 Y133.632 E19.1788
G1 X164.198 Y135.321 E19.27066
G1 X163.919 Y136.318 E19.32541
G1 X163.625 Y137.298 E19.37952
G1 X163.323 Y138.199 E19.42978
G1 X162.986 Y139.146 E19.48294
G1 X162.618 Y140.091 E19.53657
G1 X162.24 Y141.006 E19.58893
G1 X161.854 Y141.869 E19.63892
G1 X161.417 Y142.796 E19.69312
G1 X161.003 Y143.613 E19.74156
G1 X160.498 Y144.563 E19.79846
G1 X160.044 Y145.359 E19.84692
G1 X159.545 Y146.199 E19.89859
G1 X158.994 Y147.066 E19.95292
G1 X158.463 Y147.866 E20.0037
G1 X157.905 Y148.655 E20.05481
G1 X157.308 Y149.467 E20.10811
G1 X156.718 Y150.222 E20.15879
G1 X156.156 Y150.918 E20.2061
G1 X155.466 Y151.719 E20.26201
G1 X154.838 Y152.423 E20.3119
G1 X154.238 Y153.058 E20.3581
G1 X153.428 Y153.881 E20.41917
G1 X152.795 Y154.487 E20.46552
G1 X152 Y155.22 E20.5227
G1 X151.326 Y155.805 E20.5699
G1 X150.552 Y156.456 E20.62339
G1 X149.825 Y157.031 E20.67241
G1 X149.119 Y157.57 E20.71938
G1 X148.266 Y158.182 E20.77491
G1 X147.51 Y158.703 E20.82346
G1 X146.616 Y159.281 E20.87976
G1 X145.8 Y159.785 E20.93049
G1 X144.949 Y160.279 E20.98252
G1 X144.086 Y160.758 E21.03472
G1 X143.266 Y161.181 E21.08352
G1 X142.33 Y161.643 E21.13872
G1 X141.457 Y162.04 E21.18944
G1 X140.536 Y162.439 E21.24252
G1 X139.717 Y162.766 E21.28916
G1 X138.683 Y163.155 E21.34759
G1 X137.768 Y163.468 E21.39873
G1 X136.812 Y163.775 E21.45183
G1 X135.879 Y164.044 E21.50318
G1 X134.864 Y164.315 E21.55874
G1 X133.9 Y164.54 E21.6111
G1 X132.917 Y164.751 E21.66427
G1 X131.878 Y164.94 E21.72012
G1 X130.926 Y165.095 E21.77113
G1 X130.211 Y165.189 E21.80927
G1 X128.347 Y165.388 E21.9084
G1 X127.556 Y165.448 E21.95036
G1 X126.602 Y165.497 E22.00088
G1 X125.561 Y165.524 E22.05595
G1 X124.439 Y165.524 E22.11529
G1 X123.398 Y165.497 E22.17036
G1 X122.444 Y165.448 E22.22088
G1 X121.551 Y165.379 E22.26825
G1 X119.765 Y165.185 E22.36326
G1 X118.621 Y165.025 E22.42435
G1 X117.583 Y164.844 E22.48007
G1 X116.615 Y164.655 E22.53223
G1 X115.582 Y164.42 E22.58826
G1 X114.643 Y164.187 E22.63942
G1 X113.651 Y163.91 E22.69389
G1 X112.838 Y163.667 E22.73877
G1 X111.747 Y163.304 E22.79958
G1 X110.853 Y162.986 E22.84976
G1 X109.908 Y162.618 E22.90339
G1 X109.089 Y162.281 E22.95023
G1 X108.13 Y161.853 E23.00577
G1 X107.2 Y161.415 E23.06013
G1 X106.382 Y161 E23.10864
G1 X105.424 Y160.49 E23.16604
G1 X104.641 Y160.043 E23.21372
G1 X103.711 Y159.489 E23.27097
G1 X102.933 Y158.993 E23.31976
G1 X102.186 Y158.498 E23.36716
G1 X101.375 Y157.925 E23.41967
G1 X100.527 Y157.304 E23.47526
G1 X99.84 Y156.767 E23.52137
G1 X98.991 Y156.08 E23.57913
G1 X98.324 Y155.504 E23.62574
G1 X97.52 Y154.784 E23.68282
G1 X96.869 Y154.167 E23.73025
G1 X96.166 Y153.476 E23.78238
G1 X95.534 Y152.817 E23.83067
G1 X94.792 Y152.015 E23.88846
G1 X94.185 Y151.316 E23.93742
G1 X93.554 Y150.564 E23.98933
G1 X92.991 Y149.851 E24.03738
G1 X92.342 Y148.999 E24.09402
G1 X91.834 Y148.287 E24.14028
G1 X91.227 Y147.406 E24.19686
G1 X90.718 Y146.616 E24.24656
G1 X90.212 Y145.797 E24.29747
G1 X89.722 Y144.95 E24.34922
G1 X89.249 Y144.099 E24.40071
G1 X88.808 Y143.243 E24.45164
G1 X88.363 Y142.34 E24.50487
G1 X87.96 Y141.457 E24.55621
G1 X87.557 Y140.526 E24.60986
G1 X87.204 Y139.639 E24.66035
G1 X86.848 Y138.693 E24.7138
G1 X86.53 Y137.762 E24.76583
G1 X86.22 Y136.793 E24.81964
G1 X85.944 Y135.836 E24.87231
G1 X85.696 Y134.906 E24.92321
G1 X85.455 Y133.881 E24.9789
G1 X85.255 Y132.942 E25.02967
G1 X85.06 Y131.878 E25.08688
G1 X84.905 Y130.926 E25.13789
G1 X84.804 Y130.159 E25.1788
G1 X84.611 Y128.366 E25.27417
G1 X84.553 Y127.581 E25.3158
G1 X84.503 Y126.6 E25.36775
G1 X84.476 Y125.556 E25.42298
G1 X84.475 Y124.526 E25.47746
G1 X84.503 Y123.4 E25.53702
G1 X84.556 Y122.377 E25.5912
G1 X84.625 Y121.491 E25.6382
G1 X84.808 Y119.812 E25.72752
G1 X84.975 Y118.62 E25.79117
G1 X85.156 Y117.585 E25.84674
G1 X85.349 Y116.596 E25.90003
G1 X85.573 Y115.604 E25.95381
G1 X85.773 Y114.787 E25.9983
G1 X86.092 Y113.644 E26.06106
G1 X86.375 Y112.705 E26.11292
G1 X86.695 Y111.749 E26.16624
G1 X87.024 Y110.823 E26.21821
G1 X87.359 Y109.966 E26.26687
G1 X87.761 Y108.993 E26.32255
G1 X88.163 Y108.096 E26.37453
G1 X88.578 Y107.213 E26.42613
G1 X89.004 Y106.372 E26.47599
G1 X89.509 Y105.424 E26.53279
G1 X89.958 Y104.639 E26.58062
G1 X90.51 Y103.714 E26.63759
G1 X91.007 Y102.933 E26.68655
G1 X91.502 Y102.186 E26.73394
G1 X92.073 Y101.376 E26.78635
G1 X92.696 Y100.527 E26.84204
G1 X93.27 Y99.794 E26.89128
G1 X93.871 Y99.052 E26.94178
G1 X94.535 Y98.282 E26.99555
G1 X95.183 Y97.555 E27.04705
G1 X95.835 Y96.867 E27.09718
G1 X96.538 Y96.153 E27.15017
G1 F300 E26.65017
G1 F600 Z0.6
;MESH:V250_kobalt-mat.3mf
G0 F4800 X105.72 Y135.469 Z0.6
;TYPE:WALL-INNER
G1 F600 Z0.2
G1 F120 E27.15017
G1 F1800 X105.55 Y115.423 E28.1082
G1 X99.68 Y125.504 E28.66569
G1 X105.72 Y135.469 E29.22257
G1 F300 E28.72257
G1 F600 Z0.6
G0 F4800 X106.338 Y137.646 Z0.6
G1 F600 Z0.2
G1 F120 E29.22257
G1 F1800 X106.132 Y113.232 E30.38935
G1 X98.982 Y125.51 E31.06836
G1 X106.338 Y137.646 E31.74656
G1 F300 E31.24656
G1 F600 Z0.6
G0 F4800 X106.956 Y139.823 Z0.6
;TYPE:WALL-OUTER
G1 F600 Z0.2
G1 F120 E31.74656
G1 F1800 X106.713 Y111.041 E33.12209
G1 X98.284 Y125.516 E33.92259
