;FLAVOR:Marlin
;TIME:3320
;Filament used: 4.51375m
;Layer height: 0.32
;MINX:118.06
;MINY:118.06
;MINZ:0.24
;MAXX:181.94
;MAXY:181.94
;MAXZ:48.56
;Generated with Cura_SteamEngine 5.0.0
M140 S70
M105
M190 S70
M104 S245
M105
M109 S245
M82 ;absolute extrusion mode
; Ender 3 Max Custom Start G-code
G92 E0 ; Reset Extruder
G28 ; Home all axes
G1 Z2.0 F3000 ; Move Z Axis up little to prevent scratching of Heat Bed
G1 X0.1 Y20 Z0.3 F5000.0 ; Move to start position
G1 X0.1 Y200.0 Z0.3 F1500.0 E15 ; Draw the first line
G1 X0.4 Y200.0 Z0.3 F5000.0 ; Move to side a little
G1 X0.4 Y20 Z0.3 F1500.0 E30 ; Draw the second line
G92 E0 ; Reset Extruder
G1 Z2.0 F3000 ; Move Z Axis up little to prevent scratching of Heat Bed
G1 X5 Y20 Z0.3 F5000.0 ; Move over to prevent blob squish
G92 E0
G92 E0
G1 F2100 E-5
;LAYER_COUNT:152
;LAYER:0
M107
G1 F300 Z0.56
G0 F6000 X122.009 Y122.289 Z0.56
G1 F300 Z0.56
G0 F6000 X118.06 Y132.163
;TYPE:SKIRT
G1 F300 Z0.24
G1 F2100 E0
G1 F1800 X118.102 Y131.156 E0.07301
G1 X118.136 Y130.745 E0.10289
G1 X118.257 Y129.765 E0.17442
G1 X118.491 Y128.662 E0.2561
G1 X118.587 Y128.295 E0.28358
G1 X118.876 Y127.35 E0.35516
G1 X119.407 Y126.07 E0.45555
G1 X119.568 Y125.737 E0.48234
G1 X120.034 Y124.866 E0.5539
G1 X120.569 Y124.035 E0.6255
G1 X121.123 Y123.305 E0.69188
G1 X121.352 Y123.026 E0.71803
G1 X122.009 Y122.289 E0.78955
G1 X122.724 Y121.606 E0.86118
G1 X123.225 Y121.189 E0.9084
G1 X123.505 Y120.968 E0.93424
G1 X124.305 Y120.387 E1.00586
G1 X125.149 Y119.874 E1.07741
G1 X125.814 Y119.531 E1.13162
G1 X126.139 Y119.376 E1.1577
G1 X127.047 Y118.987 E1.22926
G1 X128.411 Y118.557 E1.33286
G1 X128.788 Y118.462 E1.36102
G1 X129.756 Y118.26 E1.43266
G1 X130.801 Y118.131 E1.50893
G1 X131.202 Y118.099 E1.53807
G1 X132.173 Y118.06 E1.60847
G1 X167.833 Y118.06 E4.1917
G1 X168.84 Y118.102 E4.26471
G1 X169.251 Y118.136 E4.29459
G1 X170.231 Y118.257 E4.36612
G1 X171.288 Y118.48 E4.44437
G1 X171.657 Y118.575 E4.47197
G1 X172.603 Y118.859 E4.54352
G1 X173.523 Y119.22 E4.61512
G1 X174.321 Y119.599 E4.67911
G1 X175.19 Y120.07 E4.75072
G1 X176.018 Y120.61 E4.82232
G1 X176.608 Y121.058 E4.87599
G1 X176.898 Y121.292 E4.90298
G1 X177.642 Y121.943 E4.9746
G1 X178.33 Y122.652 E5.04617
G1 X178.83 Y123.247 E5.10247
G1 X179.047 Y123.523 E5.1279
G1 X179.625 Y124.324 E5.19945
G1 X180.137 Y125.169 E5.27103
G1 X180.469 Y125.814 E5.32358
G1 X180.624 Y126.139 E5.34966
G1 X181.013 Y127.047 E5.42122
G1 X181.443 Y128.411 E5.52482
G1 X181.538 Y128.788 E5.55298
G1 X181.74 Y129.756 E5.62462
G1 X181.868 Y130.789 E5.70002
G1 X181.9 Y131.185 E5.7288
G1 X181.94 Y132.168 E5.80007
G1 X181.94 Y167.837 E8.38395
G1 X181.898 Y168.853 E8.45761
G1 X181.864 Y169.26 E8.4872
G1 X181.742 Y170.241 E8.55881
G1 X181.517 Y171.303 E8.63745
G1 X181.421 Y171.674 E8.66521
G1 X181.135 Y172.62 E8.7368
G1 X180.586 Y173.943 E8.84057
G1 X180.425 Y174.275 E8.8673
G1 X179.959 Y175.146 E8.93885
G1 X179.423 Y175.976 E9.01043
G1 X178.891 Y176.677 E9.07418
G1 X178.662 Y176.957 E9.10038
G1 X178.006 Y177.696 E9.17196
G1 X177.292 Y178.379 E9.24354
G1 X176.775 Y178.811 E9.29234
G1 X176.495 Y179.032 E9.31818
G1 X175.695 Y179.613 E9.38981
G1 X174.851 Y180.126 E9.46136
G1 X174.186 Y180.469 E9.51556
G1 X173.861 Y180.624 E9.54164
G1 X172.953 Y181.013 E9.6132
G1 X171.589 Y181.443 E9.7168
G1 X171.212 Y181.538 E9.74497
G1 X170.244 Y181.74 E9.8166
G1 X169.199 Y181.869 E9.89287
G1 X168.798 Y181.901 E9.92202
G1 X167.827 Y181.94 E9.99241
G1 X132.167 Y181.94 E12.57564
G1 X131.16 Y181.898 E12.64865
G1 X130.749 Y181.864 E12.67853
G1 X129.769 Y181.743 E12.75006
G1 X128.712 Y181.52 E12.82832
G1 X128.343 Y181.425 E12.85592
G1 X127.397 Y181.141 E12.92747
G1 X126.477 Y180.78 E12.99906
G1 X125.679 Y180.401 E13.06306
G1 X124.81 Y179.93 E13.13466
G1 X123.982 Y179.39 E13.20627
G1 X123.392 Y178.942 E13.25993
G1 X123.102 Y178.708 E13.28693
G1 X122.358 Y178.057 E13.35854
G1 X121.67 Y177.348 E13.43011
G1 X121.174 Y176.757 E13.486
G1 X120.956 Y176.48 E13.51154
G1 X120.377 Y175.68 E13.58307
G1 X119.864 Y174.835 E13.65468
G1 X119.519 Y174.162 E13.70947
G1 X119.362 Y173.831 E13.73601
G1 X118.975 Y172.921 E13.80764
G1 X118.568 Y171.638 E13.90515
G1 X118.477 Y171.284 E13.93163
G1 X118.27 Y170.318 E14.00319
G1 X118.132 Y169.219 E14.08343
G1 X118.099 Y168.807 E14.11337
G1 X118.06 Y167.832 E14.18406
G1 X118.06 Y133.526 E16.6692
G0 F1620 X118.06 Y132.163
G0 F6000 X118.72 Y132.163
G1 F1800 X118.759 Y131.211 E16.73822
G1 X118.793 Y130.8 E16.7681
G1 X118.912 Y129.846 E16.83774
G1 X119.13 Y128.829 E16.91309
G1 X119.226 Y128.462 E16.94057
G1 X119.508 Y127.543 E17.0102
G1 X120.002 Y126.358 E17.10321
G1 X120.163 Y126.025 E17.13
G1 X120.617 Y125.177 E17.19968
G1 X121.139 Y124.371 E17.26924
G1 X121.633 Y123.724 E17.32821
G1 X121.862 Y123.445 E17.35436
G1 X122.502 Y122.728 E17.42398
G1 X123.2 Y122.067 E17.49362
G1 X123.634 Y121.707 E17.53447
G1 X123.914 Y121.486 E17.56031
G1 X124.693 Y120.922 E17.62998
G1 X125.515 Y120.425 E17.69956
G1 X126.098 Y120.127 E17.74699
G1 X126.423 Y119.972 E17.77307
G1 X127.307 Y119.595 E17.84269
G1 X128.573 Y119.197 E17.93883
G1 X128.95 Y119.102 E17.96699
G1 X129.891 Y118.906 E18.03662
G1 X130.853 Y118.789 E18.10682
G1 X131.254 Y118.757 E18.13596
G1 X132.173 Y118.72 E18.20259
G1 X167.833 Y118.72 E20.78582
G1 X168.785 Y118.759 E20.85484
G1 X169.196 Y118.793 E20.88472
G1 X170.15 Y118.912 E20.95436
G1 X171.124 Y119.119 E21.02649
G1 X171.493 Y119.214 E21.05409
G1 X172.413 Y119.492 E21.12372
G1 X173.702 Y120.031 E21.22493
G1 X174.03 Y120.192 E21.2514
G1 X174.875 Y120.651 E21.32106
G1 X175.678 Y121.178 E21.39063
G1 X176.194 Y121.571 E21.43762
G1 X176.484 Y121.805 E21.46461
G1 X177.206 Y122.439 E21.53422
G1 X177.873 Y123.131 E21.60384
G1 X178.311 Y123.655 E21.65332
G1 X178.528 Y123.931 E21.67875
G1 X179.09 Y124.711 E21.74839
G1 X179.585 Y125.534 E21.81796
G1 X179.873 Y126.098 E21.86384
G1 X180.028 Y126.423 E21.88992
G1 X180.405 Y127.307 E21.95954
G1 X180.803 Y128.573 E22.05567
G1 X180.898 Y128.95 E22.08384
G1 X181.094 Y129.891 E22.15347
G1 X181.21 Y130.842 E22.22287
G1 X181.242 Y131.238 E22.25165
G1 X181.28 Y132.168 E22.31908
G1 X181.28 Y167.837 E24.90296
G1 X181.24 Y168.799 E24.97271
G1 X181.206 Y169.206 E25.00229
G1 X181.086 Y170.159 E25.07187
G1 X180.878 Y171.137 E25.14431
G1 X180.782 Y171.508 E25.17207
G1 X180.502 Y172.428 E25.24173
G1 X179.992 Y173.655 E25.33799
G1 X179.831 Y173.987 E25.36472
G1 X179.377 Y174.833 E25.43427
G1 X178.853 Y175.639 E25.50391
G1 X178.38 Y176.259 E25.5604
G1 X178.151 Y176.539 E25.5866
G1 X177.512 Y177.257 E25.65623
G1 X176.815 Y177.919 E25.72587
G1 X176.366 Y178.293 E25.7682
G1 X176.086 Y178.514 E25.79404
G1 X175.307 Y179.078 E25.86371
G1 X174.485 Y179.575 E25.93329
G1 X173.902 Y179.873 E25.98072
G1 X173.577 Y180.028 E26.0068
G1 X172.693 Y180.405 E26.07642
G1 X171.427 Y180.803 E26.17256
G1 X171.05 Y180.898 E26.20072
G1 X170.109 Y181.094 E26.27035
G1 X169.147 Y181.211 E26.34055
G1 X168.746 Y181.243 E26.36969
G1 X167.827 Y181.28 E26.43632
G1 X132.167 Y181.28 E29.01955
G1 X131.215 Y181.241 E29.08857
G1 X130.804 Y181.207 E29.11845
G1 X129.85 Y181.088 E29.18809
G1 X128.876 Y180.881 E29.26022
G1 X128.507 Y180.786 E29.28783
G1 X127.587 Y180.508 E29.35745
G1 X126.298 Y179.969 E29.45866
G1 X125.97 Y179.808 E29.48513
G1 X125.125 Y179.349 E29.55479
G1 X124.322 Y178.822 E29.62436
G1 X123.806 Y178.429 E29.67135
G1 X123.516 Y178.195 E29.69834
G1 X122.794 Y177.561 E29.76795
G1 X122.127 Y176.869 E29.83757
G1 X121.693 Y176.349 E29.88664
G1 X121.475 Y176.072 E29.91217
G1 X120.912 Y175.293 E29.9818
G1 X120.417 Y174.469 E30.05143
G1 X120.115 Y173.879 E30.09945
G1 X119.958 Y173.548 E30.12599
G1 X119.583 Y172.663 E30.19561
G1 X119.208 Y171.474 E30.28593
G1 X119.117 Y171.12 E30.3124
G1 X118.916 Y170.18 E30.38204
G1 X118.79 Y169.166 E30.45606
G1 X118.757 Y168.754 E30.486
G1 X118.72 Y167.832 E30.55284
G1 X118.72 Y133.526 E33.03799
G0 F1620 X118.72 Y132.163
G0 F6000 X119.38 Y132.163
G1 F1800 X119.417 Y131.265 E33.1031
G1 X119.451 Y130.854 E33.13297
G1 X119.568 Y129.928 E33.20058
G1 X119.768 Y128.996 E33.26964
G1 X119.864 Y128.629 E33.29712
G1 X120.139 Y127.737 E33.36473
G1 X120.596 Y126.645 E33.45049
G1 X120.757 Y126.312 E33.47728
G1 X121.199 Y125.49 E33.54489
G1 X121.709 Y124.709 E33.61246
G1 X122.143 Y124.143 E33.66413
G1 X122.372 Y123.864 E33.69028
G1 X122.995 Y123.169 E33.75789
G1 X123.674 Y122.529 E33.82548
G1 X124.323 Y122.004 E33.88595
G1 X125.08 Y121.458 E33.95357
G1 X125.88 Y120.978 E34.02115
G1 X126.382 Y120.723 E34.06194
G1 X126.707 Y120.568 E34.08802
G1 X127.566 Y120.202 E34.15566
G1 X128.734 Y119.837 E34.24431
G1 X129.111 Y119.742 E34.27247
G1 X130.025 Y119.553 E34.34008
G1 X130.906 Y119.447 E34.40436
G1 X131.307 Y119.415 E34.4335
G1 X132.173 Y119.38 E34.49629
G1 X167.833 Y119.38 E37.07952
G1 X168.731 Y119.417 E37.14462
G1 X169.142 Y119.451 E37.1745
G1 X170.068 Y119.568 E37.24211
G1 X170.959 Y119.758 E37.30811
G1 X171.328 Y119.853 E37.33571
G1 X172.221 Y120.124 E37.40331
G1 X173.411 Y120.623 E37.49679
G1 X173.739 Y120.784 E37.52326
G1 X174.559 Y121.231 E37.59091
G1 X175.337 Y121.746 E37.6585
G1 X175.78 Y122.085 E37.69891
G1 X176.07 Y122.319 E37.7259
G1 X176.77 Y122.935 E37.79345
G1 X177.415 Y123.61 E37.86108
G1 X177.792 Y124.063 E37.90378
G1 X178.009 Y124.339 E37.92921
G1 X178.554 Y125.097 E37.99684
G1 X179.032 Y125.898 E38.06441
G1 X179.277 Y126.382 E38.10371
G1 X179.432 Y126.707 E38.12979
G1 X179.798 Y127.566 E38.19743
G1 X180.163 Y128.734 E38.28608
G1 X180.258 Y129.111 E38.31424
G1 X180.447 Y130.025 E38.38185
G1 X180.553 Y130.895 E38.44534
G1 X180.585 Y131.291 E38.47412
G1 X180.62 Y132.168 E38.5377
G1 X180.62 Y167.837 E41.12158
G1 X180.582 Y168.744 E41.18735
G1 X180.548 Y169.151 E41.21693
G1 X180.431 Y170.076 E41.28447
G1 X180.239 Y170.972 E41.35085
G1 X180.143 Y171.343 E41.37861
G1 X179.871 Y172.236 E41.44624
G1 X179.399 Y173.367 E41.53502
G1 X179.238 Y173.699 E41.56174
G1 X178.795 Y174.52 E41.62932
G1 X178.283 Y175.301 E41.69697
G1 X177.869 Y175.841 E41.74627
G1 X177.64 Y176.121 E41.77247
G1 X177.019 Y176.818 E41.84009
G1 X176.34 Y177.458 E41.90769
G1 X175.677 Y177.996 E41.96954
G1 X174.92 Y178.542 E42.03715
G1 X174.12 Y179.022 E42.10473
G1 X173.618 Y179.277 E42.14552
G1 X173.293 Y179.432 E42.17161
G1 X172.434 Y179.798 E42.23924
G1 X171.266 Y180.163 E42.32789
G1 X170.889 Y180.258 E42.35605
G1 X169.975 Y180.447 E42.42367
G1 X169.094 Y180.553 E42.48795
G1 X168.693 Y180.585 E42.51709
G1 X167.827 Y180.62 E42.57987
G1 X132.167 Y180.62 E45.1631
G1 X131.269 Y180.583 E45.22821
G1 X130.858 Y180.549 E45.25808
G1 X129.932 Y180.432 E45.3257
G1 X129.041 Y180.242 E45.39169
G1 X128.672 Y180.147 E45.4193
G1 X127.779 Y179.876 E45.4869
G1 X126.589 Y179.377 E45.58037
G1 X126.261 Y179.216 E45.60684
G1 X125.441 Y178.769 E45.6745
G1 X124.663 Y178.254 E45.74209
G1 X124.22 Y177.915 E45.78249
G1 X123.93 Y177.681 E45.80949
G1 X123.23 Y177.065 E45.87704
G1 X122.585 Y176.39 E45.94467
G1 X122.211 Y175.941 E45.987
G1 X121.993 Y175.664 E46.01253
G1 X121.448 Y174.907 E46.0801
G1 X120.97 Y174.105 E46.14774
G1 X120.712 Y173.596 E46.18908
G1 X120.555 Y173.265 E46.21561
G1 X120.191 Y172.405 E46.28326
G1 X119.847 Y171.309 E46.36648
G1 X119.756 Y170.955 E46.39296
G1 X119.563 Y170.042 E46.46056
G1 X119.448 Y169.113 E46.52837
G1 X119.415 Y168.701 E46.55831
G1 X119.38 Y167.832 E46.62131
G1 X119.38 Y133.526 E49.10646
G0 F1620 X119.38 Y132.163
G0 F6000 X120.04 Y132.163
G1 F1800 X120.075 Y131.32 E49.16758
G1 X120.109 Y130.909 E49.19745
G1 X120.223 Y130.011 E49.26302
G1 X120.407 Y129.163 E49.32588
G1 X120.503 Y128.796 E49.35336
G1 X120.77 Y127.932 E49.41887
G1 X121.19 Y126.932 E49.49744
G1 X121.351 Y126.599 E49.52424
G1 X121.78 Y125.803 E49.58974
G1 X122.278 Y125.048 E49.65526
G1 X122.654 Y124.562 E49.69977
G1 X122.883 Y124.283 E49.72592
G1 X123.487 Y123.61 E49.79143
G1 X124.452 Y122.743 E49.8854
G1 X124.732 Y122.522 E49.91124
G1 X125.466 Y121.994 E49.97674
G1 X126.244 Y121.532 E50.04229
G1 X126.991 Y121.163 E50.10264
G1 X127.824 Y120.81 E50.16818
G1 X128.895 Y120.477 E50.24943
G1 X129.272 Y120.382 E50.27759
G1 X130.158 Y120.2 E50.34312
G1 X130.958 Y120.104 E50.40148
G1 X131.359 Y120.072 E50.43062
G1 X132.173 Y120.04 E50.48964
G1 X167.833 Y120.04 E53.07287
G1 X168.676 Y120.075 E53.13399
G1 X169.087 Y120.109 E53.16386
G1 X169.985 Y120.223 E53.22944
G1 X170.795 Y120.397 E53.28945
G1 X171.164 Y120.492 E53.31705
G1 X172.029 Y120.756 E53.38257
G1 X173.121 Y121.216 E53.46841
G1 X173.449 Y121.377 E53.49487
G1 X174.242 Y121.811 E53.56036
G1 X174.994 Y122.313 E53.62586
G1 X175.655 Y122.833 E53.68678
G1 X176.333 Y123.431 E53.75227
G1 X176.956 Y124.087 E53.81781
G1 X177.49 Y124.747 E53.87931
G1 X178.017 Y125.482 E53.94482
G1 X178.477 Y126.261 E54.01036
G1 X178.837 Y126.991 E54.06932
G1 X179.19 Y127.824 E54.13486
G1 X179.523 Y128.895 E54.21611
G1 X179.618 Y129.272 E54.24427
G1 X179.8 Y130.158 E54.30979
G1 X179.895 Y130.948 E54.36743
G1 X179.927 Y131.344 E54.39621
G1 X179.96 Y132.168 E54.45595
G1 X179.96 Y167.837 E57.03983
G1 X179.924 Y168.689 E57.10161
G1 X179.89 Y169.096 E57.1312
G1 X179.775 Y169.993 E57.19671
G1 X179.6 Y170.807 E57.25702
G1 X179.504 Y171.178 E57.28478
G1 X179.239 Y172.042 E57.35025
G1 X178.805 Y173.079 E57.43168
G1 X178.644 Y173.411 E57.45841
G1 X178.214 Y174.206 E57.52389
G1 X177.715 Y174.961 E57.58944
G1 X177.358 Y175.423 E57.63174
G1 X177.129 Y175.703 E57.65794
G1 X176.526 Y176.378 E57.72351
G1 X175.548 Y177.257 E57.81877
G1 X175.268 Y177.478 E57.84461
G1 X174.534 Y178.006 E57.91011
G1 X173.756 Y178.468 E57.97565
G1 X173.009 Y178.837 E58.03601
G1 X172.176 Y179.19 E58.10155
G1 X171.105 Y179.523 E58.18279
G1 X170.728 Y179.618 E58.21096
G1 X169.842 Y179.8 E58.27648
G1 X169.042 Y179.896 E58.33485
G1 X168.641 Y179.928 E58.36399
G1 X167.827 Y179.96 E58.423
G1 X132.167 Y179.96 E61.00623
G1 X131.324 Y179.925 E61.06735
G1 X130.913 Y179.891 E61.09723
G1 X130.015 Y179.777 E61.1628
G1 X129.205 Y179.603 E61.22282
G1 X128.836 Y179.508 E61.25042
G1 X127.971 Y179.244 E61.31593
G1 X126.879 Y178.784 E61.40177
G1 X126.551 Y178.623 E61.42824
G1 X125.758 Y178.189 E61.49372
G1 X125.006 Y177.687 E61.55922
G1 X124.345 Y177.167 E61.62015
G1 X123.667 Y176.569 E61.68564
G1 X123.044 Y175.913 E61.75117
G1 X122.512 Y175.256 E61.81241
G1 X121.985 Y174.521 E61.87793
G1 X121.524 Y173.742 E61.9435
G1 X121.151 Y172.982 E62.00483
G1 X120.8 Y172.149 E62.07031
G1 X120.486 Y171.145 E62.14651
G1 X120.395 Y170.791 E62.17299
G1 X120.209 Y169.906 E62.2385
G1 X120.106 Y169.061 E62.30017
G1 X120.073 Y168.649 E62.33011
G1 X120.04 Y167.832 E62.38934
G1 X120.04 Y133.526 E64.87449
G0 F1620 X120.04 Y132.163
G0 F6000 X120.7 Y132.163
G1 F1800 X120.733 Y131.374 E64.93169
G1 X120.767 Y130.963 E64.96157
G1 X120.878 Y130.095 E65.02496
G1 X121.046 Y129.33 E65.08169
G1 X121.142 Y128.963 E65.10917
G1 X121.401 Y128.128 E65.17251
G1 X121.784 Y127.219 E65.24396
G1 X121.945 Y126.886 E65.27075
G1 X122.362 Y126.117 E65.33412
G1 X122.846 Y125.389 E65.39745
G1 X123.164 Y124.98 E65.43498
G1 X123.393 Y124.701 E65.46113
G1 X123.978 Y124.051 E65.52448
G1 X124.861 Y123.261 E65.61031
G1 X125.141 Y123.04 E65.63615
G1 X125.852 Y122.53 E65.69953
G1 X126.95 Y121.914 E65.79073
G1 X127.275 Y121.759 E65.81682
G1 X128.081 Y121.419 E65.88019
G1 X129.057 Y121.117 E65.9542
G1 X129.434 Y121.022 E65.98236
G1 X130.291 Y120.847 E66.04572
G1 X131.011 Y120.762 E66.09824
G1 X131.412 Y120.73 E66.12738
G1 X132.173 Y120.7 E66.18255
G1 X167.833 Y120.7 E68.76578
G1 X168.622 Y120.733 E68.82299
G1 X169.033 Y120.767 E68.85287
G1 X169.901 Y120.878 E68.91626
G1 X170.63 Y121.036 E68.97029
G1 X170.999 Y121.131 E68.99789
G1 X171.835 Y121.388 E69.06125
G1 X172.83 Y121.808 E69.13949
G1 X173.158 Y121.969 E69.16596
G1 X173.925 Y122.39 E69.22934
G1 X174.951 Y123.112 E69.32022
G1 X175.241 Y123.346 E69.34721
G1 X175.896 Y123.926 E69.41059
G1 X176.754 Y124.879 E69.50348
G1 X176.971 Y125.155 E69.52892
G1 X177.48 Y125.867 E69.59232
G1 X178.086 Y126.95 E69.68222
G1 X178.241 Y127.275 E69.7083
G1 X178.581 Y128.081 E69.77167
G1 X178.883 Y129.057 E69.84568
G1 X178.978 Y129.434 E69.87384
G1 X179.153 Y130.291 E69.93721
G1 X179.237 Y131.001 E69.989
G1 X179.269 Y131.397 E70.01778
G1 X179.3 Y132.168 E70.07368
