;FLAVOR:Marlin
;TIME:6540
;Filament used: 11.8769m
;Layer height: 0.32
;MINX:33.444
;MINY:116.906
;MINZ:0.24
;MAXX:100.725
;MAXY:182.086
;MAXZ:45.36
;Generated with Cura_SteamEngine 5.0.0
M140 S70
M105
M190 S70
M104 S245
M105
M109 S245
M82 ;absolute extrusion mode
; Ender 3 Max Custom Start G-code
G92 E0 ; Reset Extruder
G28 ; Home all axes
G1 Z2.0 F3000 ; Move Z Axis up little to prevent scratching of Heat Bed
G1 X0.1 Y20 Z0.3 F5000.0 ; Move to start position
G1 X0.1 Y200.0 Z0.3 F1500.0 E15 ; Draw the first line
G1 X0.4 Y200.0 Z0.3 F5000.0 ; Move to side a little
G1 X0.4 Y20 Z0.3 F1500.0 E30 ; Draw the second line
G92 E0 ; Reset Extruder
G1 Z2.0 F3000 ; Move Z Axis up little to prevent scratching of Heat Bed
G1 X5 Y20 Z0.3 F5000.0 ; Move over to prevent blob squish
G92 E0
G92 E0
G1 F2100 E-5
;LAYER_COUNT:141
;LAYER:0
M107
G1 F300 Z0.56
G0 F6000 X46.267 Y117.823 Z0.56
G1 F300 Z0.56
G0 F6000 X39.927 Y123.782
;TYPE:SKIRT
G1 F300 Z0.24
G1 F2100 E0
G1 F1800 X40.394 Y122.911 E0.07159
G1 X40.93 Y122.081 E0.14317
G1 X41.532 Y121.297 E0.21477
G1 X42.195 Y120.564 E0.28637
G1 X42.915 Y119.888 E0.35791
G1 X43.687 Y119.271 E0.4295
G1 X44.507 Y118.72 E0.50107
G1 X45.369 Y118.236 E0.57268
G1 X46.267 Y117.823 E0.64428
G1 X47.195 Y117.485 E0.71583
G1 X48.148 Y117.223 E0.78743
G1 X49.118 Y117.038 E0.85896
G1 X50.101 Y116.933 E0.93057
G1 X50.91 Y116.906 E0.98921
G1 X85.443 Y116.906 E3.4908
G1 X86.43 Y116.946 E3.56236
G1 X87.411 Y117.066 E3.63395
G1 X88.379 Y117.264 E3.70553
G1 X89.328 Y117.541 E3.77714
G1 X90.251 Y117.893 E3.8487
G1 X91.143 Y118.318 E3.92028
G1 X91.997 Y118.814 E3.99182
G1 X92.809 Y119.378 E4.06344
G1 X93.572 Y120.006 E4.13502
G1 X94.282 Y120.693 E4.20659
G1 X94.935 Y121.435 E4.2782
G1 X95.525 Y122.228 E4.3498
G1 X96.048 Y123.066 E4.42135
G1 X96.503 Y123.943 E4.49293
G1 X96.885 Y124.854 E4.56449
G1 X97.192 Y125.793 E4.63605
G1 X97.422 Y126.754 E4.70763
G1 X97.574 Y127.731 E4.77926
G1 X97.653 Y129.104 E4.87888
G1 X97.656 Y131.783 E5.07295
G1 X100.477 Y145.561 E6.09174
G1 X100.636 Y146.536 E6.16331
G1 X100.725 Y148.01 E6.27028
G1 X100.725 Y169.876 E7.85426
G1 X100.685 Y170.863 E7.92582
G1 X100.565 Y171.844 E7.99741
G1 X100.367 Y172.812 E8.06899
G1 X100.09 Y173.761 E8.1406
G1 X99.738 Y174.684 E8.21216
G1 X99.313 Y175.576 E8.28374
G1 X98.817 Y176.43 E8.35528
G1 X98.253 Y177.242 E8.4269
G1 X97.625 Y178.005 E8.49849
G1 X96.938 Y178.715 E8.57006
G1 X96.196 Y179.368 E8.64166
G1 X95.403 Y179.958 E8.71326
G1 X94.565 Y180.481 E8.78482
G1 X93.688 Y180.936 E8.85639
G1 X92.777 Y181.318 E8.92795
G1 X91.838 Y181.625 E8.99951
G1 X90.877 Y181.855 E9.07109
G1 X89.9 Y182.007 E9.14272
G1 X88.515 Y182.086 E9.24321
G1 X45.655 Y182.086 E12.34802
G1 X44.668 Y182.046 E12.41957
G1 X43.687 Y181.926 E12.49117
G1 X42.719 Y181.728 E12.56274
G1 X41.77 Y181.451 E12.63436
G1 X40.847 Y181.099 E12.70592
G1 X39.955 Y180.674 E12.77749
G1 X39.101 Y180.178 E12.84903
G1 X38.289 Y179.614 E12.92065
G1 X37.526 Y178.986 E12.99224
G1 X36.816 Y178.299 E13.06381
G1 X36.163 Y177.557 E13.13541
G1 X35.573 Y176.764 E13.20701
G1 X35.05 Y175.926 E13.27857
G1 X34.595 Y175.049 E13.35014
G1 X34.213 Y174.138 E13.4217
G1 X33.906 Y173.199 E13.49327
G1 X33.676 Y172.238 E13.56485
G1 X33.524 Y171.261 E13.63647
G1 X33.445 Y169.876 E13.73697
G1 X33.444 Y139.938 E15.90569
G1 X33.484 Y138.951 E15.97725
G1 X33.604 Y137.97 E16.04884
G1 X33.802 Y137.002 E16.12042
G1 X34.078 Y136.054 E16.19194
G1 X34.43 Y135.13 E16.26357
G1 X34.671 Y134.604 E16.30548
G1 X39.332 Y125.008 E17.07829
G0 F1620 X39.927 Y123.782
G0 F6000 X40.521 Y124.07
G1 F1800 X40.976 Y123.224 E17.14787
G1 X41.5 Y122.418 E17.21751
G1 X42.09 Y121.659 E17.28715
G1 X42.74 Y120.952 E17.35672
G1 X43.447 Y120.301 E17.42634
G1 X44.206 Y119.711 E17.49599
G1 X45.011 Y119.186 E17.56561
G1 X45.857 Y118.73 E17.63523
G1 X46.738 Y118.346 E17.70484
G1 X47.648 Y118.036 E17.77449
G1 X48.58 Y117.803 E17.84408
G1 X49.528 Y117.649 E17.91365
G1 X50.91 Y117.566 E18.01395
G1 X85.443 Y117.566 E20.51554
G1 X86.403 Y117.606 E20.58514
G1 X87.357 Y117.726 E20.65479
G1 X88.297 Y117.924 E20.72438
G1 X89.218 Y118.2 E20.79403
G1 X90.112 Y118.552 E20.86363
G1 X90.974 Y118.977 E20.93325
G1 X91.798 Y119.471 E21.00285
G1 X92.578 Y120.033 E21.07249
G1 X93.308 Y120.658 E21.14211
G1 X93.984 Y121.341 E21.21172
G1 X94.601 Y122.078 E21.28135
G1 X95.154 Y122.864 E21.35097
G1 X95.64 Y123.693 E21.42058
G1 X96.056 Y124.559 E21.49017
G1 X96.398 Y125.457 E21.55978
G1 X96.664 Y126.381 E21.62944
G1 X96.853 Y127.323 E21.69904
G1 X96.963 Y128.278 E21.76867
G1 X96.993 Y129.104 E21.82855
G1 X96.996 Y131.852 E22.02762
G1 X99.83 Y145.693 E23.05107
G1 X99.984 Y146.642 E23.12071
G1 X100.065 Y148.01 E23.21999
G1 X100.065 Y169.876 E24.80397
G1 X100.025 Y170.836 E24.87357
G1 X99.905 Y171.79 E24.94323
G1 X99.707 Y172.73 E25.01282
G1 X99.431 Y173.651 E25.08247
G1 X99.079 Y174.545 E25.15207
G1 X98.654 Y175.407 E25.22169
G1 X98.16 Y176.231 E25.29128
G1 X97.598 Y177.011 E25.36093
G1 X96.973 Y177.741 E25.43054
G1 X96.29 Y178.417 E25.50015
G1 X95.553 Y179.034 E25.56978
G1 X94.767 Y179.587 E25.6394
G1 X93.938 Y180.073 E25.70901
G1 X93.072 Y180.489 E25.77861
G1 X92.174 Y180.831 E25.84822
G1 X91.25 Y181.097 E25.91787
G1 X90.308 Y181.286 E25.98747
G1 X89.353 Y181.396 E26.05711
G1 X88.515 Y181.426 E26.11785
G1 X45.655 Y181.426 E29.22266
G1 X44.695 Y181.386 E29.29226
G1 X43.741 Y181.266 E29.36191
G1 X42.801 Y181.068 E29.4315
G1 X41.88 Y180.792 E29.50115
G1 X40.986 Y180.44 E29.57075
G1 X40.124 Y180.015 E29.64037
G1 X39.3 Y179.521 E29.70997
G1 X38.52 Y178.959 E29.77961
G1 X37.79 Y178.334 E29.84923
G1 X37.114 Y177.651 E29.91884
G1 X36.497 Y176.914 E29.98847
G1 X35.944 Y176.128 E30.05809
G1 X35.458 Y175.299 E30.1277
G1 X35.042 Y174.433 E30.1973
G1 X34.7 Y173.535 E30.26691
G1 X34.434 Y172.611 E30.33656
G1 X34.245 Y171.669 E30.40616
G1 X34.135 Y170.714 E30.4758
G1 X34.105 Y169.876 E30.53654
G1 X34.104 Y139.938 E32.70527
G1 X34.144 Y138.978 E32.77487
G1 X34.264 Y138.025 E32.84445
G1 X34.462 Y137.084 E32.91411
G1 X34.738 Y136.164 E32.98369
G1 X35.265 Y134.892 E33.08343
G1 X39.926 Y125.296 E33.85623
G0 F1620 X40.521 Y124.07
G0 F6000 X41.114 Y124.358
G1 F1800 X41.557 Y123.537 E33.92381
G1 X42.069 Y122.757 E33.9914
G1 X42.646 Y122.024 E34.05898
G1 X43.284 Y121.342 E34.12663
G1 X43.977 Y120.718 E34.19418
G1 X44.722 Y120.155 E34.26183
G1 X45.512 Y119.658 E34.32944
G1 X46.341 Y119.231 E34.39699
G1 X47.204 Y118.876 E34.46459
G1 X48.095 Y118.596 E34.53225
G1 X49.005 Y118.394 E34.59977
G1 X49.93 Y118.27 E34.66738
G1 X50.91 Y118.226 E34.73844
G1 X85.443 Y118.226 E37.24003
G1 X86.375 Y118.266 E37.30761
G1 X87.301 Y118.386 E37.37525
G1 X88.213 Y118.584 E37.44285
G1 X89.104 Y118.86 E37.51042
G1 X89.969 Y119.211 E37.57805
G1 X90.8 Y119.635 E37.64563
G1 X91.592 Y120.128 E37.71321
G1 X92.339 Y120.688 E37.78084
G1 X93.035 Y121.309 E37.84841
G1 X93.676 Y121.988 E37.91605
G1 X94.256 Y122.719 E37.98365
G1 X94.771 Y123.497 E38.05124
G1 X95.218 Y124.316 E38.11883
G1 X95.593 Y125.17 E38.18639
G1 X95.894 Y126.054 E38.25404
G1 X96.117 Y126.96 E38.32163
G1 X96.263 Y127.881 E38.38918
G1 X96.333 Y129.105 E38.478
G1 X96.336 Y131.916 E38.68163
G1 X99.184 Y145.825 E39.71011
G1 X99.331 Y146.747 E39.77774
G1 X99.405 Y148.01 E39.86939
G1 X99.405 Y169.876 E41.45338
G1 X99.365 Y170.808 E41.52095
G1 X99.245 Y171.734 E41.58859
G1 X99.047 Y172.646 E41.6562
G1 X98.771 Y173.537 E41.72377
G1 X98.42 Y174.402 E41.79139
G1 X97.996 Y175.233 E41.85897
G1 X97.503 Y176.025 E41.92655
G1 X96.943 Y176.772 E41.99418
G1 X96.322 Y177.468 E42.06175
G1 X95.643 Y178.109 E42.1294
G1 X94.912 Y178.689 E42.19699
G1 X94.134 Y179.204 E42.26458
G1 X93.315 Y179.651 E42.33217
G1 X92.461 Y180.026 E42.39974
G1 X91.577 Y180.327 E42.46739
G1 X90.671 Y180.55 E42.53498
G1 X89.75 Y180.696 E42.60253
G1 X88.515 Y180.766 E42.69213
G1 X45.655 Y180.766 E45.79694
G1 X44.723 Y180.726 E45.86451
G1 X43.797 Y180.606 E45.93216
G1 X42.885 Y180.408 E45.99976
G1 X41.994 Y180.132 E46.06733
G1 X41.129 Y179.781 E46.13495
G1 X40.298 Y179.357 E46.20253
G1 X39.506 Y178.864 E46.27012
G1 X38.759 Y178.304 E46.33775
G1 X38.063 Y177.683 E46.40532
G1 X37.422 Y177.004 E46.47296
G1 X36.842 Y176.273 E46.54056
G1 X36.327 Y175.495 E46.60814
G1 X35.88 Y174.676 E46.67573
G1 X35.505 Y173.822 E46.7433
G1 X35.204 Y172.938 E46.81095
G1 X34.981 Y172.032 E46.87854
G1 X34.835 Y171.111 E46.94609
G1 X34.765 Y169.876 E47.0357
G1 X34.764 Y139.938 E49.20442
G1 X34.804 Y139.006 E49.272
G1 X34.924 Y138.081 E49.33957
G1 X35.122 Y137.169 E49.40717
G1 X35.398 Y136.277 E49.47481
G1 X35.858 Y135.18 E49.56098
G1 X40.519 Y125.584 E50.33379
G0 F1620 X41.114 Y124.358
G0 F6000 X41.708 Y124.647
G1 F1800 X42.139 Y123.851 E50.39936
G1 X42.638 Y123.097 E50.46486
G1 X43.202 Y122.39 E50.53037
G1 X43.826 Y121.736 E50.59585
G1 X44.505 Y121.139 E50.66135
G1 X45.235 Y120.604 E50.72691
G1 X46.009 Y120.136 E50.79243
G1 X46.821 Y119.739 E50.85791
G1 X47.666 Y119.414 E50.92349
G1 X48.535 Y119.165 E50.98898
G1 X49.423 Y118.995 E51.05447
G1 X50.323 Y118.903 E51.12001
G1 X50.91 Y118.886 E51.16255
G1 X85.443 Y118.886 E53.66414
G1 X86.347 Y118.926 E53.72969
G1 X87.243 Y119.046 E53.79518
G1 X88.125 Y119.244 E53.86066
G1 X88.987 Y119.519 E53.9262
G1 X89.821 Y119.87 E53.99175
G1 X90.62 Y120.293 E54.05724
G1 X91.379 Y120.785 E54.12277
G1 X92.092 Y121.341 E54.18826
G1 X92.753 Y121.959 E54.25382
G1 X93.356 Y122.633 E54.31933
G1 X93.898 Y123.357 E54.38484
G1 X94.374 Y124.126 E54.45036
G1 X94.779 Y124.934 E54.51583
G1 X95.112 Y125.775 E54.58136
G1 X95.369 Y126.642 E54.64686
G1 X95.549 Y127.529 E54.71243
G1 X95.65 Y128.428 E54.77796
G1 X95.673 Y129.106 E54.82711
G1 X95.676 Y131.986 E55.03573
G1 X98.537 Y145.958 E56.06888
G1 X98.679 Y146.851 E56.13438
G1 X98.745 Y148.01 E56.21847
G1 X98.745 Y169.876 E57.80246
G1 X98.705 Y170.78 E57.86801
G1 X98.585 Y171.676 E57.93349
G1 X98.387 Y172.558 E57.99898
G1 X98.112 Y173.42 E58.06452
G1 X97.761 Y174.254 E58.13007
G1 X97.338 Y175.053 E58.19556
G1 X96.846 Y175.812 E58.26108
G1 X96.29 Y176.525 E58.32658
G1 X95.672 Y177.186 E58.39213
G1 X94.998 Y177.789 E58.45765
G1 X94.274 Y178.331 E58.52316
G1 X93.505 Y178.807 E58.58868
G1 X92.697 Y179.212 E58.65415
G1 X91.856 Y179.545 E58.71967
G1 X90.989 Y179.802 E58.78518
G1 X90.102 Y179.982 E58.85075
G1 X89.203 Y180.083 E58.91628
G1 X88.515 Y180.106 E58.96615
G1 X45.655 Y180.106 E62.07095
G1 X44.751 Y180.066 E62.1365
G1 X43.855 Y179.946 E62.20199
G1 X42.973 Y179.748 E62.26747
G1 X42.111 Y179.473 E62.33301
G1 X41.277 Y179.122 E62.39856
G1 X40.478 Y178.699 E62.46405
G1 X39.719 Y178.207 E62.52958
G1 X39.006 Y177.651 E62.59507
G1 X38.345 Y177.033 E62.66063
G1 X37.742 Y176.359 E62.72614
G1 X37.2 Y175.635 E62.79165
G1 X36.724 Y174.866 E62.85717
G1 X36.319 Y174.058 E62.92264
G1 X35.986 Y173.217 E62.98817
G1 X35.729 Y172.35 E63.05367
G1 X35.549 Y171.463 E63.11924
G1 X35.448 Y170.564 E63.18477
G1 X35.425 Y169.876 E63.23464
G1 X35.424 Y139.938 E65.40337
G1 X35.464 Y139.035 E65.46884
G1 X35.584 Y138.138 E65.5344
G1 X35.782 Y137.256 E65.59988
G1 X36.057 Y136.394 E65.66543
G1 X36.452 Y135.469 E65.73829
G1 X41.113 Y125.873 E66.51109
G0 F1620 X41.708 Y124.647
G0 F6000 X42.302 Y124.935
G1 F1800 X42.719 Y124.167 E66.5744
G1 X43.205 Y123.439 E66.63781
G1 X43.756 Y122.759 E66.70121
G1 X44.366 Y122.133 E66.76453
G1 X45.031 Y121.564 E66.82793
G1 X45.745 Y121.059 E66.89128
G1 X46.503 Y120.621 E66.9547
G1 X47.297 Y120.254 E67.01806
G1 X48.121 Y119.961 E67.08141
G1 X48.968 Y119.745 E67.14473
G1 X49.832 Y119.607 E67.20812
G1 X50.91 Y119.546 E67.28633
G1 X85.443 Y119.546 E69.78792
G1 X86.317 Y119.586 E69.8513
G1 X87.183 Y119.706 E69.91463
G1 X88.035 Y119.904 E69.978
G1 X88.866 Y120.179 E70.04141
G1 X89.667 Y120.529 E70.10473
G1 X90.434 Y120.95 E70.16811
G1 X91.159 Y121.44 E70.2315
G1 X91.836 Y121.994 E70.29487
G1 X92.459 Y122.608 E70.35824
G1 X93.024 Y123.276 E70.42161
G1 X93.526 Y123.992 E70.48496
G1 X93.96 Y124.752 E70.54836
G1 X94.323 Y125.548 E70.61173
G1 X94.612 Y126.373 E70.67506
G1 X94.824 Y127.222 E70.73845
G1 X94.957 Y128.086 E70.80177
G1 X95.013 Y129.106 E70.87578
G1 X95.016 Y132.055 E71.0894
G1 X97.89 Y146.09 E72.1272
G1 X98.027 Y146.954 E72.19057
G1 X98.085 Y148.01 E72.26719
G1 X98.085 Y169.876 E73.85117
G1 X98.045 Y170.75 E73.91455
G1 X97.925 Y171.616 E73.97788
G1 X97.727 Y172.468 E74.04125
G1 X97.452 Y173.299 E74.10466
G1 X97.102 Y174.1 E74.16798
G1 X96.681 Y174.867 E74.23136
G1 X96.191 Y175.592 E74.29475
G1 X95.637 Y176.269 E74.35812
G1 X95.023 Y176.892 E74.42149
G1 X94.355 Y177.457 E74.48486
G1 X93.639 Y177.959 E74.54821
G1 X92.879 Y178.393 E74.61161
G1 X92.083 Y178.756 E74.67498
G1 X91.258 Y179.045 E74.73831
G1 X90.409 Y179.257 E74.8017
G1 X89.545 Y179.39 E74.86502
G1 X88.515 Y179.446 E74.93975
G1 X45.655 Y179.446 E78.04455
G1 X44.781 Y179.406 E78.10793
G1 X43.915 Y179.286 E78.17126
G1 X43.063 Y179.088 E78.23463
G1 X42.232 Y178.813 E78.29804
G1 X41.431 Y178.463 E78.36136
G1 X40.664 Y178.042 E78.42474
G1 X39.939 Y177.552 E78.48813
G1 X39.262 Y176.998 E78.5515
G1 X38.639 Y176.384 E78.61486
G1 X38.074 Y175.716 E78.67824
G1 X37.572 Y175 E78.74159
G1 X37.138 Y174.24 E78.80499
G1 X36.775 Y173.444 E78.86836
G1 X36.486 Y172.619 E78.93169
G1 X36.274 Y171.77 E78.99508
G1 X36.141 Y170.906 E79.0584
G1 X36.085 Y169.876 E79.13313
G1 X36.084 Y139.938 E81.30185
G1 X36.124 Y139.064 E81.36523
G1 X36.244 Y138.198 E81.42857
G1 X36.442 Y137.346 E81.49193
G1 X36.717 Y136.516 E81.55527
G1 X37.046 Y135.757 E81.6152
G1 X41.707 Y126.161 E82.388
G0 F1620 X42.302 Y124.935
G0 F6000 X42.895 Y125.223
G1 F1800 X43.3 Y124.483 E82.44911
G1 X43.772 Y123.783 E82.51027
G1 X44.309 Y123.132 E82.5714
G1 X44.905 Y122.534 E82.63256
G1 X45.554 Y121.995 E82.69367
G1 X46.252 Y121.52 E82.75483
G1 X46.992 Y121.114 E82.81598
G1 X47.767 Y120.779 E82.87714
G1 X48.57 Y120.519 E82.93828
G1 X49.394 Y120.336 E82.99943
G1 X50.231 Y120.232 E83.06053
G1 X50.91 Y120.206 E83.10975
G1 X85.443 Y120.206 E85.61134
G1 X86.286 Y120.246 E85.67248
G1 X87.122 Y120.366 E85.73366
G1 X87.942 Y120.564 E85.79477
G1 X88.74 Y120.838 E85.85589
G1 X89.509 Y121.188 E85.91709
G1 X90.241 Y121.608 E85.97823
G1 X90.929 Y122.096 E86.03933
G1 X91.569 Y122.646 E86.10046
G1 X92.154 Y123.255 E86.16163
G1 X92.678 Y123.916 E86.22274
G1 X93.138 Y124.624 E86.2839
G1 X93.528 Y125.372 E86.34501
G1 X93.846 Y126.154 E86.40616
G1 X94.089 Y126.963 E86.46735
G1 X94.254 Y127.79 E86.52844
G1 X94.34 Y128.63 E86.58961
G1 X94.353 Y129.107 E86.62418
G1 X94.356 Y132.119 E86.84237
G1 X97.244 Y146.223 E87.88527
G1 X97.374 Y147.057 E87.94641
G1 X97.425 Y148.01 E88.01555
G1 X97.425 Y169.876 E89.59953
G1 X97.385 Y170.719 E89.66067
G1 X97.265 Y171.555 E89.72185
G1 X97.067 Y172.375 E89.78296
G1 X96.793 Y173.173 E89.84408
G1 X96.443 Y173.942 E89.90529
G1 X96.023 Y174.674 E89.96642
G1 X95.535 Y175.362 E90.02752
G1 X94.985 Y176.002 E90.08865
G1 X94.376 Y176.587 E90.14983
G1 X93.715 Y177.111 E90.21093
G1 X93.007 Y177.571 E90.27209
G1 X92.259 Y177.961 E90.3332
G1 X91.477 Y178.279 E90.39435
G1 X90.668 Y178.522 E90.45555
G1 X89.841 Y178.687 E90.51663
G1 X89.001 Y178.773 E90.5778
G1 X88.515 Y178.786 E90.61302
G1 X45.655 Y178.786 E93.71782
G1 X44.812 Y178.746 E93.77896
G1 X43.976 Y178.626 E93.84014
G1 X43.156 Y178.428 E93.90125
G1 X42.358 Y178.154 E93.96237
G1 X41.589 Y177.804 E94.02358
G1 X40.857 Y177.384 E94.08471
G1 X40.169 Y176.896 E94.14581
G1 X39.529 Y176.346 E94.20694
G1 X38.944 Y175.737 E94.26812
G1 X38.42 Y175.076 E94.32922
G1 X37.96 Y174.368 E94.39038
G1 X37.57 Y173.62 E94.45149
G1 X37.252 Y172.838 E94.51264
G1 X37.009 Y172.029 E94.57384
G1 X36.844 Y171.202 E94.63492
G1 X36.758 Y170.362 E94.69609
G1 X36.745 Y169.876 E94.73131
G1 X36.744 Y139.938 E96.90004
G1 X36.784 Y139.095 E96.96117
G1 X36.903 Y138.26 E97.02227
G1 X37.102 Y137.439 E97.08347
G1 X37.376 Y136.641 E97.14459
G1 X37.639 Y136.045 E97.19178
G1 X42.3 Y126.449 E97.96458
G0 F1620 X42.895 Y125.223
G0 F6000 X43.489 Y125.512
G1 F1800 X43.879 Y124.8 E98.02339
G1 X44.338 Y124.129 E98.08228
G1 X44.86 Y123.507 E98.14111
G1 X45.441 Y122.939 E98.19997
G1 X46.075 Y122.432 E98.25877
G1 X46.755 Y121.989 E98.31756
G1 X47.476 Y121.615 E98.3764
G1 X48.23 Y121.313 E98.43524
G1 X49.011 Y121.088 E98.49412
G1 X49.809 Y120.94 E98.55291
