;FLAVOR:Marlin
;TIME:6014
;Filament used: 10.8143m
;Layer height: 0.32
;MINX:41.673
;MINY:119.658
;MINZ:0.24
;MAXX:108.953
;MAXY:184.838
;MAXZ:45.36
;Generated with Cura_SteamEngine 5.0.0
M140 S70
M105
M190 S70
M104 S245
M105
M109 S245
M82 ;absolute extrusion mode
; Ender 3 Max Custom Start G-code
G92 E0 ; Reset Extruder
G28 ; Home all axes
G1 Z2.0 F3000 ; Move Z Axis up little to prevent scratching of Heat Bed
G1 X0.1 Y20 Z0.3 F5000.0 ; Move to start position
G1 X0.1 Y200.0 Z0.3 F1500.0 E15 ; Draw the first line
G1 X0.4 Y200.0 Z0.3 F5000.0 ; Move to side a little
G1 X0.4 Y20 Z0.3 F1500.0 E30 ; Draw the second line
G92 E0 ; Reset Extruder
G1 Z2.0 F3000 ; Move Z Axis up little to prevent scratching of Heat Bed
G1 X5 Y20 Z0.3 F5000.0 ; Move over to prevent blob squish
G92 E0
G92 E0
G1 F2100 E-5
;LAYER_COUNT:141
;LAYER:0
M107
G1 F300 Z0.56
G0 F6000 X49.621 Y120.426 Z0.56
G1 F300 Z0.56
G0 F6000 X41.673 Y131.868
;TYPE:SKIRT
G1 F300 Z0.24
G1 F2100 E0
G1 F1800 X41.713 Y130.881 E0.07156
G1 X41.833 Y129.9 E0.14315
G1 X42.031 Y128.932 E0.21473
G1 X42.308 Y127.983 E0.28634
G1 X42.66 Y127.06 E0.3579
G1 X43.085 Y126.168 E0.42948
G1 X43.581 Y125.314 E0.50102
G1 X44.145 Y124.502 E0.57264
G1 X44.773 Y123.739 E0.64422
G1 X45.46 Y123.029 E0.71579
G1 X46.202 Y122.376 E0.78739
G1 X46.995 Y121.786 E0.85899
G1 X47.833 Y121.263 E0.93055
G1 X48.71 Y120.808 E1.00212
G1 X49.621 Y120.426 E1.07368
G1 X50.56 Y120.119 E1.14525
G1 X51.521 Y119.889 E1.21683
G1 X52.498 Y119.737 E1.28846
G1 X53.883 Y119.658 E1.38895
G1 X76.919 Y119.658 E3.05769
G1 X77.906 Y119.698 E3.12925
G1 X78.887 Y119.818 E3.20084
G1 X79.855 Y120.016 E3.27242
G1 X80.804 Y120.293 E3.34403
G1 X81.727 Y120.645 E3.41559
G1 X82.619 Y121.07 E3.48717
G1 X83.473 Y121.566 E3.55871
G1 X84.285 Y122.13 E3.63033
G1 X84.809 Y122.55 E3.67898
G1 X104.633 Y139.337 E5.56075
G1 X105.361 Y140.006 E5.63237
G1 X106.032 Y140.731 E5.70393
G1 X106.643 Y141.508 E5.77554
G1 X107.188 Y142.332 E5.8471
G1 X107.665 Y143.197 E5.91866
G1 X108.071 Y144.098 E5.99025
G1 X108.402 Y145.029 E6.06183
G1 X108.657 Y145.984 E6.13343
G1 X108.834 Y146.956 E6.205
G1 X108.932 Y147.939 E6.27657
G1 X108.953 Y148.655 E6.32845
G1 X108.953 Y172.628 E8.06507
G1 X108.913 Y173.615 E8.13663
G1 X108.793 Y174.596 E8.20822
G1 X108.595 Y175.564 E8.2798
G1 X108.318 Y176.513 E8.35141
G1 X107.966 Y177.436 E8.42297
G1 X107.541 Y178.328 E8.49455
G1 X107.045 Y179.182 E8.56609
G1 X106.481 Y179.994 E8.63771
G1 X105.853 Y180.757 E8.7093
G1 X105.166 Y181.467 E8.78087
G1 X104.424 Y182.12 E8.85247
G1 X103.631 Y182.71 E8.92407
G1 X102.793 Y183.233 E8.99563
G1 X101.916 Y183.688 E9.0672
G1 X101.005 Y184.07 E9.13876
G1 X100.066 Y184.377 E9.21032
G1 X99.105 Y184.607 E9.2819
G1 X98.128 Y184.759 E9.35353
G1 X96.743 Y184.838 E9.45402
G1 X53.883 Y184.838 E12.55883
G1 X52.896 Y184.798 E12.63038
G1 X51.915 Y184.678 E12.70198
G1 X50.947 Y184.48 E12.77355
G1 X49.998 Y184.203 E12.84517
G1 X49.075 Y183.851 E12.91673
G1 X48.183 Y183.426 E12.9883
G1 X47.329 Y182.93 E13.05984
G1 X46.517 Y182.366 E13.13146
G1 X45.754 Y181.738 E13.20305
G1 X45.044 Y181.051 E13.27462
G1 X44.391 Y180.309 E13.34622
G1 X43.801 Y179.516 E13.41782
G1 X43.278 Y178.678 E13.48938
G1 X42.823 Y177.801 E13.56095
G1 X42.441 Y176.89 E13.63251
G1 X42.134 Y175.951 E13.70407
G1 X41.904 Y174.99 E13.77566
G1 X41.752 Y174.013 E13.84728
G1 X41.673 Y172.628 E13.94778
G1 X41.673 Y133.231 E16.80172
G0 F1620 X41.673 Y131.868
G0 F6000 X42.333 Y131.868
G1 F1800 X42.373 Y130.908 E16.87132
G1 X42.493 Y129.954 E16.94097
G1 X42.691 Y129.014 E17.01056
G1 X42.967 Y128.093 E17.08021
G1 X43.319 Y127.199 E17.14981
G1 X43.744 Y126.337 E17.21943
G1 X44.238 Y125.513 E17.28903
G1 X44.8 Y124.733 E17.35867
G1 X45.425 Y124.003 E17.42829
G1 X46.108 Y123.327 E17.4979
G1 X46.845 Y122.71 E17.56753
G1 X47.631 Y122.157 E17.63715
G1 X48.46 Y121.671 E17.70676
G1 X49.326 Y121.255 E17.77636
G1 X50.224 Y120.913 E17.84596
G1 X51.148 Y120.647 E17.91562
G1 X52.09 Y120.458 E17.98522
G1 X53.045 Y120.348 E18.05486
G1 X53.883 Y120.318 E18.1156
G1 X76.919 Y120.318 E19.78434
G1 X77.879 Y120.358 E19.85394
G1 X78.833 Y120.478 E19.9236
G1 X79.773 Y120.676 E19.99319
G1 X80.694 Y120.952 E20.06283
G1 X81.588 Y121.304 E20.13244
G1 X82.45 Y121.729 E20.20206
G1 X83.274 Y122.223 E20.27165
G1 X84.383 Y123.054 E20.37204
G1 X104.207 Y139.841 E22.25382
G1 X104.914 Y140.492 E22.32344
G1 X105.564 Y141.199 E22.39301
G1 X106.154 Y141.958 E22.46265
G1 X106.678 Y142.764 E22.53229
G1 X107.133 Y143.61 E22.60187
G1 X107.516 Y144.492 E22.67153
G1 X107.825 Y145.402 E22.74115
G1 X108.057 Y146.334 E22.81072
G1 X108.211 Y147.283 E22.88037
G1 X108.293 Y148.655 E22.97993
G1 X108.293 Y172.628 E24.71655
G1 X108.253 Y173.588 E24.78616
G1 X108.133 Y174.542 E24.85581
G1 X107.935 Y175.482 E24.9254
G1 X107.659 Y176.403 E24.99505
G1 X107.307 Y177.297 E25.06465
G1 X106.882 Y178.159 E25.13427
G1 X106.388 Y178.983 E25.20386
G1 X105.826 Y179.763 E25.27351
G1 X105.201 Y180.493 E25.34312
G1 X104.518 Y181.169 E25.41274
G1 X103.781 Y181.786 E25.48236
G1 X102.995 Y182.339 E25.55198
G1 X102.166 Y182.825 E25.62159
G1 X101.3 Y183.241 E25.69119
G1 X100.402 Y183.583 E25.7608
G1 X99.478 Y183.849 E25.83045
G1 X98.536 Y184.038 E25.90005
G1 X97.581 Y184.148 E25.96969
G1 X96.743 Y184.178 E26.03044
G1 X53.883 Y184.178 E29.13524
G1 X52.923 Y184.138 E29.20484
G1 X51.969 Y184.018 E29.27449
G1 X51.029 Y183.82 E29.34408
G1 X50.108 Y183.544 E29.41373
G1 X49.214 Y183.192 E29.48333
G1 X48.352 Y182.767 E29.55295
G1 X47.528 Y182.273 E29.62255
G1 X46.748 Y181.711 E29.69219
G1 X46.018 Y181.086 E29.76181
G1 X45.342 Y180.403 E29.83142
G1 X44.725 Y179.666 E29.90105
G1 X44.172 Y178.88 E29.97067
G1 X43.686 Y178.051 E30.04028
G1 X43.27 Y177.185 E30.10988
G1 X42.928 Y176.287 E30.17949
G1 X42.662 Y175.363 E30.24914
G1 X42.473 Y174.421 E30.31874
G1 X42.363 Y173.466 E30.38838
G1 X42.333 Y172.628 E30.44912
G1 X42.333 Y133.231 E33.30306
G0 F1620 X42.333 Y131.868
G0 F6000 X42.993 Y131.868
G1 F1800 X43.033 Y130.936 E33.37064
G1 X43.153 Y130.01 E33.43828
G1 X43.351 Y129.098 E33.50588
G1 X43.627 Y128.207 E33.57346
G1 X43.978 Y127.342 E33.64108
G1 X44.402 Y126.511 E33.70866
G1 X44.895 Y125.719 E33.77624
G1 X45.455 Y124.972 E33.84387
G1 X46.076 Y124.276 E33.91144
G1 X46.755 Y123.635 E33.97908
G1 X47.486 Y123.055 E34.04668
G1 X48.264 Y122.54 E34.11427
G1 X49.083 Y122.093 E34.18186
G1 X49.937 Y121.718 E34.24942
G1 X50.821 Y121.417 E34.31707
G1 X51.727 Y121.194 E34.38466
G1 X52.648 Y121.048 E34.45221
G1 X53.883 Y120.978 E34.54182
G1 X76.919 Y120.978 E36.21056
G1 X77.851 Y121.018 E36.27814
G1 X78.777 Y121.138 E36.34578
G1 X79.689 Y121.336 E36.41338
G1 X80.58 Y121.612 E36.48096
G1 X81.445 Y121.963 E36.54858
G1 X82.276 Y122.387 E36.61616
G1 X83.068 Y122.88 E36.68374
G1 X83.956 Y123.557 E36.76463
G1 X103.78 Y140.344 E38.6464
G1 X104.466 Y140.977 E38.71402
G1 X105.095 Y141.667 E38.78166
G1 X105.663 Y142.407 E38.84923
G1 X106.165 Y143.194 E38.91686
G1 X106.598 Y144.021 E38.98448
G1 X106.958 Y144.881 E39.05202
G1 X107.244 Y145.77 E39.11967
G1 X107.452 Y146.679 E39.18722
G1 X107.582 Y147.603 E39.25481
G1 X107.633 Y148.655 E39.33111
G1 X107.633 Y172.628 E41.06773
G1 X107.593 Y173.56 E41.1353
G1 X107.473 Y174.486 E41.20294
G1 X107.275 Y175.398 E41.27055
G1 X106.999 Y176.289 E41.33812
G1 X106.648 Y177.154 E41.40574
G1 X106.224 Y177.985 E41.47332
G1 X105.731 Y178.777 E41.5409
G1 X105.171 Y179.524 E41.60853
G1 X104.55 Y180.22 E41.6761
G1 X103.871 Y180.861 E41.74375
G1 X103.14 Y181.441 E41.81134
G1 X102.362 Y181.956 E41.87893
G1 X101.543 Y182.403 E41.94652
G1 X100.689 Y182.778 E42.01409
G1 X99.805 Y183.079 E42.08174
G1 X98.899 Y183.302 E42.14933
G1 X97.978 Y183.448 E42.21688
G1 X96.743 Y183.518 E42.30648
G1 X53.883 Y183.518 E45.41129
G1 X52.951 Y183.478 E45.47886
G1 X52.025 Y183.358 E45.54651
G1 X51.113 Y183.16 E45.61411
G1 X50.222 Y182.884 E45.68168
G1 X49.357 Y182.533 E45.7493
G1 X48.526 Y182.109 E45.81689
G1 X47.734 Y181.616 E45.88447
G1 X46.987 Y181.056 E45.9521
G1 X46.291 Y180.435 E46.01967
G1 X45.65 Y179.756 E46.08731
G1 X45.07 Y179.025 E46.15491
G1 X44.555 Y178.247 E46.22249
G1 X44.108 Y177.428 E46.29008
G1 X43.733 Y176.574 E46.35765
G1 X43.432 Y175.69 E46.4253
G1 X43.209 Y174.784 E46.49289
G1 X43.063 Y173.863 E46.56044
G1 X42.993 Y172.628 E46.65005
G1 X42.993 Y133.231 E49.50399
G0 F1620 X42.993 Y131.868
G0 F6000 X43.653 Y131.868
G1 F1800 X43.693 Y130.964 E49.56954
G1 X43.813 Y130.068 E49.63502
G1 X44.011 Y129.186 E49.70051
G1 X44.286 Y128.324 E49.76605
G1 X44.637 Y127.49 E49.8316
G1 X45.06 Y126.691 E49.89709
G1 X45.552 Y125.932 E49.96261
G1 X46.108 Y125.219 E50.02811
G1 X46.726 Y124.558 E50.09366
G1 X47.4 Y123.955 E50.15918
G1 X48.124 Y123.413 E50.22469
G1 X48.893 Y122.937 E50.29021
G1 X49.701 Y122.532 E50.35568
G1 X50.542 Y122.199 E50.4212
G1 X51.409 Y121.942 E50.48671
G1 X52.296 Y121.762 E50.55228
G1 X53.195 Y121.661 E50.61781
G1 X53.883 Y121.638 E50.66768
G1 X76.919 Y121.638 E52.33642
G1 X77.823 Y121.678 E52.40197
G1 X78.719 Y121.798 E52.46745
G1 X79.601 Y121.996 E52.53294
G1 X80.463 Y122.271 E52.59848
G1 X81.297 Y122.622 E52.66403
G1 X82.096 Y123.045 E52.72952
G1 X82.855 Y123.537 E52.79504
G1 X83.53 Y124.061 E52.85695
G1 X103.354 Y140.848 E54.73872
G1 X104.018 Y141.462 E54.80423
G1 X104.624 Y142.133 E54.86973
G1 X105.17 Y142.855 E54.9353
G1 X105.649 Y143.622 E55.00081
G1 X106.059 Y144.428 E55.06632
G1 X106.396 Y145.267 E55.13182
G1 X106.657 Y146.133 E55.19734
G1 X106.841 Y147.019 E55.26289
G1 X106.946 Y147.917 E55.32838
G1 X106.973 Y148.655 E55.38188
G1 X106.973 Y172.628 E57.1185
G1 X106.933 Y173.532 E57.18405
G1 X106.813 Y174.428 E57.24953
G1 X106.615 Y175.31 E57.31502
G1 X106.34 Y176.172 E57.38056
G1 X105.989 Y177.006 E57.44611
G1 X105.566 Y177.805 E57.5116
G1 X105.074 Y178.564 E57.57712
G1 X104.518 Y179.277 E57.64262
G1 X103.9 Y179.938 E57.70817
G1 X103.226 Y180.541 E57.77369
G1 X102.502 Y181.083 E57.8392
G1 X101.733 Y181.559 E57.90472
G1 X100.925 Y181.964 E57.97019
G1 X100.084 Y182.297 E58.03571
G1 X99.217 Y182.554 E58.10122
G1 X98.33 Y182.734 E58.16679
G1 X97.431 Y182.835 E58.23232
G1 X96.743 Y182.858 E58.28219
G1 X53.883 Y182.858 E61.38699
G1 X52.979 Y182.818 E61.45254
G1 X52.083 Y182.698 E61.51803
G1 X51.201 Y182.5 E61.58351
G1 X50.339 Y182.225 E61.64905
G1 X49.505 Y181.874 E61.7146
G1 X48.706 Y181.451 E61.78009
G1 X47.947 Y180.959 E61.84562
G1 X47.234 Y180.403 E61.91111
G1 X46.573 Y179.785 E61.97667
G1 X45.97 Y179.111 E62.04218
G1 X45.428 Y178.387 E62.10769
G1 X44.952 Y177.618 E62.17321
G1 X44.547 Y176.81 E62.23868
G1 X44.214 Y175.969 E62.30421
G1 X43.957 Y175.102 E62.36971
G1 X43.777 Y174.215 E62.43528
G1 X43.676 Y173.316 E62.50081
G1 X43.653 Y172.628 E62.55068
G1 X43.653 Y133.231 E65.40462
G0 F1620 X43.653 Y131.868
G0 F6000 X44.313 Y131.868
G1 F1800 X44.353 Y130.994 E65.468
G1 X44.473 Y130.128 E65.53133
G1 X44.671 Y129.276 E65.5947
G1 X44.946 Y128.445 E65.65811
G1 X45.296 Y127.644 E65.72143
G1 X45.717 Y126.877 E65.78481
G1 X46.207 Y126.152 E65.8482
G1 X46.761 Y125.475 E65.91157
G1 X47.375 Y124.852 E65.97493
G1 X48.043 Y124.287 E66.03831
G1 X48.759 Y123.785 E66.10166
G1 X49.519 Y123.351 E66.16506
G1 X50.315 Y122.988 E66.22843
G1 X51.14 Y122.699 E66.29176
G1 X51.989 Y122.487 E66.35515
G1 X52.853 Y122.354 E66.41847
G1 X53.883 Y122.298 E66.4932
G1 X76.919 Y122.298 E68.16194
G1 X77.793 Y122.338 E68.22532
G1 X78.659 Y122.458 E68.28865
G1 X79.511 Y122.656 E68.35201
G1 X80.342 Y122.931 E68.41542
G1 X81.143 Y123.281 E68.47875
G1 X81.91 Y123.702 E68.54213
G1 X82.635 Y124.192 E68.60552
G1 X83.103 Y124.565 E68.64887
G1 X102.927 Y141.352 E70.53064
G1 X103.568 Y141.947 E70.594
G1 X104.152 Y142.598 E70.65735
G1 X104.675 Y143.3 E70.72077
G1 X105.13 Y144.047 E70.78413
G1 X105.516 Y144.832 E70.8475
G1 X105.829 Y145.649 E70.91088
G1 X106.065 Y146.491 E70.97422
G1 X106.224 Y147.351 E71.03758
G1 X106.313 Y148.655 E71.13226
G1 X106.313 Y172.628 E72.86888
G1 X106.273 Y173.502 E72.93226
G1 X106.153 Y174.368 E72.99559
G1 X105.955 Y175.22 E73.05895
G1 X105.68 Y176.051 E73.12236
G1 X105.33 Y176.852 E73.18568
G1 X104.909 Y177.619 E73.24907
G1 X104.419 Y178.344 E73.31246
G1 X103.865 Y179.021 E73.37583
G1 X103.251 Y179.644 E73.43919
G1 X102.583 Y180.209 E73.50257
G1 X101.867 Y180.711 E73.56591
G1 X101.107 Y181.145 E73.62931
G1 X100.311 Y181.508 E73.69269
G1 X99.486 Y181.797 E73.75601
G1 X98.637 Y182.009 E73.8194
G1 X97.773 Y182.142 E73.88273
G1 X96.743 Y182.198 E73.95745
G1 X53.883 Y182.198 E77.06226
G1 X53.009 Y182.158 E77.12564
G1 X52.143 Y182.038 E77.18897
G1 X51.291 Y181.84 E77.25233
G1 X50.46 Y181.565 E77.31574
G1 X49.659 Y181.215 E77.37906
G1 X48.892 Y180.794 E77.44245
G1 X48.167 Y180.304 E77.50584
G1 X47.49 Y179.75 E77.56921
G1 X46.867 Y179.136 E77.63257
G1 X46.302 Y178.468 E77.69595
G1 X45.8 Y177.752 E77.75929
G1 X45.366 Y176.992 E77.82269
G1 X45.003 Y176.196 E77.88607
G1 X44.714 Y175.371 E77.94939
G1 X44.502 Y174.522 E78.01278
G1 X44.369 Y173.658 E78.07611
G1 X44.313 Y172.628 E78.15083
G1 X44.313 Y133.231 E81.00477
G0 F1620 X44.313 Y131.868
G0 F6000 X44.973 Y131.868
G1 F1800 X45.013 Y131.025 E81.06591
G1 X45.133 Y130.189 E81.12709
G1 X45.331 Y129.369 E81.1882
G1 X45.605 Y128.571 E81.24932
G1 X45.955 Y127.802 E81.31053
G1 X46.375 Y127.07 E81.37166
G1 X46.863 Y126.382 E81.43276
G1 X47.413 Y125.742 E81.49389
G1 X48.022 Y125.157 E81.55507
G1 X48.683 Y124.633 E81.61617
G1 X49.391 Y124.173 E81.67733
G1 X50.139 Y123.783 E81.73844
G1 X50.921 Y123.465 E81.79959
G1 X51.73 Y123.222 E81.86079
G1 X52.557 Y123.057 E81.92187
G1 X53.397 Y122.971 E81.98304
G1 X53.883 Y122.958 E82.01826
G1 X76.919 Y122.958 E83.687
G1 X77.762 Y122.998 E83.74814
G1 X78.598 Y123.118 E83.80932
G1 X79.418 Y123.316 E83.87043
G1 X80.216 Y123.59 E83.93155
G1 X80.985 Y123.94 E83.99275
G1 X81.717 Y124.36 E84.05389
G1 X82.677 Y125.068 E84.1403
G1 X102.501 Y141.855 E86.02207
G1 X103.118 Y142.431 E86.08322
G1 X103.679 Y143.062 E86.14438
G1 X104.177 Y143.743 E86.2055
G1 X104.608 Y144.469 E86.26666
G1 X104.969 Y145.232 E86.3278
G1 X105.256 Y146.026 E86.38896
G1 X105.467 Y146.843 E86.45009
G1 X105.599 Y147.676 E86.51119
G1 X105.653 Y148.655 E86.58221
G1 X105.653 Y172.628 E88.31883
G1 X105.613 Y173.471 E88.37997
G1 X105.493 Y174.307 E88.44115
G1 X105.295 Y175.127 E88.50226
G1 X105.021 Y175.925 E88.56338
G1 X104.671 Y176.694 E88.62458
G1 X104.251 Y177.426 E88.68572
G1 X103.763 Y178.114 E88.74682
G1 X103.213 Y178.754 E88.80795
G1 X102.604 Y179.339 E88.86912
G1 X101.943 Y179.863 E88.93023
G1 X101.235 Y180.323 E88.99139
G1 X100.487 Y180.713 E89.0525
G1 X99.705 Y181.031 E89.11365
G1 X98.896 Y181.274 E89.17484
G1 X98.069 Y181.439 E89.23593
G1 X97.229 Y181.525 E89.2971
G1 X96.743 Y181.538 E89.33232
G1 X53.883 Y181.538 E92.43712
G1 X53.04 Y181.498 E92.49826
G1 X52.204 Y181.378 E92.55944
G1 X51.384 Y181.18 E92.62055
G1 X50.586 Y180.906 E92.68167
G1 X49.817 Y180.556 E92.74287
G1 X49.085 Y180.136 E92.80401
G1 X48.397 Y179.648 E92.86511
G1 X47.757 Y179.098 E92.92624
G1 X47.172 Y178.489 E92.98741
G1 X46.648 Y177.828 E93.04852
G1 X46.188 Y177.12 E93.10968
G1 X45.798 Y176.372 E93.17079
G1 X45.48 Y175.59 E93.23194
G1 X45.237 Y174.781 E93.29313
G1 X45.072 Y173.954 E93.35422
G1 X44.986 Y173.114 E93.41539
G1 X44.973 Y172.628 E93.45061
G1 X44.973 Y133.231 E96.30455
G0 F1620 X44.973 Y131.868
G0 F6000 X45.633 Y131.868
G1 F1800 X45.673 Y131.057 E96.36337
G1 X45.793 Y130.254 E96.42219
G1 X45.99 Y129.466 E96.48103
G1 X46.265 Y128.701 E96.53992
G1 X46.613 Y127.968 E96.59869
G1 X47.032 Y127.272 E96.65754
G1 X47.517 Y126.621 E96.71635
G1 X48.064 Y126.02 E96.77522
G1 X48.667 Y125.476 E96.83405
G1 X49.321 Y124.994 E96.89291
G1 X50.019 Y124.579 E96.95173
G1 X50.754 Y124.234 E97.01055
G1 X51.52 Y123.964 E97.06938
G1 X52.308 Y123.77 E97.12817
G1 X53.112 Y123.654 E97.18702
G1 X53.883 Y123.618 E97.24293
G1 X76.919 Y123.618 E98.91167
G1 X77.73 Y123.658 E98.97049
G1 X78.533 Y123.778 E99.02931
G1 X79.321 Y123.975 E99.08815
G1 X80.086 Y124.25 E99.14704
G1 X80.819 Y124.598 E99.20582
G1 X81.515 Y125.017 E99.26467
G1 X82.25 Y125.572 E99.33138
G1 X102.074 Y142.359 E101.21316
G1 X102.668 Y142.914 E101.27205
G1 X103.203 Y143.524 E101.33082
G1 X103.677 Y144.184 E101.38969
G1 X104.083 Y144.888 E101.44856
