;FLAVOR:Marlin
;TIME:12726
;Filament used: 22.5451m
;Layer height: 0.32
;MINX:30.952
;MINY:72.653
;MINZ:0.24
;MAXX:141.128
;MAXY:140.631
;MAXZ:45.36
;Generated with Cura_SteamEngine 5.0.0
M140 S70
M105
M190 S70
M104 S245
M105
M109 S245
M82 ;absolute extrusion mode
; Ender 3 Max Custom Start G-code
G92 E0 ; Reset Extruder
G28 ; Home all axes
G1 Z2.0 F3000 ; Move Z Axis up little to prevent scratching of Heat Bed
G1 X0.1 Y20 Z0.3 F5000.0 ; Move to start position
G1 X0.1 Y200.0 Z0.3 F1500.0 E15 ; Draw the first line
G1 X0.4 Y200.0 Z0.3 F5000.0 ; Move to side a little
G1 X0.4 Y20 Z0.3 F1500.0 E30 ; Draw the second line
G92 E0 ; Reset Extruder
G1 Z2.0 F3000 ; Move Z Axis up little to prevent scratching of Heat Bed
G1 X5 Y20 Z0.3 F5000.0 ; Move over to prevent blob squish
G92 E0
G92 E0
G1 F2100 E-5
;LAYER_COUNT:141
;LAYER:0
M107
G1 F300 Z0.56
G0 F6000 X37.989 Y76.875 Z0.56
G1 F300 Z0.56
G0 F6000 X30.952 Y87.935
;TYPE:SKIRT
G1 F300 Z0.24
G1 F2100 E0
G1 F1800 X30.992 Y86.948 E0.07156
G1 X31.112 Y85.967 E0.14315
G1 X31.31 Y84.999 E0.21473
G1 X31.587 Y84.05 E0.28634
G1 X31.939 Y83.127 E0.3579
G1 X32.364 Y82.235 E0.42948
G1 X32.86 Y81.381 E0.50102
G1 X33.424 Y80.569 E0.57264
G1 X34.052 Y79.806 E0.64422
G1 X34.739 Y79.096 E0.71579
G1 X35.481 Y78.443 E0.78739
G1 X36.274 Y77.853 E0.85899
G1 X37.112 Y77.33 E0.93055
G1 X37.989 Y76.875 E1.00212
G1 X38.9 Y76.493 E1.07368
G1 X39.839 Y76.186 E1.14525
G1 X40.8 Y75.956 E1.21683
G1 X41.777 Y75.804 E1.28846
G1 X43.156 Y75.725 E1.38852
G1 X45.856 Y75.724 E1.58411
G1 X59.643 Y72.901 E2.60357
G1 X60.618 Y72.742 E2.67513
G1 X62.092 Y72.653 E2.7821
G1 X84.002 Y72.653 E4.36927
G1 X84.989 Y72.693 E4.44083
G1 X85.97 Y72.813 E4.51242
G1 X86.938 Y73.011 E4.584
G1 X87.87 Y73.283 E4.65433
G1 X88.078 Y73.271 E4.66942
G1 X128.918 Y73.271 E7.6279
G1 X129.905 Y73.311 E7.69945
G1 X130.886 Y73.431 E7.77105
G1 X131.854 Y73.629 E7.84262
G1 X132.803 Y73.906 E7.91424
G1 X133.726 Y74.258 E7.9858
G1 X134.618 Y74.683 E8.05737
G1 X135.472 Y75.179 E8.12891
G1 X136.284 Y75.743 E8.20053
G1 X137.047 Y76.371 E8.27212
G1 X137.757 Y77.058 E8.34369
G1 X138.41 Y77.8 E8.41529
G1 X139 Y78.593 E8.48689
G1 X139.523 Y79.431 E8.55845
G1 X139.978 Y80.308 E8.63002
G1 X140.36 Y81.219 E8.70158
G1 X140.667 Y82.158 E8.77314
G1 X140.897 Y83.119 E8.84473
G1 X141.049 Y84.096 E8.91635
G1 X141.128 Y85.481 E9.01684
G1 X141.128 Y108.572 E10.68957
G1 X141.088 Y109.559 E10.76113
G1 X140.968 Y110.54 E10.83272
G1 X140.77 Y111.508 E10.9043
G1 X140.493 Y112.457 E10.97591
G1 X140.141 Y113.38 E11.04747
G1 X139.716 Y114.272 E11.11905
G1 X139.22 Y115.126 E11.19059
G1 X138.656 Y115.938 E11.26221
G1 X138.236 Y116.462 E11.31085
G1 X121.428 Y136.311 E13.19499
G1 X120.759 Y137.039 E13.26662
G1 X120.034 Y137.71 E13.33818
G1 X119.257 Y138.321 E13.40978
G1 X118.433 Y138.866 E13.48135
G1 X117.568 Y139.343 E13.55291
G1 X116.667 Y139.749 E13.6245
G1 X115.736 Y140.08 E13.69607
G1 X114.781 Y140.335 E13.76768
G1 X113.809 Y140.512 E13.83925
G1 X112.826 Y140.61 E13.91081
G1 X112.11 Y140.631 E13.9627
G1 X88.078 Y140.631 E15.70359
G1 X87.091 Y140.591 E15.77515
G1 X86.11 Y140.471 E15.84674
G1 X85.142 Y140.273 E15.91832
G1 X84.21 Y140.001 E15.98865
G1 X84.002 Y140.013 E16.00374
G1 X54.014 Y140.014 E18.17609
G1 X53.027 Y139.974 E18.24765
G1 X52.046 Y139.854 E18.31924
G1 X51.078 Y139.656 E18.39081
G1 X50.13 Y139.38 E18.46234
G1 X49.206 Y139.028 E18.53397
G1 X48.679 Y138.787 E18.57595
G1 X37.827 Y133.516 E19.4499
G1 X36.957 Y133.049 E19.52143
G1 X36.127 Y132.512 E19.59304
G1 X35.343 Y131.911 E19.6646
G1 X34.61 Y131.248 E19.7362
G1 X33.933 Y130.528 E19.80779
G1 X33.317 Y129.755 E19.87939
G1 X32.765 Y128.936 E19.95094
G1 X32.282 Y128.074 E20.02252
G1 X31.869 Y127.176 E20.09412
G1 X31.531 Y126.248 E20.16566
G1 X31.269 Y125.295 E20.23726
G1 X31.084 Y124.324 E20.30886
G1 X30.979 Y123.342 E20.38041
G1 X30.952 Y122.533 E20.43904
G1 X30.952 Y89.298 E22.84661
G0 F1620 X30.952 Y87.935
G0 F6000 X31.612 Y87.935
G1 F1800 X31.652 Y86.975 E22.91621
G1 X31.772 Y86.021 E22.98586
G1 X31.97 Y85.081 E23.05545
G1 X32.246 Y84.16 E23.1251
G1 X32.598 Y83.266 E23.1947
G1 X33.023 Y82.404 E23.26432
G1 X33.517 Y81.58 E23.33392
G1 X34.079 Y80.8 E23.40356
G1 X34.704 Y80.07 E23.47318
G1 X35.387 Y79.394 E23.54279
G1 X36.124 Y78.777 E23.61242
G1 X36.91 Y78.224 E23.68204
G1 X37.739 Y77.738 E23.75165
G1 X38.605 Y77.322 E23.82125
G1 X39.503 Y76.98 E23.89085
G1 X40.427 Y76.714 E23.96051
G1 X41.369 Y76.525 E24.03011
G1 X42.324 Y76.415 E24.09975
G1 X43.156 Y76.385 E24.16006
G1 X45.925 Y76.384 E24.36064
G1 X59.775 Y73.548 E25.38476
G1 X60.724 Y73.394 E25.45441
G1 X62.092 Y73.313 E25.55368
G1 X84.002 Y73.313 E27.14085
G1 X84.962 Y73.353 E27.21046
G1 X85.916 Y73.473 E27.28011
G1 X86.856 Y73.671 E27.3497
G1 X87.761 Y73.942 E27.41813
G1 X88.078 Y73.931 E27.44111
G1 X128.918 Y73.931 E30.39958
G1 X129.878 Y73.971 E30.46919
G1 X130.832 Y74.091 E30.53884
G1 X131.772 Y74.289 E30.60843
G1 X132.693 Y74.565 E30.67808
G1 X133.587 Y74.917 E30.74768
G1 X134.449 Y75.342 E30.8173
G1 X135.273 Y75.836 E30.8869
G1 X136.053 Y76.398 E30.95654
G1 X136.783 Y77.023 E31.02615
G1 X137.459 Y77.706 E31.09577
G1 X138.076 Y78.443 E31.16539
G1 X138.629 Y79.229 E31.23501
G1 X139.115 Y80.058 E31.30463
G1 X139.531 Y80.924 E31.37422
G1 X139.873 Y81.822 E31.44383
G1 X140.139 Y82.746 E31.51348
G1 X140.328 Y83.688 E31.58308
G1 X140.438 Y84.643 E31.65272
G1 X140.468 Y85.481 E31.71347
G1 X140.468 Y108.572 E33.38619
G1 X140.428 Y109.532 E33.45579
G1 X140.308 Y110.486 E33.52545
G1 X140.11 Y111.426 E33.59504
G1 X139.834 Y112.347 E33.66468
G1 X139.482 Y113.241 E33.73429
G1 X139.057 Y114.103 E33.80391
G1 X138.563 Y114.927 E33.8735
G1 X137.732 Y116.036 E33.97389
G1 X120.924 Y135.885 E35.85803
G1 X120.273 Y136.592 E35.92765
G1 X119.566 Y137.242 E35.99722
G1 X118.807 Y137.832 E36.06686
G1 X118.001 Y138.356 E36.1365
G1 X117.155 Y138.811 E36.20609
G1 X116.274 Y139.194 E36.27568
G1 X115.363 Y139.503 E36.34537
G1 X114.431 Y139.735 E36.41494
G1 X113.482 Y139.889 E36.48459
G1 X112.11 Y139.971 E36.58415
G1 X88.078 Y139.971 E38.32504
G1 X87.118 Y139.931 E38.39465
G1 X86.164 Y139.811 E38.4643
G1 X85.224 Y139.613 E38.53389
G1 X84.319 Y139.342 E38.60232
G1 X84.002 Y139.353 E38.6253
G1 X54.014 Y139.354 E40.79765
G1 X53.054 Y139.314 E40.86725
G1 X52.101 Y139.194 E40.93683
G1 X51.16 Y138.996 E41.00649
G1 X50.24 Y138.72 E41.07607
G1 X48.968 Y138.193 E41.17581
G1 X38.116 Y132.922 E42.04976
G1 X37.269 Y132.467 E42.11941
G1 X36.464 Y131.943 E42.18899
G1 X35.705 Y131.353 E42.25863
G1 X34.998 Y130.703 E42.32821
G1 X34.347 Y129.996 E42.39783
G1 X33.757 Y129.237 E42.46747
G1 X33.232 Y128.432 E42.53709
G1 X32.776 Y127.586 E42.60671
G1 X32.392 Y126.705 E42.67633
G1 X32.082 Y125.795 E42.74597
G1 X31.849 Y124.863 E42.81556
G1 X31.695 Y123.914 E42.8852
G1 X31.612 Y122.533 E42.98543
G1 X31.612 Y89.298 E45.39299
G0 F1620 X31.612 Y87.935
G0 F6000 X32.272 Y87.935
G1 F1800 X32.312 Y87.003 E45.46056
G1 X32.432 Y86.077 E45.52821
G1 X32.63 Y85.165 E45.59581
G1 X32.906 Y84.274 E45.66338
G1 X33.257 Y83.409 E45.731
G1 X33.681 Y82.578 E45.79859
G1 X34.174 Y81.786 E45.86617
G1 X34.734 Y81.039 E45.9338
G1 X35.355 Y80.343 E46.00137
G1 X36.034 Y79.702 E46.06901
G1 X36.765 Y79.122 E46.13661
G1 X37.543 Y78.607 E46.20419
G1 X38.362 Y78.16 E46.27178
G1 X39.216 Y77.785 E46.33935
G1 X40.1 Y77.484 E46.407
G1 X41.006 Y77.261 E46.47459
G1 X41.927 Y77.115 E46.54214
G1 X43.156 Y77.045 E46.63131
G1 X45.99 Y77.044 E46.83661
G1 X59.908 Y74.194 E47.86576
G1 X60.829 Y74.046 E47.93333
G1 X62.092 Y73.973 E48.02498
G1 X84.002 Y73.973 E49.61215
G1 X84.934 Y74.013 E49.67973
G1 X85.86 Y74.133 E49.74737
G1 X86.772 Y74.331 E49.81497
G1 X87.679 Y74.614 E49.8838
G1 X88.078 Y74.591 E49.91275
G1 X128.918 Y74.591 E52.87122
G1 X129.85 Y74.631 E52.9388
G1 X130.776 Y74.751 E53.00644
G1 X131.688 Y74.949 E53.07405
G1 X132.579 Y75.225 E53.14162
G1 X133.444 Y75.576 E53.20924
G1 X134.275 Y76 E53.27682
G1 X135.067 Y76.493 E53.3444
G1 X135.814 Y77.053 E53.41203
G1 X136.51 Y77.674 E53.4796
G1 X137.151 Y78.353 E53.54725
G1 X137.731 Y79.084 E53.61484
G1 X138.246 Y79.862 E53.68243
G1 X138.693 Y80.681 E53.75002
G1 X139.068 Y81.535 E53.81759
G1 X139.369 Y82.419 E53.88524
G1 X139.592 Y83.325 E53.95283
G1 X139.738 Y84.246 E54.02038
G1 X139.808 Y85.481 E54.10998
G1 X139.808 Y108.572 E55.78271
G1 X139.768 Y109.504 E55.85029
G1 X139.648 Y110.43 E55.91793
G1 X139.45 Y111.342 E55.98553
G1 X139.174 Y112.233 E56.0531
G1 X138.823 Y113.098 E56.12073
G1 X138.399 Y113.929 E56.18831
G1 X137.906 Y114.721 E56.25589
G1 X137.229 Y115.609 E56.33678
G1 X120.421 Y135.458 E58.22092
G1 X119.788 Y136.144 E58.28853
G1 X119.098 Y136.773 E58.35617
G1 X118.358 Y137.341 E58.42375
G1 X117.571 Y137.843 E58.49137
G1 X116.744 Y138.276 E58.55899
G1 X115.884 Y138.636 E58.62653
G1 X114.995 Y138.922 E58.69418
G1 X114.086 Y139.13 E58.76173
G1 X113.162 Y139.26 E58.82932
G1 X112.11 Y139.311 E58.90562
G1 X88.078 Y139.311 E60.64651
G1 X87.146 Y139.271 E60.71409
G1 X86.22 Y139.151 E60.78173
G1 X85.308 Y138.953 E60.84933
G1 X84.401 Y138.67 E60.91816
G1 X84.002 Y138.693 E60.94711
G1 X54.014 Y138.694 E63.11946
G1 X53.082 Y138.654 E63.18704
G1 X52.157 Y138.534 E63.25461
G1 X51.245 Y138.336 E63.32221
G1 X50.353 Y138.06 E63.38985
G1 X49.256 Y137.6 E63.47602
G1 X38.404 Y132.329 E64.34997
G1 X37.583 Y131.885 E64.41759
G1 X36.803 Y131.373 E64.48518
G1 X36.069 Y130.796 E64.55281
G1 X35.388 Y130.159 E64.62036
G1 X34.764 Y129.465 E64.68797
G1 X34.201 Y128.721 E64.75556
G1 X33.704 Y127.931 E64.82317
G1 X33.277 Y127.101 E64.89078
G1 X32.922 Y126.238 E64.95838
G1 X32.642 Y125.348 E65.02597
G1 X32.44 Y124.437 E65.09356
G1 X32.316 Y123.512 E65.16117
G1 X32.272 Y122.533 E65.23216
G1 X32.272 Y89.298 E67.63972
G0 F1620 X32.272 Y87.935
G0 F6000 X32.932 Y87.935
G1 F1800 X32.972 Y87.031 E67.70528
G1 X33.092 Y86.135 E67.77076
G1 X33.29 Y85.253 E67.83624
G1 X33.565 Y84.391 E67.90179
G1 X33.916 Y83.557 E67.96734
G1 X34.339 Y82.758 E68.03283
G1 X34.831 Y81.999 E68.09835
G1 X35.387 Y81.286 E68.16385
G1 X36.005 Y80.625 E68.2294
G1 X36.679 Y80.022 E68.29491
G1 X37.403 Y79.48 E68.36043
G1 X38.172 Y79.004 E68.42594
G1 X38.98 Y78.599 E68.49142
G1 X39.821 Y78.266 E68.55694
G1 X40.688 Y78.009 E68.62245
G1 X41.575 Y77.829 E68.68801
G1 X42.474 Y77.728 E68.75355
G1 X43.157 Y77.705 E68.80305
G1 X46.058 Y77.704 E69.0132
G1 X60.04 Y74.841 E70.04708
G1 X60.933 Y74.699 E70.11258
G1 X62.092 Y74.633 E70.19668
G1 X84.002 Y74.633 E71.78385
G1 X84.906 Y74.673 E71.8494
G1 X85.802 Y74.793 E71.91489
G1 X86.684 Y74.991 E71.98037
G1 X87.552 Y75.269 E72.0464
G1 X88.078 Y75.251 E72.08452
G1 X128.918 Y75.251 E75.04299
G1 X129.822 Y75.291 E75.10855
G1 X130.718 Y75.411 E75.17403
G1 X131.6 Y75.609 E75.23951
G1 X132.462 Y75.884 E75.30506
G1 X133.296 Y76.235 E75.37061
G1 X134.095 Y76.658 E75.4361
G1 X134.854 Y77.15 E75.50162
G1 X135.567 Y77.706 E75.56712
G1 X136.228 Y78.324 E75.63267
G1 X136.831 Y78.998 E75.69818
G1 X137.373 Y79.722 E75.7637
G1 X137.849 Y80.491 E75.82921
G1 X138.254 Y81.299 E75.89469
G1 X138.587 Y82.14 E75.96021
G1 X138.844 Y83.007 E76.02572
G1 X139.024 Y83.894 E76.09128
G1 X139.125 Y84.793 E76.15682
G1 X139.148 Y85.481 E76.20668
G1 X139.148 Y108.572 E77.87941
G1 X139.108 Y109.476 E77.94496
G1 X138.988 Y110.372 E78.01045
G1 X138.79 Y111.254 E78.07593
G1 X138.515 Y112.116 E78.14147
G1 X138.164 Y112.95 E78.20702
G1 X137.741 Y113.749 E78.27251
G1 X137.249 Y114.508 E78.33804
G1 X136.725 Y115.183 E78.39994
G1 X119.917 Y135.032 E80.28408
G1 X119.303 Y135.696 E80.34959
G1 X118.632 Y136.302 E80.41509
G1 X117.91 Y136.848 E80.48066
G1 X117.143 Y137.327 E80.54617
G1 X116.337 Y137.737 E80.61167
G1 X115.498 Y138.074 E80.67717
G1 X114.632 Y138.335 E80.74269
G1 X113.746 Y138.519 E80.80824
G1 X112.848 Y138.624 E80.87374
G1 X112.11 Y138.651 E80.92724
G1 X88.078 Y138.651 E82.66813
G1 X87.174 Y138.611 E82.73368
G1 X86.278 Y138.491 E82.79916
G1 X85.396 Y138.293 E82.86465
G1 X84.528 Y138.015 E82.93067
G1 X84.002 Y138.033 E82.9688
G1 X54.014 Y138.034 E85.14115
G1 X53.111 Y137.994 E85.20662
G1 X52.214 Y137.874 E85.27218
G1 X51.332 Y137.676 E85.33767
G1 X50.47 Y137.401 E85.40321
G1 X49.544 Y137.006 E85.47614
G1 X38.692 Y131.735 E86.35009
G1 X37.897 Y131.304 E86.4156
G1 X37.143 Y130.805 E86.4811
G1 X36.436 Y130.241 E86.54661
G1 X35.781 Y129.617 E86.61215
G1 X35.185 Y128.937 E86.67765
G1 X34.65 Y128.208 E86.74315
G1 X34.182 Y127.434 E86.80867
G1 X33.784 Y126.621 E86.87425
G1 X33.46 Y125.777 E86.93974
G1 X33.211 Y124.908 E87.00522
G1 X33.041 Y124.019 E87.07079
G1 X32.949 Y123.12 E87.13625
G1 X32.932 Y122.533 E87.17879
G1 X32.932 Y89.298 E89.58635
G0 F1620 X32.932 Y87.935
G0 F6000 X33.592 Y87.935
G1 F1800 X33.632 Y87.061 E89.64973
G1 X33.752 Y86.195 E89.71307
G1 X33.95 Y85.343 E89.77643
G1 X34.225 Y84.512 E89.83984
G1 X34.575 Y83.711 E89.90316
G1 X34.996 Y82.944 E89.96654
G1 X35.486 Y82.219 E90.02993
G1 X36.04 Y81.542 E90.0933
G1 X36.654 Y80.919 E90.15667
G1 X37.322 Y80.354 E90.22005
G1 X38.038 Y79.852 E90.28339
G1 X38.798 Y79.418 E90.34679
G1 X39.594 Y79.055 E90.41017
G1 X40.419 Y78.766 E90.47349
G1 X41.268 Y78.554 E90.53688
G1 X42.132 Y78.421 E90.60021
G1 X43.157 Y78.365 E90.67457
G1 X46.123 Y78.363 E90.88943
G1 X60.173 Y75.487 E91.92832
G1 X61.037 Y75.351 E91.99168
G1 X62.092 Y75.293 E92.06822
G1 X84.002 Y75.293 E93.65539
G1 X84.876 Y75.333 E93.71877
G1 X85.742 Y75.453 E93.78211
G1 X86.594 Y75.651 E93.84547
G1 X87.467 Y75.944 E93.91218
G1 X88.078 Y75.911 E93.9565
G1 X128.918 Y75.911 E96.91498
G1 X129.792 Y75.951 E96.97836
G1 X130.658 Y76.071 E97.04169
G1 X131.51 Y76.269 E97.10505
G1 X132.341 Y76.544 E97.16846
G1 X133.142 Y76.894 E97.23178
G1 X133.909 Y77.315 E97.29517
G1 X134.634 Y77.805 E97.35856
G1 X135.311 Y78.359 E97.42193
G1 X135.934 Y78.973 E97.48529
G1 X136.499 Y79.641 E97.54867
G1 X137.001 Y80.357 E97.61201
G1 X137.435 Y81.117 E97.67541
G1 X137.798 Y81.913 E97.73879
G1 X138.087 Y82.738 E97.80211
G1 X138.299 Y83.587 E97.8655
G1 X138.432 Y84.451 E97.92883
G1 X138.488 Y85.481 E98.00355
G1 X138.488 Y108.572 E99.67628
G1 X138.448 Y109.446 E99.73966
G1 X138.328 Y110.312 E99.80299
G1 X138.13 Y111.164 E99.86636
G1 X137.855 Y111.995 E99.92976
G1 X137.505 Y112.796 E99.99309
G1 X137.084 Y113.563 E100.05647
G1 X136.594 Y114.288 E100.11986
G1 X136.221 Y114.756 E100.16321
G1 X119.413 Y134.605 E102.04735
G1 X118.818 Y135.246 E102.11071
G1 X118.167 Y135.83 E102.17406
G1 X117.465 Y136.353 E102.23747
G1 X116.718 Y136.808 E102.30084
G1 X115.933 Y137.194 E102.3642
G1 X115.116 Y137.507 E102.42758
G1 X114.274 Y137.743 E102.49093
G1 X113.414 Y137.902 E102.55428
G1 X112.11 Y137.991 E102.64896
G1 X88.078 Y137.991 E104.38986
G1 X87.204 Y137.951 E104.45324
G1 X86.338 Y137.831 E104.51657
G1 X85.486 Y137.633 E104.57993
G1 X84.613 Y137.34 E104.64664
G1 X84.002 Y137.373 E104.69097
G1 X54.014 Y137.374 E106.86331
G1 X53.14 Y137.334 E106.92669
G1 X52.274 Y137.214 E106.99003
G1 X51.422 Y137.016 E107.05339
G1 X50.592 Y136.741 E107.11673
G1 X49.833 Y136.412 E107.17666
G1 X38.981 Y131.141 E108.05061
G1 X38.212 Y130.724 E108.11398
G1 X37.485 Y130.237 E108.17737
G1 X36.805 Y129.687 E108.24072
G1 X36.179 Y129.076 E108.30409
G1 X35.61 Y128.411 E108.36749
G1 X35.105 Y127.697 E108.43084
G1 X34.667 Y126.94 E108.4942
G1 X34.3 Y126.146 E108.55756
G1 X34.007 Y125.322 E108.62091
G1 X33.791 Y124.474 E108.6843
G1 X33.653 Y123.61 E108.74769
G1 X33.592 Y122.533 E108.82583
G1 X33.592 Y89.298 E111.23339
G0 F1620 X33.592 Y87.935
G0 F6000 X34.252 Y87.935
G1 F1800 X34.292 Y87.092 E111.29453
G1 X34.412 Y86.256 E111.35571
G1 X34.61 Y85.436 E111.41682
G1 X34.884 Y84.638 E111.47794
G1 X35.234 Y83.869 E111.53914
G1 X35.654 Y83.137 E111.60028
G1 X36.142 Y82.449 E111.66138
G1 X36.692 Y81.809 E111.72251
G1 X37.301 Y81.224 E111.78369
G1 X37.962 Y80.7 E111.84479
G1 X38.67 Y80.24 E111.90595
G1 X39.418 Y79.85 E111.96706
G1 X40.2 Y79.532 E112.02821
G1 X41.009 Y79.289 E112.0894
G1 X41.836 Y79.124 E112.15049
G1 X42.676 Y79.038 E112.21166
G1 X43.157 Y79.025 E112.24652
G1 X46.192 Y79.023 E112.46638
G1 X60.305 Y76.134 E113.50993
G1 X61.139 Y76.004 E113.57107
G1 X62.092 Y75.953 E113.64021
G1 X84.002 Y75.953 E115.22738
G1 X84.845 Y75.993 E115.28852
G1 X85.681 Y76.113 E115.3497
