;FLAVOR:Marlin
;TIME:2536
;Filament used: 3.1775m
;Layer height: 0.32
;MINX:38.443
;MINY:102.25
;MINZ:0.24
;MAXX:93.082
;MAXY:153.513
;MAXZ:20.4
;Generated with Cura_SteamEngine 5.0.0
M140 S70
M105
M190 S70
M104 S245
M105
M109 S245
M82 ;absolute extrusion mode
; Ender 3 Max Custom Start G-code
G92 E0 ; Reset Extruder
G28 ; Home all axes
G1 Z2.0 F3000 ; Move Z Axis up little to prevent scratching of Heat Bed
G1 X0.1 Y20 Z0.3 F5000.0 ; Move to start position
G1 X0.1 Y200.0 Z0.3 F1500.0 E15 ; Draw the first line
G1 X0.4 Y200.0 Z0.3 F5000.0 ; Move to side a little
G1 X0.4 Y20 Z0.3 F1500.0 E30 ; Draw the second line
G92 E0 ; Reset Extruder
G1 Z2.0 F3000 ; Move Z Axis up little to prevent scratching of Heat Bed
G1 X5 Y20 Z0.3 F5000.0 ; Move over to prevent blob squish
G92 E0
G92 E0
G1 F2100 E-5
;LAYER_COUNT:63
;LAYER:0
M107
G1 F300 Z0.56
G0 F6000 X50.073 Y103.65 Z0.56
G1 F300 Z0.56
G0 F6000 X41.768 Y113.531
;TYPE:SKIRT
G1 F300 Z0.24
G1 F2100 E0
G1 F1800 X42.197 Y112.679 E0.0691
G1 X42.479 Y112.152 E0.1124
G1 X42.983 Y111.27 E0.18599
G1 X43.396 Y110.587 E0.24381
G1 X43.858 Y109.865 E0.3059
G1 X44.347 Y109.144 E0.36901
G1 X44.858 Y108.433 E0.43244
G1 X45.366 Y107.763 E0.49335
G1 X45.914 Y107.078 E0.55689
G1 X46.229 Y106.702 E0.59243
G1 X46.894 Y105.971 E0.66401
G1 X47.616 Y105.296 E0.73561
G1 X48.39 Y104.681 E0.80723
G1 X49.211 Y104.131 E0.87881
G1 X50.073 Y103.65 E0.95032
G1 X50.972 Y103.239 E1.02193
G1 X51.901 Y102.903 E1.09349
G1 X52.855 Y102.643 E1.16512
G1 X53.826 Y102.461 E1.23668
G1 X54.809 Y102.358 E1.30828
G1 X55.589 Y102.333 E1.36482
G1 X64.412 Y102.333 E2.00396
G1 X65.425 Y102.376 E2.07741
G1 X65.728 Y102.329 E2.09962
G1 X67.12 Y102.25 E2.20062
G1 X75.947 Y102.255 E2.84005
G1 X76.934 Y102.296 E2.91161
G1 X77.915 Y102.416 E2.98321
G1 X78.883 Y102.615 E3.0548
G1 X79.831 Y102.892 E3.12634
G1 X80.755 Y103.244 E3.19797
G1 X81.646 Y103.67 E3.26951
G1 X82.5 Y104.167 E3.34109
G1 X83.311 Y104.731 E3.41265
G1 X84.074 Y105.359 E3.48423
G1 X84.784 Y106.047 E3.55585
G1 X85.278 Y106.599 E3.60951
G1 X85.837 Y107.272 E3.67289
G1 X86.338 Y107.911 E3.73171
G1 X86.879 Y108.639 E3.79742
G1 X87.366 Y109.334 E3.85889
G1 X87.835 Y110.04 E3.92029
G1 X88.302 Y110.783 E3.98386
G1 X88.741 Y111.527 E4.04644
G1 X89.165 Y112.293 E4.10987
G1 X89.542 Y113.016 E4.16893
G1 X89.92 Y113.785 E4.23101
G1 X90.201 Y114.388 E4.2792
G1 X90.632 Y115.397 E4.35868
G1 X90.949 Y116.201 E4.42129
G1 X91.23 Y116.97 E4.48059
G1 X91.517 Y117.824 E4.54586
G1 X91.779 Y118.681 E4.61078
G1 X91.993 Y119.457 E4.66909
G1 X92.212 Y120.33 E4.73429
G1 X92.389 Y121.132 E4.79378
G1 X92.563 Y122.02 E4.85934
G1 X92.701 Y122.85 E4.92029
G1 X92.822 Y123.715 E4.98356
G1 X92.922 Y124.608 E5.04865
G1 X92.999 Y125.504 E5.1138
G1 X93.046 Y126.288 E5.17069
G1 X93.075 Y127.142 E5.23259
G1 X93.082 Y127.995 E5.29439
G1 X93.067 Y128.846 E5.35604
G1 X93.028 Y129.732 E5.42029
G1 X92.966 Y130.606 E5.48376
G1 X92.883 Y131.453 E5.54541
G1 X92.779 Y132.293 E5.60673
G1 X92.652 Y133.138 E5.66863
G1 X92.496 Y134.019 E5.73344
G1 X92.329 Y134.832 E5.79356
G1 X92.147 Y135.625 E5.8525
G1 X91.933 Y136.456 E5.91466
G1 X91.661 Y137.393 E5.98534
G1 X91.402 Y138.207 E6.04722
G1 X91.111 Y139.042 E6.11128
G1 X90.827 Y139.796 E6.16964
G1 X90.391 Y140.862 E6.25307
G1 X90.195 Y141.305 E6.28817
G1 X89.757 Y142.232 E6.36244
G1 X89.328 Y143.084 E6.43154
G1 X89.058 Y143.59 E6.47309
G1 X88.573 Y144.442 E6.5441
G1 X88.131 Y145.174 E6.60605
G1 X87.663 Y145.904 E6.66886
G1 X87.186 Y146.608 E6.73047
G1 X86.676 Y147.32 E6.79391
G1 X86.151 Y148.012 E6.85683
G1 X85.618 Y148.678 E6.91863
G1 X85.308 Y149.049 E6.95365
G1 X84.644 Y149.781 E7.02524
G1 X83.923 Y150.457 E7.09684
G1 X83.15 Y151.072 E7.16839
G1 X82.33 Y151.623 E7.23996
G1 X81.468 Y152.106 E7.31154
G1 X80.569 Y152.518 E7.38318
G1 X79.64 Y152.855 E7.45476
G1 X78.688 Y153.116 E7.52627
G1 X77.717 Y153.3 E7.59786
G1 X76.734 Y153.404 E7.66947
G1 X75.938 Y153.43 E7.72716
G1 X67.113 Y153.43 E8.36645
G1 X66.1 Y153.387 E8.4399
G1 X65.797 Y153.434 E8.46211
G1 X64.405 Y153.513 E8.56311
G1 X55.577 Y153.508 E9.20262
G1 X54.59 Y153.467 E9.27418
G1 X53.609 Y153.347 E9.34577
G1 X52.641 Y153.148 E9.41736
G1 X51.693 Y152.871 E9.48891
G1 X50.769 Y152.519 E9.56053
G1 X49.878 Y152.093 E9.63208
G1 X49.024 Y151.596 E9.70365
G1 X48.213 Y151.032 E9.77521
G1 X47.45 Y150.404 E9.8468
G1 X46.74 Y149.716 E9.91842
G1 X46.221 Y149.135 E9.97485
G1 X45.698 Y148.503 E10.03428
G1 X45.173 Y147.833 E10.09594
G1 X44.656 Y147.137 E10.15875
G1 X44.158 Y146.428 E10.22151
G1 X43.616 Y145.607 E10.29278
G1 X43.069 Y144.724 E10.36802
G1 X42.788 Y144.247 E10.40812
G1 X42.352 Y143.457 E10.47349
G1 X41.981 Y142.744 E10.53171
G1 X41.565 Y141.894 E10.60027
G1 X41.113 Y140.886 E10.68029
G1 X40.744 Y139.994 E10.75022
G1 X40.561 Y139.525 E10.78669
G1 X40.287 Y138.768 E10.84501
G1 X40.011 Y137.945 E10.90789
G1 X39.762 Y137.137 E10.96914
G1 X39.586 Y136.52 E11.01562
G1 X39.318 Y135.449 E11.09559
G1 X39.135 Y134.627 E11.1566
G1 X38.959 Y133.728 E11.22296
G1 X38.821 Y132.887 E11.28469
G1 X38.705 Y132.058 E11.34533
G1 X38.601 Y131.135 E11.41262
G1 X38.527 Y130.252 E11.47681
G1 X38.481 Y129.494 E11.53182
G1 X38.45 Y128.618 E11.59532
G1 X38.443 Y127.768 E11.65689
G1 X38.459 Y126.896 E11.72007
G1 X38.496 Y126.055 E11.78105
G1 X38.559 Y125.155 E11.84641
G1 X38.644 Y124.294 E11.90908
G1 X38.746 Y123.482 E11.96837
G1 X38.871 Y122.639 E12.0301
G1 X39.03 Y121.739 E12.09631
G1 X39.201 Y120.909 E12.1577
G1 X39.372 Y120.164 E12.21307
G1 X39.589 Y119.32 E12.2762
G1 X39.948 Y118.092 E12.36888
G1 X40.283 Y117.086 E12.44569
G1 X40.622 Y116.167 E12.51664
G1 X40.961 Y115.315 E12.58307
G1 X41.197 Y114.768 E12.62623
G0 F1620 X41.33 Y114.458
G0 X41.768 Y113.531
G1 F2100 E7.62623
G1 F300 Z0.56
G0 F6000 X41.743 Y127.811 Z0.56
G1 F300 Z0.24
G1 F2100 E12.62623
G1 F1800 X41.756 Y127.029 E12.68288
G1 X41.789 Y126.267 E12.73813
G1 X41.845 Y125.462 E12.79659
G1 X41.92 Y124.69 E12.85278
G1 X42.012 Y123.952 E12.90665
G1 X42.124 Y123.192 E12.9623
G1 X42.265 Y122.391 E13.02122
G1 X42.418 Y121.642 E13.0766
G1 X42.576 Y120.956 E13.12759
G1 X42.763 Y120.224 E13.18232
G1 X43.106 Y119.049 E13.27099
G1 X43.407 Y118.149 E13.33974
G1 X43.711 Y117.328 E13.40316
G1 X44.008 Y116.584 E13.46119
G1 X44.321 Y115.853 E13.51879
G1 X44.716 Y115.015 E13.5859
G1 X45.145 Y114.163 E13.65501
G1 X45.35 Y113.779 E13.68654
G1 X45.814 Y112.966 E13.75435
G1 X46.185 Y112.352 E13.80632
G1 X46.599 Y111.703 E13.86208
G1 X47.037 Y111.055 E13.91874
G1 X47.495 Y110.416 E13.97569
G1 X47.953 Y109.811 E14.03066
G1 X48.444 Y109.197 E14.08761
G1 X48.759 Y108.821 E14.12315
G1 X49.331 Y108.201 E14.18425
G1 X49.959 Y107.637 E14.2454
G1 X50.638 Y107.135 E14.30657
G1 X51.361 Y106.7 E14.36769
G1 X52.122 Y106.335 E14.42883
G1 X52.915 Y106.044 E14.49002
G1 X53.731 Y105.829 E14.55115
G1 X54.564 Y105.692 E14.61231
G1 X55.589 Y105.633 E14.68668
G1 X64.412 Y105.633 E15.32582
G1 X65.255 Y105.673 E15.38696
G1 X65.494 Y105.707 E15.40445
G1 X65.787 Y105.649 E15.42609
G1 X66.627 Y105.563 E15.48725
G1 X67.118 Y105.55 E15.52283
G1 X75.945 Y105.555 E16.16227
G1 X76.788 Y105.595 E16.2234
G1 X77.624 Y105.716 E16.28459
G1 X78.444 Y105.914 E16.3457
G1 X79.242 Y106.189 E16.40685
G1 X80.01 Y106.539 E16.46799
G1 X80.742 Y106.96 E16.52916
G1 X81.43 Y107.448 E16.59026
G1 X82.07 Y107.999 E16.65144
G1 X82.754 Y108.725 E16.72369
G1 X83.246 Y109.315 E16.77934
G1 X83.702 Y109.897 E16.8329
G1 X84.185 Y110.545 E16.89145
G1 X84.626 Y111.173 E16.94704
G1 X85.049 Y111.808 E17.00231
G1 X85.468 Y112.474 E17.05931
G1 X85.863 Y113.143 E17.11559
G1 X86.245 Y113.829 E17.17247
G1 X86.588 Y114.487 E17.22622
G1 X86.929 Y115.178 E17.28204
G1 X87.21 Y115.781 E17.33024
G1 X87.568 Y116.622 E17.39645
G1 X87.853 Y117.344 E17.45268
G1 X88.109 Y118.043 E17.5066
G1 X88.366 Y118.803 E17.56472
G1 X88.601 Y119.57 E17.62283
G1 X88.796 Y120.277 E17.67596
G1 X88.993 Y121.057 E17.73424
G1 X89.154 Y121.784 E17.78818
G1 X89.31 Y122.575 E17.84658
G1 X89.435 Y123.325 E17.90166
G1 X89.545 Y124.101 E17.95844
G1 X89.635 Y124.9 E18.01668
G1 X89.706 Y125.721 E18.07638
G1 X89.748 Y126.416 E18.12682
G1 X89.775 Y127.185 E18.18256
G1 X89.782 Y127.952 E18.23812
G1 X89.769 Y128.719 E18.29369
G1 X89.736 Y129.514 E18.35133
G1 X89.68 Y130.299 E18.40834
G1 X89.606 Y131.061 E18.4638
G1 X89.513 Y131.819 E18.51912
G1 X89.399 Y132.581 E18.57494
G1 X89.261 Y133.368 E18.63282
G1 X89.11 Y134.106 E18.68739
G1 X88.945 Y134.826 E18.7409
G1 X88.76 Y135.548 E18.79489
G1 X88.51 Y136.413 E18.86011
G1 X88.282 Y137.132 E18.91475
G1 X88.017 Y137.895 E18.97327
G1 X87.764 Y138.569 E19.02542
G1 X87.348 Y139.586 E19.10501
G1 X86.925 Y140.508 E19.1785
G1 X86.38 Y141.6 E19.26691
G1 X86.183 Y141.969 E19.29721
G1 X85.74 Y142.75 E19.36225
G1 X85.343 Y143.409 E19.41798
G1 X84.923 Y144.065 E19.47441
G1 X84.494 Y144.699 E19.52986
G1 X84.037 Y145.339 E19.58683
G1 X83.566 Y145.961 E19.64335
G1 X83.085 Y146.562 E19.69911
G1 X82.775 Y146.933 E19.73414
G1 X82.204 Y147.554 E19.79525
G1 X81.577 Y148.119 E19.85639
G1 X80.898 Y148.622 E19.9176
G1 X80.176 Y149.058 E19.9787
G1 X79.415 Y149.423 E20.03984
G1 X78.623 Y149.716 E20.10102
G1 X77.807 Y149.932 E20.16216
G1 X76.975 Y150.069 E20.22325
G1 X75.938 Y150.13 E20.2985
G1 X67.113 Y150.13 E20.93778
G1 X66.27 Y150.09 E20.99892
G1 X66.031 Y150.056 E21.01641
G1 X65.738 Y150.114 E21.03804
G1 X64.898 Y150.2 E21.09921
G1 X64.407 Y150.213 E21.13479
G1 X55.579 Y150.208 E21.7743
G1 X54.736 Y150.168 E21.83544
G1 X53.9 Y150.047 E21.89663
G1 X53.08 Y149.849 E21.95773
G1 X52.282 Y149.574 E22.01888
G1 X51.514 Y149.224 E22.08002
G1 X50.782 Y148.803 E22.14119
G1 X50.094 Y148.315 E22.20229
G1 X49.454 Y147.764 E22.26347
G1 X48.751 Y147.017 E22.33778
G1 X48.287 Y146.456 E22.39052
G1 X47.812 Y145.851 E22.44624
G1 X47.346 Y145.226 E22.50271
G1 X46.898 Y144.589 E22.55913
G1 X46.422 Y143.869 E22.62165
G1 X45.875 Y142.986 E22.69689
G1 X45.67 Y142.638 E22.72615
G1 X45.273 Y141.922 E22.78546
G1 X44.935 Y141.274 E22.8384
G1 X44.566 Y140.521 E22.89915
G1 X44.163 Y139.625 E22.97032
G1 X43.794 Y138.733 E23.04025
G1 X43.474 Y137.882 E23.10611
G1 X43.161 Y136.962 E23.1765
G1 X42.936 Y136.232 E23.23184
G1 X42.76 Y135.615 E23.27832
G1 X42.536 Y134.718 E23.34529
G1 X42.37 Y133.975 E23.40044
G1 X42.213 Y133.175 E23.4595
G1 X42.087 Y132.417 E23.51516
G1 X41.982 Y131.667 E23.57003
G1 X41.889 Y130.849 E23.62966
G1 X41.82 Y130.037 E23.6887
G1 X41.778 Y129.36 E23.73783
G1 X41.771 Y129.174 E23.75132
G0 F1620 X41.75 Y128.574
G0 X41.743 Y127.811
G0 F6000 X42.403 Y127.819
G1 F1800 X42.416 Y127.055 E23.80667
G1 X42.448 Y126.309 E23.86076
G1 X42.502 Y125.524 E23.91776
G1 X42.576 Y124.769 E23.97272
G1 X42.665 Y124.046 E24.02548
G1 X42.775 Y123.303 E24.07989
G1 X42.912 Y122.521 E24.13741
G1 X43.062 Y121.788 E24.19161
G1 X43.323 Y120.685 E24.27371
G1 X43.571 Y119.793 E24.34078
G1 X43.823 Y118.976 E24.40272
G1 X44.119 Y118.119 E24.4684
G1 X44.393 Y117.394 E24.52454
G1 X44.779 Y116.448 E24.59856
G1 X45.198 Y115.534 E24.67139
G1 X45.734 Y114.46 E24.75834
G1 X45.924 Y114.104 E24.78758
G1 X46.38 Y113.305 E24.85422
G1 X46.742 Y112.705 E24.90498
G1 X47.147 Y112.07 E24.95954
G1 X47.575 Y111.437 E25.01489
G1 X48.022 Y110.813 E25.0705
G1 X48.471 Y110.221 E25.12432
G1 X48.95 Y109.621 E25.17994
G1 X49.265 Y109.245 E25.21547
G1 X49.817 Y108.649 E25.27432
G1 X50.424 Y108.11 E25.33312
G1 X51.082 Y107.633 E25.392
G1 X51.783 Y107.223 E25.45083
G1 X52.521 Y106.885 E25.50963
G1 X53.289 Y106.62 E25.56848
G1 X54.079 Y106.432 E25.62731
G1 X54.884 Y106.323 E25.68615
G1 X55.589 Y106.293 E25.73727
G1 X64.412 Y106.293 E26.37641
G1 X65.223 Y106.333 E26.43523
G1 X65.492 Y106.373 E26.45494
G1 X66.342 Y106.246 E26.51719
G1 X67.118 Y106.21 E26.57347
G1 X75.945 Y106.215 E27.2129
G1 X76.756 Y106.255 E27.27172
G1 X77.559 Y106.375 E27.33054
G1 X78.347 Y106.574 E27.38941
G1 X79.111 Y106.849 E27.44823
G1 X79.844 Y107.197 E27.50701
G1 X80.54 Y107.616 E27.56586
G1 X81.191 Y108.102 E27.62471
G1 X81.791 Y108.649 E27.68353
G1 X82.25 Y109.15 E27.73275
G1 X82.728 Y109.724 E27.78686
G1 X83.175 Y110.294 E27.83933
G1 X83.647 Y110.926 E27.89648
G1 X84.078 Y111.54 E27.95082
G1 X84.492 Y112.162 E28.00494
G1 X84.901 Y112.812 E28.06058
G1 X85.288 Y113.466 E28.11563
G1 X85.661 Y114.136 E28.17118
G1 X85.997 Y114.781 E28.22386
G1 X86.331 Y115.457 E28.27848
G1 X86.612 Y116.06 E28.32667
G1 X86.955 Y116.867 E28.39019
G1 X87.234 Y117.573 E28.44519
G1 X87.485 Y118.258 E28.49803
G1 X87.736 Y118.999 E28.55471
G1 X87.965 Y119.748 E28.61145
G1 X88.157 Y120.441 E28.66354
G1 X88.349 Y121.203 E28.72046
G1 X88.507 Y121.914 E28.77322
G1 X88.659 Y122.687 E28.83029
G1 X88.782 Y123.42 E28.88413
G1 X88.889 Y124.178 E28.93959
G1 X88.978 Y124.958 E28.99646
G1 X89.047 Y125.764 E29.05506
G1 X89.089 Y126.441 E29.1042
G1 X89.115 Y127.194 E29.15878
G1 X89.122 Y127.944 E29.21311
G1 X89.11 Y128.694 E29.26745
G1 X89.077 Y129.471 E29.32378
G1 X89.023 Y130.238 E29.37948
G1 X88.951 Y130.983 E29.4337
G1 X88.86 Y131.725 E29.48786
G1 X88.749 Y132.47 E29.54242
G1 X88.614 Y133.238 E29.59891
G1 X88.466 Y133.96 E29.6523
G1 X88.305 Y134.667 E29.70482
G1 X88.125 Y135.367 E29.75718
G1 X87.88 Y136.217 E29.82126
G1 X87.658 Y136.917 E29.87446
G1 X87.398 Y137.665 E29.93183
G1 X87.151 Y138.324 E29.98281
G1 X86.739 Y139.331 E30.06163
G1 X86.327 Y140.229 E30.1332
G1 X85.791 Y141.303 E30.22015
G1 X85.608 Y141.645 E30.24825
G1 X85.173 Y142.411 E30.31206
G1 X84.785 Y143.055 E30.36652
G1 X84.375 Y143.697 E30.42171
G1 X83.956 Y144.318 E30.47597
G1 X83.509 Y144.942 E30.53158
G1 X83.049 Y145.551 E30.58686
G1 X82.579 Y146.139 E30.64139
G1 X82.269 Y146.51 E30.67642
G1 X81.718 Y147.107 E30.73527
G1 X81.111 Y147.647 E30.79412
G1 X80.454 Y148.124 E30.85294
G1 X79.754 Y148.535 E30.91174
G1 X79.016 Y148.874 E30.97057
G1 X78.248 Y149.14 E31.02945
G1 X77.458 Y149.329 E31.08829
G1 X76.654 Y149.439 E31.14708
G1 X75.938 Y149.47 E31.19899
G1 X67.113 Y149.47 E31.83828
G1 X66.302 Y149.43 E31.8971
G1 X66.033 Y149.39 E31.9168
G1 X65.183 Y149.517 E31.97906
G1 X64.407 Y149.553 E32.03533
G1 X55.579 Y149.548 E32.67484
G1 X54.768 Y149.508 E32.73366
G1 X53.965 Y149.388 E32.79248
G1 X53.177 Y149.189 E32.85135
G1 X52.413 Y148.914 E32.91017
G1 X51.68 Y148.566 E32.96895
G1 X50.984 Y148.147 E33.0278
G1 X50.333 Y147.661 E33.08665
G1 X49.733 Y147.114 E33.14547
G1 X49.257 Y146.593 E33.19659
G1 X48.805 Y146.047 E33.24794
G1 X48.34 Y145.455 E33.30247
G1 X47.884 Y144.844 E33.3577
G1 X47.446 Y144.221 E33.41287
G1 X46.983 Y143.522 E33.4736
G1 X46.436 Y142.639 E33.54885
G1 X46.246 Y142.316 E33.57599
G1 X45.858 Y141.615 E33.63403
G1 X45.526 Y140.979 E33.686
G1 X45.166 Y140.247 E33.7451
G1 X44.773 Y139.373 E33.81452
G1 X44.28 Y138.164 E33.9091
G1 X44.034 Y137.487 E33.96128
G1 X43.791 Y136.765 E34.01646
G1 X43.57 Y136.051 E34.07061
G1 X43.394 Y135.434 E34.11708
G1 X43.179 Y134.571 E34.18151
G1 X43.017 Y133.845 E34.2354
G1 X42.863 Y133.065 E34.29299
G1 X42.74 Y132.323 E34.34748
G1 X42.637 Y131.589 E34.40117
G1 X42.546 Y130.792 E34.45928
G1 X42.479 Y129.994 E34.51729
G1 X42.438 Y129.333 E34.56526
G1 X42.432 Y129.182 E34.57621
G0 F1620 X42.41 Y128.566
G0 X42.403 Y127.819
G0 F6000 X43.063 Y127.828
G1 F1800 X43.075 Y127.082 E34.63026
G1 X43.107 Y126.352 E34.68319
G1 X43.159 Y125.585 E34.73888
G1 X43.231 Y124.849 E34.79245
G1 X43.318 Y124.14 E34.8442
G1 X43.425 Y123.413 E34.89743
G1 X43.559 Y122.652 E34.9534
G1 X43.705 Y121.935 E35.00641
G1 X43.964 Y120.843 E35.08771
G1 X44.242 Y119.851 E35.16234
G1 X44.448 Y119.188 E35.21263
G1 X44.737 Y118.351 E35.27678
G1 X45.006 Y117.639 E35.33191
G1 X45.388 Y116.702 E35.40522
G1 X45.796 Y115.813 E35.47607
G1 X46.324 Y114.757 E35.5616
G1 X46.499 Y114.429 E35.58853
G1 X46.946 Y113.644 E35.65397
G1 X47.3 Y113.058 E35.70356
G1 X47.696 Y112.438 E35.75686
G1 X48.113 Y111.819 E35.81092
G1 X48.55 Y111.21 E35.86522
G1 X48.989 Y110.631 E35.91786
G1 X49.456 Y110.045 E35.97214
G1 X49.771 Y109.669 E36.00767
G1 X50.301 Y109.098 E36.06411
G1 X50.887 Y108.585 E36.12053
G1 X51.523 Y108.134 E36.17701
G1 X52.201 Y107.751 E36.23342
G1 X52.915 Y107.44 E36.28983
G1 X53.657 Y107.203 E36.34626
G1 X54.419 Y107.044 E36.40265
G1 X55.194 Y106.963 E36.45909
G1 X55.589 Y106.953 E36.48772
G1 X64.412 Y106.953 E37.12686
