;FLAVOR:Marlin
;TIME:3689
;Filament used: 5.61627m
;Layer height: 0.32
;MINX:57.89
;MINY:126.401
;MINZ:0.24
;MAXX:142.366
;MAXY:170.695
;MAXZ:26.48
;Generated with Cura_SteamEngine 5.0.0
M140 S70
M105
M190 S70
M104 S245
M105
M109 S245
M82 ;absolute extrusion mode
; Ender 3 Max Custom Start G-code
G92 E0 ; Reset Extruder
G28 ; Home all axes
G1 Z2.0 F3000 ; Move Z Axis up little to prevent scratching of Heat Bed
G1 X0.1 Y20 Z0.3 F5000.0 ; Move to start position
G1 X0.1 Y200.0 Z0.3 F1500.0 E15 ; Draw the first line
G1 X0.4 Y200.0 Z0.3 F5000.0 ; Move to side a little
G1 X0.4 Y20 Z0.3 F1500.0 E30 ; Draw the second line
G92 E0 ; Reset Extruder
G1 Z2.0 F3000 ; Move Z Axis up little to prevent scratching of Heat Bed
G1 X5 Y20 Z0.3 F5000.0 ; Move over to prevent blob squish
G92 E0
G92 E0
G1 F2100 E-5
;LAYER_COUNT:82
;LAYER:0
M107
G1 F300 Z0.56
G0 F6000 X64.927 Y127.551 Z0.56
G1 F300 Z0.56
G0 F6000 X57.89 Y138.611
;TYPE:SKIRT
G1 F300 Z0.24
G1 F2100 E0
G1 F1800 X57.93 Y137.624 E0.07156
G1 X58.05 Y136.643 E0.14315
G1 X58.248 Y135.675 E0.21473
G1 X58.525 Y134.726 E0.28634
G1 X58.877 Y133.803 E0.3579
G1 X59.302 Y132.911 E0.42948
G1 X59.798 Y132.057 E0.50102
G1 X60.362 Y131.245 E0.57264
G1 X60.99 Y130.482 E0.64422
G1 X61.677 Y129.772 E0.71579
G1 X62.419 Y129.119 E0.78739
G1 X63.212 Y128.529 E0.85899
G1 X64.05 Y128.006 E0.93055
G1 X64.927 Y127.551 E1.00212
G1 X65.838 Y127.169 E1.07368
G1 X66.777 Y126.862 E1.14525
G1 X67.738 Y126.632 E1.21683
G1 X68.715 Y126.48 E1.28846
G1 X70.1 Y126.401 E1.38895
G1 X98.924 Y126.401 E3.47698
G1 X99.911 Y126.441 E3.54853
G1 X100.331 Y126.492 E3.57918
G1 X101.335 Y126.435 E3.65203
G1 X130.156 Y126.435 E5.73984
G1 X131.143 Y126.475 E5.8114
G1 X132.124 Y126.595 E5.88299
G1 X133.092 Y126.793 E5.95457
G1 X134.041 Y127.07 E6.02618
G1 X134.964 Y127.422 E6.09774
G1 X135.856 Y127.847 E6.16932
G1 X136.71 Y128.343 E6.24086
G1 X137.522 Y128.907 E6.31248
G1 X138.285 Y129.535 E6.38406
G1 X138.995 Y130.222 E6.45563
G1 X139.648 Y130.964 E6.52723
G1 X140.238 Y131.757 E6.59883
G1 X140.761 Y132.595 E6.67039
G1 X141.216 Y133.472 E6.74196
G1 X141.598 Y134.383 E6.81352
G1 X141.905 Y135.322 E6.88509
G1 X142.135 Y136.283 E6.95667
G1 X142.287 Y137.26 E7.0283
G1 X142.366 Y138.645 E7.12879
G1 X142.366 Y158.485 E8.56601
G1 X142.326 Y159.472 E8.63757
G1 X142.206 Y160.453 E8.70916
G1 X142.008 Y161.421 E8.78074
G1 X141.731 Y162.37 E8.85235
G1 X141.379 Y163.293 E8.92391
G1 X140.954 Y164.185 E8.99549
G1 X140.458 Y165.039 E9.06703
G1 X139.894 Y165.851 E9.13865
G1 X139.266 Y166.614 E9.21023
G1 X138.579 Y167.324 E9.2818
G1 X137.837 Y167.977 E9.3534
G1 X137.044 Y168.567 E9.42501
G1 X136.206 Y169.09 E9.49656
G1 X135.329 Y169.545 E9.56813
G1 X134.418 Y169.927 E9.6397
G1 X133.479 Y170.234 E9.71126
G1 X132.518 Y170.464 E9.78284
G1 X131.541 Y170.616 E9.85447
G1 X130.156 Y170.695 E9.95496
G1 X101.332 Y170.695 E12.04299
G1 X100.345 Y170.655 E12.11455
G1 X99.925 Y170.604 E12.14519
G1 X98.921 Y170.661 E12.21804
G1 X70.1 Y170.661 E14.30585
G1 X69.113 Y170.621 E14.37741
G1 X68.132 Y170.501 E14.449
G1 X67.164 Y170.303 E14.52058
G1 X66.215 Y170.026 E14.59219
G1 X65.292 Y169.674 E14.66375
G1 X64.4 Y169.249 E14.73533
G1 X63.546 Y168.753 E14.80687
G1 X62.734 Y168.189 E14.87849
G1 X61.971 Y167.561 E14.95007
G1 X61.261 Y166.874 E15.02164
G1 X60.608 Y166.132 E15.09324
G1 X60.018 Y165.339 E15.16485
G1 X59.495 Y164.501 E15.2364
G1 X59.04 Y163.624 E15.30798
G1 X58.658 Y162.713 E15.37954
G1 X58.351 Y161.774 E15.4511
G1 X58.121 Y160.813 E15.52268
G1 X57.969 Y159.836 E15.59431
G1 X57.89 Y158.451 E15.6948
G1 X57.89 Y139.974 E17.03329
G0 F1620 X57.89 Y138.611
G0 F6000 X58.55 Y138.611
G1 F1800 X58.59 Y137.651 E17.10289
G1 X58.71 Y136.697 E17.17254
G1 X58.908 Y135.757 E17.24213
G1 X59.184 Y134.836 E17.31178
G1 X59.536 Y133.942 E17.38138
G1 X59.961 Y133.08 E17.451
G1 X60.455 Y132.256 E17.5206
G1 X61.017 Y131.476 E17.59024
G1 X61.642 Y130.746 E17.65986
G1 X62.325 Y130.07 E17.72947
G1 X63.062 Y129.453 E17.7991
G1 X63.848 Y128.9 E17.86872
G1 X64.677 Y128.414 E17.93833
G1 X65.543 Y127.998 E18.00792
G1 X66.441 Y127.656 E18.07753
G1 X67.365 Y127.39 E18.14719
G1 X68.307 Y127.201 E18.21679
G1 X69.262 Y127.091 E18.28642
G1 X70.1 Y127.061 E18.34717
G1 X98.924 Y127.061 E20.4352
G1 X99.884 Y127.101 E20.5048
G1 X100.278 Y127.151 E20.53357
G1 X100.499 Y127.125 E20.54969
G1 X101.335 Y127.095 E20.61029
G1 X130.156 Y127.095 E22.6981
G1 X131.116 Y127.135 E22.7677
G1 X132.07 Y127.255 E22.83735
G1 X133.01 Y127.453 E22.90694
G1 X133.931 Y127.729 E22.97659
G1 X134.825 Y128.081 E23.04619
G1 X135.687 Y128.506 E23.11581
G1 X136.511 Y129 E23.18541
G1 X137.291 Y129.562 E23.25505
G1 X138.021 Y130.187 E23.32467
G1 X138.697 Y130.87 E23.39428
G1 X139.314 Y131.607 E23.46391
G1 X139.867 Y132.393 E23.53353
G1 X140.353 Y133.222 E23.60314
G1 X140.769 Y134.088 E23.67274
G1 X141.111 Y134.986 E23.74235
G1 X141.377 Y135.91 E23.812
G1 X141.566 Y136.852 E23.8816
G1 X141.676 Y137.807 E23.95124
G1 X141.706 Y138.645 E24.01198
G1 X141.706 Y158.485 E25.4492
G1 X141.666 Y159.445 E25.5188
G1 X141.546 Y160.399 E25.58846
G1 X141.348 Y161.339 E25.65805
G1 X141.072 Y162.26 E25.7277
G1 X140.72 Y163.154 E25.7973
G1 X140.295 Y164.016 E25.86692
G1 X139.801 Y164.84 E25.93651
G1 X139.239 Y165.62 E26.00616
G1 X138.614 Y166.35 E26.07577
G1 X137.931 Y167.026 E26.14538
G1 X137.194 Y167.643 E26.21501
G1 X136.408 Y168.196 E26.28463
G1 X135.579 Y168.682 E26.35424
G1 X134.713 Y169.098 E26.42384
G1 X133.815 Y169.44 E26.49345
G1 X132.891 Y169.706 E26.5631
G1 X131.949 Y169.895 E26.6327
G1 X130.994 Y170.005 E26.70234
G1 X130.156 Y170.035 E26.76308
G1 X101.332 Y170.035 E28.85111
G1 X100.372 Y169.995 E28.92071
G1 X99.978 Y169.945 E28.94949
G1 X99.757 Y169.971 E28.96561
G1 X98.921 Y170.001 E29.0262
G1 X70.1 Y170.001 E31.11401
G1 X69.14 Y169.961 E31.18362
G1 X68.186 Y169.841 E31.25327
G1 X67.246 Y169.643 E31.32286
G1 X66.325 Y169.367 E31.39251
G1 X65.431 Y169.015 E31.46211
G1 X64.569 Y168.59 E31.53173
G1 X63.745 Y168.096 E31.60133
G1 X62.965 Y167.534 E31.67097
G1 X62.235 Y166.909 E31.74058
G1 X61.559 Y166.226 E31.8102
G1 X60.942 Y165.489 E31.87983
G1 X60.389 Y164.703 E31.94944
G1 X59.903 Y163.874 E32.01906
G1 X59.487 Y163.008 E32.08865
G1 X59.145 Y162.11 E32.15826
G1 X58.879 Y161.186 E32.22792
G1 X58.69 Y160.244 E32.29751
G1 X58.58 Y159.289 E32.36715
G1 X58.55 Y158.451 E32.4279
G1 X58.55 Y139.974 E33.76638
G0 F1620 X58.55 Y138.611
G0 F6000 X59.21 Y138.611
G1 F1800 X59.25 Y137.679 E33.83396
G1 X59.37 Y136.753 E33.9016
G1 X59.568 Y135.841 E33.9692
G1 X59.844 Y134.95 E34.03677
G1 X60.195 Y134.085 E34.1044
G1 X60.619 Y133.254 E34.17198
G1 X61.112 Y132.462 E34.23956
G1 X61.672 Y131.715 E34.30719
G1 X62.293 Y131.019 E34.37476
G1 X62.972 Y130.378 E34.4424
G1 X63.703 Y129.798 E34.51
G1 X64.481 Y129.283 E34.57759
G1 X65.3 Y128.836 E34.64518
G1 X66.154 Y128.461 E34.71274
G1 X67.038 Y128.16 E34.78039
G1 X67.944 Y127.937 E34.84798
G1 X68.865 Y127.791 E34.91553
G1 X70.1 Y127.721 E35.00514
G1 X98.924 Y127.721 E37.09317
G1 X99.856 Y127.761 E37.16074
G1 X100.274 Y127.815 E37.19128
G1 X101.335 Y127.755 E37.26826
G1 X130.156 Y127.755 E39.35607
G1 X131.088 Y127.795 E39.42364
G1 X132.014 Y127.915 E39.49129
G1 X132.926 Y128.113 E39.55889
G1 X133.817 Y128.389 E39.62646
G1 X134.682 Y128.74 E39.69408
G1 X135.513 Y129.164 E39.76167
G1 X136.305 Y129.657 E39.82925
G1 X137.052 Y130.217 E39.89688
G1 X137.748 Y130.838 E39.96445
G1 X138.389 Y131.517 E40.03209
G1 X138.969 Y132.248 E40.09969
G1 X139.484 Y133.026 E40.16727
G1 X139.931 Y133.845 E40.23486
G1 X140.306 Y134.699 E40.30243
G1 X140.607 Y135.583 E40.37008
G1 X140.83 Y136.489 E40.43767
G1 X140.976 Y137.41 E40.50522
G1 X141.046 Y138.645 E40.59483
G1 X141.046 Y158.485 E42.03205
G1 X141.006 Y159.417 E42.09962
G1 X140.886 Y160.343 E42.16727
G1 X140.688 Y161.255 E42.23487
G1 X140.412 Y162.146 E42.30244
G1 X140.061 Y163.011 E42.37006
G1 X139.637 Y163.842 E42.43765
G1 X139.144 Y164.634 E42.50523
G1 X138.584 Y165.381 E42.57286
G1 X137.963 Y166.077 E42.64043
G1 X137.284 Y166.718 E42.70807
G1 X136.553 Y167.298 E42.77567
G1 X135.775 Y167.813 E42.84325
G1 X134.956 Y168.26 E42.91084
G1 X134.102 Y168.635 E42.97841
G1 X133.218 Y168.936 E43.04606
G1 X132.312 Y169.159 E43.11365
G1 X131.391 Y169.305 E43.1812
G1 X130.156 Y169.375 E43.27081
G1 X101.332 Y169.375 E45.35883
G1 X100.4 Y169.335 E45.42641
G1 X99.982 Y169.281 E45.45694
G1 X98.921 Y169.341 E45.53392
G1 X70.1 Y169.341 E47.62173
G1 X69.168 Y169.301 E47.68931
G1 X68.242 Y169.181 E47.75695
G1 X67.33 Y168.983 E47.82456
G1 X66.439 Y168.707 E47.89213
G1 X65.574 Y168.356 E47.95975
G1 X64.743 Y167.932 E48.02733
G1 X63.951 Y167.439 E48.09491
G1 X63.204 Y166.879 E48.16254
G1 X62.508 Y166.258 E48.23011
G1 X61.867 Y165.579 E48.29776
G1 X61.287 Y164.848 E48.36535
G1 X60.772 Y164.07 E48.43294
G1 X60.325 Y163.251 E48.50053
G1 X59.95 Y162.397 E48.5681
G1 X59.649 Y161.513 E48.63575
G1 X59.426 Y160.607 E48.70334
G1 X59.28 Y159.686 E48.77089
G1 X59.21 Y158.451 E48.86049
G1 X59.21 Y139.974 E50.19898
G0 F1620 X59.21 Y138.611
G0 F6000 X59.87 Y138.611
G1 F1800 X59.91 Y137.707 E50.26453
G1 X60.03 Y136.811 E50.33001
G1 X60.228 Y135.929 E50.3955
G1 X60.503 Y135.067 E50.46104
G1 X60.854 Y134.233 E50.52659
G1 X61.277 Y133.434 E50.59208
G1 X61.769 Y132.675 E50.6576
G1 X62.325 Y131.962 E50.7231
G1 X62.943 Y131.301 E50.78865
G1 X63.617 Y130.698 E50.85417
G1 X64.341 Y130.156 E50.91968
G1 X65.11 Y129.68 E50.9852
G1 X65.918 Y129.275 E51.05067
G1 X66.759 Y128.942 E51.11619
G1 X67.626 Y128.685 E51.1817
G1 X68.513 Y128.505 E51.24727
G1 X69.412 Y128.404 E51.3128
G1 X70.1 Y128.381 E51.36267
G1 X98.924 Y128.381 E53.45069
G1 X99.828 Y128.421 E53.51624
G1 X100.271 Y128.48 E53.54862
G1 X100.648 Y128.438 E53.5761
G1 X101.335 Y128.415 E53.62589
G1 X130.156 Y128.415 E55.7137
G1 X131.06 Y128.455 E55.77925
G1 X131.956 Y128.575 E55.84474
G1 X132.838 Y128.773 E55.91022
G1 X133.7 Y129.048 E55.97577
G1 X134.534 Y129.399 E56.04131
G1 X135.333 Y129.822 E56.10681
G1 X136.092 Y130.314 E56.17233
G1 X136.805 Y130.87 E56.23783
G1 X137.466 Y131.488 E56.30338
G1 X138.069 Y132.162 E56.36889
G1 X138.611 Y132.886 E56.43441
G1 X139.087 Y133.655 E56.49992
G1 X139.492 Y134.463 E56.56539
G1 X139.825 Y135.304 E56.63092
G1 X140.082 Y136.171 E56.69643
G1 X140.262 Y137.058 E56.76199
G1 X140.363 Y137.957 E56.82752
G1 X140.386 Y138.645 E56.87739
G1 X140.386 Y158.485 E58.31461
G1 X140.346 Y159.389 E58.38016
G1 X140.226 Y160.285 E58.44565
G1 X140.028 Y161.167 E58.51113
G1 X139.753 Y162.029 E58.57668
G1 X139.402 Y162.863 E58.64222
G1 X138.979 Y163.662 E58.70772
G1 X138.487 Y164.421 E58.77324
G1 X137.931 Y165.134 E58.83874
G1 X137.313 Y165.795 E58.90429
G1 X136.639 Y166.398 E58.9698
G1 X135.915 Y166.94 E59.03532
G1 X135.146 Y167.416 E59.10083
G1 X134.338 Y167.821 E59.16631
G1 X133.497 Y168.154 E59.23183
G1 X132.63 Y168.411 E59.29734
G1 X131.743 Y168.591 E59.3629
G1 X130.844 Y168.692 E59.42844
G1 X130.156 Y168.715 E59.4783
G1 X101.332 Y168.715 E61.56633
G1 X100.428 Y168.675 E61.63188
G1 X99.985 Y168.616 E61.66425
G1 X99.608 Y168.658 E61.69173
G1 X98.921 Y168.681 E61.74153
G1 X70.1 Y168.681 E63.82934
G1 X69.196 Y168.641 E63.89489
G1 X68.3 Y168.521 E63.96037
G1 X67.418 Y168.323 E64.02586
G1 X66.556 Y168.048 E64.0914
G1 X65.722 Y167.697 E64.15695
G1 X64.923 Y167.274 E64.22244
G1 X64.164 Y166.782 E64.28796
G1 X63.451 Y166.226 E64.35346
G1 X62.79 Y165.608 E64.41901
G1 X62.187 Y164.934 E64.48453
G1 X61.645 Y164.21 E64.55004
G1 X61.169 Y163.441 E64.61556
G1 X60.764 Y162.633 E64.68103
G1 X60.431 Y161.792 E64.74655
G1 X60.174 Y160.925 E64.81206
G1 X59.994 Y160.038 E64.87763
G1 X59.893 Y159.139 E64.94316
G1 X59.87 Y158.451 E64.99303
G1 X59.87 Y139.974 E66.33151
G0 F1620 X59.87 Y138.611
G0 F6000 X60.53 Y138.611
G1 F1800 X60.57 Y137.737 E66.39489
G1 X60.69 Y136.871 E66.45822
G1 X60.888 Y136.019 E66.52159
G1 X61.163 Y135.188 E66.585
G1 X61.513 Y134.387 E66.64832
G1 X61.934 Y133.62 E66.7117
G1 X62.424 Y132.895 E66.77509
G1 X62.978 Y132.218 E66.83846
G1 X63.592 Y131.595 E66.90182
G1 X64.26 Y131.03 E66.9652
G1 X64.976 Y130.528 E67.02855
G1 X65.736 Y130.094 E67.09195
G1 X66.532 Y129.731 E67.15532
G1 X67.357 Y129.442 E67.21865
G1 X68.206 Y129.23 E67.28204
G1 X69.07 Y129.097 E67.34536
G1 X70.1 Y129.041 E67.42009
G1 X98.924 Y129.041 E69.50811
G1 X99.798 Y129.081 E69.57149
G1 X100.234 Y129.141 E69.60338
G1 X100.307 Y129.13 E69.60872
G1 X101.335 Y129.075 E69.6833
G1 X130.156 Y129.075 E71.77111
G1 X131.03 Y129.115 E71.83449
G1 X131.896 Y129.235 E71.89782
G1 X132.748 Y129.433 E71.96119
G1 X133.579 Y129.708 E72.02459
G1 X134.38 Y130.058 E72.08792
G1 X135.147 Y130.479 E72.1513
G1 X135.872 Y130.969 E72.21469
G1 X136.549 Y131.523 E72.27806
G1 X137.172 Y132.137 E72.34142
G1 X137.737 Y132.805 E72.4048
G1 X138.239 Y133.521 E72.46815
G1 X138.673 Y134.281 E72.53154
G1 X139.036 Y135.077 E72.59492
G1 X139.325 Y135.902 E72.65824
G1 X139.537 Y136.751 E72.72164
G1 X139.67 Y137.615 E72.78496
G1 X139.726 Y138.645 E72.85969
G1 X139.726 Y158.485 E74.29691
G1 X139.686 Y159.359 E74.36029
G1 X139.566 Y160.225 E74.42362
G1 X139.368 Y161.077 E74.48698
G1 X139.093 Y161.908 E74.55039
G1 X138.743 Y162.709 E74.61371
G1 X138.322 Y163.476 E74.6771
G1 X137.832 Y164.201 E74.74048
G1 X137.278 Y164.878 E74.80385
G1 X136.664 Y165.501 E74.86722
G1 X135.996 Y166.066 E74.9306
G1 X135.28 Y166.568 E74.99394
G1 X134.52 Y167.002 E75.05734
G1 X133.724 Y167.365 E75.12072
G1 X132.899 Y167.654 E75.18404
G1 X132.05 Y167.866 E75.24743
G1 X131.186 Y167.999 E75.31076
G1 X130.156 Y168.055 E75.38548
G1 X101.332 Y168.055 E77.47351
G1 X100.458 Y168.015 E77.53689
G1 X100.022 Y167.955 E77.56877
G1 X99.949 Y167.966 E77.57412
G1 X98.921 Y168.021 E77.64869
G1 X70.1 Y168.021 E79.7365
G1 X69.226 Y167.981 E79.79988
G1 X68.36 Y167.861 E79.86322
G1 X67.508 Y167.663 E79.92658
G1 X66.677 Y167.388 E79.98999
G1 X65.876 Y167.038 E80.05331
G1 X65.109 Y166.617 E80.11669
G1 X64.384 Y166.127 E80.18008
G1 X63.707 Y165.573 E80.24345
G1 X63.084 Y164.959 E80.30682
G1 X62.519 Y164.291 E80.3702
G1 X62.017 Y163.575 E80.43354
G1 X61.583 Y162.815 E80.49694
G1 X61.22 Y162.019 E80.56032
G1 X60.931 Y161.194 E80.62364
G1 X60.719 Y160.345 E80.68703
G1 X60.586 Y159.481 E80.75036
G1 X60.53 Y158.451 E80.82508
G1 X60.53 Y139.974 E82.16356
G0 F1620 X60.53 Y138.611
G0 F6000 X61.19 Y138.611
G1 F1800 X61.23 Y137.768 E82.2247
G1 X61.35 Y136.932 E82.28588
G1 X61.548 Y136.112 E82.34699
G1 X61.822 Y135.314 E82.40811
G1 X62.172 Y134.545 E82.46932
G1 X62.592 Y133.813 E82.53045
G1 X63.08 Y133.125 E82.59155
G1 X63.63 Y132.485 E82.65268
G1 X64.239 Y131.9 E82.71386
G1 X64.9 Y131.376 E82.77496
G1 X65.608 Y130.916 E82.83612
G1 X66.356 Y130.526 E82.89723
G1 X67.138 Y130.208 E82.95838
G1 X67.947 Y129.965 E83.01958
G1 X68.774 Y129.8 E83.08066
G1 X69.614 Y129.714 E83.14183
G1 X70.1 Y129.701 E83.17705
G1 X98.924 Y129.701 E85.26508
G1 X99.767 Y129.741 E85.32621
G1 X100.247 Y129.81 E85.36134
G1 X100.85 Y129.748 E85.40526
G1 X101.335 Y129.735 E85.4404
G1 X130.156 Y129.735 E87.52821
G1 X130.999 Y129.775 E87.58935
G1 X131.835 Y129.895 E87.65053
G1 X132.655 Y130.093 E87.71164
G1 X133.453 Y130.367 E87.77276
G1 X134.222 Y130.717 E87.83396
G1 X134.954 Y131.137 E87.8951
G1 X135.642 Y131.625 E87.9562
G1 X136.282 Y132.175 E88.01733
G1 X136.867 Y132.784 E88.0785
G1 X137.391 Y133.445 E88.13961
G1 X137.851 Y134.153 E88.20077
G1 X138.241 Y134.901 E88.26188
G1 X138.559 Y135.683 E88.32303
G1 X138.802 Y136.492 E88.38422
G1 X138.967 Y137.319 E88.44531
G1 X139.053 Y138.159 E88.50648
G1 X139.066 Y138.645 E88.5417
G1 X139.066 Y158.485 E89.97892
G1 X139.026 Y159.328 E90.04006
G1 X138.906 Y160.164 E90.10124
G1 X138.708 Y160.984 E90.16235
G1 X138.434 Y161.782 E90.22347
G1 X138.084 Y162.551 E90.28467
G1 X137.664 Y163.283 E90.34581
G1 X137.176 Y163.971 E90.40691
G1 X136.626 Y164.611 E90.46804
G1 X136.017 Y165.196 E90.52921
G1 X135.356 Y165.72 E90.59032
G1 X134.648 Y166.18 E90.65148
G1 X133.9 Y166.57 E90.71259
G1 X133.118 Y166.888 E90.77374
G1 X132.309 Y167.131 E90.83493
G1 X131.482 Y167.296 E90.89602
G1 X130.642 Y167.382 E90.95719
G1 X130.156 Y167.395 E90.99241
G1 X101.332 Y167.395 E93.08043
G1 X100.489 Y167.355 E93.14157
G1 X100.009 Y167.286 E93.1767
G1 X99.406 Y167.348 E93.22061
