;FLAVOR:Marlin
;TIME:8103
;Filament used: 13.4194m
;Layer height: 0.32
;MINX:56.655
;MINY:111.892
;MINZ:0.24
;MAXX:142.426
;MAXY:184.744
;MAXZ:49.84
;Generated with Cura_SteamEngine 5.0.0
M140 S70
M105
M190 S70
M104 S245
M105
M109 S245
M82 ;absolute extrusion mode
; Ender 3 Max Custom Start G-code
G92 E0 ; Reset Extruder
G28 ; Home all axes
G1 Z2.0 F3000 ; Move Z Axis up little to prevent scratching of Heat Bed
G1 X0.1 Y20 Z0.3 F5000.0 ; Move to start position
G1 X0.1 Y200.0 Z0.3 F1500.0 E15 ; Draw the first line
G1 X0.4 Y200.0 Z0.3 F5000.0 ; Move to side a little
G1 X0.4 Y20 Z0.3 F1500.0 E30 ; Draw the second line
G92 E0 ; Reset Extruder
G1 Z2.0 F3000 ; Move Z Axis up little to prevent scratching of Heat Bed
G1 X5 Y20 Z0.3 F5000.0 ; Move over to prevent blob squish
G92 E0
G92 E0
G1 F2100 E-5
;LAYER_COUNT:155
;LAYER:0
M107
G1 F300 Z0.56
G0 F6000 X71.099 Y127.588 Z0.56
G1 F300 Z0.56
G0 F6000 X64.939 Y138.193
;TYPE:SKIRT
G1 F300 Z0.24
G1 F2100 E0
G1 F1800 X64.979 Y137.206 E0.07156
G1 X65.099 Y136.225 E0.14315
G1 X65.297 Y135.257 E0.21473
G1 X65.574 Y134.308 E0.28634
G1 X65.926 Y133.385 E0.3579
G1 X66.351 Y132.493 E0.42948
G1 X66.847 Y131.639 E0.50102
G1 X67.411 Y130.827 E0.57264
G1 X68.039 Y130.064 E0.64422
G1 X68.726 Y129.354 E0.71579
G1 X69.468 Y128.701 E0.78739
G1 X70.261 Y128.111 E0.85899
G1 X71.099 Y127.588 E0.93055
G1 X71.976 Y127.133 E1.00212
G1 X72.887 Y126.751 E1.07368
G1 X73.826 Y126.444 E1.14525
G1 X74.787 Y126.214 E1.21683
G1 X75.764 Y126.062 E1.28846
G1 X77.149 Y125.983 E1.38895
G1 X82.174 Y125.983 E1.75296
G1 X82.831 Y125.929 E1.80072
G1 X83.578 Y125.906 E1.85486
G1 X93.139 Y125.906 E2.54746
G1 X93.139 Y124.103 E2.67807
G1 X93.179 Y123.116 E2.74963
G1 X93.299 Y122.135 E2.82122
G1 X93.497 Y121.167 E2.8928
G1 X93.774 Y120.218 E2.96441
G1 X94.126 Y119.295 E3.03597
G1 X94.551 Y118.403 E3.10755
G1 X95.047 Y117.549 E3.17909
G1 X95.611 Y116.737 E3.25071
G1 X96.239 Y115.974 E3.32229
G1 X96.926 Y115.264 E3.39386
G1 X97.668 Y114.611 E3.46546
G1 X98.461 Y114.021 E3.53707
G1 X99.299 Y113.498 E3.60862
G1 X100.176 Y113.043 E3.6802
G1 X101.087 Y112.661 E3.75176
G1 X102.026 Y112.354 E3.82332
G1 X102.987 Y112.124 E3.8949
G1 X103.964 Y111.972 E3.96653
G1 X105.342 Y111.893 E4.06651
G1 X107.182 Y111.892 E4.19981
G1 X108.17 Y111.931 E4.27143
G1 X109.151 Y112.051 E4.34303
G1 X110.119 Y112.249 E4.4146
G1 X111.068 Y112.524 E4.48617
G1 X111.991 Y112.876 E4.55773
G1 X112.883 Y113.301 E4.62931
G1 X113.738 Y113.797 E4.70092
G1 X114.55 Y114.36 E4.77249
G1 X115.313 Y114.987 E4.84403
G1 X116.024 Y115.674 E4.91565
G1 X116.676 Y116.416 E4.98721
G1 X117.267 Y117.208 E5.05879
G1 X117.791 Y118.046 E5.13039
G1 X118.246 Y118.923 E5.20196
G1 X118.629 Y119.834 E5.27355
G1 X118.936 Y120.773 E5.34511
G1 X119.167 Y121.734 E5.41671
G1 X119.319 Y122.71 E5.48827
G1 X119.399 Y124.102 E5.58927
G1 X119.399 Y142.533 E6.92442
G1 X119.359 Y143.52 E6.99598
G1 X119.239 Y144.501 E7.06757
G1 X119.041 Y145.469 E7.13915
G1 X118.764 Y146.418 E7.21076
G1 X118.412 Y147.341 E7.28232
G1 X117.987 Y148.233 E7.3539
G1 X117.491 Y149.087 E7.42544
G1 X116.927 Y149.899 E7.49706
G1 X116.508 Y150.408 E7.54482
G1 X116.951 Y150.956 E7.59587
G1 X117.116 Y151.173 E7.61561
G1 X117.682 Y151.983 E7.6872
G1 X118.083 Y152.656 E7.74395
G1 X118.259 Y152.983 E7.77085
G1 X122.594 Y152.983 E8.08488
G1 X123.581 Y153.023 E8.15643
G1 X124.562 Y153.143 E8.22803
G1 X125.53 Y153.341 E8.2996
G1 X126.479 Y153.618 E8.37122
G1 X127.402 Y153.97 E8.44278
G1 X128.294 Y154.395 E8.51435
G1 X129.148 Y154.891 E8.5859
G1 X129.96 Y155.455 E8.65751
G1 X130.723 Y156.083 E8.7291
G1 X131.433 Y156.77 E8.80067
G1 X132.086 Y157.512 E8.87227
G1 X132.676 Y158.305 E8.94387
G1 X133.199 Y159.143 E9.01543
G1 X133.654 Y160.02 E9.087
G1 X134.036 Y160.931 E9.15856
G1 X134.343 Y161.87 E9.23013
G1 X134.573 Y162.831 E9.30171
G1 X134.725 Y163.808 E9.37333
G1 X134.804 Y165.198 E9.47419
G1 X134.801 Y172.159 E9.97845
G1 X134.761 Y173.147 E10.05008
G1 X134.64 Y174.127 E10.12161
G1 X134.441 Y175.095 E10.1932
G1 X134.165 Y176.044 E10.26479
G1 X133.812 Y176.967 E10.33638
G1 X133.386 Y177.859 E10.40799
G1 X132.935 Y178.646 E10.47369
G1 X132.394 Y179.472 E10.54522
G1 X131.787 Y180.252 E10.61682
G1 X131.119 Y180.981 E10.68845
G1 X130.394 Y181.652 E10.76001
G1 X129.618 Y182.264 E10.8316
G1 X128.795 Y182.81 E10.90314
G1 X127.992 Y183.256 E10.96968
G1 X127.746 Y183.381 E10.98967
G1 X126.848 Y183.793 E11.06125
G1 X125.919 Y184.131 E11.13286
G1 X124.966 Y184.392 E11.20444
G1 X123.995 Y184.576 E11.27603
G1 X123.279 Y184.66 E11.32825
G1 X122.856 Y184.697 E11.35901
G1 X121.793 Y184.743 E11.43609
G1 X103.959 Y184.744 E12.72799
G1 X102.971 Y184.704 E12.79962
G1 X101.991 Y184.584 E12.87114
G1 X101.023 Y184.386 E12.94272
G1 X100.074 Y184.11 E13.01431
G1 X99.15 Y183.758 E13.08594
G1 X98.257 Y183.331 E13.15764
G1 X97.752 Y183.593 E13.19886
G1 X96.841 Y183.975 E13.27042
G1 X95.902 Y184.282 E13.34198
G1 X94.941 Y184.512 E13.41356
G1 X93.964 Y184.664 E13.48519
G1 X92.579 Y184.743 E13.58568
G1 X76.891 Y184.743 E14.72213
G1 X75.904 Y184.703 E14.79369
G1 X74.923 Y184.583 E14.86528
G1 X73.955 Y184.385 E14.93686
G1 X73.006 Y184.108 E15.00847
G1 X72.083 Y183.756 E15.08003
G1 X71.191 Y183.331 E15.15161
G1 X70.609 Y183.003 E15.2
G1 X62.583 Y178.187 E15.87805
G1 X61.757 Y177.644 E15.94966
G1 X60.977 Y177.037 E16.02125
G1 X60.249 Y176.369 E16.09283
G1 X59.578 Y175.644 E16.16439
G1 X58.967 Y174.867 E16.23599
G1 X58.422 Y174.043 E16.30756
G1 X57.944 Y173.178 E16.37915
G1 X57.538 Y172.277 E16.45074
G1 X57.207 Y171.346 E16.52232
G1 X56.952 Y170.392 E16.59385
G1 X56.774 Y169.419 E16.66551
G1 X56.676 Y168.436 E16.73707
G1 X56.655 Y167.717 E16.78918
G1 X56.655 Y165.193 E16.97202
G1 X56.695 Y164.206 E17.04357
G1 X56.815 Y163.225 E17.11517
G1 X57.013 Y162.257 E17.18674
G1 X57.29 Y161.308 E17.25836
G1 X57.642 Y160.385 E17.32992
G1 X58.067 Y159.493 E17.40149
G1 X58.563 Y158.639 E17.47304
G1 X59.127 Y157.827 E17.54465
G1 X59.755 Y157.064 E17.61624
G1 X60.442 Y156.354 E17.68781
G1 X61.184 Y155.701 E17.75941
G1 X61.977 Y155.111 E17.83101
G1 X62.815 Y154.588 E17.90257
G1 X63.692 Y154.133 E17.97414
G1 X64.603 Y153.751 E18.0457
G1 X64.939 Y153.641 E18.07131
G1 X64.939 Y139.556 E19.09164
G0 F1620 X64.939 Y138.193
G0 F6000 X65.599 Y138.193
G1 F1800 X65.639 Y137.233 E19.16124
G1 X65.759 Y136.279 E19.23089
G1 X65.957 Y135.339 E19.30048
G1 X66.233 Y134.418 E19.37013
G1 X66.585 Y133.524 E19.43973
G1 X67.01 Y132.662 E19.50935
G1 X67.504 Y131.838 E19.57895
G1 X68.066 Y131.058 E19.64859
G1 X68.691 Y130.328 E19.71821
G1 X69.374 Y129.652 E19.78782
G1 X70.111 Y129.035 E19.85745
G1 X70.897 Y128.482 E19.92707
G1 X71.726 Y127.996 E19.99668
G1 X72.592 Y127.58 E20.06628
G1 X73.49 Y127.238 E20.13589
G1 X74.414 Y126.972 E20.20554
G1 X75.356 Y126.783 E20.27514
G1 X76.311 Y126.673 E20.34478
G1 X77.149 Y126.643 E20.40552
G1 X82.195 Y126.643 E20.77106
G1 X82.871 Y126.588 E20.82019
G1 X83.578 Y126.566 E20.87143
G1 X93.799 Y126.566 E21.61184
G1 X93.799 Y124.103 E21.79026
G1 X93.839 Y123.143 E21.85987
G1 X93.959 Y122.189 E21.92952
G1 X94.157 Y121.249 E21.99911
G1 X94.433 Y120.328 E22.06876
G1 X94.785 Y119.434 E22.13836
G1 X95.21 Y118.572 E22.20798
G1 X95.704 Y117.748 E22.27758
G1 X96.266 Y116.968 E22.34722
G1 X96.891 Y116.238 E22.41683
G1 X97.574 Y115.562 E22.48645
G1 X98.311 Y114.945 E22.55608
G1 X99.097 Y114.392 E22.62569
G1 X99.926 Y113.906 E22.69531
G1 X100.792 Y113.49 E22.7649
G1 X101.69 Y113.148 E22.83451
G1 X102.614 Y112.882 E22.90417
G1 X103.556 Y112.693 E22.97376
G1 X104.511 Y112.583 E23.0434
G1 X105.343 Y112.553 E23.10371
G1 X107.183 Y112.552 E23.237
G1 X108.143 Y112.591 E23.3066
G1 X109.097 Y112.711 E23.37626
G1 X110.037 Y112.909 E23.44584
G1 X110.958 Y113.184 E23.51547
G1 X111.852 Y113.535 E23.58505
G1 X112.715 Y113.96 E23.65473
G1 X113.539 Y114.454 E23.72433
G1 X114.319 Y115.015 E23.79393
G1 X115.05 Y115.639 E23.86355
G1 X115.726 Y116.322 E23.93317
G1 X116.343 Y117.059 E24.0028
G1 X116.897 Y117.844 E24.0724
G1 X117.384 Y118.673 E24.14205
G1 X117.8 Y119.539 E24.21164
G1 X118.142 Y120.437 E24.28125
G1 X118.409 Y121.361 E24.35092
G1 X118.598 Y122.303 E24.42052
G1 X118.708 Y123.258 E24.49016
G1 X118.739 Y124.102 E24.55134
G1 X118.739 Y142.533 E25.88649
G1 X118.699 Y143.493 E25.9561
G1 X118.579 Y144.447 E26.02575
G1 X118.381 Y145.387 E26.09534
G1 X118.105 Y146.308 E26.16499
G1 X117.753 Y147.202 E26.23459
G1 X117.328 Y148.064 E26.30421
G1 X116.834 Y148.888 E26.37381
G1 X116.272 Y149.668 E26.44345
G1 X115.623 Y150.422 E26.51552
G1 X116.05 Y150.886 E26.5612
G1 X116.591 Y151.572 E26.62448
G1 X117.14 Y152.361 E26.69411
G1 X117.506 Y152.976 E26.74596
G1 X117.637 Y153.213 E26.76557
G1 X117.852 Y153.643 E26.8004
G1 X122.594 Y153.643 E27.14391
G1 X123.554 Y153.683 E27.21352
G1 X124.508 Y153.803 E27.28317
G1 X125.448 Y154.001 E27.35276
G1 X126.369 Y154.277 E27.42241
G1 X127.263 Y154.629 E27.49201
G1 X128.125 Y155.054 E27.56163
G1 X128.949 Y155.548 E27.63123
G1 X129.729 Y156.11 E27.70087
G1 X130.459 Y156.735 E27.77048
G1 X131.135 Y157.418 E27.8401
G1 X131.752 Y158.155 E27.90973
G1 X132.305 Y158.941 E27.97934
G1 X132.791 Y159.77 E28.04896
G1 X133.207 Y160.636 E28.11855
G1 X133.549 Y161.534 E28.18816
G1 X133.815 Y162.458 E28.25782
G1 X134.004 Y163.4 E28.32741
G1 X134.114 Y164.355 E28.39705
G1 X134.144 Y165.198 E28.45816
G1 X134.141 Y172.159 E28.96242
G1 X134.101 Y173.119 E29.03202
G1 X133.981 Y174.073 E29.10167
G1 X133.782 Y175.013 E29.17128
G1 X133.505 Y175.933 E29.24088
G1 X133.153 Y176.828 E29.31055
G1 X132.499 Y178.09 E29.41351
G1 X132.369 Y178.307 E29.43184
G1 X131.841 Y179.11 E29.50146
G1 X131.249 Y179.866 E29.57101
G1 X130.595 Y180.571 E29.64067
G1 X129.885 Y181.219 E29.71031
G1 X129.124 Y181.805 E29.77989
G1 X128.317 Y182.327 E29.84951
G1 X127.693 Y182.668 E29.90102
G1 X127.447 Y182.793 E29.92101
G1 X126.573 Y183.192 E29.99061
G1 X125.669 Y183.518 E30.06022
G1 X124.74 Y183.767 E30.1299
G1 X123.795 Y183.937 E30.19945
G1 X123.221 Y184.002 E30.2413
G1 X122.798 Y184.039 E30.27206
G1 X121.793 Y184.083 E30.34493
G1 X103.959 Y184.084 E31.63683
G1 X102.998 Y184.044 E31.70651
G1 X102.045 Y183.924 E31.77609
G1 X101.105 Y183.726 E31.84568
G1 X100.184 Y183.45 E31.91533
G1 X99.29 Y183.098 E31.98493
G1 X98.427 Y182.674 E32.05458
G1 X98.264 Y182.576 E32.06836
G1 X98.002 Y182.73 E32.09038
G1 X97.136 Y183.146 E32.15997
G1 X96.238 Y183.488 E32.22958
G1 X95.314 Y183.754 E32.29924
G1 X94.372 Y183.943 E32.36884
G1 X93.417 Y184.053 E32.43847
G1 X92.579 Y184.083 E32.49922
G1 X76.891 Y184.083 E33.63567
G1 X75.931 Y184.043 E33.70527
G1 X74.977 Y183.923 E33.77492
G1 X74.037 Y183.725 E33.84451
G1 X73.116 Y183.449 E33.91416
G1 X72.222 Y183.097 E33.98376
G1 X70.948 Y182.437 E34.0877
G1 X62.922 Y177.621 E34.76575
G1 X62.119 Y177.092 E34.8354
G1 X61.363 Y176.499 E34.90501
G1 X60.659 Y175.845 E34.97461
G1 X60.012 Y175.135 E35.0442
G1 X59.426 Y174.373 E35.11383
G1 X58.905 Y173.565 E35.18348
G1 X58.453 Y172.717 E35.25309
G1 X58.074 Y171.834 E35.3227
G1 X57.769 Y170.923 E35.39229
G1 X57.541 Y169.989 E35.46194
G1 X57.391 Y169.04 E35.53154
G1 X57.315 Y167.717 E35.62754
G1 X57.315 Y165.193 E35.81038
G1 X57.355 Y164.233 E35.87998
G1 X57.475 Y163.279 E35.94963
G1 X57.673 Y162.339 E36.01922
G1 X57.949 Y161.418 E36.08887
G1 X58.301 Y160.524 E36.15847
G1 X58.726 Y159.662 E36.22809
G1 X59.22 Y158.838 E36.29769
G1 X59.782 Y158.058 E36.36733
G1 X60.407 Y157.328 E36.43695
G1 X61.09 Y156.652 E36.50656
G1 X61.827 Y156.035 E36.57619
G1 X62.613 Y155.482 E36.64581
G1 X63.442 Y154.996 E36.71542
G1 X64.308 Y154.58 E36.78501
G1 X65.206 Y154.238 E36.85462
G1 X65.599 Y154.125 E36.88425
G1 X65.599 Y139.556 E37.93963
G0 F1620 X65.599 Y138.193
G0 F6000 X66.259 Y138.193
G1 F1800 X66.299 Y137.261 E38.00721
G1 X66.419 Y136.335 E38.07485
G1 X66.617 Y135.423 E38.14245
G1 X66.893 Y134.532 E38.21003
G1 X67.244 Y133.667 E38.27765
G1 X67.668 Y132.836 E38.34523
G1 X68.161 Y132.044 E38.41281
G1 X68.721 Y131.297 E38.48044
G1 X69.342 Y130.601 E38.54801
G1 X70.021 Y129.96 E38.61565
G1 X70.752 Y129.38 E38.68325
G1 X71.53 Y128.865 E38.75084
G1 X72.349 Y128.418 E38.81843
G1 X73.203 Y128.043 E38.88599
G1 X74.087 Y127.742 E38.95364
G1 X74.993 Y127.519 E39.02123
G1 X75.914 Y127.373 E39.08878
G1 X77.149 Y127.303 E39.17839
G1 X82.212 Y127.303 E39.54516
G1 X82.912 Y127.246 E39.59603
G1 X83.578 Y127.226 E39.6443
G1 X94.459 Y127.227 E40.43253
G1 X94.459 Y124.103 E40.65883
G1 X94.499 Y123.171 E40.72641
G1 X94.619 Y122.245 E40.79405
G1 X94.817 Y121.333 E40.86165
G1 X95.093 Y120.442 E40.92922
G1 X95.444 Y119.577 E40.99685
G1 X95.868 Y118.746 E41.06443
G1 X96.361 Y117.954 E41.13201
G1 X96.921 Y117.207 E41.19964
G1 X97.542 Y116.511 E41.26721
G1 X98.221 Y115.87 E41.33485
G1 X98.952 Y115.29 E41.40245
G1 X99.73 Y114.775 E41.47004
G1 X100.549 Y114.328 E41.53763
G1 X101.403 Y113.953 E41.60519
G1 X102.287 Y113.652 E41.67284
G1 X103.193 Y113.429 E41.74043
G1 X104.114 Y113.283 E41.80798
G1 X105.343 Y113.213 E41.89716
G1 X107.183 Y113.212 E42.03045
G1 X108.115 Y113.251 E42.09802
G1 X109.041 Y113.371 E42.16566
G1 X109.953 Y113.569 E42.23327
G1 X110.845 Y113.844 E42.30088
G1 X111.709 Y114.194 E42.36841
G1 X112.541 Y114.618 E42.43606
G1 X113.333 Y115.111 E42.50364
G1 X114.08 Y115.67 E42.57123
G1 X114.777 Y116.291 E42.63885
G1 X115.418 Y116.969 E42.70644
G1 X115.998 Y117.7 E42.77404
G1 X116.514 Y118.477 E42.84161
G1 X116.961 Y119.296 E42.9092
G1 X117.337 Y120.151 E42.97686
G1 X117.638 Y121.034 E43.04444
G1 X117.862 Y121.94 E43.11204
G1 X118.008 Y122.861 E43.1796
G1 X118.079 Y124.102 E43.26964
G1 X118.079 Y142.533 E44.60479
G1 X118.039 Y143.465 E44.67237
G1 X117.919 Y144.391 E44.74001
G1 X117.721 Y145.303 E44.80762
G1 X117.445 Y146.194 E44.87519
G1 X117.094 Y147.059 E44.94281
G1 X116.67 Y147.89 E45.01039
G1 X116.177 Y148.682 E45.07797
G1 X115.617 Y149.429 E45.1456
G1 X114.996 Y150.125 E45.21317
G1 X114.694 Y150.411 E45.2433
G1 X114.932 Y150.646 E45.26753
G1 X115.563 Y151.333 E45.3351
G1 X116.066 Y151.972 E45.39401
G1 X116.598 Y152.738 E45.46157
G1 X116.928 Y153.295 E45.50847
G1 X117.059 Y153.532 E45.52809
G1 X117.443 Y154.303 E45.59049
G1 X122.594 Y154.303 E45.96363
G1 X123.526 Y154.343 E46.0312
G1 X124.452 Y154.463 E46.09884
G1 X125.364 Y154.661 E46.16645
G1 X126.255 Y154.937 E46.23402
G1 X127.12 Y155.288 E46.30164
G1 X127.951 Y155.712 E46.36922
G1 X128.743 Y156.205 E46.4368
G1 X129.49 Y156.765 E46.50444
G1 X130.186 Y157.386 E46.57201
G1 X130.827 Y158.065 E46.63965
G1 X131.407 Y158.796 E46.70725
G1 X131.922 Y159.574 E46.77483
G1 X132.369 Y160.393 E46.84242
G1 X132.744 Y161.247 E46.90999
G1 X133.045 Y162.131 E46.97764
G1 X133.268 Y163.037 E47.04523
G1 X133.414 Y163.958 E47.11278
G1 X133.484 Y165.198 E47.20275
G1 X133.481 Y172.159 E47.70701
G1 X133.441 Y173.091 E47.77458
G1 X133.321 Y174.016 E47.84215
G1 X133.122 Y174.928 E47.90977
G1 X132.846 Y175.82 E47.97741
G1 X132.494 Y176.684 E48.045
G1 X131.933 Y177.751 E48.13232
G1 X131.803 Y177.968 E48.15065
G1 X131.289 Y178.747 E48.21826
G1 X130.711 Y179.479 E48.28582
G1 X130.072 Y180.159 E48.35342
G1 X129.378 Y180.782 E48.42097
G1 X128.632 Y181.344 E48.48863
G1 X127.841 Y181.839 E48.55623
G1 X127.148 Y182.205 E48.613
G1 X126.299 Y182.591 E48.68056
G1 X125.42 Y182.904 E48.74815
G1 X124.517 Y183.14 E48.81577
G1 X123.164 Y183.345 E48.9149
G1 X122.741 Y183.382 E48.94566
G1 X121.793 Y183.423 E49.01439
G1 X103.959 Y183.424 E50.3063
G1 X103.026 Y183.384 E50.37395
G1 X102.101 Y183.264 E50.44152
G1 X101.189 Y183.066 E50.50912
G1 X100.297 Y182.79 E50.57676
G1 X99.433 Y182.439 E50.64432
G1 X98.601 Y182.016 E50.71193
G1 X98.273 Y181.811 E50.73995
G1 X98.198 Y181.861 E50.74648
G1 X97.379 Y182.308 E50.81407
G1 X96.525 Y182.683 E50.88164
G1 X95.641 Y182.984 E50.94928
G1 X94.735 Y183.207 E51.01687
G1 X93.814 Y183.353 E51.08442
G1 X92.579 Y183.423 E51.17403
G1 X76.891 Y183.423 E52.31048
G1 X75.959 Y183.383 E52.37806
G1 X75.033 Y183.263 E52.4457
G1 X74.121 Y183.065 E52.5133
G1 X73.23 Y182.789 E52.58087
G1 X72.365 Y182.438 E52.6485
G1 X71.288 Y181.871 E52.73667
G1 X63.262 Y177.055 E53.41471
G1 X62.483 Y176.541 E53.48232
G1 X61.751 Y175.962 E53.54993
G1 X61.071 Y175.323 E53.61753
G1 X60.449 Y174.628 E53.68509
G1 X59.888 Y173.882 E53.75271
