;FLAVOR:Marlin
;TIME:8344
;Filament used: 13.9555m
;Layer height: 0.32
;MINX:27.916
;MINY:117.959
;MINZ:0.24
;MAXX:113.688
;MAXY:194.719
;MAXZ:45.36
;Generated with Cura_SteamEngine 5.0.0
M140 S70
M105
M190 S70
M104 S245
M105
M109 S245
M82 ;absolute extrusion mode
; Ender 3 Max Custom Start G-code
G92 E0 ; Reset Extruder
G28 ; Home all axes
G1 Z2.0 F3000 ; Move Z Axis up little to prevent scratching of Heat Bed
G1 X0.1 Y20 Z0.3 F5000.0 ; Move to start position
G1 X0.1 Y200.0 Z0.3 F1500.0 E15 ; Draw the first line
G1 X0.4 Y200.0 Z0.3 F5000.0 ; Move to side a little
G1 X0.4 Y20 Z0.3 F1500.0 E30 ; Draw the second line
G92 E0 ; Reset Extruder
G1 Z2.0 F3000 ; Move Z Axis up little to prevent scratching of Heat Bed
G1 X5 Y20 Z0.3 F5000.0 ; Move over to prevent blob squish
G92 E0
G92 E0
G1 F2100 E-5
;LAYER_COUNT:141
;LAYER:0
M107
G1 F300 Z0.56
G0 F6000 X57.98 Y119.109 Z0.56
G1 F300 Z0.56
G0 F6000 X50.943 Y130.169
;TYPE:SKIRT
G1 F300 Z0.24
G1 F2100 E0
G1 F1800 X50.983 Y129.182 E0.07156
G1 X51.103 Y128.201 E0.14315
G1 X51.301 Y127.233 E0.21473
G1 X51.578 Y126.284 E0.28634
G1 X51.93 Y125.361 E0.3579
G1 X52.355 Y124.469 E0.42948
G1 X52.851 Y123.615 E0.50102
G1 X53.415 Y122.803 E0.57264
G1 X54.043 Y122.04 E0.64422
G1 X54.73 Y121.33 E0.71579
G1 X55.472 Y120.677 E0.78739
G1 X56.265 Y120.087 E0.85899
G1 X57.103 Y119.564 E0.93055
G1 X57.98 Y119.109 E1.00212
G1 X58.891 Y118.727 E1.07368
G1 X59.83 Y118.42 E1.14525
G1 X60.791 Y118.19 E1.21683
G1 X61.768 Y118.038 E1.28846
G1 X63.153 Y117.959 E1.38895
G1 X82.175 Y117.959 E2.76691
G1 X83.162 Y117.999 E2.83847
G1 X84.143 Y118.119 E2.91007
G1 X85.111 Y118.317 E2.98164
G1 X86.06 Y118.594 E3.05325
G1 X86.983 Y118.946 E3.12481
G1 X87.875 Y119.371 E3.19639
G1 X88.729 Y119.867 E3.26793
G1 X89.541 Y120.431 E3.33955
G1 X90.304 Y121.059 E3.41114
G1 X91.014 Y121.746 E3.48271
G1 X91.667 Y122.488 E3.55431
G1 X92.257 Y123.281 E3.62591
G1 X92.588 Y123.794 E3.67014
G1 X101.209 Y137.875 E4.86616
G1 X103.59 Y141.742 E5.19513
G1 X104.074 Y142.604 E5.26675
G1 X104.486 Y143.502 E5.33832
G1 X104.825 Y144.43 E5.40989
G1 X105.087 Y145.383 E5.48149
G1 X105.271 Y146.354 E5.55308
G1 X105.376 Y147.336 E5.62462
G1 X105.403 Y148.144 E5.68318
G1 X105.403 Y154.009 E6.10805
G1 X105.363 Y154.996 E6.17961
G1 X105.243 Y155.977 E6.2512
G1 X105.045 Y156.945 E6.32277
G1 X104.768 Y157.894 E6.39439
G1 X104.416 Y158.817 E6.46595
G1 X103.991 Y159.709 E6.53753
G1 X103.775 Y160.082 E6.56875
G1 X104.253 Y160.996 E6.64347
G1 X104.635 Y161.907 E6.71503
G1 X104.942 Y162.846 E6.78659
G1 X105.103 Y163.518 E6.83665
G1 X105.362 Y163.594 E6.8562
G1 X106.285 Y163.946 E6.92776
G1 X107.177 Y164.371 E6.99934
G1 X108.031 Y164.867 E7.07088
G1 X108.843 Y165.431 E7.1425
G1 X109.606 Y166.059 E7.21409
G1 X110.316 Y166.746 E7.28566
G1 X110.969 Y167.488 E7.35726
G1 X111.559 Y168.281 E7.42886
G1 X112.082 Y169.119 E7.50042
G1 X112.537 Y169.996 E7.57199
G1 X112.919 Y170.907 E7.64355
G1 X113.226 Y171.846 E7.71511
G1 X113.456 Y172.807 E7.78669
G1 X113.608 Y173.784 E7.85832
G1 X113.687 Y175.164 E7.95845
G1 X113.688 Y177.687 E8.14122
G1 X113.648 Y178.674 E8.21278
G1 X113.529 Y179.655 E8.28436
G1 X113.331 Y180.623 E8.35594
G1 X113.055 Y181.572 E8.42753
G1 X112.703 Y182.496 E8.49916
G1 X112.278 Y183.388 E8.57074
G1 X111.782 Y184.242 E8.64228
G1 X111.219 Y185.054 E8.71385
G1 X110.592 Y185.818 E8.78545
G1 X109.905 Y186.528 E8.85702
G1 X109.163 Y187.18 E8.92857
G1 X108.37 Y187.771 E9.00022
G1 X107.758 Y188.163 E9.05287
G1 X99.726 Y192.98 E9.73132
G1 X98.859 Y193.454 E9.8029
G1 X97.956 Y193.856 E9.87451
G1 X97.024 Y194.183 E9.94605
G1 X96.068 Y194.434 E10.01766
G1 X95.095 Y194.607 E10.08925
G1 X94.111 Y194.701 E10.16085
G1 X93.446 Y194.719 E10.20904
G1 X77.763 Y194.719 E11.34513
G1 X76.776 Y194.679 E11.41668
G1 X75.795 Y194.559 E11.48828
G1 X74.827 Y194.361 E11.55985
G1 X73.878 Y194.084 E11.63147
G1 X72.955 Y193.732 E11.70303
G1 X72.063 Y193.307 E11.7746
G1 X71.557 Y193.569 E11.81588
G1 X70.646 Y193.951 E11.88744
G1 X69.707 Y194.258 E11.95901
G1 X68.746 Y194.488 E12.03059
G1 X67.769 Y194.64 E12.10221
G1 X66.383 Y194.719 E12.20278
G1 X48.363 Y194.718 E13.50816
G1 X47.376 Y194.678 E13.57972
G1 X46.533 Y194.58 E13.6412
G1 X46.289 Y194.543 E13.65907
G1 X45.319 Y194.355 E13.73065
G1 X44.367 Y194.09 E13.80223
G1 X43.44 Y193.749 E13.87378
G1 X42.702 Y193.415 E13.93247
G1 X41.826 Y192.957 E14.00407
G1 X40.99 Y192.43 E14.07566
G1 X40.2 Y191.837 E14.14722
G1 X39.46 Y191.181 E14.21886
G1 X38.776 Y190.469 E14.29038
G1 X38.173 Y189.731 E14.35942
G1 X38.013 Y189.519 E14.37866
G1 X37.45 Y188.707 E14.45023
G1 X36.955 Y187.852 E14.5218
G1 X36.53 Y186.96 E14.59338
G1 X36.179 Y186.036 E14.66498
G1 X35.904 Y185.087 E14.73655
G1 X35.672 Y183.895 E14.82452
G1 X35.565 Y182.913 E14.89608
G1 X35.537 Y182.084 E14.95617
G1 X35.537 Y175.169 E15.4571
G1 X35.577 Y174.182 E15.52865
G1 X35.697 Y173.201 E15.60025
G1 X35.895 Y172.233 E15.67182
G1 X36.172 Y171.284 E15.74344
G1 X36.524 Y170.361 E15.815
G1 X36.949 Y169.469 E15.88657
G1 X37.445 Y168.615 E15.95811
G1 X38.009 Y167.803 E16.02973
G1 X38.637 Y167.04 E16.10132
G1 X39.324 Y166.33 E16.17289
G1 X40.066 Y165.677 E16.24449
G1 X40.859 Y165.087 E16.31609
G1 X41.697 Y164.564 E16.38765
G1 X42.574 Y164.109 E16.45922
G1 X43.485 Y163.727 E16.53078
G1 X44.424 Y163.42 E16.60234
G1 X45.385 Y163.19 E16.67393
G1 X46.362 Y163.038 E16.74555
G1 X47.744 Y162.959 E16.84583
G1 X50.943 Y162.958 E17.07757
G1 X50.943 Y150.089 E18.0098
G1 X50.983 Y149.102 E18.08136
G1 X51.103 Y148.121 E18.15296
G1 X51.39 Y146.815 E18.24982
G1 X51.449 Y146.603 E18.26576
G1 X51.752 Y145.663 E18.33731
G1 X52.131 Y144.75 E18.40892
G1 X52.581 Y143.871 E18.48045
G1 X53.102 Y143.031 E18.55205
G1 X53.695 Y142.229 E18.62431
G1 X53.071 Y141.397 E18.69965
G1 X52.548 Y140.559 E18.7712
G1 X52.093 Y139.682 E18.84278
G1 X51.711 Y138.771 E18.91434
G1 X51.404 Y137.832 E18.9859
G1 X51.174 Y136.871 E19.05748
G1 X51.022 Y135.894 E19.12911
G1 X50.943 Y134.509 E19.2296
G1 X50.943 Y131.532 E19.44526
G0 F1620 X50.943 Y130.169
G0 F6000 X51.603 Y130.169
G1 F1800 X51.643 Y129.209 E19.51486
G1 X51.763 Y128.255 E19.58451
G1 X51.961 Y127.315 E19.6541
G1 X52.237 Y126.394 E19.72375
G1 X52.589 Y125.5 E19.79335
G1 X53.014 Y124.638 E19.86297
G1 X53.508 Y123.814 E19.93257
G1 X54.07 Y123.034 E20.00221
G1 X54.695 Y122.304 E20.07183
G1 X55.378 Y121.628 E20.14144
G1 X56.115 Y121.011 E20.21107
G1 X56.901 Y120.458 E20.28069
G1 X57.73 Y119.972 E20.3503
G1 X58.596 Y119.556 E20.4199
G1 X59.494 Y119.214 E20.48951
G1 X60.418 Y118.948 E20.55916
G1 X61.36 Y118.759 E20.62876
G1 X62.315 Y118.649 E20.6984
G1 X63.153 Y118.619 E20.75914
G1 X82.175 Y118.619 E22.1371
G1 X83.135 Y118.659 E22.20671
G1 X84.089 Y118.779 E22.27636
G1 X85.029 Y118.977 E22.34595
G1 X85.95 Y119.253 E22.4156
G1 X86.844 Y119.605 E22.4852
G1 X87.706 Y120.03 E22.55482
G1 X88.53 Y120.524 E22.62442
G1 X89.31 Y121.086 E22.69406
G1 X90.04 Y121.711 E22.76367
G1 X90.716 Y122.394 E22.83329
G1 X91.333 Y123.131 E22.90292
G1 X92.026 Y124.138 E22.99147
G1 X100.663 Y138.246 E24.18977
G1 X103.028 Y142.088 E24.51659
G1 X103.498 Y142.927 E24.58626
G1 X103.896 Y143.802 E24.65589
G1 X104.22 Y144.706 E24.72546
G1 X104.467 Y145.635 E24.79509
G1 X104.637 Y146.581 E24.86472
G1 X104.727 Y147.538 E24.93435
G1 X104.743 Y148.144 E24.97826
G1 X104.743 Y154.009 E25.40313
G1 X104.703 Y154.969 E25.47273
G1 X104.583 Y155.923 E25.54238
G1 X104.385 Y156.863 E25.61197
G1 X104.109 Y157.784 E25.68162
G1 X103.757 Y158.678 E25.75122
G1 X103.332 Y159.54 E25.82084
G1 X103.004 Y160.087 E25.86705
G1 X103.39 Y160.746 E25.92237
G1 X103.806 Y161.612 E25.99197
G1 X104.148 Y162.51 E26.06158
G1 X104.414 Y163.434 E26.13123
G1 X104.535 Y164.038 E26.17585
G1 X105.252 Y164.253 E26.23008
G1 X106.146 Y164.605 E26.29968
G1 X107.008 Y165.03 E26.3693
G1 X107.832 Y165.524 E26.4389
G1 X108.612 Y166.086 E26.50854
G1 X109.342 Y166.711 E26.57815
G1 X110.018 Y167.394 E26.64777
G1 X110.635 Y168.131 E26.7174
G1 X111.188 Y168.917 E26.78701
G1 X111.674 Y169.746 E26.85663
G1 X112.09 Y170.612 E26.92622
G1 X112.432 Y171.51 E26.99583
G1 X112.698 Y172.434 E27.06549
G1 X112.887 Y173.376 E27.13508
G1 X112.997 Y174.331 E27.20472
G1 X113.027 Y175.164 E27.2651
G1 X113.028 Y177.687 E27.44787
G1 X112.988 Y178.648 E27.51755
G1 X112.869 Y179.601 E27.58712
G1 X112.671 Y180.542 E27.65678
G1 X112.395 Y181.462 E27.72636
G1 X112.044 Y182.357 E27.796
G1 X111.62 Y183.219 E27.86559
G1 X111.125 Y184.043 E27.93522
G1 X110.564 Y184.823 E28.00482
G1 X109.939 Y185.554 E28.07449
G1 X109.256 Y186.23 E28.14411
G1 X108.52 Y186.847 E28.21368
G1 X107.418 Y187.597 E28.31024
G1 X99.386 Y192.414 E28.9887
G1 X98.542 Y192.874 E29.05833
G1 X97.663 Y193.262 E29.12793
G1 X96.755 Y193.575 E29.19751
G1 X95.823 Y193.812 E29.26717
G1 X94.875 Y193.97 E29.33679
G1 X93.446 Y194.059 E29.44051
G1 X77.763 Y194.059 E30.5766
G1 X76.803 Y194.019 E30.6462
G1 X75.849 Y193.899 E30.71585
G1 X74.909 Y193.701 E30.78544
G1 X73.988 Y193.425 E30.85509
G1 X73.094 Y193.073 E30.92469
G1 X72.232 Y192.648 E30.99431
G1 X72.071 Y192.551 E31.00793
G1 X71.807 Y192.706 E31.03011
G1 X70.941 Y193.122 E31.0997
G1 X70.043 Y193.464 E31.16931
G1 X69.119 Y193.73 E31.23897
G1 X68.177 Y193.919 E31.30856
G1 X67.222 Y194.029 E31.3782
G1 X66.383 Y194.059 E31.43902
G1 X48.363 Y194.058 E32.7444
G1 X47.403 Y194.018 E32.814
G1 X46.632 Y193.927 E32.87024
G1 X46.388 Y193.89 E32.88812
G1 X45.445 Y193.707 E32.9577
G1 X44.52 Y193.446 E33.02733
G1 X43.185 Y192.913 E33.13146
G1 X42.984 Y192.818 E33.14756
G1 X42.132 Y192.372 E33.21723
G1 X41.322 Y191.856 E33.2868
G1 X40.556 Y191.275 E33.35645
G1 X39.842 Y190.632 E33.42605
G1 X39.183 Y189.932 E33.49569
G1 X38.7 Y189.334 E33.55138
G1 X38.54 Y189.122 E33.57062
G1 X37.993 Y188.331 E33.64029
G1 X37.514 Y187.498 E33.70989
G1 X37.106 Y186.628 E33.7795
G1 X36.772 Y185.727 E33.84911
G1 X36.514 Y184.801 E33.91875
G1 X36.325 Y183.797 E33.99276
G1 X36.222 Y182.842 E34.06234
G1 X36.197 Y182.084 E34.11728
G1 X36.197 Y175.169 E34.6182
G1 X36.237 Y174.209 E34.68781
G1 X36.357 Y173.255 E34.75746
G1 X36.555 Y172.315 E34.82705
G1 X36.831 Y171.394 E34.8967
G1 X37.183 Y170.5 E34.9663
G1 X37.608 Y169.638 E35.03592
G1 X38.102 Y168.814 E35.10552
G1 X38.664 Y168.034 E35.17516
G1 X39.289 Y167.304 E35.24477
G1 X39.972 Y166.628 E35.31439
G1 X40.709 Y166.011 E35.38402
G1 X41.495 Y165.458 E35.45363
G1 X42.324 Y164.972 E35.52325
G1 X43.19 Y164.556 E35.59284
G1 X44.088 Y164.214 E35.66245
G1 X45.012 Y163.948 E35.73211
G1 X45.954 Y163.759 E35.8017
G1 X46.909 Y163.649 E35.87134
G1 X47.744 Y163.619 E35.93187
G1 X51.603 Y163.618 E36.21142
G1 X51.603 Y150.089 E37.19147
G1 X51.643 Y149.129 E37.26107
G1 X51.763 Y148.175 E37.33072
G1 X52.026 Y146.992 E37.41851
G1 X52.085 Y146.78 E37.43445
G1 X52.381 Y145.866 E37.50405
G1 X52.752 Y144.979 E37.5737
G1 X53.195 Y144.127 E37.64326
G1 X53.708 Y143.314 E37.7129
G1 X54.286 Y142.546 E37.78253
G1 X54.571 Y142.235 E37.81309
G1 X53.995 Y141.547 E37.87809
G1 X53.442 Y140.761 E37.94771
G1 X52.956 Y139.932 E38.01732
G1 X52.54 Y139.066 E38.08692
G1 X52.198 Y138.168 E38.15653
G1 X51.932 Y137.244 E38.22618
G1 X51.743 Y136.302 E38.29578
G1 X51.633 Y135.347 E38.36542
G1 X51.603 Y134.509 E38.42616
G1 X51.603 Y131.532 E38.64182
G0 F1620 X51.603 Y130.169
G0 F6000 X52.263 Y130.169
G1 F1800 X52.303 Y129.237 E38.70939
G1 X52.423 Y128.311 E38.77703
G1 X52.621 Y127.399 E38.84464
G1 X52.897 Y126.508 E38.91221
G1 X53.248 Y125.643 E38.97983
G1 X53.672 Y124.812 E39.04741
G1 X54.165 Y124.02 E39.11499
G1 X54.725 Y123.273 E39.18262
G1 X55.346 Y122.577 E39.25019
G1 X56.025 Y121.936 E39.31784
G1 X56.756 Y121.356 E39.38543
G1 X57.534 Y120.841 E39.45302
G1 X58.353 Y120.394 E39.52061
G1 X59.207 Y120.019 E39.58818
G1 X60.091 Y119.718 E39.65583
G1 X60.997 Y119.495 E39.72342
G1 X61.918 Y119.349 E39.79097
G1 X63.153 Y119.279 E39.88057
G1 X82.175 Y119.279 E41.25854
G1 X83.107 Y119.319 E41.32612
G1 X84.033 Y119.439 E41.39376
G1 X84.945 Y119.637 E41.46136
G1 X85.836 Y119.913 E41.52893
G1 X86.701 Y120.264 E41.59656
G1 X87.532 Y120.688 E41.66414
G1 X88.324 Y121.181 E41.73172
G1 X89.071 Y121.741 E41.79935
G1 X89.767 Y122.362 E41.86692
G1 X90.408 Y123.041 E41.93456
G1 X90.988 Y123.772 E42.00216
G1 X91.463 Y124.483 E42.0641
G1 X100.085 Y138.567 E43.26035
G1 X102.466 Y142.434 E43.58932
G1 X102.921 Y143.249 E43.65694
G1 X103.304 Y144.1 E43.72454
G1 X103.613 Y144.98 E43.7921
G1 X103.846 Y145.884 E43.85973
G1 X104 Y146.804 E43.9273
G1 X104.083 Y148.144 E44.02456
G1 X104.083 Y154.009 E44.44942
G1 X104.043 Y154.941 E44.517
G1 X103.923 Y155.867 E44.58464
G1 X103.725 Y156.779 E44.65225
G1 X103.449 Y157.67 E44.71982
G1 X103.098 Y158.535 E44.78744
G1 X102.674 Y159.366 E44.85502
G1 X102.22 Y160.095 E44.91723
G1 X102.521 Y160.55 E44.95675
G1 X102.968 Y161.369 E45.02434
G1 X103.343 Y162.223 E45.09191
G1 X103.644 Y163.107 E45.15956
G1 X103.867 Y164.013 E45.22715
G1 X103.956 Y164.574 E45.2683
G1 X104.247 Y164.637 E45.28986
G1 X105.138 Y164.913 E45.35743
G1 X106.003 Y165.264 E45.42506
G1 X106.834 Y165.688 E45.49264
G1 X107.626 Y166.181 E45.56022
G1 X108.373 Y166.741 E45.62785
G1 X109.069 Y167.362 E45.69542
G1 X109.71 Y168.041 E45.76306
G1 X110.29 Y168.772 E45.83066
G1 X110.805 Y169.55 E45.89825
G1 X111.252 Y170.369 E45.96584
G1 X111.627 Y171.223 E46.0334
G1 X111.928 Y172.107 E46.10105
G1 X112.151 Y173.013 E46.16864
G1 X112.297 Y173.934 E46.23619
G1 X112.367 Y175.165 E46.32551
G1 X112.368 Y177.688 E46.50828
G1 X112.328 Y178.62 E46.57586
G1 X112.209 Y179.546 E46.64349
G1 X112.011 Y180.457 E46.71102
G1 X111.736 Y181.349 E46.77864
G1 X111.385 Y182.214 E46.84626
G1 X110.961 Y183.045 E46.91384
G1 X110.468 Y183.838 E46.98149
G1 X109.909 Y184.585 E47.04907
G1 X109.288 Y185.281 E47.11664
G1 X108.61 Y185.922 E47.18423
G1 X107.879 Y186.502 E47.25183
G1 X107.079 Y187.031 E47.32131
G1 X99.047 Y191.848 E47.99976
G1 X98.227 Y192.293 E48.06735
G1 X97.372 Y192.667 E48.13495
G1 X96.488 Y192.966 E48.20255
G1 X95.581 Y193.188 E48.2702
G1 X94.659 Y193.331 E48.33779
G1 X93.446 Y193.399 E48.42579
G1 X77.763 Y193.399 E49.56188
G1 X76.831 Y193.359 E49.62946
G1 X75.905 Y193.239 E49.6971
G1 X74.993 Y193.041 E49.7647
G1 X74.102 Y192.765 E49.83227
G1 X73.237 Y192.414 E49.8999
G1 X72.406 Y191.99 E49.96748
G1 X72.079 Y191.787 E49.99536
G1 X72.003 Y191.837 E50.00195
G1 X71.184 Y192.284 E50.06954
G1 X70.33 Y192.659 E50.1371
G1 X69.446 Y192.96 E50.20475
G1 X68.54 Y193.183 E50.27234
G1 X67.619 Y193.329 E50.33989
G1 X66.383 Y193.399 E50.42957
G1 X48.363 Y193.398 E51.73495
G1 X47.431 Y193.358 E51.80253
G1 X46.731 Y193.275 E51.85359
G1 X46.487 Y193.238 E51.87147
G1 X45.572 Y193.059 E51.93901
G1 X44.674 Y192.802 E52.00667
G1 X43.467 Y192.317 E52.1009
G1 X43.266 Y192.222 E52.11701
G1 X42.44 Y191.787 E52.18463
G1 X41.654 Y191.284 E52.25223
G1 X40.915 Y190.714 E52.31984
G1 X40.226 Y190.084 E52.38747
G1 X39.595 Y189.397 E52.45505
G1 X39.067 Y188.724 E52.51701
G1 X38.537 Y187.956 E52.58461
G1 X38.075 Y187.145 E52.65222
G1 X37.684 Y186.298 E52.7198
G1 X37.367 Y185.42 E52.78742
G1 X37.127 Y184.519 E52.85497
G1 X36.977 Y183.699 E52.91535
G1 X36.879 Y182.772 E52.98288
G1 X36.857 Y182.084 E53.03274
G1 X36.857 Y175.169 E53.53367
G1 X36.897 Y174.237 E53.60125
G1 X37.017 Y173.311 E53.66889
G1 X37.215 Y172.399 E53.73649
G1 X37.491 Y171.508 E53.80406
G1 X37.842 Y170.643 E53.87169
G1 X38.266 Y169.812 E53.93927
G1 X38.759 Y169.02 E54.00685
G1 X39.319 Y168.273 E54.07448
G1 X39.94 Y167.577 E54.14205
G1 X40.619 Y166.936 E54.20969
G1 X41.35 Y166.356 E54.27729
G1 X42.128 Y165.841 E54.34488
G1 X42.947 Y165.394 E54.41247
G1 X43.801 Y165.019 E54.48003
G1 X44.685 Y164.718 E54.54768
G1 X45.591 Y164.495 E54.61527
G1 X46.512 Y164.349 E54.68282
G1 X47.744 Y164.279 E54.77221
G1 X52.263 Y164.278 E55.09957
G1 X52.263 Y150.089 E56.12743
G1 X52.303 Y149.157 E56.19501
G1 X52.423 Y148.231 E56.26265
G1 X52.662 Y147.169 E56.34151
G1 X52.721 Y146.957 E56.35745
G1 X53.009 Y146.07 E56.425
G1 X53.373 Y145.21 E56.49265
G1 X53.808 Y144.385 E56.56021
G1 X54.313 Y143.6 E56.62783
G1 X54.883 Y142.861 E56.69544
G1 X55.474 Y142.224 E56.75839
G1 X54.92 Y141.637 E56.81686
G1 X54.34 Y140.906 E56.88445
G1 X53.825 Y140.128 E56.95204
G1 X53.378 Y139.309 E57.01963
G1 X53.003 Y138.455 E57.0872
