;FLAVOR:Marlin
;TIME:10464
;Filament used: 16.7262m
;Layer height: 0.32
;MINX:124.335
;MINY:106.082
;MINZ:0.24
;MAXX:208.89
;MAXY:194.385
;MAXZ:26.48
;Generated with Cura_SteamEngine 5.0.0
M140 S70
M105
M190 S70
M104 S245
M105
M109 S245
M82 ;absolute extrusion mode
; Ender 3 Max Custom Start G-code
G92 E0 ; Reset Extruder
G28 ; Home all axes
G1 Z2.0 F3000 ; Move Z Axis up little to prevent scratching of Heat Bed
G1 X0.1 Y20 Z0.3 F5000.0 ; Move to start position
G1 X0.1 Y200.0 Z0.3 F1500.0 E15 ; Draw the first line
G1 X0.4 Y200.0 Z0.3 F5000.0 ; Move to side a little
G1 X0.4 Y20 Z0.3 F1500.0 E30 ; Draw the second line
G92 E0 ; Reset Extruder
G1 Z2.0 F3000 ; Move Z Axis up little to prevent scratching of Heat Bed
G1 X5 Y20 Z0.3 F5000.0 ; Move over to prevent blob squish
G92 E0
G92 E0
G1 F2100 E-5
;LAYER_COUNT:82
;LAYER:0
M107
G1 F300 Z0.56
G0 F6000 X127.517 Y110.491 Z0.56
G1 F300 Z0.56
G0 F6000 X124.417 Y118.62
;TYPE:SKIRT
G1 F300 Z0.24
G1 F2100 E0
G1 F1800 X124.457 Y117.633 E0.07156
G1 X124.577 Y116.652 E0.14315
G1 X124.775 Y115.684 E0.21473
G1 X125.052 Y114.735 E0.28634
G1 X125.404 Y113.812 E0.3579
G1 X125.829 Y112.92 E0.42948
G1 X126.325 Y112.066 E0.50102
G1 X126.889 Y111.254 E0.57264
G1 X127.517 Y110.491 E0.64422
G1 X128.204 Y109.781 E0.71579
G1 X128.946 Y109.128 E0.78739
G1 X129.739 Y108.538 E0.85899
G1 X130.577 Y108.015 E0.93055
G1 X131.454 Y107.56 E1.00212
G1 X132.365 Y107.178 E1.07368
G1 X133.304 Y106.871 E1.14525
G1 X134.265 Y106.641 E1.21683
G1 X135.242 Y106.489 E1.28846
G1 X136.627 Y106.41 E1.38895
G1 X164.473 Y106.41 E3.40613
G1 X164.882 Y106.312 E3.4366
G1 X165.859 Y106.161 E3.50821
G1 X167.242 Y106.082 E3.60856
G1 X195.983 Y106.082 E5.69057
G1 X196.97 Y106.122 E5.76213
G1 X197.951 Y106.242 E5.83373
G1 X198.919 Y106.44 E5.9053
G1 X199.868 Y106.717 E5.97692
G1 X200.791 Y107.069 E6.04848
G1 X201.683 Y107.494 E6.12005
G1 X202.537 Y107.99 E6.19159
G1 X203.349 Y108.554 E6.26321
G1 X204.112 Y109.182 E6.3348
G1 X204.822 Y109.869 E6.40637
G1 X205.475 Y110.611 E6.47797
G1 X206.065 Y111.404 E6.54957
G1 X206.588 Y112.242 E6.62113
G1 X207.043 Y113.119 E6.6927
G1 X207.425 Y114.03 E6.76426
G1 X207.732 Y114.969 E6.83582
G1 X207.962 Y115.93 E6.90741
G1 X208.114 Y116.907 E6.97903
G1 X208.193 Y118.292 E7.07952
G1 X208.193 Y138.052 E8.51095
G1 X208.152 Y139.043 E8.5828
G1 X208.238 Y140.47 E8.68636
G1 X208.238 Y158.508 E9.99304
G1 X208.429 Y159.092 E10.03755
G1 X208.659 Y160.053 E10.10914
G1 X208.811 Y161.03 E10.18076
G1 X208.89 Y162.415 E10.28125
G1 X208.89 Y182.175 E11.71268
G1 X208.85 Y183.162 E11.78424
G1 X208.73 Y184.143 E11.85583
G1 X208.532 Y185.111 E11.92741
G1 X208.255 Y186.06 E11.99902
G1 X207.903 Y186.983 E12.07058
G1 X207.478 Y187.875 E12.14216
G1 X206.982 Y188.729 E12.2137
G1 X206.418 Y189.541 E12.28532
G1 X205.79 Y190.304 E12.3569
G1 X205.103 Y191.014 E12.42847
G1 X204.361 Y191.667 E12.50007
G1 X203.568 Y192.257 E12.57167
G1 X202.73 Y192.78 E12.64323
G1 X201.853 Y193.235 E12.7148
G1 X200.942 Y193.617 E12.78636
G1 X200.003 Y193.924 E12.85793
G1 X199.042 Y194.154 E12.92951
G1 X198.065 Y194.306 E13.00114
G1 X196.68 Y194.385 E13.10163
G1 X167.936 Y194.385 E15.18386
G1 X166.949 Y194.345 E15.25542
G1 X165.968 Y194.225 E15.32701
G1 X165 Y194.027 E15.39859
G1 X164.051 Y193.75 E15.4702
G1 X163.631 Y193.59 E15.50276
G1 X136.595 Y193.59 E17.46126
G1 X135.608 Y193.55 E17.53282
G1 X134.627 Y193.43 E17.60442
G1 X133.659 Y193.232 E17.67599
G1 X132.71 Y192.955 E17.7476
G1 X131.787 Y192.603 E17.81916
G1 X130.895 Y192.178 E17.89074
G1 X130.041 Y191.682 E17.96228
G1 X129.229 Y191.118 E18.0339
G1 X128.466 Y190.49 E18.10549
G1 X127.756 Y189.803 E18.17706
G1 X127.103 Y189.061 E18.24866
G1 X126.513 Y188.268 E18.32026
G1 X125.99 Y187.43 E18.39182
G1 X125.535 Y186.553 E18.46339
G1 X125.153 Y185.642 E18.53495
G1 X124.846 Y184.703 E18.60651
G1 X124.616 Y183.742 E18.67809
G1 X124.464 Y182.765 E18.74972
G1 X124.385 Y181.38 E18.85021
G1 X124.385 Y161.62 E20.28164
G1 X124.405 Y161.115 E20.31825
G1 X124.335 Y159.88 E20.40786
G1 X124.335 Y140.12 E21.83928
G1 X124.375 Y139.133 E21.91084
G1 X124.433 Y138.659 E21.94543
G1 X124.417 Y138.38 E21.96568
G1 X124.417 Y119.983 E23.29837
G0 F1620 X124.417 Y118.62
G0 F6000 X125.077 Y118.62
G1 F1800 X125.117 Y117.66 E23.36797
G1 X125.237 Y116.706 E23.43762
G1 X125.435 Y115.766 E23.50721
G1 X125.711 Y114.845 E23.57686
G1 X126.063 Y113.951 E23.64646
G1 X126.488 Y113.089 E23.71608
G1 X126.982 Y112.265 E23.78568
G1 X127.544 Y111.485 E23.85532
G1 X128.169 Y110.755 E23.92494
G1 X128.852 Y110.079 E23.99455
G1 X129.589 Y109.462 E24.06418
G1 X130.375 Y108.909 E24.1338
G1 X131.204 Y108.423 E24.20341
G1 X132.07 Y108.007 E24.27301
G1 X132.968 Y107.665 E24.34262
G1 X133.892 Y107.399 E24.41227
G1 X134.834 Y107.21 E24.48187
G1 X135.789 Y107.1 E24.55151
G1 X136.627 Y107.07 E24.61225
G1 X164.508 Y107.07 E26.63197
G1 X165.451 Y106.882 E26.70162
G1 X166.406 Y106.772 E26.77126
G1 X167.242 Y106.742 E26.83186
G1 X195.983 Y106.742 E28.91387
G1 X196.943 Y106.782 E28.98348
G1 X197.897 Y106.902 E29.05313
G1 X198.837 Y107.1 E29.12272
G1 X199.758 Y107.376 E29.19237
G1 X200.652 Y107.728 E29.26197
G1 X201.514 Y108.153 E29.33159
G1 X202.338 Y108.647 E29.40119
G1 X203.118 Y109.209 E29.47083
G1 X203.848 Y109.834 E29.54044
G1 X204.524 Y110.517 E29.61006
G1 X205.141 Y111.254 E29.67969
G1 X205.694 Y112.04 E29.7493
G1 X206.18 Y112.869 E29.81892
G1 X206.596 Y113.735 E29.88851
G1 X206.938 Y114.633 E29.95812
G1 X207.204 Y115.557 E30.02778
G1 X207.393 Y116.499 E30.09737
G1 X207.503 Y117.454 E30.16701
G1 X207.533 Y118.292 E30.22776
G1 X207.533 Y138.052 E31.65918
G1 X207.493 Y139.012 E31.72879
G1 X207.484 Y139.08 E31.73375
G1 X207.548 Y139.632 E31.77401
G1 X207.578 Y140.47 E31.83475
G1 X207.578 Y158.606 E33.14854
G1 X207.635 Y158.756 E33.16016
G1 X207.901 Y159.68 E33.22981
G1 X208.09 Y160.622 E33.29941
G1 X208.2 Y161.577 E33.36905
G1 X208.23 Y162.415 E33.4298
G1 X208.23 Y182.175 E34.86122
G1 X208.19 Y183.135 E34.93082
G1 X208.07 Y184.089 E35.00048
G1 X207.872 Y185.029 E35.07007
G1 X207.596 Y185.95 E35.13971
G1 X207.244 Y186.844 E35.20932
G1 X206.819 Y187.706 E35.27894
G1 X206.325 Y188.53 E35.34853
G1 X205.763 Y189.31 E35.41818
G1 X205.138 Y190.04 E35.48779
G1 X204.455 Y190.716 E35.5574
G1 X203.718 Y191.333 E35.62703
G1 X202.932 Y191.886 E35.69665
G1 X202.103 Y192.372 E35.76626
G1 X201.237 Y192.788 E35.83586
G1 X200.339 Y193.13 E35.90547
G1 X199.415 Y193.396 E35.97512
G1 X198.473 Y193.585 E36.04472
G1 X197.518 Y193.695 E36.11436
G1 X196.68 Y193.725 E36.1751
G1 X167.936 Y193.725 E38.25734
G1 X166.976 Y193.685 E38.32694
G1 X166.022 Y193.565 E38.39659
G1 X165.082 Y193.367 E38.46618
G1 X164.161 Y193.091 E38.53583
G1 X163.752 Y192.93 E38.56767
G1 X136.595 Y192.93 E40.53494
G1 X135.635 Y192.89 E40.60454
G1 X134.681 Y192.77 E40.67419
G1 X133.741 Y192.572 E40.74378
G1 X132.82 Y192.296 E40.81343
G1 X131.926 Y191.944 E40.88303
G1 X131.064 Y191.519 E40.95265
G1 X130.24 Y191.025 E41.02225
G1 X129.46 Y190.463 E41.09189
G1 X128.73 Y189.838 E41.16151
G1 X128.054 Y189.155 E41.23112
G1 X127.437 Y188.418 E41.30075
G1 X126.884 Y187.632 E41.37037
G1 X126.398 Y186.803 E41.43998
G1 X125.982 Y185.937 E41.50958
G1 X125.64 Y185.039 E41.57919
G1 X125.374 Y184.115 E41.64884
G1 X125.185 Y183.173 E41.71844
G1 X125.075 Y182.218 E41.78808
G1 X125.045 Y181.38 E41.84882
G1 X125.045 Y161.62 E43.28025
G1 X125.067 Y161.085 E43.31904
G1 X125.025 Y160.718 E43.34579
G1 X124.995 Y159.88 E43.40654
G1 X124.995 Y140.12 E44.83796
G1 X125.035 Y139.16 E44.90757
G1 X125.089 Y138.727 E44.93918
G1 X125.077 Y138.38 E44.96433
G1 X125.077 Y119.983 E46.29702
G0 F1620 X125.077 Y118.62
G0 F6000 X125.737 Y118.62
G1 F1800 X125.777 Y117.688 E46.3646
G1 X125.897 Y116.762 E46.43224
G1 X126.095 Y115.85 E46.49984
G1 X126.371 Y114.959 E46.56741
G1 X126.722 Y114.094 E46.63504
G1 X127.146 Y113.263 E46.70262
G1 X127.639 Y112.471 E46.7702
G1 X128.199 Y111.724 E46.83783
G1 X128.82 Y111.028 E46.9054
G1 X129.499 Y110.387 E46.97304
G1 X130.23 Y109.807 E47.04064
G1 X131.008 Y109.292 E47.10823
G1 X131.827 Y108.845 E47.17582
G1 X132.681 Y108.47 E47.24338
G1 X133.565 Y108.169 E47.31103
G1 X134.471 Y107.946 E47.37862
G1 X135.392 Y107.8 E47.44617
G1 X136.627 Y107.73 E47.53578
G1 X164.63 Y107.73 E49.56433
G1 X165.087 Y107.617 E49.59843
G1 X166.009 Y107.472 E49.66604
G1 X167.242 Y107.402 E49.75551
G1 X195.983 Y107.402 E51.83752
G1 X196.915 Y107.442 E51.9051
G1 X197.841 Y107.562 E51.97274
G1 X198.753 Y107.76 E52.04034
G1 X199.644 Y108.036 E52.10792
G1 X200.509 Y108.387 E52.17554
G1 X201.34 Y108.811 E52.24312
G1 X202.132 Y109.304 E52.3107
G1 X202.879 Y109.864 E52.37833
G1 X203.575 Y110.485 E52.4459
G1 X204.216 Y111.164 E52.51354
G1 X204.796 Y111.895 E52.58114
G1 X205.311 Y112.673 E52.64873
G1 X205.758 Y113.492 E52.71632
G1 X206.133 Y114.346 E52.78388
G1 X206.434 Y115.23 E52.85153
G1 X206.657 Y116.136 E52.91912
G1 X206.803 Y117.057 E52.98667
G1 X206.873 Y118.292 E53.07628
G1 X206.873 Y138.052 E54.50771
G1 X206.833 Y138.984 E54.57528
G1 X206.918 Y140.47 E54.68311
G1 X206.918 Y158.727 E56.00565
G1 X207.131 Y159.353 E56.05356
G1 X207.354 Y160.259 E56.12115
G1 X207.5 Y161.18 E56.1887
G1 X207.57 Y162.415 E56.2783
G1 X207.57 Y182.175 E57.70973
G1 X207.53 Y183.107 E57.77731
G1 X207.41 Y184.033 E57.84495
G1 X207.212 Y184.945 E57.91255
G1 X206.936 Y185.836 E57.98012
G1 X206.585 Y186.701 E58.04775
G1 X206.161 Y187.532 E58.11533
G1 X205.668 Y188.324 E58.18291
G1 X205.108 Y189.071 E58.25054
G1 X204.487 Y189.767 E58.31811
G1 X203.808 Y190.408 E58.38575
G1 X203.077 Y190.988 E58.45335
G1 X202.299 Y191.503 E58.52094
G1 X201.48 Y191.95 E58.58853
G1 X200.626 Y192.325 E58.65609
G1 X199.742 Y192.626 E58.72374
G1 X198.836 Y192.849 E58.79133
G1 X197.915 Y192.995 E58.85888
G1 X196.68 Y193.065 E58.94849
G1 X167.936 Y193.065 E61.03072
G1 X167.004 Y193.025 E61.0983
G1 X166.078 Y192.905 E61.16594
G1 X165.166 Y192.707 E61.23354
G1 X164.275 Y192.431 E61.30111
G1 X163.878 Y192.27 E61.33215
G1 X136.595 Y192.27 E63.30854
G1 X135.663 Y192.23 E63.37612
G1 X134.737 Y192.11 E63.44376
G1 X133.825 Y191.912 E63.51137
G1 X132.934 Y191.636 E63.57894
G1 X132.069 Y191.285 E63.64656
G1 X131.238 Y190.861 E63.71414
G1 X130.446 Y190.368 E63.78172
G1 X129.699 Y189.808 E63.84935
G1 X129.003 Y189.187 E63.91692
G1 X128.362 Y188.508 E63.98456
G1 X127.782 Y187.777 E64.05216
G1 X127.267 Y186.999 E64.11975
G1 X126.82 Y186.18 E64.18734
G1 X126.445 Y185.326 E64.25491
G1 X126.144 Y184.442 E64.32255
G1 X125.921 Y183.536 E64.39014
G1 X125.775 Y182.615 E64.45769
G1 X125.705 Y181.38 E64.5473
G1 X125.705 Y161.62 E65.97873
G1 X125.725 Y161.115 E66.01534
G1 X125.655 Y159.88 E66.10495
G1 X125.655 Y140.12 E67.53637
G1 X125.695 Y139.188 E67.60395
G1 X125.756 Y138.717 E67.63835
G1 X125.737 Y138.38 E67.6628
G1 X125.737 Y119.983 E68.99549
G0 F1620 X125.737 Y118.62
G0 F6000 X126.397 Y118.62
G1 F1800 X126.437 Y117.716 E69.06104
G1 X126.557 Y116.82 E69.12653
G1 X126.755 Y115.938 E69.19201
G1 X127.03 Y115.076 E69.25756
G1 X127.381 Y114.242 E69.32311
G1 X127.804 Y113.443 E69.3886
G1 X128.296 Y112.684 E69.45412
G1 X128.852 Y111.971 E69.51962
G1 X129.47 Y111.31 E69.58517
G1 X130.144 Y110.707 E69.65068
G1 X130.868 Y110.165 E69.7162
G1 X131.637 Y109.689 E69.78171
G1 X132.445 Y109.284 E69.84719
G1 X133.286 Y108.951 E69.91271
G1 X134.153 Y108.694 E69.97822
G1 X135.04 Y108.514 E70.04378
G1 X135.939 Y108.413 E70.10932
G1 X136.627 Y108.39 E70.15918
G1 X164.686 Y108.39 E72.19179
G1 X164.77 Y108.365 E72.19814
G1 X165.656 Y108.186 E72.26362
G1 X166.555 Y108.085 E72.32916
G1 X167.242 Y108.062 E72.37895
G1 X195.983 Y108.062 E74.46096
G1 X196.887 Y108.102 E74.52651
G1 X197.783 Y108.222 E74.592
G1 X198.665 Y108.42 E74.65748
G1 X199.527 Y108.695 E74.72303
G1 X200.361 Y109.046 E74.78858
G1 X201.16 Y109.469 E74.85407
G1 X201.919 Y109.961 E74.91959
G1 X202.632 Y110.517 E74.98509
G1 X203.293 Y111.135 E75.05064
G1 X203.896 Y111.809 E75.11615
G1 X204.438 Y112.533 E75.18167
G1 X204.914 Y113.302 E75.24718
G1 X205.319 Y114.11 E75.31266
G1 X205.652 Y114.951 E75.37818
G1 X205.909 Y115.818 E75.44369
G1 X206.089 Y116.705 E75.50925
G1 X206.19 Y117.604 E75.57479
G1 X206.213 Y118.292 E75.62465
G1 X206.213 Y138.052 E77.05608
G1 X206.173 Y138.956 E77.12163
G1 X206.156 Y139.081 E77.13077
G1 X206.235 Y139.782 E77.18187
G1 X206.258 Y140.47 E77.23174
G1 X206.258 Y158.844 E78.56276
G1 X206.349 Y159.074 E78.58068
G1 X206.606 Y159.941 E78.64619
G1 X206.786 Y160.828 E78.71175
G1 X206.887 Y161.727 E78.77728
G1 X206.91 Y162.415 E78.82715
G1 X206.91 Y182.175 E80.25858
G1 X206.87 Y183.079 E80.32413
G1 X206.75 Y183.975 E80.38961
G1 X206.552 Y184.857 E80.4551
G1 X206.277 Y185.719 E80.52064
G1 X205.926 Y186.553 E80.58619
G1 X205.503 Y187.352 E80.65168
G1 X205.011 Y188.111 E80.7172
G1 X204.455 Y188.824 E80.7827
G1 X203.837 Y189.485 E80.84825
G1 X203.163 Y190.088 E80.91376
G1 X202.439 Y190.63 E80.97928
G1 X201.67 Y191.106 E81.0448
G1 X200.862 Y191.511 E81.11027
G1 X200.021 Y191.844 E81.17579
G1 X199.154 Y192.101 E81.2413
G1 X198.267 Y192.281 E81.30686
G1 X197.368 Y192.382 E81.3724
G1 X196.68 Y192.405 E81.42227
G1 X167.936 Y192.405 E83.5045
G1 X167.032 Y192.365 E83.57005
G1 X166.136 Y192.245 E83.63553
G1 X165.254 Y192.047 E83.70102
G1 X164.392 Y191.772 E83.76656
G1 X164.007 Y191.61 E83.79682
G1 X136.595 Y191.61 E85.78256
G1 X135.691 Y191.57 E85.84811
G1 X134.795 Y191.45 E85.9136
G1 X133.913 Y191.252 E85.97908
G1 X133.051 Y190.977 E86.04462
G1 X132.217 Y190.626 E86.11017
G1 X131.418 Y190.203 E86.17566
G1 X130.659 Y189.711 E86.24119
G1 X129.946 Y189.155 E86.30668
G1 X129.285 Y188.537 E86.37224
G1 X128.682 Y187.863 E86.43775
G1 X128.14 Y187.139 E86.50326
G1 X127.664 Y186.37 E86.56878
G1 X127.259 Y185.562 E86.63425
G1 X126.926 Y184.721 E86.69978
G1 X126.669 Y183.854 E86.76528
G1 X126.489 Y182.967 E86.83085
G1 X126.388 Y182.068 E86.89638
G1 X126.365 Y181.38 E86.94625
G1 X126.365 Y161.62 E88.37768
G1 X126.391 Y161.038 E88.41988
G1 X126.338 Y160.568 E88.45414
G1 X126.315 Y159.88 E88.50401
G1 X126.315 Y140.12 E89.93543
G1 X126.355 Y139.216 E90.00098
G1 X126.411 Y138.798 E90.03153
G1 X126.397 Y138.38 E90.06183
G1 X126.397 Y119.983 E91.39452
G0 F1620 X126.397 Y118.62
G0 F6000 X127.057 Y118.62
G1 F1800 X127.097 Y117.746 E91.4579
G1 X127.217 Y116.88 E91.52123
G1 X127.415 Y116.028 E91.5846
G1 X127.69 Y115.197 E91.64801
G1 X128.04 Y114.396 E91.71133
G1 X128.461 Y113.629 E91.77471
G1 X128.951 Y112.904 E91.8381
G1 X129.505 Y112.227 E91.90147
G1 X130.119 Y111.604 E91.96483
G1 X130.787 Y111.039 E92.02821
G1 X131.503 Y110.537 E92.09156
G1 X132.263 Y110.103 E92.15496
G1 X133.059 Y109.74 E92.21833
G1 X133.884 Y109.451 E92.28166
G1 X134.733 Y109.239 E92.34505
G1 X135.597 Y109.106 E92.40837
G1 X136.627 Y109.05 E92.4831
G1 X164.793 Y109.05 E94.52346
G1 X165.349 Y108.911 E94.56497
G1 X166.214 Y108.777 E94.62838
G1 X167.242 Y108.722 E94.70296
G1 X195.983 Y108.722 E96.78497
G1 X196.857 Y108.762 E96.84835
G1 X197.723 Y108.882 E96.91169
G1 X198.575 Y109.08 E96.97505
G1 X199.406 Y109.355 E97.03846
G1 X200.207 Y109.705 E97.10178
G1 X200.974 Y110.126 E97.16516
G1 X201.699 Y110.616 E97.22855
G1 X202.376 Y111.17 E97.29192
G1 X202.999 Y111.784 E97.35529
G1 X203.564 Y112.452 E97.41866
G1 X204.066 Y113.168 E97.48201
G1 X204.5 Y113.928 E97.54541
G1 X204.863 Y114.724 E97.60879
G1 X205.152 Y115.549 E97.67211
G1 X205.364 Y116.398 E97.7355
G1 X205.497 Y117.262 E97.79883
G1 X205.553 Y118.292 E97.87355
G1 X205.553 Y138.052 E99.30498
G1 X205.513 Y138.926 E99.36835
G1 X205.542 Y139.44 E99.40565
G1 X205.598 Y140.47 E99.48037
G1 X205.598 Y158.955 E100.81944
G1 X205.849 Y159.672 E100.87447
G1 X206.061 Y160.521 E100.93786
G1 X206.194 Y161.385 E101.00118
G1 X206.25 Y162.415 E101.07591
G1 X206.25 Y182.175 E102.50733
G1 X206.21 Y183.049 E102.57071
G1 X206.09 Y183.915 E102.63405
G1 X205.892 Y184.767 E102.69741
G1 X205.617 Y185.598 E102.76082
G1 X205.267 Y186.399 E102.82414
G1 X204.846 Y187.166 E102.88752
G1 X204.356 Y187.891 E102.95091
G1 X203.802 Y188.568 E103.01428
G1 X203.188 Y189.191 E103.07765
G1 X202.52 Y189.756 E103.14102
G1 X201.804 Y190.258 E103.20437
G1 X201.044 Y190.692 E103.26777
G1 X200.248 Y191.055 E103.33114
G1 X199.423 Y191.344 E103.39447
G1 X198.574 Y191.556 E103.45786
