;FLAVOR:Marlin
;TIME:1667
;Filament used: 2.69623m
;Layer height: 0.32
;MINX:124.295
;MINY:125.776
;MINZ:0.24
;MAXX:177.62
;MAXY:175.17
;MAXZ:20.4
;Generated with Cura_SteamEngine 5.0.0
M140 S70
M105
M190 S70
M104 S245
M105
M109 S245
M82 ;absolute extrusion mode
; Ender 3 Max Custom Start G-code
G92 E0 ; Reset Extruder
G28 ; Home all axes
G1 Z2.0 F3000 ; Move Z Axis up little to prevent scratching of Heat Bed
G1 X0.1 Y20 Z0.3 F5000.0 ; Move to start position
G1 X0.1 Y200.0 Z0.3 F1500.0 E15 ; Draw the first line
G1 X0.4 Y200.0 Z0.3 F5000.0 ; Move to side a little
G1 X0.4 Y20 Z0.3 F1500.0 E30 ; Draw the second line
G92 E0 ; Reset Extruder
G1 Z2.0 F3000 ; Move Z Axis up little to prevent scratching of Heat Bed
G1 X5 Y20 Z0.3 F5000.0 ; Move over to prevent blob squish
G92 E0
G92 E0
G1 F2100 E-5
;LAYER_COUNT:63
;LAYER:0
M107
G1 F300 Z0.56
G0 F6000 X128.081 Y142.085 Z0.56
G1 F300 Z0.56
G0 F6000 X124.295 Y150.925
;TYPE:SKIRT
G1 F300 Z0.24
G1 F2100 E0
G1 F1800 X124.335 Y149.938 E0.07156
G1 X124.455 Y148.957 E0.14315
G1 X124.653 Y147.989 E0.21473
G1 X124.929 Y147.04 E0.28632
G1 X125.281 Y146.117 E0.35788
G1 X125.707 Y145.225 E0.42949
G1 X126.203 Y144.37 E0.50109
G1 X126.766 Y143.559 E0.57261
G1 X127.394 Y142.795 E0.64425
G1 X128.081 Y142.085 E0.71582
G1 X128.823 Y141.433 E0.78737
G1 X129.616 Y140.843 E0.85898
G1 X130.454 Y140.319 E0.93057
G1 X131.331 Y139.864 E1.00214
G1 X132.242 Y139.482 E1.0737
G1 X133.181 Y139.175 E1.14527
G1 X134.142 Y138.945 E1.21685
G1 X135.119 Y138.793 E1.28848
G1 X135.819 Y138.733 E1.33937
G1 X137.162 Y138.657 E1.43681
G1 X138.182 Y138.561 E1.51103
G1 X139.248 Y138.423 E1.5889
G1 X140.256 Y138.256 E1.66291
G1 X141.295 Y138.046 E1.7397
G1 X142.318 Y137.801 E1.8159
G1 X143.337 Y137.518 E1.89251
G1 X144.312 Y137.211 E1.96656
G1 X145.28 Y136.869 E2.04093
G1 X146.253 Y136.487 E2.11665
G1 X147.225 Y136.064 E2.19344
G1 X148.146 Y135.625 E2.26735
G1 X149.119 Y135.117 E2.34687
G1 X150.011 Y134.612 E2.42112
G1 X150.9 Y134.065 E2.49673
G1 X151.757 Y133.495 E2.57129
G1 X152.635 Y132.867 E2.64949
G1 X153.464 Y132.227 E2.72536
G1 X154.263 Y131.564 E2.80057
G1 X155.058 Y130.857 E2.87764
G1 X155.8 Y130.148 E2.95198
G1 X156.449 Y129.479 E3.0195
G1 X157.166 Y128.798 E3.09114
G1 X157.935 Y128.178 E3.16269
G1 X158.752 Y127.622 E3.23428
G1 X159.611 Y127.134 E3.30585
G1 X160.507 Y126.717 E3.37744
G1 X161.433 Y126.373 E3.449
G1 X162.385 Y126.106 E3.52062
G1 X163.354 Y125.917 E3.59214
G1 X164.336 Y125.806 E3.66373
G1 X165.324 Y125.776 E3.73534
G1 X166.311 Y125.825 E3.80692
G1 X167.291 Y125.954 E3.87853
G1 X168.257 Y126.161 E3.95009
G1 X169.203 Y126.447 E4.02169
G1 X170.022 Y126.762 E4.08525
G1 X170.921 Y127.172 E4.15683
G1 X171.784 Y127.653 E4.2284
G1 X172.605 Y128.202 E4.29994
G1 X173.38 Y128.817 E4.37162
G1 X174.101 Y129.491 E4.44311
G1 X174.766 Y130.222 E4.5147
G1 X175.37 Y131.004 E4.58628
G1 X175.909 Y131.833 E4.65791
G1 X176.378 Y132.702 E4.72944
G1 X176.776 Y133.607 E4.80106
G1 X177.1 Y134.54 E4.87261
G1 X177.347 Y135.497 E4.9442
G1 X177.515 Y136.471 E5.0158
G1 X177.605 Y137.455 E5.08738
G1 X177.62 Y138.067 E5.13173
G1 X177.62 Y162.96 E6.93499
G1 X177.58 Y163.947 E7.00655
G1 X177.46 Y164.928 E7.07814
G1 X177.262 Y165.896 E7.14972
G1 X176.985 Y166.845 E7.22133
G1 X176.633 Y167.768 E7.29289
G1 X176.208 Y168.66 E7.36447
G1 X175.712 Y169.514 E7.43601
G1 X175.148 Y170.326 E7.50763
G1 X174.52 Y171.089 E7.57922
G1 X173.833 Y171.799 E7.65079
G1 X173.091 Y172.452 E7.72239
G1 X172.298 Y173.042 E7.79399
G1 X171.46 Y173.565 E7.86555
G1 X170.583 Y174.02 E7.93712
G1 X169.672 Y174.402 E8.00868
G1 X168.733 Y174.709 E8.08024
G1 X167.772 Y174.939 E8.15182
G1 X166.795 Y175.091 E8.22345
G1 X165.41 Y175.17 E8.32394
G1 X136.506 Y175.17 E10.41777
G1 X135.519 Y175.13 E10.48932
G1 X134.538 Y175.01 E10.56092
G1 X133.57 Y174.812 E10.63249
G1 X132.621 Y174.535 E10.70411
G1 X131.698 Y174.183 E10.77567
G1 X130.806 Y173.758 E10.84724
G1 X129.952 Y173.262 E10.91878
G1 X129.14 Y172.698 E10.9904
G1 X128.377 Y172.07 E11.06199
G1 X127.667 Y171.383 E11.13356
G1 X127.014 Y170.641 E11.20516
G1 X126.424 Y169.848 E11.27676
G1 X125.901 Y169.01 E11.34832
G1 X125.446 Y168.133 E11.41989
G1 X125.064 Y167.222 E11.49145
G1 X124.757 Y166.283 E11.56301
G1 X124.527 Y165.322 E11.6346
G1 X124.375 Y164.345 E11.70622
G1 X124.296 Y162.961 E11.80664
G1 X124.295 Y152.288 E12.5798
G0 F1620 X124.295 Y150.925
G0 F6000 X124.955 Y150.925
G1 F1800 X124.995 Y149.965 E12.6494
G1 X125.114 Y149.011 E12.71905
G1 X125.313 Y148.071 E12.78865
G1 X125.589 Y147.15 E12.8583
G1 X125.94 Y146.256 E12.92787
G1 X126.365 Y145.394 E12.9975
G1 X126.86 Y144.57 E13.06713
G1 X127.422 Y143.79 E13.13677
G1 X128.046 Y143.06 E13.20634
G1 X128.729 Y142.384 E13.27595
G1 X129.466 Y141.767 E13.34558
G1 X130.252 Y141.213 E13.41524
G1 X131.081 Y140.727 E13.48485
G1 X131.947 Y140.311 E13.55445
G1 X132.845 Y139.969 E13.62406
G1 X133.769 Y139.703 E13.69371
G1 X134.711 Y139.514 E13.76331
G1 X135.856 Y139.392 E13.84673
G1 X137.208 Y139.316 E13.94482
G1 X138.244 Y139.218 E14.0202
G1 X139.356 Y139.074 E14.10143
G1 X140.382 Y138.904 E14.17677
G1 X141.434 Y138.691 E14.25452
G1 X142.488 Y138.439 E14.33303
G1 X143.504 Y138.157 E14.40941
G1 X144.556 Y137.826 E14.4893
G1 X145.48 Y137.499 E14.5603
G1 X146.507 Y137.096 E14.64022
G1 X147.5 Y136.664 E14.71867
G1 X148.441 Y136.215 E14.7942
G1 X149.431 Y135.698 E14.8751
G1 X150.342 Y135.182 E14.95095
G1 X151.265 Y134.615 E15.02942
G1 X152.14 Y134.032 E15.10558
G1 X153.013 Y133.408 E15.18332
G1 X153.883 Y132.737 E15.26291
G1 X154.701 Y132.058 E15.33992
G1 X155.5 Y131.346 E15.41745
G1 X156.276 Y130.605 E15.49517
G1 X156.923 Y129.939 E15.56244
G1 X157.62 Y129.278 E15.63202
G1 X158.371 Y128.677 E15.7017
G1 X159.168 Y128.141 E15.77128
G1 X160.007 Y127.673 E15.84087
G1 X160.883 Y127.276 E15.91054
G1 X161.788 Y126.953 E15.98015
G1 X162.717 Y126.707 E16.04977
G1 X163.663 Y126.539 E16.11937
G1 X164.62 Y126.45 E16.18899
G1 X165.581 Y126.441 E16.25861
G1 X166.54 Y126.512 E16.32827
G1 X167.489 Y126.662 E16.39787
G1 X168.422 Y126.891 E16.46747
G1 X169.572 Y127.291 E16.55567
G1 X169.773 Y127.373 E16.57139
G1 X170.647 Y127.772 E16.64099
G1 X171.485 Y128.243 E16.71063
G1 X172.28 Y128.782 E16.78021
G1 X173.028 Y129.386 E16.84985
G1 X173.724 Y130.049 E16.91949
G1 X174.361 Y130.768 E16.98907
G1 X174.937 Y131.537 E17.05867
G1 X175.447 Y132.352 E17.12832
G1 X175.887 Y133.206 E17.19791
G1 X176.255 Y134.094 E17.26754
G1 X176.548 Y135.01 E17.33721
G1 X176.764 Y135.946 E17.4068
G1 X176.901 Y136.897 E17.4764
G1 X176.96 Y138.067 E17.56126
G1 X176.96 Y162.96 E19.36452
G1 X176.92 Y163.92 E19.43413
G1 X176.8 Y164.874 E19.50378
G1 X176.602 Y165.814 E19.57337
G1 X176.326 Y166.735 E19.64302
G1 X175.974 Y167.629 E19.71262
G1 X175.549 Y168.491 E19.78224
G1 X175.055 Y169.315 E19.85184
G1 X174.493 Y170.095 E19.92148
G1 X173.868 Y170.825 E19.99109
G1 X173.185 Y171.501 E20.06071
G1 X172.448 Y172.118 E20.13034
G1 X171.662 Y172.671 E20.19995
G1 X170.833 Y173.157 E20.26957
G1 X169.967 Y173.573 E20.33916
G1 X169.069 Y173.915 E20.40877
G1 X168.145 Y174.181 E20.47843
G1 X167.203 Y174.37 E20.54803
G1 X166.248 Y174.48 E20.61766
G1 X165.41 Y174.51 E20.67841
G1 X136.506 Y174.51 E22.77223
G1 X135.546 Y174.47 E22.84183
G1 X134.592 Y174.35 E22.91149
G1 X133.652 Y174.152 E22.98107
G1 X132.731 Y173.876 E23.05072
G1 X131.837 Y173.524 E23.12032
G1 X130.975 Y173.099 E23.18995
G1 X130.151 Y172.605 E23.25954
G1 X129.371 Y172.043 E23.32918
G1 X128.641 Y171.418 E23.3988
G1 X127.965 Y170.735 E23.46841
G1 X127.348 Y169.998 E23.53804
G1 X126.795 Y169.212 E23.60766
G1 X126.309 Y168.383 E23.67727
G1 X125.893 Y167.517 E23.74687
G1 X125.551 Y166.619 E23.81648
G1 X125.285 Y165.695 E23.88613
G1 X125.096 Y164.753 E23.95573
G1 X124.986 Y163.798 E24.02537
G1 X124.956 Y162.961 E24.08604
G1 X124.955 Y152.288 E24.8592
G0 F1620 X124.955 Y150.925
G0 F6000 X125.615 Y150.925
G1 F1800 X125.655 Y149.993 E24.92678
G1 X125.774 Y149.067 E24.99441
G1 X125.973 Y148.155 E25.06203
G1 X126.249 Y147.264 E25.1296
G1 X126.6 Y146.399 E25.19722
G1 X127.023 Y145.568 E25.26477
G1 X127.517 Y144.776 E25.33239
G1 X128.076 Y144.029 E25.39997
G1 X128.697 Y143.332 E25.4676
G1 X129.376 Y142.692 E25.53519
G1 X130.107 Y142.112 E25.60279
G1 X130.885 Y141.596 E25.67042
G1 X131.704 Y141.149 E25.73801
G1 X132.558 Y140.774 E25.80557
G1 X133.442 Y140.474 E25.8732
G1 X134.348 Y140.25 E25.94081
G1 X135.269 Y140.104 E26.00836
G1 X135.893 Y140.051 E26.05372
G1 X137.254 Y139.974 E26.15247
G1 X138.333 Y139.873 E26.23098
G1 X139.436 Y139.729 E26.31156
G1 X140.508 Y139.552 E26.39026
G1 X141.578 Y139.335 E26.46935
G1 X142.645 Y139.08 E26.54882
G1 X143.713 Y138.784 E26.62911
G1 X144.74 Y138.46 E26.70712
G1 X145.732 Y138.109 E26.78334
G1 X146.738 Y137.715 E26.86161
G1 X147.787 Y137.259 E26.94447
G1 X148.746 Y136.801 E27.02146
G1 X149.722 Y136.292 E27.10119
G1 X150.686 Y135.745 E27.18149
G1 X151.623 Y135.17 E27.26112
G1 X152.517 Y134.574 E27.33896
G1 X153.423 Y133.927 E27.41961
G1 X154.271 Y133.272 E27.49723
G1 X155.139 Y132.552 E27.57892
G1 X155.943 Y131.836 E27.65691
G1 X156.739 Y131.076 E27.73664
G1 X157.396 Y130.399 E27.80498
G1 X158.075 Y129.758 E27.87262
G1 X158.805 Y129.177 E27.94021
G1 X159.583 Y128.661 E28.00783
G1 X160.402 Y128.214 E28.07542
G1 X161.256 Y127.838 E28.14302
G1 X162.139 Y127.537 E28.2106
G1 X163.045 Y127.312 E28.27822
G1 X163.966 Y127.166 E28.34577
G1 X164.897 Y127.099 E28.41339
G1 X165.83 Y127.113 E28.48098
G1 X166.759 Y127.206 E28.54862
G1 X167.676 Y127.378 E28.6162
G1 X168.575 Y127.628 E28.6838
G1 X169.323 Y127.902 E28.74151
G1 X169.524 Y127.984 E28.75723
G1 X170.372 Y128.373 E28.82482
G1 X171.183 Y128.833 E28.89236
G1 X171.953 Y129.362 E28.96003
G1 X172.674 Y129.954 E29.02761
G1 X173.342 Y130.605 E29.09518
G1 X173.952 Y131.312 E29.16283
G1 X174.499 Y132.068 E29.23042
G1 X174.979 Y132.868 E29.29801
G1 X175.389 Y133.706 E29.36559
G1 X175.725 Y134.577 E29.43322
G1 X175.986 Y135.472 E29.50075
G1 X176.17 Y136.387 E29.56836
G1 X176.274 Y137.315 E29.63601
G1 X176.3 Y138.067 E29.69051
G1 X176.3 Y162.96 E31.49378
G1 X176.26 Y163.892 E31.56135
G1 X176.14 Y164.818 E31.62899
G1 X175.942 Y165.73 E31.6966
G1 X175.666 Y166.621 E31.76417
G1 X175.315 Y167.486 E31.83179
G1 X174.891 Y168.317 E31.89937
G1 X174.398 Y169.109 E31.96695
G1 X173.838 Y169.856 E32.03459
G1 X173.217 Y170.552 E32.10216
G1 X172.538 Y171.193 E32.1698
G1 X171.807 Y171.773 E32.2374
G1 X171.029 Y172.288 E32.30498
G1 X170.21 Y172.735 E32.37257
G1 X169.356 Y173.11 E32.44014
G1 X168.472 Y173.411 E32.50779
G1 X167.566 Y173.634 E32.57538
G1 X166.645 Y173.78 E32.64293
G1 X165.41 Y173.85 E32.73254
G1 X136.506 Y173.85 E34.82636
G1 X135.574 Y173.81 E34.89393
G1 X134.648 Y173.69 E34.96158
G1 X133.736 Y173.492 E35.02918
G1 X132.845 Y173.216 E35.09675
G1 X131.98 Y172.865 E35.16437
G1 X131.149 Y172.441 E35.23196
G1 X130.357 Y171.948 E35.29954
G1 X129.61 Y171.388 E35.36717
G1 X128.914 Y170.767 E35.43474
G1 X128.273 Y170.088 E35.50238
G1 X127.693 Y169.357 E35.56998
G1 X127.178 Y168.579 E35.63756
G1 X126.731 Y167.76 E35.70515
G1 X126.356 Y166.906 E35.77272
G1 X126.055 Y166.022 E35.84037
G1 X125.832 Y165.116 E35.90796
G1 X125.686 Y164.195 E35.97551
G1 X125.616 Y162.961 E36.06504
G1 X125.615 Y152.288 E36.8382
G0 F1620 X125.615 Y150.925
G0 F6000 X126.275 Y150.925
G1 F1800 X126.315 Y150.021 E36.90375
G1 X126.434 Y149.125 E36.96923
G1 X126.633 Y148.242 E37.0348
G1 X126.908 Y147.381 E37.10027
G1 X127.259 Y146.547 E37.16582
G1 X127.681 Y145.748 E37.23128
G1 X128.173 Y144.988 E37.29686
G1 X128.73 Y144.276 E37.36235
G1 X129.347 Y143.615 E37.42785
G1 X130.021 Y143.011 E37.49341
G1 X130.745 Y142.47 E37.55888
G1 X131.514 Y141.994 E37.6244
G1 X132.323 Y141.588 E37.68997
G1 X133.164 Y141.255 E37.7555
G1 X134.031 Y140.998 E37.821
G1 X134.917 Y140.818 E37.8865
G1 X135.93 Y140.71 E37.96029
G1 X137.301 Y140.633 E38.05977
G1 X138.395 Y140.53 E38.13937
G1 X139.543 Y140.38 E38.22324
G1 X140.633 Y140.2 E38.30327
G1 X141.723 Y139.98 E38.38382
G1 X142.801 Y139.721 E38.46413
G1 X143.887 Y139.42 E38.54577
G1 X144.958 Y139.083 E38.6271
G1 X145.958 Y138.729 E38.70395
G1 X147.026 Y138.31 E38.78705
G1 X148.052 Y137.864 E38.8681
G1 X149.03 Y137.397 E38.94661
G1 X150.035 Y136.873 E39.02871
G1 X151.006 Y136.323 E39.10955
G1 X151.987 Y135.72 E39.19297
G1 X152.901 Y135.112 E39.27249
G1 X153.801 Y134.468 E39.35266
G1 X154.705 Y133.77 E39.43539
G1 X155.547 Y133.072 E39.51462
G1 X156.401 Y132.311 E39.59748
G1 X157.202 Y131.546 E39.67772
G1 X157.87 Y130.858 E39.74719
G1 X158.528 Y130.238 E39.81268
G1 X159.238 Y129.678 E39.87818
G1 X159.995 Y129.183 E39.9437
G1 X160.793 Y128.757 E40.00923
G1 X161.625 Y128.403 E40.07473
G1 X162.486 Y128.124 E40.1403
G1 X163.367 Y127.922 E40.20577
G1 X164.263 Y127.799 E40.27129
G1 X165.167 Y127.755 E40.33685
G1 X166.07 Y127.791 E40.40232
G1 X166.967 Y127.907 E40.46784
G1 X167.851 Y128.102 E40.53341
G1 X169.073 Y128.513 E40.62681
G1 X169.274 Y128.595 E40.64254
G1 X170.096 Y128.973 E40.70808
G1 X170.881 Y129.423 E40.77362
G1 X171.623 Y129.94 E40.83913
G1 X172.316 Y130.52 E40.9046
G1 X172.956 Y131.16 E40.97016
G1 X173.536 Y131.853 E41.03563
G1 X174.054 Y132.595 E41.10118
G1 X174.503 Y133.38 E41.16669
G1 X174.882 Y134.201 E41.2322
G1 X175.186 Y135.053 E41.29773
G1 X175.414 Y135.928 E41.36323
G1 X175.564 Y136.82 E41.42875
G1 X175.64 Y138.067 E41.51925
G1 X175.64 Y162.96 E43.32252
G1 X175.6 Y163.864 E43.38807
G1 X175.48 Y164.76 E43.45355
G1 X175.282 Y165.642 E43.51904
G1 X175.007 Y166.504 E43.58458
G1 X174.656 Y167.338 E43.65013
G1 X174.233 Y168.137 E43.71562
G1 X173.741 Y168.896 E43.78114
G1 X173.185 Y169.609 E43.84664
G1 X172.567 Y170.27 E43.91219
G1 X171.893 Y170.873 E43.97771
G1 X171.169 Y171.415 E44.04322
G1 X170.4 Y171.891 E44.10874
G1 X169.592 Y172.296 E44.17421
G1 X168.751 Y172.629 E44.23973
G1 X167.884 Y172.886 E44.30524
G1 X166.997 Y173.066 E44.37081
G1 X166.098 Y173.167 E44.43634
G1 X165.41 Y173.19 E44.48621
G1 X136.506 Y173.19 E46.58003
G1 X135.602 Y173.15 E46.64558
G1 X134.706 Y173.03 E46.71107
G1 X133.824 Y172.832 E46.77655
G1 X132.962 Y172.557 E46.84209
G1 X132.128 Y172.206 E46.90764
G1 X131.329 Y171.783 E46.97313
G1 X130.57 Y171.291 E47.03865
G1 X129.857 Y170.735 E47.10415
G1 X129.196 Y170.117 E47.1697
G1 X128.593 Y169.443 E47.23522
G1 X128.051 Y168.719 E47.30073
G1 X127.575 Y167.95 E47.36625
G1 X127.17 Y167.142 E47.43172
G1 X126.837 Y166.301 E47.49725
G1 X126.58 Y165.434 E47.56275
G1 X126.4 Y164.547 E47.62832
G1 X126.299 Y163.648 E47.69385
G1 X126.276 Y162.961 E47.74365
G1 X126.275 Y152.288 E48.5168
G0 F1620 X126.275 Y150.925
G0 F6000 X126.935 Y150.925
G1 F1800 X126.975 Y150.051 E48.58018
G1 X127.094 Y149.184 E48.64358
G1 X127.293 Y148.332 E48.70696
G1 X127.568 Y147.502 E48.7703
G1 X127.918 Y146.7 E48.83369
G1 X128.339 Y145.934 E48.89701
G1 X128.829 Y145.209 E48.96039
G1 X129.383 Y144.532 E49.02376
G1 X129.996 Y143.908 E49.08713
G1 X130.664 Y143.343 E49.15051
G1 X131.381 Y142.842 E49.21387
G1 X132.14 Y142.407 E49.27724
G1 X132.936 Y142.044 E49.34062
G1 X133.762 Y141.756 E49.40399
G1 X134.61 Y141.543 E49.46733
G1 X135.475 Y141.41 E49.53072
G1 X135.967 Y141.369 E49.56649
G1 X137.347 Y141.291 E49.66662
G1 X138.485 Y141.184 E49.74942
G1 X139.618 Y141.037 E49.83218
G1 X140.758 Y140.848 E49.91589
G1 X141.866 Y140.624 E49.99778
G1 X142.972 Y140.359 E50.08016
G1 X144.08 Y140.052 E50.16345
G1 X145.151 Y139.715 E50.24479
G1 X146.21 Y139.34 E50.32617
G1 X147.256 Y138.929 E50.40758
G1 X148.315 Y138.469 E50.49122
G1 X149.336 Y137.982 E50.57316
G1 X150.369 Y137.443 E50.65757
G1 X151.35 Y136.888 E50.73922
G1 X152.32 Y136.291 E50.82173
G1 X153.285 Y135.649 E50.90569
G1 X154.196 Y134.997 E50.98684
G1 X155.107 Y134.294 E51.0702
G1 X155.984 Y133.566 E51.15277
G1 X156.859 Y132.787 E51.23763
G1 X157.652 Y132.03 E51.31705
G1 X158.343 Y131.318 E51.38893
G1 X158.981 Y130.719 E51.45232
G1 X159.67 Y130.181 E51.51565
G1 X160.406 Y129.708 E51.57902
G1 X161.182 Y129.304 E51.6424
G1 X161.991 Y128.972 E51.70575
G1 X162.828 Y128.716 E51.76915
G1 X163.684 Y128.537 E51.8325
G1 X164.553 Y128.437 E51.89587
G1 X165.428 Y128.417 E51.95927
G1 X166.3 Y128.477 E52.02259
G1 X167.164 Y128.617 E52.08599
G1 X168.011 Y128.834 E52.14933
