;FLAVOR:Marlin
;TIME:7812
;Filament used: 11.2649m
;Layer height: 0.32
;MINX:88.46
;MINY:131.539
;MINZ:0.24
;MAXX:168.56
;MAXY:182.742
;MAXZ:63.6
;Generated with Cura_SteamEngine 5.0.0
M140 S70
M105
M190 S70
M104 S245
M105
M109 S245
M82 ;absolute extrusion mode
; Ender 3 Max Custom Start G-code
G92 E0 ; Reset Extruder
G28 ; Home all axes
G1 Z2.0 F3000 ; Move Z Axis up little to prevent scratching of Heat Bed
G1 X0.1 Y20 Z0.3 F5000.0 ; Move to start position
G1 X0.1 Y200.0 Z0.3 F1500.0 E15 ; Draw the first line
G1 X0.4 Y200.0 Z0.3 F5000.0 ; Move to side a little
G1 X0.4 Y20 Z0.3 F1500.0 E30 ; Draw the second line
G92 E0 ; Reset Extruder
G1 Z2.0 F3000 ; Move Z Axis up little to prevent scratching of Heat Bed
G1 X5 Y20 Z0.3 F5000.0 ; Move over to prevent blob squish
G92 E0
G92 E0
G1 F2100 E-5
;LAYER_COUNT:198
;LAYER:0
M107
G1 F300 Z0.56
G0 F6000 X93.667 Y136.871 Z0.56
G1 F300 Z0.56
G0 F6000 X88.46 Y146.873
;TYPE:SKIRT
G1 F300 Z0.24
G1 F2100 E0
G1 F1800 X88.5 Y145.886 E0.07156
G1 X88.62 Y144.905 E0.14315
G1 X88.818 Y143.937 E0.21473
G1 X89.095 Y142.988 E0.28634
G1 X89.447 Y142.065 E0.3579
G1 X89.872 Y141.173 E0.42948
G1 X90.368 Y140.319 E0.50102
G1 X90.932 Y139.507 E0.57264
G1 X91.56 Y138.744 E0.64422
G1 X92.247 Y138.034 E0.71579
G1 X92.989 Y137.381 E0.78739
G1 X93.667 Y136.871 E0.84885
G1 X97.983 Y133.849 E1.23053
G1 X98.814 Y133.316 E1.30204
G1 X99.687 Y132.851 E1.3737
G1 X100.593 Y132.458 E1.44524
G1 X101.235 Y132.231 E1.49456
G1 X101.551 Y132.129 E1.51862
G1 X102.503 Y131.864 E1.5902
G1 X103.473 Y131.677 E1.66177
G1 X104.456 Y131.568 E1.73341
G1 X105.302 Y131.539 E1.79473
G1 X151.716 Y131.539 E5.15699
G1 X152.703 Y131.579 E5.22855
G1 X153.684 Y131.699 E5.30014
G1 X154.652 Y131.897 E5.37171
G1 X155.523 Y132.148 E5.43738
G1 X155.843 Y132.253 E5.46177
G1 X156.768 Y132.598 E5.53329
G1 X157.663 Y133.018 E5.60491
G1 X158.521 Y133.508 E5.67649
G1 X159.038 Y133.851 E5.72143
G1 X163.352 Y136.871 E6.1029
G1 X164.138 Y137.47 E6.17449
G1 X164.873 Y138.131 E6.2461
G1 X165.552 Y138.849 E6.31769
G1 X166.171 Y139.619 E6.38925
G1 X166.725 Y140.437 E6.46082
G1 X167.212 Y141.297 E6.53242
G1 X167.627 Y142.194 E6.60401
G1 X167.969 Y143.121 E6.67559
G1 X168.234 Y144.073 E6.74717
G1 X168.422 Y145.043 E6.81875
G1 X168.53 Y146.025 E6.89032
G1 X168.56 Y146.874 E6.95186
G1 X168.56 Y167.406 E8.43921
G1 X168.52 Y168.393 E8.51076
G1 X168.4 Y169.374 E8.58236
G1 X168.202 Y170.342 E8.65393
G1 X167.925 Y171.291 E8.72555
G1 X167.573 Y172.214 E8.79711
G1 X167.148 Y173.106 E8.86868
G1 X166.652 Y173.96 E8.94022
G1 X166.088 Y174.772 E9.01184
G1 X165.46 Y175.535 E9.08343
G1 X164.773 Y176.245 E9.155
G1 X164.031 Y176.898 E9.2266
G1 X163.353 Y177.408 E9.28806
G1 X159.035 Y180.431 E9.66989
G1 X158.203 Y180.965 E9.74151
G1 X157.331 Y181.429 E9.81306
G1 X156.424 Y181.822 E9.88467
G1 X155.838 Y182.031 E9.92974
G1 X155.524 Y182.134 E9.95368
G1 X154.573 Y182.404 E10.02529
G1 X153.604 Y182.595 E10.09684
G1 X152.622 Y182.708 E10.16844
G1 X151.718 Y182.742 E10.23398
G1 X105.304 Y182.742 E13.59623
G1 X104.317 Y182.702 E13.66779
G1 X103.336 Y182.582 E13.73939
G1 X102.368 Y182.384 E13.81096
G1 X101.454 Y182.119 E13.8799
G1 X101.132 Y182.012 E13.90448
G1 X100.207 Y181.663 E13.9761
G1 X99.314 Y181.24 E14.04768
G1 X98.458 Y180.746 E14.11927
G1 X97.981 Y180.428 E14.1608
G1 X93.669 Y177.41 E14.54207
G1 X92.883 Y176.811 E14.61366
G1 X92.148 Y176.151 E14.68522
G1 X91.469 Y175.433 E14.7568
G1 X90.85 Y174.663 E14.82837
G1 X90.295 Y173.845 E14.89998
G1 X89.809 Y172.985 E14.97154
G1 X89.393 Y172.088 E15.04317
G1 X89.051 Y171.161 E15.11474
G1 X88.786 Y170.209 E15.18633
G1 X88.598 Y169.239 E15.2579
G1 X88.49 Y168.257 E15.32947
G1 X88.46 Y167.407 E15.39108
G1 X88.46 Y148.236 E16.77984
G0 F1620 X88.46 Y146.873
G0 F6000 X89.12 Y146.873
G1 F1800 X89.16 Y145.913 E16.84944
G1 X89.28 Y144.959 E16.9191
G1 X89.478 Y144.019 E16.98868
G1 X89.754 Y143.098 E17.05833
G1 X90.106 Y142.204 E17.12794
G1 X90.531 Y141.342 E17.19756
G1 X91.025 Y140.518 E17.26715
G1 X91.587 Y139.738 E17.33679
G1 X92.212 Y139.008 E17.40641
G1 X92.895 Y138.332 E17.47602
G1 X93.632 Y137.715 E17.54565
G1 X94.045 Y137.412 E17.58276
G1 X98.361 Y134.39 E17.96443
G1 X99.171 Y133.872 E18.03408
G1 X100.021 Y133.423 E18.10372
G1 X100.905 Y133.046 E18.17334
G1 X101.438 Y132.859 E18.21426
G1 X101.754 Y132.757 E18.23831
G1 X102.68 Y132.501 E18.30791
G1 X103.624 Y132.321 E18.37752
G1 X104.58 Y132.222 E18.44715
G1 X105.302 Y132.199 E18.49947
G1 X151.716 Y132.199 E21.86173
G1 X152.676 Y132.239 E21.93133
G1 X153.63 Y132.359 E22.00099
G1 X154.57 Y132.557 E22.07058
G1 X155.317 Y132.775 E22.12695
G1 X155.637 Y132.88 E22.15134
G1 X156.537 Y133.217 E22.22096
G1 X157.406 Y133.628 E22.2906
G1 X158.237 Y134.11 E22.36019
G1 X158.66 Y134.392 E22.39702
G1 X162.974 Y137.412 E22.77849
G1 X163.737 Y137.995 E22.84805
G1 X164.45 Y138.64 E22.9177
G1 X165.106 Y139.342 E22.9873
G1 X165.702 Y140.096 E23.05692
G1 X166.233 Y140.897 E23.12654
G1 X166.696 Y141.74 E23.19621
G1 X167.087 Y142.618 E23.26584
G1 X167.404 Y143.525 E23.33544
G1 X167.644 Y144.455 E23.40501
G1 X167.806 Y145.403 E23.47468
G1 X167.889 Y146.36 E23.54427
G1 X167.9 Y146.874 E23.58151
G1 X167.9 Y167.406 E25.06886
G1 X167.86 Y168.366 E25.13846
G1 X167.74 Y169.32 E25.20812
G1 X167.542 Y170.26 E25.27771
G1 X167.266 Y171.181 E25.34736
G1 X166.914 Y172.075 E25.41696
G1 X166.489 Y172.937 E25.48658
G1 X165.995 Y173.761 E25.55617
G1 X165.433 Y174.541 E25.62582
G1 X164.808 Y175.271 E25.69543
G1 X164.125 Y175.947 E25.76504
G1 X163.388 Y176.564 E25.83467
G1 X162.974 Y176.868 E25.87188
G1 X158.656 Y179.891 E26.25372
G1 X157.847 Y180.409 E26.3233
G1 X156.997 Y180.858 E26.39294
G1 X156.113 Y181.234 E26.46253
G1 X155.318 Y181.507 E26.52342
G1 X154.393 Y181.768 E26.59305
G1 X153.45 Y181.951 E26.66263
G1 X152.494 Y182.056 E26.7323
G1 X151.718 Y182.082 E26.78855
G1 X105.304 Y182.082 E30.1508
G1 X104.344 Y182.042 E30.22041
G1 X103.39 Y181.922 E30.29006
G1 X102.45 Y181.724 E30.35965
G1 X101.662 Y181.493 E30.41913
G1 X101.34 Y181.386 E30.44371
G1 X100.441 Y181.045 E30.51337
G1 X99.574 Y180.631 E30.58296
G1 X98.359 Y179.888 E30.68613
G1 X94.047 Y176.87 E31.0674
G1 X93.283 Y176.286 E31.13707
G1 X92.571 Y175.641 E31.20666
G1 X91.914 Y174.94 E31.27626
G1 X91.318 Y174.186 E31.34588
G1 X90.787 Y173.385 E31.4155
G1 X90.324 Y172.542 E31.48517
G1 X89.933 Y171.664 E31.5548
G1 X89.617 Y170.757 E31.62437
G1 X89.376 Y169.827 E31.69397
G1 X89.214 Y168.879 E31.76364
G1 X89.131 Y167.922 E31.83322
G1 X89.12 Y167.407 E31.87054
G1 X89.12 Y148.236 E33.2593
G0 F1620 X89.12 Y146.873
G0 F6000 X89.78 Y146.873
G1 F1800 X89.82 Y145.941 E33.32687
G1 X89.94 Y145.015 E33.39451
G1 X90.138 Y144.103 E33.46212
G1 X90.414 Y143.212 E33.52969
G1 X90.765 Y142.347 E33.59731
G1 X91.189 Y141.516 E33.66489
G1 X91.682 Y140.724 E33.73247
G1 X92.242 Y139.977 E33.8001
G1 X92.863 Y139.281 E33.86767
G1 X93.542 Y138.64 E33.93532
G1 X94.424 Y137.952 E34.01635
G1 X98.74 Y134.93 E34.39802
G1 X99.527 Y134.428 E34.46565
G1 X100.353 Y133.996 E34.53317
G1 X101.641 Y133.488 E34.63347
G1 X101.957 Y133.386 E34.65752
G1 X102.856 Y133.137 E34.7251
G1 X103.774 Y132.967 E34.79273
G1 X104.703 Y132.876 E34.86035
G1 X105.302 Y132.859 E34.90376
G1 X151.716 Y132.859 E38.26602
G1 X152.648 Y132.899 E38.33359
G1 X153.574 Y133.019 E38.40123
G1 X154.486 Y133.217 E38.46884
G1 X155.111 Y133.402 E38.51606
G1 X155.431 Y133.507 E38.54045
G1 X156.305 Y133.835 E38.60808
G1 X157.147 Y134.238 E38.6757
G1 X158.281 Y134.933 E38.77205
G1 X162.595 Y137.953 E39.15352
G1 X163.336 Y138.52 E39.22111
G1 X164.026 Y139.149 E39.28875
G1 X164.659 Y139.834 E39.35631
G1 X165.231 Y140.572 E39.42395
G1 X165.738 Y141.355 E39.49152
G1 X166.176 Y142.179 E39.55912
G1 X166.542 Y143.037 E39.6267
G1 X166.833 Y143.924 E39.69432
G1 X167.047 Y144.832 E39.7619
G1 X167.182 Y145.756 E39.82954
G1 X167.24 Y146.874 E39.91064
G1 X167.24 Y167.406 E41.39799
G1 X167.2 Y168.338 E41.46557
G1 X167.08 Y169.264 E41.53321
G1 X166.882 Y170.176 E41.60081
G1 X166.606 Y171.067 E41.66839
G1 X166.255 Y171.932 E41.73601
G1 X165.831 Y172.763 E41.80359
G1 X165.338 Y173.555 E41.87117
G1 X164.778 Y174.302 E41.9388
G1 X164.157 Y174.998 E42.00637
G1 X163.478 Y175.639 E42.07401
G1 X162.596 Y176.327 E42.15505
G1 X158.278 Y179.35 E42.53688
G1 X157.491 Y179.852 E42.6045
G1 X156.664 Y180.285 E42.67213
G1 X155.426 Y180.777 E42.76863
G1 X155.112 Y180.88 E42.79257
G1 X154.214 Y181.132 E42.86013
G1 X153.297 Y181.307 E42.92776
G1 X152.369 Y181.403 E42.99534
G1 X151.718 Y181.422 E43.04252
G1 X105.304 Y181.422 E46.40478
G1 X104.372 Y181.382 E46.47236
G1 X103.446 Y181.262 E46.54
G1 X102.534 Y181.064 E46.6076
G1 X101.87 Y180.866 E46.6578
G1 X101.548 Y180.759 E46.68238
G1 X100.676 Y180.427 E46.74997
G1 X99.835 Y180.022 E46.81759
G1 X98.738 Y179.347 E46.91089
G1 X94.426 Y176.329 E47.29216
G1 X93.685 Y175.761 E47.3598
G1 X92.995 Y175.133 E47.42738
G1 X92.362 Y174.447 E47.495
G1 X91.79 Y173.71 E47.56258
G1 X91.283 Y172.927 E47.63016
G1 X90.844 Y172.103 E47.69779
G1 X90.479 Y171.244 E47.7654
G1 X90.187 Y170.358 E47.83298
G1 X89.973 Y169.45 E47.90056
G1 X89.838 Y168.526 E47.9682
G1 X89.78 Y167.407 E48.04937
G1 X89.78 Y148.236 E49.43813
G0 F1620 X89.78 Y146.873
G0 F6000 X90.44 Y146.873
G1 F1800 X90.48 Y145.969 E49.50368
G1 X90.6 Y145.073 E49.56917
G1 X90.798 Y144.191 E49.63465
G1 X91.073 Y143.329 E49.7002
G1 X91.424 Y142.495 E49.76574
G1 X91.847 Y141.696 E49.83124
G1 X92.339 Y140.937 E49.89676
G1 X92.895 Y140.224 E49.96226
G1 X93.513 Y139.563 E50.02781
G1 X94.187 Y138.96 E50.09332
G1 X94.802 Y138.493 E50.14926
G1 X99.118 Y135.471 E50.53094
G1 X99.882 Y134.985 E50.59653
G1 X100.685 Y134.569 E50.66204
G1 X101.844 Y134.116 E50.75219
G1 X102.16 Y134.014 E50.77624
G1 X103.032 Y133.774 E50.84176
G1 X103.922 Y133.613 E50.90728
G1 X104.822 Y133.53 E50.97275
G1 X105.302 Y133.519 E51.00753
G1 X151.716 Y133.519 E54.36979
G1 X152.62 Y133.559 E54.43534
G1 X153.516 Y133.679 E54.50082
G1 X154.398 Y133.877 E54.56631
G1 X154.905 Y134.029 E54.60465
G1 X155.225 Y134.134 E54.62905
G1 X156.071 Y134.454 E54.69457
G1 X156.886 Y134.847 E54.76011
G1 X157.903 Y135.473 E54.84662
G1 X162.217 Y138.493 E55.2281
G1 X162.934 Y139.044 E55.2936
G1 X163.6 Y139.656 E55.35912
G1 X164.209 Y140.325 E55.42466
G1 X164.757 Y141.045 E55.4902
G1 X165.239 Y141.81 E55.5557
G1 X165.651 Y142.615 E55.62121
G1 X165.991 Y143.453 E55.68672
G1 X166.256 Y144.318 E55.75226
G1 X166.443 Y145.203 E55.81778
G1 X166.551 Y146.101 E55.88331
G1 X166.58 Y146.874 E55.93934
G1 X166.58 Y167.406 E57.42669
G1 X166.54 Y168.31 E57.49224
G1 X166.42 Y169.206 E57.55773
G1 X166.222 Y170.088 E57.62321
G1 X165.947 Y170.95 E57.68876
G1 X165.596 Y171.784 E57.7543
G1 X165.173 Y172.583 E57.81979
G1 X164.681 Y173.342 E57.88532
G1 X164.125 Y174.055 E57.95082
G1 X163.507 Y174.716 E58.01637
G1 X162.833 Y175.319 E58.08188
G1 X162.217 Y175.786 E58.13788
G1 X157.899 Y178.809 E58.51971
G1 X157.136 Y179.295 E58.58525
G1 X156.333 Y179.711 E58.65076
G1 X155.221 Y180.149 E58.73733
G1 X154.907 Y180.252 E58.76127
G1 X154.036 Y180.496 E58.8268
G1 X153.146 Y180.662 E58.89238
G1 X152.246 Y180.748 E58.95788
G1 X151.718 Y180.762 E58.99614
G1 X105.304 Y180.762 E62.35839
G1 X104.4 Y180.722 E62.42395
G1 X103.504 Y180.602 E62.48943
G1 X102.622 Y180.404 E62.55491
G1 X102.078 Y180.24 E62.59607
G1 X101.756 Y180.133 E62.62065
G1 X100.911 Y179.81 E62.68619
G1 X100.098 Y179.414 E62.75169
G1 X99.116 Y178.806 E62.83536
G1 X94.804 Y175.788 E63.21663
G1 X94.087 Y175.237 E63.28214
G1 X93.421 Y174.625 E63.34766
G1 X92.812 Y173.957 E63.41314
G1 X92.264 Y173.237 E63.47869
G1 X91.782 Y172.472 E63.54419
G1 X91.369 Y171.667 E63.60973
G1 X91.029 Y170.829 E63.67524
G1 X90.765 Y169.964 E63.74076
G1 X90.578 Y169.079 E63.80628
G1 X90.469 Y168.181 E63.87181
G1 X90.44 Y167.407 E63.92792
G1 X90.44 Y148.236 E65.31668
G0 F1620 X90.44 Y146.873
G0 F6000 X91.1 Y146.873
G1 F1800 X91.14 Y145.999 E65.38006
G1 X91.26 Y145.133 E65.44339
G1 X91.458 Y144.281 E65.50675
G1 X91.733 Y143.45 E65.57016
G1 X92.083 Y142.649 E65.63348
G1 X92.504 Y141.882 E65.69687
G1 X92.994 Y141.157 E65.76026
G1 X93.548 Y140.48 E65.82363
G1 X94.162 Y139.857 E65.88699
G1 X95.181 Y139.034 E65.98188
G1 X99.497 Y136.012 E66.36355
G1 X100.236 Y135.543 E66.42696
G1 X101.014 Y135.144 E66.49029
G1 X102.046 Y134.744 E66.57047
G1 X102.362 Y134.642 E66.59453
G1 X103.206 Y134.411 E66.65791
G1 X104.068 Y134.259 E66.72132
G1 X105.302 Y134.179 E66.8109
G1 X151.716 Y134.179 E70.17316
G1 X152.59 Y134.219 E70.23654
G1 X153.456 Y134.339 E70.29987
G1 X154.7 Y134.656 E70.39287
G1 X155.02 Y134.761 E70.41726
G1 X155.837 Y135.071 E70.48056
G1 X156.624 Y135.455 E70.544
G1 X157.524 Y136.014 E70.62075
G1 X161.838 Y139.034 E71.00222
G1 X162.531 Y139.568 E71.0656
G1 X163.173 Y140.163 E71.12901
G1 X163.757 Y140.814 E71.19236
G1 X164.279 Y141.516 E71.25573
G1 X164.735 Y142.262 E71.31907
G1 X165.121 Y143.047 E71.38244
G1 X165.434 Y143.864 E71.44582
G1 X165.671 Y144.706 E71.50918
G1 X165.83 Y145.566 E71.57254
G1 X165.92 Y146.874 E71.66751
G1 X165.92 Y167.406 E73.15486
G1 X165.88 Y168.28 E73.21824
G1 X165.76 Y169.146 E73.28158
G1 X165.562 Y169.998 E73.34494
G1 X165.287 Y170.829 E73.40835
G1 X164.937 Y171.63 E73.47167
G1 X164.516 Y172.397 E73.53505
G1 X164.026 Y173.122 E73.59844
G1 X163.472 Y173.799 E73.66181
G1 X162.858 Y174.422 E73.72518
G1 X161.839 Y175.246 E73.82011
G1 X157.521 Y178.269 E74.20194
G1 X156.782 Y178.737 E74.26531
G1 X156.003 Y179.136 E74.32871
G1 X155.015 Y179.522 E74.40555
G1 X154.701 Y179.625 E74.42949
G1 X153.858 Y179.86 E74.49289
G1 X152.997 Y180.016 E74.55627
G1 X151.718 Y180.102 E74.64913
G1 X105.304 Y180.102 E78.01139
G1 X104.43 Y180.062 E78.07477
G1 X103.564 Y179.942 E78.1381
G1 X102.712 Y179.744 E78.20147
G1 X101.964 Y179.507 E78.25831
G1 X101.148 Y179.193 E78.32164
G1 X100.363 Y178.806 E78.38504
G1 X99.494 Y178.265 E78.4592
G1 X95.182 Y175.247 E78.84047
G1 X94.489 Y174.714 E78.9038
G1 X93.848 Y174.119 E78.96716
G1 X93.264 Y173.468 E79.03051
G1 X92.741 Y172.766 E79.09393
G1 X92.285 Y172.02 E79.15726
G1 X91.899 Y171.235 E79.22063
G1 X91.586 Y170.418 E79.28401
G1 X91.349 Y169.576 E79.34738
G1 X91.19 Y168.716 E79.41073
G1 X91.11 Y167.845 E79.47409
G1 X91.1 Y167.407 E79.50583
G1 X91.1 Y148.236 E80.89459
G0 F1620 X91.1 Y146.873
G0 F6000 X91.76 Y146.873
G1 F1800 X91.8 Y146.03 E80.95572
G1 X91.92 Y145.194 E81.0169
G1 X92.118 Y144.374 E81.07801
G1 X92.392 Y143.576 E81.13913
G1 X92.742 Y142.807 E81.20034
G1 X93.162 Y142.075 E81.26147
G1 X93.65 Y141.387 E81.32258
G1 X94.2 Y140.747 E81.38371
G1 X94.809 Y140.162 E81.44488
G1 X95.56 Y139.574 E81.51397
G1 X99.876 Y136.552 E81.89565
G1 X100.589 Y136.101 E81.95676
G1 X101.342 Y135.72 E82.0179
G1 X102.249 Y135.372 E82.08827
G1 X102.565 Y135.27 E82.11233
G1 X103.38 Y135.049 E82.1735
G1 X104.212 Y134.906 E82.23465
G1 X105.302 Y134.839 E82.31376
G1 X151.716 Y134.839 E85.67602
G1 X152.559 Y134.879 E85.73715
G1 X153.395 Y134.999 E85.79833
G1 X154.494 Y135.283 E85.88056
G1 X154.814 Y135.388 E85.90496
G1 X155.602 Y135.689 E85.96606
G1 X156.359 Y136.063 E86.02723
G1 X157.146 Y136.555 E86.09446
G1 X161.46 Y139.575 E86.47594
G1 X162.128 Y140.091 E86.53708
G1 X162.743 Y140.668 E86.59817
G1 X163.302 Y141.301 E86.65935
G1 X163.798 Y141.984 E86.7205
G1 X164.227 Y142.711 E86.78165
G1 X164.586 Y143.475 E86.8428
G1 X164.871 Y144.269 E86.90391
G1 X165.079 Y145.087 E86.96505
G1 X165.209 Y145.921 E87.02619
G1 X165.26 Y146.874 E87.09533
G1 X165.26 Y167.406 E88.58268
G1 X165.22 Y168.249 E88.64381
G1 X165.1 Y169.085 E88.705
G1 X164.902 Y169.905 E88.7661
G1 X164.628 Y170.703 E88.82722
G1 X164.278 Y171.472 E88.88843
G1 X163.858 Y172.204 E88.94956
G1 X163.37 Y172.892 E89.01067
G1 X162.82 Y173.532 E89.0718
G1 X162.211 Y174.117 E89.13297
G1 X161.46 Y174.705 E89.20206
G1 X157.142 Y177.728 E89.5839
G1 X156.428 Y178.179 E89.64508
G1 X155.675 Y178.56 E89.70621
G1 X154.809 Y178.895 E89.77347
G1 X154.495 Y178.998 E89.79741
G1 X153.682 Y179.223 E89.85852
G1 X152.85 Y179.37 E89.91972
G1 X151.718 Y179.442 E90.00189
G1 X105.304 Y179.442 E93.36415
G1 X104.461 Y179.402 E93.42529
G1 X103.625 Y179.282 E93.48647
G1 X102.494 Y178.987 E93.57114
G1 X102.172 Y178.88 E93.59572
G1 X101.385 Y178.577 E93.65681
