;Project 250-panel-ext
;Created by Estlcam version 11 build 11.245
;Machining time about 00:09:59 hours

G90
M03 S10000
G00 X0.0000 Y0.0000 Z0.0000 F1500
G00 Z8.0000 F480


;No. 1: Drill 1
G00 F1500
G00 Z0.5000 F480
G01 Z-3.5000 F120 S10000
G00 Z8.0000 F480


;No. 2: Hole 18
G00 X29.8510 Y9.9444 Z8.0000 F1500
G00 Z0.5000 F480
G01 Z0.0000 F120
G02 X30.0264 Y10.1568 Z-0.5892 I0.1490 J0.0556 F120
G02 X30.1226 Y9.8988 Z-1.1785 I-0.0264 J-0.1568 F120
G02 X29.8548 Y9.9352 Z-1.7500 I-0.1226 J0.1012 F120
G03 X30.1226 Y9.8988 Z-2.3215 I0.1452 J0.0648 F120
G03 X30.0264 Y10.1568 Z-2.9108 I-0.1226 J0.1012 F120
G03 X29.8510 Y9.9444 Z-3.5000 I-0.0264 J-0.1568 F120
G02 X30.0264 Y10.1568 I0.1490 J0.0556 F900
G02 X30.1226 Y9.8988 I-0.0264 J-0.1568 F900
G02 X29.8510 Y9.9444 I-0.1226 J0.1012 F900
G00 Z8.0000 F480


;No. 3: Hole 19
G00 X9.9444 Y29.8510 Z8.0000 F1500
G00 Z0.5000 F480
G01 Z0.0000 F120
G02 X9.8988 Y30.1226 Z-0.5892 I0.0556 J0.1490 F120
G02 X10.1568 Y30.0264 Z-1.1785 I0.1012 J-0.1226 F120
G02 X9.9539 Y29.8478 Z-1.7500 I-0.1568 J-0.0264 F120
G03 X10.1568 Y30.0264 Z-2.3215 I0.0461 J0.1522 F120
G03 X9.8988 Y30.1226 Z-2.9108 I-0.1568 J-0.0264 F120
G03 X9.9444 Y29.8510 Z-3.5000 I0.1012 J-0.1226 F120
G02 X9.8988 Y30.1226 I0.0556 J0.1490 F900
G02 X10.1568 Y30.0264 I0.1012 J-0.1226 F900
G02 X9.9444 Y29.8510 I-0.1568 J-0.0264 F900
G00 Z8.0000 F480


;No. 4: Hole 17
G00 X84.8510 Y29.9444 Z8.0000 F1500
G00 Z0.5000 F480
G01 Z0.0000 F120
G02 X85.0264 Y30.1568 Z-0.5892 I0.1490 J0.0556 F120
G02 X85.1226 Y29.8988 Z-1.1785 I-0.0264 J-0.1568 F120
G02 X84.8548 Y29.9352 Z-1.7500 I-0.1226 J0.1012 F120
G03 X85.1226 Y29.8988 Z-2.3215 I0.1452 J0.0648 F120
G03 X85.0264 Y30.1568 Z-2.9108 I-0.1226 J0.1012 F120
G03 X84.8510 Y29.9444 Z-3.5000 I-0.0264 J-0.1568 F120
G02 X85.0264 Y30.1568 I0.1490 J0.0556 F900
G02 X85.1226 Y29.8988 I-0.0264 J-0.1568 F900
G02 X84.8510 Y29.9444 I-0.1226 J0.1012 F900
G00 Z8.0000 F480


;No. 5: Hole 16
G00 X123.5914 Y9.9887 Z8.0000 F1500
G00 Z0.5000 F480
G01 Z0.0000 F120
G02 X123.8195 Y10.1430 Z-0.5892 I0.1586 J0.0113 F120
G02 X123.8391 Y9.8683 Z-1.1785 I-0.0695 J-0.1430 F120
G02 X123.5924 Y9.9787 Z-1.7500 I-0.0891 J0.1317 F120
G03 X123.8391 Y9.8683 Z-2.3215 I0.1576 J0.0213 F120
G03 X123.8195 Y10.1430 Z-2.9108 I-0.0891 J0.1317 F120
G03 X123.5914 Y9.9887 Z-3.5000 I-0.0695 J-0.1430 F120
G02 X123.8195 Y10.1430 I0.1586 J0.0113 F900
G02 X123.8391 Y9.8683 I-0.0695 J-0.1430 F900
G02 X123.5914 Y9.9887 I-0.0891 J0.1317 F900
G00 Z8.0000 F480


;No. 6: Hole 15
G00 X217.3414 Y9.9887 Z8.0000 F1500
G00 Z0.5000 F480
G01 Z0.0000 F120
G02 X217.5695 Y10.1430 Z-0.5892 I0.1586 J0.0113 F120
G02 X217.5891 Y9.8683 Z-1.1785 I-0.0695 J-0.1430 F120
G02 X217.3424 Y9.9787 Z-1.7500 I-0.0891 J0.1317 F120
G03 X217.5891 Y9.8683 Z-2.3215 I0.1576 J0.0213 F120
G03 X217.5695 Y10.1430 Z-2.9108 I-0.0891 J0.1317 F120
G03 X217.3414 Y9.9887 Z-3.5000 I-0.0695 J-0.1430 F120
G02 X217.5695 Y10.1430 I0.1586 J0.0113 F900
G02 X217.5891 Y9.8683 I-0.0695 J-0.1430 F900
G02 X217.3414 Y9.9887 I-0.0891 J0.1317 F900
G00 Z8.0000 F480


;No. 7: Hole 14
G00 X311.0910 Y10.0000 Z8.0000 F1500
G00 Z0.5000 F480
G01 Z0.0000 F120
G02 X311.3295 Y10.1377 Z-0.5892 I0.1590 J0.0000 F120
G02 Y9.8623 Z-1.1785 I-0.0795 J-0.1377 F120
G02 X311.0913 Y9.9900 Z-1.7500 I-0.0795 J0.1377 F120
G03 X311.3295 Y9.8623 Z-2.3215 I0.1587 J0.0100 F120
G03 Y10.1377 Z-2.9108 I-0.0795 J0.1377 F120
G03 X311.0910 Y10.0000 Z-3.5000 I-0.0795 J-0.1377 F120
G02 X311.3295 Y10.1377 I0.1590 J0.0000 F900
G02 Y9.8623 I-0.0795 J-0.1377 F900
G02 X311.0910 Y10.0000 I-0.0795 J0.1377 F900
G00 Z8.0000 F480


;No. 8: Hole 13
G00 X404.8410 Y10.0000 Z8.0000 F1500
G00 Z0.5000 F480
G01 Z0.0000 F120
G02 X405.0795 Y10.1377 Z-0.5892 I0.1590 J0.0000 F120
G02 Y9.8623 Z-1.1785 I-0.0795 J-0.1377 F120
G02 X404.8413 Y9.9900 Z-1.7500 I-0.0795 J0.1377 F120
G03 X405.0795 Y9.8623 Z-2.3215 I0.1587 J0.0100 F120
G03 Y10.1377 Z-2.9108 I-0.0795 J0.1377 F120
G03 X404.8410 Y10.0000 Z-3.5000 I-0.0795 J-0.1377 F120
G02 X405.0795 Y10.1377 I0.1590 J0.0000 F900
G02 Y9.8623 I-0.0795 J-0.1377 F900
G02 X404.8410 Y10.0000 I-0.0795 J0.1377 F900
G00 Z8.0000 F480


;No. 9: Hole 12
G00 X424.8414 Y29.9887 Z8.0000 F1500
G00 Z0.5000 F480
G01 Z0.0000 F120
G02 X425.0695 Y30.1430 Z-0.5892 I0.1586 J0.0113 F120
G02 X425.0891 Y29.8683 Z-1.1785 I-0.0695 J-0.1430 F120
G02 X424.8424 Y29.9787 Z-1.7500 I-0.0891 J0.1317 F120
G03 X425.0891 Y29.8683 Z-2.3215 I0.1576 J0.0213 F120
G03 X425.0695 Y30.1430 Z-2.9108 I-0.0891 J0.1317 F120
G03 X424.8414 Y29.9887 Z-3.5000 I-0.0695 J-0.1430 F120
G02 X425.0695 Y30.1430 I0.1586 J0.0113 F900
G02 X425.0891 Y29.8683 I-0.0695 J-0.1430 F900
G02 X424.8414 Y29.9887 I-0.0891 J0.1317 F900
G00 Z8.0000 F480


;No. 10: Drill 3
G00 X434.9710 Y-0.0057 Z8.0000 F1500
G00 Z0.5000 F480
G01 Z-3.5000 F120
G00 Z8.0000 F480


;No. 11: Hole 11
G00 X424.8475 Y113.7052 Z8.0000 F1500
G00 Z0.5000 F480
G01 Z0.0000 F120
G02 X425.0375 Y113.9045 Z-0.5892 I0.1525 J0.0448 F120
G02 X425.1151 Y113.6403 Z-1.1785 I-0.0375 J-0.1545 F120
G02 X424.8506 Y113.6957 Z-1.7500 I-0.1151 J0.1097 F120
G03 X425.1151 Y113.6403 Z-2.3215 I0.1494 J0.0543 F120
G03 X425.0375 Y113.9045 Z-2.9108 I-0.1151 J0.1097 F120
G03 X424.8475 Y113.7052 Z-3.5000 I-0.0375 J-0.1545 F120
G02 X425.0375 Y113.9045 I0.1525 J0.0448 F900
G02 X425.1151 Y113.6403 I-0.0375 J-0.1545 F900
G02 X424.8475 Y113.7052 I-0.1151 J0.1097 F900
G00 Z8.0000 F480


;No. 12: Hole 10
G00 X424.8554 Y197.4340 Z8.0000 F1500
G00 Z0.5000 F480
G01 Z0.0000 F120
G02 X425.0151 Y197.6583 Z-0.5892 I0.1446 J0.0660 F120
G02 X425.1295 Y197.4078 Z-1.1785 I-0.0151 J-0.1583 F120
G02 X424.8598 Y197.4250 Z-1.7500 I-0.1295 J0.0922 F120
G03 X425.1295 Y197.4078 Z-2.3215 I0.1402 J0.0750 F120
G03 X425.0151 Y197.6583 Z-2.9108 I-0.1295 J0.0922 F120
G03 X424.8554 Y197.4340 Z-3.5000 I-0.0151 J-0.1583 F120
G02 X425.0151 Y197.6583 I0.1446 J0.0660 F900
G02 X425.1295 Y197.4078 I-0.0151 J-0.1583 F900
G02 X424.8554 Y197.4340 I-0.1295 J0.0922 F900
G00 Z8.0000 F480


;No. 13: Hole 9
G00 X424.8663 Y281.1640 Z8.0000 F1500
G00 Z0.5000 F480
G01 Z0.0000 F120
G02 X424.9924 Y281.4088 Z-0.5892 I0.1337 J0.0860 F120
G02 X425.1413 Y281.1771 Z-1.1785 I0.0076 J-0.1588 F120
G02 X424.8719 Y281.1558 Z-1.7500 I-0.1413 J0.0729 F120
G03 X425.1413 Y281.1771 Z-2.3215 I0.1281 J0.0942 F120
G03 X424.9924 Y281.4088 Z-2.9108 I-0.1413 J0.0729 F120
G03 X424.8663 Y281.1640 Z-3.5000 I0.0076 J-0.1588 F120
G02 X424.9924 Y281.4088 I0.1337 J0.0860 F900
G02 X425.1413 Y281.1771 I0.0076 J-0.1588 F900
G02 X424.8663 Y281.1640 I-0.1413 J0.0729 F900
G00 Z8.0000 F480


;No. 14: Hole 8
G00 X424.8798 Y364.8959 Z8.0000 F1500
G00 Z0.5000 F480
G01 Z0.0000 F120
G02 X424.9699 Y365.1561 Z-0.5892 I0.1202 J0.1041 F120
G02 X425.1502 Y364.9480 Z-1.1785 I0.0301 J-0.1561 F120
G02 X424.8866 Y364.8885 Z-1.7500 I-0.1502 J0.0520 F120
G03 X425.1502 Y364.9480 Z-2.3215 I0.1134 J0.1115 F120
G03 X424.9699 Y365.1561 Z-2.9108 I-0.1502 J0.0520 F120
G03 X424.8798 Y364.8959 Z-3.5000 I0.0301 J-0.1561 F120
G02 X424.9699 Y365.1561 I0.1202 J0.1041 F900
G02 X425.1502 Y364.9480 I0.0301 J-0.1561 F900
G02 X424.8798 Y364.8959 I-0.1502 J0.0520 F900
G00 Z8.0000 F480


;No. 15: Hole 7
G00 X404.8876 Y384.8876 Z8.0000 F1500
G00 Z0.5000 F480
G01 Z0.0000 F120
G02 X404.9589 Y385.1536 Z-0.5892 I0.1124 J0.1124 F120
G02 X405.1536 Y384.9589 Z-1.1785 I0.0411 J-0.1536 F120
G02 X404.8949 Y384.8807 Z-1.7500 I-0.1536 J0.0411 F120
G03 X405.1536 Y384.9589 Z-2.3215 I0.1051 J0.1193 F120
G03 X404.9589 Y385.1536 Z-2.9108 I-0.1536 J0.0411 F120
G03 X404.8876 Y384.8876 Z-3.5000 I0.0411 J-0.1536 F120
G02 X404.9589 Y385.1536 I0.1124 J0.1124 F900
G02 X405.1536 Y384.9589 I0.0411 J-0.1536 F900
G02 X404.8876 Y384.8876 I-0.1536 J0.0411 F900
G00 Z8.0000 F480


;No. 16: Drill 7
G00 X434.9991 Y395.0075 Z8.0000 F1500
G00 Z0.5000 F480
G01 Z-3.5000 F120
G00 Z8.0000 F480


;No. 17: Hole 6
G00 X311.1459 Y384.8798 Z8.0000 F1500
G00 Z0.5000 F480
G01 Z0.0000 F120
G02 X311.1980 Y385.1502 Z-0.5892 I0.1041 J0.1202 F120
G02 X311.4061 Y384.9699 Z-1.1785 I0.0520 J-0.1502 F120
G02 X311.1536 Y384.8735 Z-1.7500 I-0.1561 J0.0301 F120
G03 X311.4061 Y384.9699 Z-2.3215 I0.0964 J0.1265 F120
G03 X311.1980 Y385.1502 Z-2.9108 I-0.1561 J0.0301 F120
G03 X311.1459 Y384.8798 Z-3.5000 I0.0520 J-0.1502 F120
G02 X311.1980 Y385.1502 I0.1041 J0.1202 F900
G02 X311.4061 Y384.9699 I0.0520 J-0.1502 F900
G02 X311.1459 Y384.8798 I-0.1561 J0.0301 F900
G00 Z8.0000 F480


;No. 18: Hole 5
G00 X217.4238 Y384.8605 Z8.0000 F1500
G00 Z0.5000 F480
G01 Z0.0000 F120
G02 X217.4173 Y385.1358 Z-0.5892 I0.0762 J0.1395 F120
G02 X217.6589 Y385.0038 Z-1.1785 I0.0827 J-0.1358 F120
G02 X217.4327 Y384.8559 Z-1.7500 I-0.1589 J-0.0038 F120
G03 X217.6589 Y385.0038 Z-2.3215 I0.0673 J0.1441 F120
G03 X217.4173 Y385.1358 Z-2.9108 I-0.1589 J-0.0038 F120
G03 X217.4238 Y384.8605 Z-3.5000 I0.0827 J-0.1358 F120
G02 X217.4173 Y385.1358 I0.0762 J0.1395 F900
G02 X217.6589 Y385.0038 I0.0827 J-0.1358 F900
G02 X217.4238 Y384.8605 I-0.1589 J-0.0038 F900
G00 Z8.0000 F480


;No. 19: Hole 4
G00 X123.7052 Y384.8475 Z8.0000 F1500
G00 Z0.5000 F480
G01 Z0.0000 F120
G02 X123.6403 Y385.1151 Z-0.5892 I0.0448 J0.1525 F120
G02 X123.9045 Y385.0375 Z-1.1785 I0.1097 J-0.1151 F120
G02 X123.7149 Y384.8449 Z-1.7500 I-0.1545 J-0.0375 F120
G03 X123.9045 Y385.0375 Z-2.3215 I0.0351 J0.1551 F120
G03 X123.6403 Y385.1151 Z-2.9108 I-0.1545 J-0.0375 F120
G03 X123.7052 Y384.8475 Z-3.5000 I0.1097 J-0.1151 F120
G02 X123.6403 Y385.1151 I0.0448 J0.1525 F900
G02 X123.9045 Y385.0375 I0.1097 J-0.1151 F900
G02 X123.7052 Y384.8475 I-0.1545 J-0.0375 F900
G00 Z8.0000 F480


;No. 20: Hole 3
G00 X84.9662 Y364.8446 Z8.0000 F1500
G00 Z0.5000 F480
G01 Z0.0000 F120
G02 X84.8824 Y365.1069 Z-0.5892 I0.0338 J0.1554 F120
G02 X85.1514 Y365.0484 Z-1.1785 I0.1176 J-0.1069 F120
G02 X84.9760 Y364.8428 Z-1.7500 I-0.1514 J-0.0484 F120
G03 X85.1514 Y365.0484 Z-2.3215 I0.0240 J0.1572 F120
G03 X84.8824 Y365.1069 Z-2.9108 I-0.1514 J-0.0484 F120
G03 X84.9662 Y364.8446 Z-3.5000 I0.1176 J-0.1069 F120
G02 X84.8824 Y365.1069 I0.0338 J0.1554 F900
G02 X85.1514 Y365.0484 I0.1176 J-0.1069 F900
G02 X84.9662 Y364.8446 I-0.1514 J-0.0484 F900
G00 Z8.0000 F480


;No. 21: Hole 2
G00 X29.9887 Y384.8414 Z8.0000 F1500
G00 Z0.5000 F480
G01 Z0.0000 F120
G02 X29.8683 Y385.0891 Z-0.5892 I0.0113 J0.1586 F120
G02 X30.1430 Y385.0695 Z-1.1785 I0.1317 J-0.0891 F120
G02 X29.9986 Y384.8410 Z-1.7500 I-0.1430 J-0.0695 F120
G03 X30.1430 Y385.0695 Z-2.3215 I0.0014 J0.1590 F120
G03 X29.8683 Y385.0891 Z-2.9108 I-0.1430 J-0.0695 F120
G03 X29.9887 Y384.8414 Z-3.5000 I0.1317 J-0.0891 F120
G02 X29.8683 Y385.0891 I0.0113 J0.1586 F900
G02 X30.1430 Y385.0695 I0.1317 J-0.0891 F900
G02 X29.9887 Y384.8414 I-0.1430 J-0.0695 F900
G00 Z8.0000 F480


;No. 22: Hole 1
G00 X10.0000 Y364.8410 Z8.0000 F1500
G00 Z0.5000 F480
G01 Z0.0000 F120
G02 X9.8623 Y365.0795 Z-0.5892 I0.0000 J0.1590 F120
G02 X10.1377 Z-1.1785 I0.1377 J-0.0795 F120
G02 X10.0100 Y364.8413 Z-1.7500 I-0.1377 J-0.0795 F120
G03 X10.1377 Y365.0795 Z-2.3215 I-0.0100 J0.1587 F120
G03 X9.8623 Z-2.9108 I-0.1377 J-0.0795 F120
G03 X10.0000 Y364.8410 Z-3.5000 I0.1377 J-0.0795 F120
G02 X9.8623 Y365.0795 I0.0000 J0.1590 F900
G02 X10.1377 I0.1377 J-0.0795 F900
G02 X10.0000 Y364.8410 I-0.1377 J-0.0795 F900
G00 Z8.0000 F480


;No. 23: Drill 8
G00 X0.0000 Y395.0000 Z8.0000 F1500
G00 Z0.5000 F480
G01 Z-3.5000 F120
G00 Z8.0000 F480


;No. 24: Hole 24
G00 X10.0000 Y281.0910 Z8.0000 F1500
G00 Z0.5000 F480
G01 Z0.0000 F120
G02 X9.8623 Y281.3295 Z-0.5892 I0.0000 J0.1590 F120
G02 X10.1377 Z-1.1785 I0.1377 J-0.0795 F120
G02 X10.0100 Y281.0913 Z-1.7500 I-0.1377 J-0.0795 F120
G03 X10.1377 Y281.3295 Z-2.3215 I-0.0100 J0.1587 F120
G03 X9.8623 Z-2.9108 I-0.1377 J-0.0795 F120
G03 X10.0000 Y281.0910 Z-3.5000 I0.1377 J-0.0795 F120
G02 X9.8623 Y281.3295 I0.0000 J0.1590 F900
G02 X10.1377 I0.1377 J-0.0795 F900
G02 X10.0000 Y281.0910 I-0.1377 J-0.0795 F900
G00 Z8.0000 F480


;No. 25: Hole 25
G00 X84.9552 Y281.0975 Z8.0000 F1500
G00 Z0.5000 F480
G01 Z0.0000 F120
G02 X84.8903 Y281.3651 Z-0.5892 I0.0448 J0.1525 F120
G02 X85.1545 Y281.2875 Z-1.1785 I0.1097 J-0.1151 F120
G02 X84.9649 Y281.0949 Z-1.7500 I-0.1545 J-0.0375 F120
G03 X85.1545 Y281.2875 Z-2.3215 I0.0351 J0.1551 F120
G03 X84.8903 Y281.3651 Z-2.9108 I-0.1545 J-0.0375 F120
G03 X84.9552 Y281.0975 Z-3.5000 I0.1097 J-0.1151 F120
G02 X84.8903 Y281.3651 I0.0448 J0.1525 F900
G02 X85.1545 Y281.2875 I0.1097 J-0.1151 F900
G02 X84.9552 Y281.0975 I-0.1545 J-0.0375 F900
G00 Z8.0000 F480


;No. 26: Hole 23
G00 X84.9340 Y197.3554 Z8.0000 F1500
G00 Z0.5000 F480
G01 Z0.0000 F120
G02 X84.9078 Y197.6295 Z-0.5892 I0.0660 J0.1446 F120
G02 X85.1583 Y197.5151 Z-1.1785 I0.0922 J-0.1295 F120
G02 X84.9432 Y197.3515 Z-1.7500 I-0.1583 J-0.0151 F120
G03 X85.1583 Y197.5151 Z-2.3215 I0.0568 J0.1485 F120
G03 X84.9078 Y197.6295 Z-2.9108 I-0.1583 J-0.0151 F120
G03 X84.9340 Y197.3554 Z-3.5000 I0.0922 J-0.1295 F120
G02 X84.9078 Y197.6295 I0.0660 J0.1446 F900
G02 X85.1583 Y197.5151 I0.0922 J-0.1295 F900
G02 X84.9340 Y197.3554 I-0.1583 J-0.0151 F900
G00 Z8.0000 F480


;No. 27: Hole 22
G00 X9.9887 Y197.3414 Z8.0000 F1500
G00 Z0.5000 F480
G01 Z0.0000 F120
G02 X9.8683 Y197.5891 Z-0.5892 I0.0113 J0.1586 F120
G02 X10.1430 Y197.5695 Z-1.1785 I0.1317 J-0.0891 F120
G02 X9.9986 Y197.3410 Z-1.7500 I-0.1430 J-0.0695 F120
G03 X10.1430 Y197.5695 Z-2.3215 I0.0014 J0.1590 F120
G03 X9.8683 Y197.5891 Z-2.9108 I-0.1430 J-0.0695 F120
G03 X9.9887 Y197.3414 Z-3.5000 I0.1317 J-0.0891 F120
G02 X9.8683 Y197.5891 I0.0113 J0.1586 F900
G02 X10.1430 Y197.5695 I0.1317 J-0.0891 F900
G02 X9.9887 Y197.3414 I-0.1430 J-0.0695 F900
G00 Z8.0000 F480


;No. 28: Hole 20
G00 X9.9887 Y113.5914 Z8.0000 F1500
G00 Z0.5000 F480
G01 Z0.0000 F120
G02 X9.8683 Y113.8391 Z-0.5892 I0.0113 J0.1586 F120
G02 X10.1430 Y113.8195 Z-1.1785 I0.1317 J-0.0891 F120
G02 X9.9986 Y113.5910 Z-1.7500 I-0.1430 J-0.0695 F120
G03 X10.1430 Y113.8195 Z-2.3215 I0.0014 J0.1590 F120
G03 X9.8683 Y113.8391 Z-2.9108 I-0.1430 J-0.0695 F120
G03 X9.9887 Y113.5914 Z-3.5000 I0.1317 J-0.0891 F120
G02 X9.8683 Y113.8391 I0.0113 J0.1586 F900
G02 X10.1430 Y113.8195 I0.1317 J-0.0891 F900
G02 X9.9887 Y113.5914 I-0.1430 J-0.0695 F900
G00 Z8.0000 F480


;No. 29: Hole 21
G00 X84.9047 Y113.6227 Z8.0000 F1500
G00 Z0.5000 F480
G01 Z0.0000 F120
G02 X84.9374 Y113.8961 Z-0.5892 I0.0953 J0.1273 F120
G02 X85.1579 Y113.7311 Z-1.1785 I0.0626 J-0.1461 F120
G02 X84.9129 Y113.6170 Z-1.7500 I-0.1579 J0.0189 F120
G03 X85.1579 Y113.7311 Z-2.3215 I0.0871 J0.1330 F120
G03 X84.9374 Y113.8961 Z-2.9108 I-0.1579 J0.0189 F120
G03 X84.9047 Y113.6227 Z-3.5000 I0.0626 J-0.1461 F120
G02 X84.9374 Y113.8961 I0.0953 J0.1273 F900
G02 X85.1579 Y113.7311 I0.0626 J-0.1461 F900
G02 X84.9047 Y113.6227 I-0.1579 J0.0189 F900
G00 Z8.0000 F480


;No. 30: Engraving 5
;M05
;G0 Z60 F2000	
;G0 X0 Y0 F4000
;M0 ("CHANGE BIT TO: "< n >) ; 
;M108
;M0 (?SET UP PROBE?)
;M108
;; Touch off Z
;G38.2 Z-20 F300 ; perform z-probe
;G92 Z0.5 ; Set Z to thickness of touch plate 6.6mm in my case
;G0 Z15 F500 ; raise 15mm
;M0 (?Remove probe - READY TO RESUME JOB?)
;M108
;;Change tool: 1/8" Troch
;M03
G00 X-2.3837 Y5.9220 Z8.0000 F1500
G00 X-1.6008 Y5.7839 Z0.5107 F480
G01 X-1.6367 Y5.6501 Z0.5223 F180
G01 X-1.6952 Y5.5245 Z0.5447 F180
G01 X-1.7747 Y5.4109 Z0.5670 F180
G01 X-1.8727 Y5.3130 Z0.5786 F180
G01 X-1.9862 Y5.2335 Z0.5717 F180
G01 X-2.1118 Y5.1749 Z0.5433 F180
G01 X-2.2457 Y5.1390 Z0.4963 F180
G01 X-2.3837 Y5.1270 Z0.4387 F180
G01 X-2.5218 Y5.1390 Z0.3810 F180
G01 X-2.6556 Y5.1749 Z0.3341 F180
G01 X-2.7812 Y5.2335 Z0.3057 F180
G01 X-2.8947 Y5.3130 Z0.2987 F180
G01 X-2.9927 Y5.4109 Z0.3103 F180
G01 X-3.0722 Y5.5245 Z0.3327 F180
G01 X-3.1308 Y5.6501 Z0.3550 F180
G01 X-3.1666 Y5.7839 Z0.3666 F180
G01 X-3.1787 Y5.9220 Z0.3597 F180
G01 X-3.1666 Y6.0600 Z0.3313 F180
G01 X-3.1308 Y6.1939 Z0.2843 F180
G01 X-3.0722 Y6.3195 Z0.2267 F180
G01 X-2.9927 Y6.4330 Z0.1690 F180
G01 X-2.8947 Y6.5310 Z0.1221 F180
G01 X-2.7812 Y6.6105 Z0.0937 F180
G01 X-2.6556 Y6.6690 Z0.0867 F180
G01 X-2.5218 Y6.7049 Z0.0983 F180
G01 X-2.3837 Y6.7170 Z0.1207 F180
G01 X-2.2457 Y6.7049 Z0.1430 F180
G01 X-2.1118 Y6.6690 Z0.1546 F180
G01 X-2.0729 Y6.6537 Z0.1547 F180
G01 X-1.9500 Y6.5752 Z0.1474 F180
G01 X-1.8403 Y6.4765 Z0.1190 F180
G01 X-1.7471 Y6.3602 Z0.0739 F180
G01 X-1.6731 Y6.2293 Z0.0211 F180
G01 X-1.6207 Y6.0874 Z-0.0282 F180
G01 X-1.5915 Y5.9385 Z-0.0641 F180
G01 X-1.5861 Y5.7867 Z-0.0800 F180
G01 X-1.6049 Y5.6361 Z-0.0747 F180
G01 X-1.6473 Y5.4910 Z-0.0527 F180
G01 X-1.7119 Y5.3553 Z-0.0231 F180
G01 X-1.7967 Y5.2328 Z0.0032 F180
G01 X-1.8992 Y5.1268 Z0.0159 F180
G01 X-2.0162 Y5.0400 Z0.0086 F180
G01 X-2.1442 Y4.9748 Z-0.0198 F180
G01 X-2.2792 Y4.9327 Z-0.0649 F180
G01 X-2.4172 Y4.9146 Z-0.1177 F180
G01 X-2.5539 Y4.9206 Z-0.1670 F180
G01 X-2.6851 Y4.9501 Z-0.2029 F180
G01 X-2.8069 Y5.0018 Z-0.2188 F180
G01 X-2.9156 Y5.0738 Z-0.2135 F180
G01 X-3.0077 Y5.1635 Z-0.1915 F180
G01 X-3.0806 Y5.2677 Z-0.1619 F180
G01 X-3.1319 Y5.3829 Z-0.1356 F180
G01 X-3.1602 Y5.5051 Z-0.1229 F180
G01 X-3.1644 Y5.6302 Z-0.1302 F180
G01 X-3.1446 Y5.7541 Z-0.1586 F180
G01 X-3.1012 Y5.8726 Z-0.2037 F180
G01 X-3.0356 Y5.9816 Z-0.2565 F180
G01 X-2.9497 Y6.0774 Z-0.3058 F180
G01 X-2.8461 Y6.1567 Z-0.3417 F180
G01 X-2.7281 Y6.2168 Z-0.3576 F180
G01 X-2.5990 Y6.2553 Z-0.3523 F180
G01 X-2.4630 Y6.2707 Z-0.3303 F180
G01 X-2.3239 Y6.2622 Z-0.3007 F180
G01 X-2.1862 Y6.2295 Z-0.2744 F180
G01 X-2.0539 Y6.1733 Z-0.2617 F180
G01 X-1.9310 Y6.0949 Z-0.2690 F180
G01 X-1.8395 Y6.0148 Z-0.2910 F180
G01 X-1.7423 Y5.9014 Z-0.3337 F180
G01 X-1.6640 Y5.7729 Z-0.3859 F180
G01 X-1.6069 Y5.6327 Z-0.4367 F180
G01 X-1.5727 Y5.4848 Z-0.4755 F180
G01 X-1.5623 Y5.3333 Z-0.4952 F180
G01 X-1.5761 Y5.1822 Z-0.4934 F180
G01 X-1.6136 Y5.0359 Z-0.4738 F180
G01 X-1.6736 Y4.8984 Z-0.4447 F180
G01 X-1.7542 Y4.7733 Z-0.4171 F180
G01 X-1.8530 Y4.6642 Z-0.4014 F180
G01 X-1.9670 Y4.5740 Z-0.4049 F180
G01 X-2.0925 Y4.5049 Z-0.4298 F180
G01 X-2.2258 Y4.4587 Z-0.4725 F180
G01 X-2.3627 Y4.4364 Z-0.5247 F180
G01 X-2.4991 Y4.4383 Z-0.5755 F180
G01 X-2.6308 Y4.4638 Z-0.6143 F180
G01 X-2.7538 Y4.5118 Z-0.6340 F180
G01 X-2.8642 Y4.5805 Z-0.6322 F180
G01 X-2.9587 Y4.6673 Z-0.6126 F180
G01 X-3.0343 Y4.7693 Z-0.5835 F180
G01 X-3.0887 Y4.8829 Z-0.5559 F180
G01 X-3.1203 Y5.0042 Z-0.5402 F180
G01 X-3.1280 Y5.1292 Z-0.5437 F180
G01 X-3.1116 Y5.2537 Z-0.5686 F180
G01 X-3.0714 Y5.3734 Z-0.6113 F180
G01 X-3.0088 Y5.4844 Z-0.6635 F180
G01 X-2.9255 Y5.5828 Z-0.7143 F180
G01 X-2.8240 Y5.6653 Z-0.7531 F180
G01 X-2.7074 Y5.7290 Z-0.7728 F180
G01 X-2.5792 Y5.7715 Z-0.7710 F180
G01 X-2.4433 Y5.7911 Z-0.7514 F180
G01 X-2.3037 Y5.7869 Z-0.7223 F180
G01 X-2.1646 Y5.7584 Z-0.6947 F180
G01 X-2.0303 Y5.7063 Z-0.6790 F180
G01 X-1.9046 Y5.6317 Z-0.6825 F180
G01 X-1.7916 Y5.5365 Z-0.7074 F180
G01 X-1.6945 Y5.4231 Z-0.7501 F180
G01 X-1.6284 Y5.3180 Z-0.7930 F180
G01 X-1.5667 Y5.1797 Z-0.8448 F180
G01 X-1.5275 Y5.0330 Z-0.8864 F180
G01 X-1.5121 Y4.8819 Z-0.9097 F180
G01 X-1.5209 Y4.7306 Z-0.9115 F180
G01 X-1.5535 Y4.5832 Z-0.8946 F180
G01 X-1.6089 Y4.4440 Z-0.8664 F180
G01 X-1.6853 Y4.3166 Z-0.8378 F180
G01 X-1.7803 Y4.2046 Z-0.8193 F180
G01 X-1.8910 Y4.1109 Z-0.8191 F180
G01 X-2.0139 Y4.0381 Z-0.8404 F180
G01 X-2.1454 Y3.9879 Z-0.8805 F180
G01 X-2.2812 Y3.9615 Z-0.9317 F180
G01 X-2.4172 Y3.9592 Z-0.9836 F180
G01 X-2.5492 Y3.9807 Z-1.0252 F180
G01 X-2.6732 Y4.0250 Z-1.0485 F180
G01 X-2.7853 Y4.0904 Z-1.0503 F180
G01 X-2.8820 Y4.1743 Z-1.0334 F180
G01 X-2.9603 Y4.2740 Z-1.0052 F180
G01 X-3.0178 Y4.3859 Z-0.9766 F180
G01 X-3.0527 Y4.5063 Z-0.9581 F180
G01 X-3.0638 Y4.6310 Z-0.9579 F180
G01 X-3.0508 Y4.7560 Z-0.9792 F180
G01 X-3.0139 Y4.8770 Z-1.0193 F180
G01 X-2.9543 Y4.9899 Z-1.0705 F180
G01 X-2.8737 Y5.0909 Z-1.1224 F180
G01 X-2.7744 Y5.1765 Z-1.1640 F180
G01 X-2.6594 Y5.2438 Z-1.1873 F180
G01 X-2.5322 Y5.2902 Z-1.1891 F180
G01 X-2.3965 Y5.3141 Z-1.1722 F180
G01 X-2.2565 Z-1.1440 F180
G01 X-2.1162 Y5.2900 Z-1.1154 F180
G01 X-1.9799 Y5.2421 Z-1.0969 F180
G01 X-1.8517 Y5.1715 Z-1.0967 F180
G01 X-1.7354 Y5.0798 Z-1.1180 F180
G01 X-1.6344 Y4.9694 Z-1.1581 F180
G01 X-1.5518 Y4.8434 Z-1.2093 F180
G01 X-1.4901 Y4.7051 Z-1.2612 F180
G01 X-1.4561 Y4.5846 Z-1.2966 F180
G01 X-1.4357 Y4.4341 Z-1.3235 F180
G01 X-1.4395 Y4.2826 Z-1.3291 F180
G01 X-1.4672 Y4.1345 Z-1.3150 F180
G01 X-1.5178 Y3.9936 Z-1.2881 F180
G01 X-1.5899 Y3.8641 Z-1.2587 F180
G01 X-1.6811 Y3.7493 Z-1.2378 F180
G01 X-1.7885 Y3.6524 Z-1.2340 F180
G01 X-1.9088 Y3.5759 Z-1.2515 F180
G01 X-2.0382 Y3.5218 Z-1.2888 F180
G01 X-2.1727 Y3.4913 Z-1.3388 F180
G01 X-2.3082 Y3.4849 Z-1.3913 F180
G01 X-2.4405 Y3.5025 Z-1.4354 F180
G01 X-2.5653 Y3.5431 Z-1.4623 F180
G01 X-2.6790 Y3.6050 Z-1.4679 F180
G01 X-2.7778 Y3.6861 Z-1.4538 F180
G01 X-2.8588 Y3.7834 Z-1.4269 F180
G01 X-2.9193 Y3.8935 Z-1.3975 F180
G01 X-2.9574 Y4.0129 Z-1.3766 F180
G01 X-2.9720 Y4.1373 Z-1.3728 F180
G01 X-2.9624 Y4.2627 Z-1.3903 F180
G01 X-2.9289 Y4.3848 Z-1.4276 F180
G01 X-2.8724 Y4.4996 Z-1.4776 F180
G01 X-2.7945 Y4.6031 Z-1.5301 F180
G01 X-2.6975 Y4.6918 Z-1.5742 F180
G01 X-2.5842 Y4.7626 Z-1.6011 F180
G01 X-2.4581 Y4.8130 Z-1.6067 F180
G01 X-2.3229 Y4.8411 Z-1.5926 F180
G01 X-2.1825 Y4.8455 Z-1.5657 F180
G01 X-2.0411 Y4.8258 Z-1.5363 F180
G01 X-1.9031 Y4.7822 Z-1.5154 F180
G01 X-1.7723 Y4.7156 Z-1.5116 F180
G01 X-1.6529 Y4.6275 Z-1.5291 F180
G01 X-1.5482 Y4.5204 Z-1.5664 F180
G01 X-1.4614 Y4.3971 Z-1.6164 F180
G01 X-1.3951 Y4.2608 Z-1.6689 F180
G01 X-1.3511 Y4.1155 Z-1.7130 F180
G01 X-1.3307 Y3.9650 Z-1.7399 F180
G01 X-1.3320 Y3.8400 Z-1.7461 F180
G01 X-1.3614 Y3.7170 Z-1.7351 F180
G01 X-1.4140 Y3.6006 Z-1.7098 F180
G01 X-1.4883 Y3.4949 Z-1.6800 F180
G01 X-1.5821 Y3.4033 Z-1.6568 F180
G01 X-1.6927 Y3.3292 Z-1.6496 F180
G01 X-1.8169 Y3.2750 Z-1.6633 F180
G01 X-1.9508 Y3.2429 Z-1.6974 F180
G01 X-2.0906 Y3.2343 Z-1.7459 F180
G01 X-2.2321 Y3.2497 Z-1.7988 F180
G01 X-2.3710 Y3.2892 Z-1.8451 F180
G01 X-2.5033 Y3.3519 Z-1.8755 F180
G01 X-2.6250 Y3.4363 Z-1.8849 F180
G01 X-2.7325 Y3.5403 Z-1.8739 F180
G01 X-2.8226 Y3.6610 Z-1.8486 F180
G01 X-2.8927 Y3.7952 Z-1.8188 F180
G01 X-2.9408 Y3.9393 Z-1.7956 F180
G01 X-2.9653 Y4.0892 Z-1.7884 F180
G01 X-2.9658 Y4.2408 Z-1.8021 F180
G01 X-2.9423 Y4.3899 Z-1.8362 F180
G01 X-2.8956 Y4.5323 Z-1.8847 F180
G01 X-2.8271 Y4.6641 Z-1.9376 F180
G01 X-2.7391 Y4.7817 Z-1.9839 F180
G01 X-2.6343 Y4.8819 Z-2.0143 F180
G01 X-2.5160 Y4.9621 Z-2.0237 F180
G01 X-2.3879 Y5.0203 Z-2.0127 F180
G01 X-2.2540 Y5.0550 Z-1.9874 F180
G01 X-2.1183 Y5.0656 Z-1.9576 F180
G01 X-1.9852 Y5.0522 Z-1.9344 F180
G01 X-1.8587 Y5.0155 Z-1.9272 F180
G01 X-1.7429 Y4.9572 Z-1.9409 F180
G01 X-1.6412 Y4.8793 Z-1.9750 F180
G01 X-1.5569 Y4.7846 Z-2.0235 F180
G01 X-1.4927 Y4.6765 Z-2.0764 F180
G01 X-1.4505 Y4.5585 Z-2.1227 F180
G01 X-1.4317 Y4.4346 Z-2.1531 F180
G01 X-1.4371 Y4.3091 Z-2.1625 F180
G01 X-1.4664 Y4.1861 Z-2.1515 F180
G01 X-1.5082 Y4.0895 Z-2.1312 F180
G01 X-1.5780 Y3.9818 Z-2.1014 F180
G01 X-1.6678 Y3.8876 Z-2.0763 F180
G01 X-1.7749 Y3.8104 Z-2.0658 F180
G01 X-1.8961 Y3.7527 Z-2.0757 F180
G01 X-2.0279 Y3.7168 Z-2.1066 F180
G01 X-2.1661 Y3.7041 Z-2.1532 F180
G01 X-2.3068 Y3.7155 Z-2.2061 F180
G01 X-2.4457 Y3.7509 Z-2.2543 F180
G01 X-2.5787 Y3.8098 Z-2.2880 F180
G01 X-2.7017 Y3.8907 Z-2.3012 F180
G01 X-2.8112 Y3.9915 Z-2.2935 F180
G01 X-2.9037 Y4.1097 Z-2.2700 F180
G01 X-2.9767 Y4.2420 Z-2.2402 F180
G01 X-3.0280 Y4.3848 Z-2.2151 F180
G01 X-3.0559 Y4.5341 Z-2.2046 F180
G01 X-3.0599 Y4.6858 Z-2.2145 F180
G01 X-3.0397 Y4.8358 Z-2.2454 F180
G01 X-2.9962 Y4.9798 Z-2.2920 F180
G01 X-2.9306 Y5.1139 Z-2.3449 F180
G01 X-2.8450 Y5.2344 Z-2.3931 F180
G01 X-2.7422 Y5.3380 Z-2.4268 F180
G01 X-2.6252 Y5.4221 Z-2.4400 F180
G01 X-2.4978 Y5.4844 Z-2.4323 F180
G01 X-2.3638 Y5.5234 Z-2.4088 F180
G01 X-2.2273 Y5.5384 Z-2.3790 F180
G01 X-2.0927 Y5.5293 Z-2.3539 F180
G01 X-1.9640 Y5.4968 Z-2.3434 F180
G01 X-1.8452 Y5.4423 Z-2.3533 F180
G01 X-1.7400 Y5.3678 Z-2.3842 F180
G01 X-1.6517 Y5.2760 Z-2.4308 F180
G01 X-1.5829 Y5.1701 Z-2.4837 F180
G01 X-1.5360 Y5.0537 Z-2.5319 F180
G01 X-1.5122 Y4.9307 Z-2.5656 F180
G01 X-1.5125 Y4.8053 Z-2.5788 F180
G01 X-1.5369 Y4.6817 Z-2.5711 F180
G01 X-1.5848 Y4.5641 Z-2.5476 F180
G01 X-1.6546 Y4.4564 Z-2.5178 F180
G01 X-1.7273 Y4.3776 Z-2.4963 F180
G01 X-1.8308 Y4.2973 Z-2.4827 F180
G01 X-1.9490 Y4.2361 Z-2.4888 F180
G01 X-2.0784 Y4.1963 Z-2.5162 F180
G01 X-2.2150 Y4.1796 Z-2.5606 F180
G01 X-2.3547 Y4.1868 Z-2.6133 F180
G01 X-2.4935 Y4.2182 Z-2.6631 F180
G01 X-2.6270 Y4.2732 Z-2.6999 F180
G01 X-2.7512 Y4.3504 Z-2.7169 F180
G01 X-2.8625 Y4.4481 Z-2.7126 F180
G01 X-2.9575 Y4.5635 Z-2.6913 F180
G01 X-3.0333 Y4.6937 Z-2.6618 F180
G01 X-3.0876 Y4.8350 Z-2.6351 F180
G01 X-3.1190 Y4.9836 Z-2.6215 F180
G01 X-3.1264 Y5.1353 Z-2.6276 F180
G01 X-3.1096 Y5.2860 Z-2.6550 F180
G01 X-3.0693 Y5.4314 Z-2.6994 F180
G01 X-3.0066 Y5.5676 Z-2.7521 F180
G01 X-2.9236 Y5.6909 Z-2.8019 F180
G01 X-2.8228 Y5.7978 Z-2.8387 F180
G01 X-2.7072 Y5.8855 Z-2.8556 F180
G01 X-2.5805 Y5.9519 Z-2.8514 F180
G01 X-2.4466 Y5.9952 Z-2.8301 F180
G01 X-2.3095 Y6.0145 Z-2.8006 F180
G01 X-2.1734 Y6.0097 Z-2.7739 F180
G01 X-2.0426 Y5.9814 Z-2.7603 F180
G01 X-1.9210 Y5.9307 Z-2.7664 F180
G01 X-1.8124 Y5.8596 Z-2.7938 F180
G01 X-1.7201 Y5.7707 Z-2.8382 F180
G01 X-1.6469 Y5.6672 Z-2.8908 F180
G01 X-1.5952 Y5.5524 Z-2.9407 F180
G01 X-1.5665 Y5.4304 Z-2.9775 F180
G01 X-1.5618 Y5.3053 Z-2.9944 F180
G01 X-1.5812 Y5.1812 Z-2.9902 F180
G01 X-1.6242 Y5.0623 Z-2.9689 F180
G01 X-1.6895 Y4.9526 Z-2.9394 F180
G01 X-1.7752 Y4.8560 Z-2.9127 F180
G01 X-1.8787 Y4.7756 Z-2.8991 F180
G01 X-1.9752 Y4.7237 Z-2.9026 F180
G01 X-2.1021 Y4.6801 Z-2.9264 F180
G01 X-2.2369 Y4.6593 Z-2.9683 F180
G01 X-2.3756 Y4.6624 Z-3.0203 F180
G01 X-2.5141 Y4.6896 Z-3.0714 F180
G01 X-2.6480 Y4.7405 Z-3.1111 F180
G01 X-2.7733 Y4.8140 Z-3.1318 F180
G01 X-2.8863 Y4.9083 Z-3.1311 F180
G01 X-2.9836 Y5.0209 Z-3.1123 F180
G01 X-3.0621 Y5.1488 Z-3.0835 F180
G01 X-3.1196 Y5.2885 Z-3.0555 F180
G01 X-3.1542 Y5.4361 Z-3.0390 F180
G01 X-3.1650 Y5.5877 Z-3.0414 F180
G01 X-3.1517 Y5.7389 Z-3.0652 F180
G01 X-3.1146 Y5.8856 Z-3.1071 F180
G01 X-3.0550 Y6.0238 Z-3.1591 F180
G01 X-2.9746 Y6.1496 Z-3.2102 F180
G01 X-2.8758 Y6.2597 Z-3.2499 F180
G01 X-2.7618 Y6.3510 Z-3.2706 F180
G01 X-2.6360 Y6.4213 Z-3.2699 F180
G01 X-2.5022 Y6.4688 Z-3.2511 F180
G01 X-2.3646 Y6.4924 Z-3.2223 F180
G01 X-2.2272 Y6.4919 Z-3.1943 F180
G01 X-2.0944 Y6.4676 Z-3.1777 F180
G01 X-1.9701 Y6.4208 Z-3.1802 F180
G01 X-1.8581 Y6.3532 Z-3.2040 F180
G01 X-1.7619 Y6.2673 Z-3.2459 F180
G01 X-1.6844 Y6.1661 Z-3.2979 F180
G01 X-1.6280 Y6.0531 Z-3.3490 F180
G01 X-1.5944 Y5.9321 Z-3.3887 F180
G01 X-1.5847 Y5.8073 Z-3.4094 F180
G01 X-1.5991 Y5.6827 Z-3.4087 F180
G01 X-1.6372 Y5.5627 Z-3.3899 F180
G01 X-1.6979 Y5.4512 Z-3.3611 F180
G01 X-1.7794 Y5.3521 Z-3.3331 F180
G01 X-1.8791 Y5.2687 Z-3.3165 F180
G01 X-1.9942 Y5.2040 Z-3.3190 F180
G01 X-2.1211 Y5.1605 Z-3.3428 F180
G01 X-2.2318 Y5.1416 Z-3.3764 F180
G01 X-2.3689 Y5.1094 Z-3.4158 F1200
G01 X-2.5064 Y5.1014 Z-3.4563 F1200
G01 X-2.6402 Y5.1173 Z-3.4871 F1200
G01 X-2.7660 Y5.1559 Z-3.4999 F1200
G01 X-2.8802 Y5.2158 Z-3.4913 F1200
G01 X-2.9792 Y5.2943 Z-3.4636 F1200
G01 X-3.0599 Y5.3888 Z-3.4242 F1200
G01 X-3.1200 Y5.4957 Z-3.3837 F1200
G01 X-3.1575 Y5.6112 Z-3.3529 F1200
G01 X-3.1712 Y5.7314 Z-3.3401 F1200
G01 X-3.1609 Y5.8520 Z-3.3487 F1200
G01 X-3.1266 Y5.9688 Z-3.3764 F1200
G01 X-3.0696 Y6.0778 Z-3.4158 F1200
G01 X-2.9914 Y6.1750 Z-3.4563 F1200
G01 X-2.8944 Y6.2571 Z-3.4871 F1200
G01 X-2.7816 Y6.3209 Z-3.4999 F1200
G01 X-2.6563 Y6.3640 Z-3.4913 F1200
G01 X-2.5224 Y6.3846 Z-3.4636 F1200
G01 X-2.3838 Y6.3815 Z-3.4242 F1200
G01 X-2.2448 Y6.3542 Z-3.3837 F1200
G01 X-2.1096 Y6.3030 Z-3.3529 F1200
G01 X-1.9823 Y6.2290 Z-3.3401 F1200
G01 X-1.8666 Y6.1339 Z-3.3487 F1200
G01 X-1.7662 Y6.0200 Z-3.3764 F1200
G01 X-1.6840 Y5.8903 Z-3.4158 F1200
G01 X-1.6225 Y5.7481 Z-3.4563 F1200
G01 X-1.5835 Y5.5973 Z-3.4871 F1200
G01 X-1.5682 Y5.4418 Z-3.4999 F1200
G01 X-1.5771 Y5.2859 Z-3.4913 F1200
G01 X-1.6099 Y5.1338 Z-3.4636 F1200
G01 X-1.6443 Y5.0370 Z-3.4382 F1200
G01 X-1.7130 Y4.9002 Z-3.3968 F1200
G01 X-1.8013 Y4.7774 Z-3.3616 F1200
G01 X-1.9066 Y4.6719 Z-3.3421 F1200
G01 X-2.0254 Y4.5864 Z-3.3434 F1200
G01 X-2.1543 Y4.5228 Z-3.3653 F1200
G01 X-2.2891 Y4.4826 Z-3.4018 F1200
G01 X-2.4258 Y4.4666 Z-3.4432 F1200
G01 X-2.5602 Y4.4745 Z-3.4784 F1200
G01 X-2.6880 Y4.5058 Z-3.4979 F1200
G01 X-2.8054 Y4.5588 Z-3.4966 F1200
G01 X-2.9087 Y4.6314 Z-3.4747 F1200
G01 X-2.9948 Y4.7210 Z-3.4382 F1200
G01 X-3.0609 Y4.8241 Z-3.3968 F1200
G01 X-3.1050 Y4.9373 Z-3.3616 F1200
G01 X-3.1257 Y5.0564 Z-3.3421 F1200
G01 X-3.1224 Y5.1774 Z-3.3434 F1200
G01 X-3.0950 Y5.2961 Z-3.3653 F1200
G01 X-3.0443 Y5.4082 Z-3.4018 F1200
G01 X-2.9718 Y5.5099 Z-3.4432 F1200
G01 X-2.8798 Y5.5975 Z-3.4784 F1200
G01 X-2.7708 Y5.6679 Z-3.4979 F1200
G01 X-2.6481 Y5.7183 Z-3.4966 F1200
G01 X-2.5156 Y5.7468 Z-3.4747 F1200
G01 X-2.3770 Y5.7518 Z-3.4382 F1200
G01 X-2.2365 Y5.7327 Z-3.3968 F1200
G01 X-2.0984 Y5.6896 Z-3.3616 F1200
G01 X-1.9669 Y5.6233 Z-3.3421 F1200
G01 X-1.8457 Y5.5351 Z-3.3434 F1200
G01 X-1.7387 Y5.4274 Z-3.3653 F1200
G01 X-1.6488 Y5.3027 Z-3.4018 F1200
G01 X-1.6002 Y5.2123 Z-3.4294 F1200
G01 X-1.5436 Y5.0671 Z-3.4678 F1200
G01 X-1.5100 Y4.9145 Z-3.4935 F1200
G01 X-1.5003 Y4.7587 Z-3.4994 F1200
G01 X-1.5148 Y4.6038 Z-3.4841 F1200
G01 X-1.5528 Y4.4541 Z-3.4516 F1200
G01 X-1.6133 Y4.3135 Z-3.4106 F1200
G01 X-1.6941 Y4.1857 Z-3.3722 F1200
G01 X-1.7929 Y4.0742 Z-3.3465 F1200
G01 X-1.9064 Y3.9819 Z-3.3406 F1200
G01 X-2.0312 Y3.9108 Z-3.3559 F1200
G01 X-2.1634 Y3.8628 Z-3.3884 F1200
G01 X-2.2988 Y3.8388 Z-3.4294 F1200
G01 X-2.4332 Z-3.4678 F1200
G01 X-2.5626 Y3.8625 Z-3.4935 F1200
G01 X-2.6828 Y3.9085 Z-3.4994 F1200
G01 X-2.7901 Y3.9750 Z-3.4841 F1200
G01 X-2.8812 Y4.0593 Z-3.4516 F1200
G01 X-2.9531 Y4.1585 Z-3.4106 F1200
G01 X-3.0037 Y4.2689 Z-3.3722 F1200
G01 X-3.0313 Y4.3866 Z-3.3465 F1200
G01 X-3.0350 Y4.5076 Z-3.3406 F1200
G01 X-3.0145 Y4.6277 Z-3.3559 F1200
G01 X-2.9704 Y4.7426 Z-3.3884 F1200
G01 X-2.9040 Y4.8484 Z-3.4294 F1200
G01 X-2.8171 Y4.9413 Z-3.4678 F1200
G01 X-2.7123 Y5.0180 Z-3.4935 F1200
G01 X-2.5928 Y5.0755 Z-3.4994 F1200
G01 X-2.4620 Y5.1117 Z-3.4841 F1200
G01 X-2.3238 Y5.1249 Z-3.4516 F1200
G01 X-2.1824 Y5.1142 Z-3.4106 F1200
G01 X-2.0889 Y5.0937 Z-3.3842 F1200
G01 X-1.9503 Y5.0433 Z-3.3532 F1200
G01 X-1.8194 Y4.9701 Z-3.3401 F1200
G01 X-1.7002 Y4.8756 Z-3.3485 F1200
G01 X-1.5962 Y4.7624 Z-3.3760 F1200
G01 X-1.5104 Y4.6333 Z-3.4153 F1200
G01 X-1.4453 Y4.4917 Z-3.4558 F1200
G01 X-1.4026 Y4.3414 Z-3.4868 F1200
G01 X-1.3837 Y4.1864 Z-3.4999 F1200
G01 X-1.3890 Y4.0310 Z-3.4915 F1200
G01 X-1.4181 Y3.8793 Z-3.4640 F1200
G01 X-1.4700 Y3.7354 Z-3.4247 F1200
G01 X-1.5432 Y3.6032 Z-3.3842 F1200
G01 X-1.6351 Y3.4861 Z-3.3532 F1200
G01 X-1.7429 Y3.3872 Z-3.3401 F1200
G01 X-1.8632 Y3.3090 Z-3.3485 F1200
G01 X-1.9922 Y3.2533 Z-3.3760 F1200
G01 X-2.1259 Y3.2214 Z-3.4153 F1200
G01 X-2.2600 Y3.2135 Z-3.4558 F1200
G01 X-2.3904 Y3.2296 Z-3.4868 F1200
G01 X-2.5130 Y3.2685 Z-3.4999 F1200
G01 X-2.6239 Y3.3286 Z-3.4915 F1200
G01 X-2.7197 Y3.4074 Z-3.4640 F1200
G01 X-2.7973 Y3.5022 Z-3.4247 F1200
G01 X-2.8542 Y3.6094 Z-3.3842 F1200
G01 X-2.8886 Y3.7254 Z-3.3532 F1200
G01 X-2.8992 Y3.8460 Z-3.3401 F1200
G01 X-2.8857 Y3.9671 Z-3.3485 F1200
G01 X-2.8484 Y4.0844 Z-3.3760 F1200
G01 X-2.7882 Y4.1940 Z-3.4153 F1200
G01 X-2.7068 Y4.2918 Z-3.4558 F1200
G01 X-2.6423 Y4.3486 Z-3.4780 F1200
G01 X-2.5302 Y4.4198 Z-3.4978 F1200
G01 X-2.4043 Y4.4712 Z-3.4967 F1200
G01 X-2.2685 Y4.5006 Z-3.4751 F1200
G01 X-2.1266 Y4.5065 Z-3.4387 F1200
G01 X-1.9828 Y4.4884 Z-3.3973 F1200
G01 X-1.8413 Y4.4463 Z-3.3620 F1200
G01 X-1.7063 Y4.3809 Z-3.3422 F1200
G01 X-1.5817 Y4.2937 Z-3.3433 F1200
G01 X-1.4711 Y4.1868 Z-3.3649 F1200
G01 X-1.3777 Y4.0630 Z-3.4013 F1200
G01 X-1.3043 Y3.9255 Z-3.4427 F1200
G01 X-1.2528 Y3.7780 Z-3.4780 F1200
G01 X-1.2247 Y3.6244 Z-3.4978 F1200
G01 X-1.2207 Y3.4690 Z-3.4967 F1200
G01 X-1.2407 Y3.3158 Z-3.4751 F1200
G01 X-1.2840 Y3.1692 Z-3.4387 F1200
G01 X-1.3492 Y3.0329 Z-3.3973 F1200
G01 X-1.4339 Y2.9106 Z-3.3620 F1200
G01 X-1.5356 Y2.8056 Z-3.3422 F1200
G01 X-1.6510 Y2.7205 Z-3.3433 F1200
G01 X-1.7764 Y2.6574 Z-3.3649 F1200
G01 X-1.9079 Y2.6177 Z-3.4013 F1200
G01 X-2.0412 Y2.6020 Z-3.4427 F1200
G01 X-2.1723 Y2.6104 Z-3.4780 F1200
G01 X-2.2969 Y2.6420 Z-3.4978 F1200
G01 X-2.4110 Y2.6955 Z-3.4967 F1200
G01 X-2.5112 Y2.7686 Z-3.4751 F1200
G01 X-2.5941 Y2.8587 Z-3.4387 F1200
G01 X-2.6571 Y2.9624 Z-3.3973 F1200
G01 X-2.6981 Y3.0762 Z-3.3620 F1200
G01 X-2.7125 Y3.1552 Z-3.3467 F1200
G01 X-2.7131 Y3.2771 Z-3.3405 F1200
G01 X-2.6896 Y3.3981 Z-3.3556 F1200
G01 X-2.6425 Y3.5140 Z-3.3880 F1200
G01 X-2.5730 Y3.6208 Z-3.4289 F1200
G01 X-2.4830 Y3.7148 Z-3.4675 F1200
G01 X-2.3752 Y3.7926 Z-3.4933 F1200
G01 X-2.2525 Y3.8513 Z-3.4995 F1200
G01 X-2.1185 Y3.8886 Z-3.4844 F1200
G01 X-1.9771 Y3.9030 Z-3.4520 F1200
G01 X-1.8324 Y3.8934 Z-3.4111 F1200
G01 X-1.6886 Y3.8597 Z-3.3725 F1200
G01 X-1.5498 Y3.8024 Z-3.3467 F1200
G01 X-1.4202 Y3.7227 Z-3.3405 F1200
G01 X-1.3034 Y3.6225 Z-3.3556 F1200
G01 X-1.2029 Y3.5044 Z-3.3880 F1200
G01 X-1.1213 Y3.3715 Z-3.4289 F1200
G01 X-1.0612 Y3.2274 Z-3.4675 F1200
G01 X-1.0240 Y3.0758 Z-3.4933 F1200
G01 X-1.0108 Y2.9208 Z-3.4995 F1200
G01 X-1.0217 Y2.7668 Z-3.4844 F1200
G01 X-1.0562 Y2.6179 Z-3.4520 F1200
G01 X-1.1131 Y2.4781 Z-3.4111 F1200
G01 X-1.1905 Y2.3511 Z-3.3725 F1200
G01 X-1.2857 Y2.2403 Z-3.3467 F1200
G01 X-1.3958 Y2.1486 Z-3.3405 F1200
G01 X-1.5172 Y2.0782 Z-3.3556 F1200
G01 X-1.6460 Y2.0309 Z-3.3880 F1200
G01 X-1.7781 Y2.0074 Z-3.4289 F1200
G01 X-1.9093 Y2.0081 Z-3.4675 F1200
G01 X-2.0354 Y2.0325 Z-3.4933 F1200
G01 X-2.1143 Y2.0610 Z-3.4998 F1200
G01 X-2.2221 Y2.1220 Z-3.4917 F1200
G01 X-2.3148 Y2.2017 Z-3.4644 F1200
G01 X-2.3894 Y2.2975 Z-3.4252 F1200
G01 X-2.4433 Y2.4057 Z-3.3846 F1200
G01 X-2.4747 Y2.5227 Z-3.3535 F1200
G01 X-2.4824 Y2.6444 Z-3.3402 F1200
G01 X-2.4660 Y2.7666 Z-3.3483 F1200
G01 X-2.4257 Y2.8851 Z-3.3756 F1200
G01 X-2.3625 Y2.9959 Z-3.4148 F1200
G01 X-2.2781 Y3.0950 Z-3.4554 F1200
G01 X-2.1749 Y3.1791 Z-3.4865 F1200
G01 X-2.0558 Y3.2449 Z-3.4998 F1200
G01 X-1.9241 Y3.2901 Z-3.4917 F1200
G01 X-1.7837 Y3.3128 Z-3.4644 F1200
G01 X-1.6386 Y3.3118 Z-3.4252 F1200
G01 X-1.4930 Y3.2867 Z-3.3846 F1200
G01 X-1.3510 Y3.2376 Z-3.3535 F1200
G01 X-1.2168 Y3.1657 Z-3.3402 F1200
G01 X-1.0943 Y3.0726 Z-3.3483 F1200
G01 X-0.9868 Y2.9607 Z-3.3756 F1200
G01 X-0.8975 Y2.8329 Z-3.4148 F1200
G01 X-0.8289 Y2.6925 Z-3.4554 F1200
G01 X-0.7828 Y2.5434 Z-3.4865 F1200
G01 X-0.7604 Y2.3896 Z-3.4998 F1200
G01 X-0.7621 Y2.2353 Z-3.4917 F1200
G01 X-0.7877 Y2.0846 Z-3.4644 F1200
G01 X-0.8362 Y1.9417 Z-3.4252 F1200
G01 X-0.9059 Y1.8104 Z-3.3846 F1200
G01 X-0.9944 Y1.6943 Z-3.3535 F1200
G01 X-1.0988 Y1.5963 Z-3.3402 F1200
G01 X-1.1751 Y1.5426 Z-3.3432 F1200
G01 X-1.2973 Y1.4805 Z-3.3646 F1200
G01 X-1.4256 Y1.4419 Z-3.4009 F1200
G01 X-1.5558 Y1.4273 Z-3.4423 F1200
G01 X-1.6837 Y1.4367 Z-3.4777 F1200
G01 X-1.8052 Y1.4694 Z-3.4977 F1200
G01 X-1.9164 Y1.5240 Z-3.4968 F1200
G01 X-2.0135 Y1.5982 Z-3.4754 F1200
G01 X-2.0935 Y1.6894 Z-3.4391 F1200
G01 X-2.1536 Y1.7943 Z-3.3977 F1200
G01 X-2.1917 Y1.9093 Z-3.3623 F1200
G01 X-2.2065 Y2.0304 Z-3.3423 F1200
G01 X-2.1972 Y2.1534 Z-3.3432 F1200
G01 X-2.1638 Y2.2742 Z-3.3646 F1200
G01 X-2.1071 Y2.3885 Z-3.4009 F1200
G01 X-2.0287 Y2.4925 Z-3.4423 F1200
G01 X-1.9305 Y2.5825 Z-3.4777 F1200
G01 X-1.8153 Y2.6553 Z-3.4977 F1200
G01 X-1.6865 Y2.7082 Z-3.4968 F1200
G01 X-1.5476 Y2.7392 Z-3.4754 F1200
G01 X-1.4026 Y2.7467 Z-3.4391 F1200
G01 X-1.2556 Y2.7302 Z-3.3977 F1200
G01 X-1.1109 Y2.6897 Z-3.3623 F1200
G01 X-0.9727 Y2.6259 Z-3.3423 F1200
G01 X-0.8447 Y2.5402 Z-3.3432 F1200
G01 X-0.7308 Y2.4348 Z-3.3646 F1200
G01 X-0.6341 Y2.3125 Z-3.4009 F1200
G01 X-0.5572 Y2.1765 Z-3.4423 F1200
G01 X-0.5024 Y2.0304 Z-3.4777 F1200
G01 X-0.4708 Y1.8782 Z-3.4977 F1200
G01 X-0.4634 Y1.7241 Z-3.4968 F1200
G01 X-0.4718 Y1.6229 Z-3.4847 F1200
G01 X-0.5030 Y1.4754 Z-3.4525 F1200
G01 X-0.5566 Y1.3370 Z-3.4116 F1200
G01 X-0.6306 Y1.2114 Z-3.3729 F1200
G01 X-0.7227 Y1.1019 Z-3.3469 F1200
G01 X-0.8295 Y1.0115 Z-3.3404 F1200
G01 X-0.9478 Y0.9424 Z-3.3553 F1200
G01 X-1.0734 Y0.8963 Z-3.3875 F1200
G01 X-1.2025 Y0.8741 Z-3.4284 F1200
G01 X-1.3306 Y0.8761 Z-3.4671 F1200
G01 X-1.4538 Y0.9016 Z-3.4931 F1200
G01 X-1.5679 Y0.9496 Z-3.4996 F1200
G01 X-1.6691 Y1.0181 Z-3.4847 F1200
G01 X-1.7543 Y1.1045 Z-3.4525 F1200
G01 X-1.8203 Y1.2057 Z-3.4116 F1200
G01 X-1.8651 Y1.3183 Z-3.3729 F1200
G01 X-1.8868 Y1.4384 Z-3.3469 F1200
G01 X-1.8847 Y1.5618 Z-3.3404 F1200
G01 X-1.8584 Y1.6844 Z-3.3553 F1200
G01 X-1.8084 Y1.8019 Z-3.3875 F1200
G01 X-1.7361 Y1.9104 Z-3.4284 F1200
G01 X-1.6433 Y2.0060 Z-3.4671 F1200
G01 X-1.5326 Y2.0855 Z-3.4931 F1200
G01 X-1.4070 Y2.1460 Z-3.4996 F1200
G01 X-1.2700 Y2.1851 Z-3.4847 F1200
G01 X-1.1256 Y2.2012 Z-3.4525 F1200
G01 X-0.9779 Y2.1935 Z-3.4116 F1200
G01 X-0.8310 Y2.1615 Z-3.3729 F1200
G01 X-0.6891 Y2.1060 Z-3.3469 F1200
G01 X-0.5563 Y2.0281 Z-3.3404 F1200
G01 X-0.4363 Y1.9296 Z-3.3553 F1200
G01 X-0.3654 Y1.8543 Z-3.3752 F1200
G01 X-0.2730 Y1.7284 Z-3.4143 F1200
G01 X-0.2012 Y1.5899 Z-3.4550 F1200
G01 X-0.1518 Y1.4425 Z-3.4863 F1200
G01 X-0.1262 Y1.2905 Z-3.4998 F1200
G01 X-0.1247 Y1.1378 Z-3.4919 F1200
G01 X-0.1471 Y0.9888 Z-3.4648 F1200
G01 X-0.1924 Y0.8475 Z-3.4257 F1200
G01 X-0.2588 Y0.7178 Z-3.3850 F1200
G01 X-0.3442 Y0.6032 Z-3.3537 F1200
G01 X-0.4455 Y0.5067 Z-3.3402 F1200
G01 X-0.5593 Y0.4309 Z-3.3481 F1200
G01 X-0.6820 Y0.3775 Z-3.3752 F1200
G01 X-0.8094 Y0.3478 Z-3.4143 F1200
G01 X-0.9374 Y0.3423 Z-3.4550 F1200
G01 X-1.0618 Y0.3607 Z-3.4863 F1200
G01 X-1.1784 Y0.4019 Z-3.4998 F1200
G01 X-1.2834 Y0.4643 Z-3.4919 F1200
G01 X-1.3734 Y0.5457 Z-3.4648 F1200
G01 X-1.4452 Y0.6429 Z-3.4257 F1200
G01 X-1.4964 Y0.7527 Z-3.3850 F1200
G01 X-1.5251 Y0.8714 Z-3.3537 F1200
G01 X-1.5301 Y0.9948 Z-3.3402 F1200
G01 X-1.5110 Y1.1187 Z-3.3481 F1200
G01 X-1.4680 Y1.2390 Z-3.3752 F1200
G01 X-1.4021 Y1.3516 Z-3.4143 F1200
G01 X-1.3150 Y1.4526 Z-3.4550 F1200
G01 X-1.2090 Y1.5386 Z-3.4863 F1200
G01 X-1.0871 Y1.6064 Z-3.4998 F1200
G01 X-0.9526 Y1.6535 Z-3.4919 F1200
G01 X-0.8093 Y1.6782 Z-3.4648 F1200
G01 X-0.7115 Y1.6815 Z-3.4396 F1200
G01 X-0.5617 Y1.6672 Z-3.3982 F1200
G01 X-0.4141 Y1.6288 Z-3.3626 F1200
G01 X-0.2729 Y1.5672 Z-3.3424 F1200
G01 X-0.1420 Y1.4837 Z-3.3430 F1200
G01 X-0.0251 Y1.3804 Z-3.3643 F1200
G01 X0.0747 Y1.2602 Z-3.4004 F1200
G01 X0.1546 Y1.1262 Z-3.4418 F1200
G01 X0.2126 Y0.9821 Z-3.4774 F1200
G01 X0.2472 Y0.8318 Z-3.4976 F1200
G01 X0.2578 Y0.6796 Z-3.4970 F1200
G01 X0.2443 Y0.5296 Z-3.4757 F1200
G01 X0.2074 Y0.3860 Z-3.4396 F1200
G01 X0.1488 Y0.2527 Z-3.3982 F1200
G01 X0.0704 Y0.1333 Z-3.3626 F1200
G01 X-0.0250 Y0.0311 Z-3.3424 F1200
G01 X-0.1341 Y-0.0513 Z-3.3430 F1200
G01 X-0.2533 Y-0.1117 Z-3.3643 F1200
G01 X-0.3787 Y-0.1487 Z-3.4004 F1200
G01 X-0.5060 Y-0.1617 Z-3.4418 F1200
G01 X-0.6312 Y-0.1506 Z-3.4774 F1200
G01 X-0.7500 Y-0.1163 Z-3.4976 F1200
G01 X-0.8584 Y-0.0600 Z-3.4970 F1200
G01 X-0.9529 Y0.0159 Z-3.4757 F1200
G01 X-1.0303 Y0.1088 Z-3.4396 F1200
G01 X-1.0878 Y0.2155 Z-3.3982 F1200
G01 X-1.1233 Y0.3323 Z-3.3626 F1200
G01 X-1.1355 Y0.4553 Z-3.3424 F1200
G01 X-1.1236 Y0.5802 Z-3.3430 F1200
G01 X-1.0877 Y0.7029 Z-3.3643 F1200
G01 X-1.0284 Y0.8192 Z-3.4004 F1200
G01 X-0.9770 Y0.8909 Z-3.4280 F1200
G01 X-0.8817 Y0.9888 Z-3.4667 F1200
G01 X-0.7684 Y1.0706 Z-3.4929 F1200
G01 X-0.6402 Y1.1334 Z-3.4996 F1200
G01 X-0.5007 Y1.1748 Z-3.4850 F1200
G01 X-0.3536 Y1.1933 Z-3.4529 F1200
G01 X-0.2032 Y1.1879 Z-3.4120 F1200
G01 X-0.0536 Y1.1583 Z-3.3733 F1200
G01 X0.0911 Y1.1051 Z-3.3471 F1200
G01 X0.2268 Y1.0295 Z-3.3404 F1200
G01 X0.3496 Y0.9334 Z-3.3550 F1200
G01 X0.4564 Y0.8193 Z-3.3871 F1200
G01 X0.5441 Y0.6903 Z-3.4280 F1200
G01 X0.6106 Y0.5500 Z-3.4667 F1200
G01 X0.6540 Y0.4021 Z-3.4929 F1200
G01 X0.6736 Y0.2508 Z-3.4996 F1200
G01 X0.6690 Y0.1004 Z-3.4850 F1200
G01 X0.6408 Y-0.0451 Z-3.4529 F1200
G01 X0.5901 Y-0.1816 Z-3.4120 F1200
G01 X0.5190 Y-0.3053 Z-3.3733 F1200
G01 X0.4299 Y-0.4129 Z-3.3471 F1200
G01 X0.3258 Y-0.5014 Z-3.3404 F1200
G01 X0.2104 Y-0.5687 Z-3.3550 F1200
G01 X0.0875 Y-0.6130 Z-3.3871 F1200
G01 X-0.0388 Y-0.6334 Z-3.4280 F1200
G01 X-0.1643 Y-0.6296 Z-3.4667 F1200
G01 X-0.2848 Y-0.6022 Z-3.4929 F1200
G01 X-0.3963 Y-0.5524 Z-3.4996 F1200
G01 X-0.4950 Y-0.4820 Z-3.4850 F1200
G01 X-0.5776 Y-0.3937 Z-3.4529 F1200
G01 X-0.6412 Y-0.2905 Z-3.4120 F1200
G01 X-0.6717 Y-0.2156 Z-3.3854 F1200
G01 X-0.6981 Y-0.0948 Z-3.3540 F1200
G01 X-0.7008 Y0.0308 Z-3.3402 F1200
G01 X-0.6794 Y0.1570 Z-3.3479 F1200
G01 X-0.6341 Y0.2797 Z-3.3748 F1200
G01 X-0.5659 Y0.3946 Z-3.4139 F1200
G01 X-0.4764 Y0.4980 Z-3.4546 F1200
G01 X-0.3681 Y0.5864 Z-3.4860 F1200
G01 X-0.2438 Y0.6567 Z-3.4998 F1200
G01 X-0.1068 Y0.7063 Z-3.4921 F1200
G01 X0.0390 Y0.7335 Z-3.4652 F1200
G01 X0.1895 Y0.7370 Z-3.4261 F1200
G01 X0.3407 Y0.7164 Z-3.3854 F1200
G01 X0.4883 Y0.6719 Z-3.3540 F1200
G01 X0.6283 Y0.6044 Z-3.3402 F1200
G01 X0.7567 Y0.5158 Z-3.3479 F1200
G01 X0.8700 Y0.4083 Z-3.3748 F1200
G01 X0.9653 Y0.2847 Z-3.4139 F1200
G01 X1.0399 Y0.1486 Z-3.4546 F1200
G01 X1.0920 Y0.0036 Z-3.4860 F1200
G01 X1.1205 Y-0.1462 Z-3.4998 F1200
G01 X1.1249 Y-0.2966 Z-3.4921 F1200
G01 X1.1053 Y-0.4434 Z-3.4652 F1200
G01 X1.0629 Y-0.5826 Z-3.4261 F1200
G01 X0.9992 Y-0.7102 Z-3.3854 F1200
G01 X0.9166 Y-0.8227 Z-3.3540 F1200
G01 X0.8180 Y-0.9172 Z-3.3402 F1200
G01 X0.7069 Y-0.9910 Z-3.3479 F1200
G01 X0.5869 Y-1.0424 Z-3.3748 F1200
G01 X0.4620 Y-1.0701 Z-3.4139 F1200
G01 X0.3366 Y-1.0736 Z-3.4546 F1200
G01 X0.2552 Y-1.0627 Z-3.4771 F1200
G01 X0.1387 Y-1.0262 Z-3.4975 F1200
G01 X0.0326 Y-0.9678 Z-3.4971 F1200
G01 X-0.0597 Y-0.8896 Z-3.4761 F1200
G01 X-0.1348 Y-0.7945 Z-3.4400 F1200
G01 X-0.1901 Y-0.6855 Z-3.3986 F1200
G01 X-0.2235 Y-0.5664 Z-3.3629 F1200
G01 X-0.2336 Y-0.4411 Z-3.3425 F1200
G01 X-0.2195 Y-0.3137 Z-3.3429 F1200
G01 X-0.1814 Y-0.1885 Z-3.3639 F1200
G01 X-0.1200 Y-0.0697 Z-3.4000 F1200
G01 X-0.0368 Y0.0389 Z-3.4414 F1200
G01 X0.0663 Y0.1336 Z-3.4771 F1200
G01 X0.1863 Y0.2111 Z-3.4975 F1200
G01 X0.3202 Y0.2688 Z-3.4971 F1200
G01 X0.4641 Y0.3046 Z-3.4761 F1200
G01 X0.6143 Y0.3170 Z-3.4400 F1200
G01 X0.7665 Y0.3054 Z-3.3986 F1200
G01 X0.9166 Y0.2697 Z-3.3629 F1200
G01 X1.0603 Y0.2107 Z-3.3425 F1200
G01 X1.1937 Y0.1298 Z-3.3429 F1200
G01 X1.3133 Y0.0292 Z-3.3639 F1200
G01 X1.4157 Y-0.0884 Z-3.4000 F1200
G01 X1.4983 Y-0.2199 Z-3.4414 F1200
G01 X1.5589 Y-0.3615 Z-3.4771 F1200
G01 X1.5962 Y-0.5092 Z-3.4975 F1200
G01 X1.6095 Y-0.6590 Z-3.4971 F1200
G01 X1.5986 Y-0.8067 Z-3.4761 F1200
G01 X1.5645 Y-0.9480 Z-3.4400 F1200
G01 X1.5085 Y-1.0790 Z-3.3986 F1200
G01 X1.4328 Y-1.1962 Z-3.3629 F1200
G01 X1.3730 Y-1.2646 Z-3.3473 F1200
G01 X1.2714 Y-1.3508 Z-3.3404 F1200
G01 X1.1583 Y-1.4157 Z-3.3548 F1200
G01 X1.0377 Y-1.4577 Z-3.3867 F1200
G01 X0.9137 Y-1.4758 Z-3.4275 F1200
G01 X0.7904 Y-1.4697 Z-3.4663 F1200
G01 X0.6721 Y-1.4400 Z-3.4927 F1200
G01 X0.5627 Y-1.3879 Z-3.4996 F1200
G01 X0.4661 Y-1.3152 Z-3.4852 F1200
G01 X0.3856 Y-1.2245 Z-3.4533 F1200
G01 X0.3240 Y-1.1189 Z-3.4125 F1200
G01 X0.2837 Y-1.0018 Z-3.3737 F1200
G01 X0.2664 Y-0.8773 Z-3.3473 F1200
G01 X0.2730 Y-0.7492 Z-3.3404 F1200
G01 X0.3037 Y-0.6219 Z-3.3548 F1200
G01 X0.3581 Y-0.4996 Z-3.3867 F1200
G01 X0.4349 Y-0.3862 Z-3.4275 F1200
G01 X0.5322 Y-0.2856 Z-3.4663 F1200
G01 X0.6476 Y-0.2011 Z-3.4927 F1200
G01 X0.7778 Y-0.1355 Z-3.4996 F1200
G01 X0.9195 Y-0.0912 Z-3.4852 F1200
G01 X1.0688 Y-0.0699 Z-3.4533 F1200
G01 X1.2215 Y-0.0725 Z-3.4125 F1200
G01 X1.3734 Y-0.0992 Z-3.3737 F1200
G01 X1.5204 Y-0.1496 Z-3.3473 F1200
G01 X1.6585 Y-0.2223 Z-3.3404 F1200
G01 X1.7838 Y-0.3157 Z-3.3548 F1200
G01 X1.8930 Y-0.4270 Z-3.3867 F1200
G01 X1.9832 Y-0.5533 Z-3.4275 F1200
G01 X2.0521 Y-0.6910 Z-3.4663 F1200
G01 X2.0981 Y-0.8362 Z-3.4927 F1200
G01 X2.1155 Y-0.9347 Z-3.4997 F1200
G01 X2.1222 Y-1.0824 Z-3.4923 F1200
G01 X2.1050 Y-1.2266 Z-3.4656 F1200
G01 X2.0648 Y-1.3631 Z-3.4266 F1200
G01 X2.0035 Y-1.4881 Z-3.3858 F1200
G01 X1.9232 Y-1.5982 Z-3.3543 F1200
G01 X1.8269 Y-1.6901 Z-3.3403 F1200
G01 X1.7179 Y-1.7615 Z-3.3477 F1200
G01 X1.6001 Y-1.8104 Z-3.3744 F1200
G01 X1.4774 Y-1.8357 Z-3.4134 F1200
G01 X1.3540 Y-1.8368 Z-3.4542 F1200
G01 X1.2342 Y-1.8140 Z-3.4857 F1200
G01 X1.1220 Y-1.7683 Z-3.4997 F1200
G01 X1.0213 Y-1.7013 Z-3.4923 F1200
G01 X0.9356 Y-1.6155 Z-3.4656 F1200
G01 X0.8680 Y-1.5136 Z-3.4266 F1200
G01 X0.8210 Y-1.3990 Z-3.3858 F1200
G01 X0.7964 Y-1.2756 Z-3.3543 F1200
G01 X0.7955 Y-1.1473 Z-3.3403 F1200
G01 X0.8188 Y-1.0183 Z-3.3477 F1200
G01 X0.8659 Y-0.8929 Z-3.3744 F1200
G01 X0.9360 Y-0.7751 Z-3.4134 F1200
G01 X1.0273 Y-0.6689 Z-3.4542 F1200
G01 X1.1375 Y-0.5776 Z-3.4857 F1200
G01 X1.2637 Y-0.5044 Z-3.4997 F1200
G01 X1.4027 Y-0.4518 Z-3.4923 F1200
G01 X1.5504 Y-0.4216 Z-3.4656 F1200
G01 X1.7031 Y-0.4151 Z-3.4266 F1200
G01 X1.8564 Y-0.4328 Z-3.3858 F1200
G01 X2.0061 Y-0.4744 Z-3.3543 F1200
G01 X2.1483 Y-0.5388 Z-3.3403 F1200
G01 X2.2364 Y-0.5934 Z-3.3428 F1200
G01 X2.3580 Y-0.6910 Z-3.3636 F1200
G01 X2.4625 Y-0.8056 Z-3.3995 F1200
G01 X2.5472 Y-0.9341 Z-3.4409 F1200
G01 X2.6101 Y-1.0727 Z-3.4767 F1200
G01 X2.6495 Y-1.2176 Z-3.4973 F1200
G01 X2.6650 Y-1.3646 Z-3.4972 F1200
G01 X2.6563 Y-1.5094 Z-3.4764 F1200
G01 X2.6244 Y-1.6480 Z-3.4405 F1200
G01 X2.5705 Y-1.7764 Z-3.3991 F1200
G01 X2.4969 Y-1.8908 Z-3.3633 F1200
G01 X2.4062 Y-1.9882 Z-3.3427 F1200
G01 X2.3016 Y-2.0658 Z-3.3428 F1200
G01 X2.1869 Y-2.1214 Z-3.3636 F1200
G01 X2.0660 Y-2.1538 Z-3.3995 F1200
G01 X1.9429 Y-2.1620 Z-3.4409 F1200
G01 X1.8220 Y-2.1462 Z-3.4767 F1200
G01 X1.7074 Y-2.1071 Z-3.4973 F1200
G01 X1.6030 Y-2.0461 Z-3.4972 F1200
G01 X1.5125 Y-1.9653 Z-3.4764 F1200
G01 X1.4390 Y-1.8675 Z-3.4405 F1200
G01 X1.3854 Y-1.7558 Z-3.3991 F1200
G01 X1.3537 Y-1.6340 Z-3.3633 F1200
G01 X1.3453 Y-1.5059 Z-3.3427 F1200
G01 X1.3609 Y-1.3757 Z-3.3428 F1200
G01 X1.4007 Y-1.2476 Z-3.3636 F1200
G01 X1.4637 Y-1.1258 Z-3.3995 F1200
G01 X1.5487 Y-1.0143 Z-3.4409 F1200
G01 X1.6534 Y-0.9166 Z-3.4767 F1200
G01 X1.7752 Y-0.8360 Z-3.4973 F1200
G01 X1.9108 Y-0.7752 Z-3.4972 F1200
G01 X2.0066 Y-0.7469 Z-3.4855 F1200
G01 X2.1575 Y-0.7224 Z-3.4538 F1200
G01 X2.3119 Y-0.7217 Z-3.4130 F1200
G01 X2.4656 Y-0.7452 Z-3.3741 F1200
G01 X2.6144 Y-0.7924 Z-3.3475 F1200
G01 X2.7542 Y-0.8620 Z-3.3403 F1200
G01 X2.8814 Y-0.9521 Z-3.3545 F1200
G01 X2.9925 Y-1.0603 Z-3.3862 F1200
G01 X3.0847 Y-1.1835 Z-3.4270 F1200
G01 X3.1556 Y-1.3181 Z-3.4659 F1200
G01 X3.2036 Y-1.4603 Z-3.4925 F1200
G01 X3.2277 Y-1.6061 Z-3.4997 F1200
G01 X3.2276 Y-1.7511 Z-3.4855 F1200
G01 X3.2039 Y-1.8912 Z-3.4538 F1200
G01 X3.1577 Y-2.0224 Z-3.4130 F1200
G01 X3.0910 Y-2.1409 Z-3.3741 F1200
G01 X3.0062 Y-2.2433 Z-3.3475 F1200
G01 X2.9065 Y-2.3268 Z-3.3403 F1200
G01 X2.7953 Y-2.3891 Z-3.3545 F1200
G01 X2.6765 Y-2.4284 Z-3.3862 F1200
G01 X2.5542 Y-2.4438 Z-3.4270 F1200
G01 X2.4326 Y-2.4350 Z-3.4659 F1200
G01 X2.3159 Y-2.4026 Z-3.4925 F1200
G01 X2.2081 Y-2.3477 Z-3.4997 F1200
G01 X2.1131 Y-2.2723 Z-3.4855 F1200
G01 X2.0340 Y-2.1789 Z-3.4538 F1200
G01 X1.9740 Y-2.0705 Z-3.4130 F1200
G01 X1.9352 Y-1.9506 Z-3.3741 F1200
G01 X1.9193 Y-1.8231 Z-3.3475 F1200
G01 X1.9273 Y-1.6921 Z-3.3403 F1200
G01 X1.9595 Y-1.5619 Z-3.3545 F1200
G01 X1.9940 Y-1.4780 Z-3.3740 F1200
G01 X2.0653 Y-1.3570 Z-3.4129 F1200
G01 X2.1579 Y-1.2475 Z-3.4537 F1200
G01 X2.2694 Y-1.1530 Z-3.4855 F1200
G01 X2.3971 Y-1.0765 Z-3.4997 F1200
G01 X2.5374 Y-1.0206 Z-3.4925 F1200
G01 X2.6866 Y-0.9871 Z-3.4660 F1200
G01 X2.8407 Y-0.9773 Z-3.4271 F1200
G01 X2.9956 Y-0.9916 Z-3.3863 F1200
G01 X3.1469 Y-1.0299 Z-3.3545 F1200
G01 X3.2907 Y-1.0910 Z-3.3403 F1200
G01 X3.4230 Y-1.1735 Z-3.3475 F1200
G01 X3.5403 Y-1.2748 Z-3.3740 F1200
G01 X3.6396 Y-1.3923 Z-3.4129 F1200
G01 X3.7184 Y-1.5224 Z-3.4537 F1200
G01 X3.7747 Y-1.6615 Z-3.4855 F1200
G01 X3.8073 Y-1.8054 Z-3.4997 F1200
G01 X3.8158 Y-1.9501 Z-3.4925 F1200
G01 X3.8004 Y-2.0913 Z-3.4660 F1200
G01 X3.7621 Y-2.2249 Z-3.4271 F1200
G01 X3.7024 Y-2.3470 Z-3.3863 F1200
G01 X3.6239 Y-2.4542 Z-3.3545 F1200
G01 X3.5293 Y-2.5433 Z-3.3403 F1200
G01 X3.4219 Y-2.6118 Z-3.3475 F1200
G01 X3.3057 Y-2.6580 Z-3.3740 F1200
G01 X3.1846 Y-2.6804 Z-3.4129 F1200
G01 X3.0627 Y-2.6787 Z-3.4537 F1200
G01 X2.9444 Y-2.6532 Z-3.4855 F1200
G01 X2.8336 Y-2.6046 Z-3.4997 F1200
G01 X2.7343 Y-2.5349 Z-3.4925 F1200
G01 X2.6499 Y-2.4461 Z-3.4660 F1200
G01 X2.6038 Y-2.3782 Z-3.4409 F1200
G01 X2.5513 Y-2.2635 Z-3.3995 F1200
G01 X2.5206 Y-2.1386 Z-3.3636 F1200
G01 X2.5133 Y-2.0074 Z-3.3428 F1200
G01 X2.5300 Y-1.8741 Z-3.3427 F1200
G01 X2.5708 Y-1.7428 Z-3.3633 F1200
G01 X2.6349 Y-1.6178 Z-3.3991 F1200
G01 X2.7209 Y-1.5030 Z-3.4405 F1200
G01 X2.8268 Y-1.4019 Z-3.4764 F1200
G01 X2.9497 Y-1.3180 Z-3.4972 F1200
G01 X3.0865 Y-1.2538 Z-3.4973 F1200
G01 X3.2336 Y-1.2115 Z-3.4767 F1200
G01 X3.3869 Y-1.1926 Z-3.4409 F1200
G01 X3.5423 Y-1.1977 Z-3.3995 F1200
G01 X3.6957 Y-1.2268 Z-3.3636 F1200
G01 X3.8428 Y-1.2793 Z-3.3428 F1200
G01 X3.9798 Y-1.3537 Z-3.3427 F1200
G01 X4.1029 Y-1.4480 Z-3.3633 F1200
G01 X4.2090 Y-1.5593 Z-3.3991 F1200
G01 X4.2952 Y-1.6844 Z-3.4405 F1200
G01 X4.3597 Y-1.8199 Z-3.4764 F1200
G01 X4.4007 Y-1.9615 Z-3.4972 F1200
G01 X4.4177 Y-2.1054 Z-3.4973 F1200
G01 X4.4107 Y-2.2471 Z-3.4767 F1200
G01 X4.3803 Y-2.3826 Z-3.4409 F1200
G01 X4.3280 Y-2.5079 Z-3.3995 F1200
G01 X4.2559 Y-2.6194 Z-3.3636 F1200
G01 X4.1667 Y-2.7139 Z-3.3428 F1200
G01 X4.0637 Y-2.7885 Z-3.3427 F1200
G01 X3.9504 Y-2.8413 Z-3.3633 F1200
G01 X3.8308 Y-2.8708 Z-3.3991 F1200
G01 X3.7501 Y-2.8770 Z-3.4266 F1200
G01 X3.6296 Y-2.8653 Z-3.4655 F1200
G01 X3.5139 Y-2.8299 Z-3.4923 F1200
G01 X3.4072 Y-2.7721 Z-3.4997 F1200
G01 X3.3130 Y-2.6937 Z-3.4858 F1200
G01 X3.2350 Y-2.5972 Z-3.4542 F1200
G01 X3.1758 Y-2.4857 Z-3.4134 F1200
G01 X3.1378 Y-2.3627 Z-3.3745 F1200
G01 X3.1228 Y-2.2320 Z-3.3477 F1200
G01 X3.1317 Y-2.0978 Z-3.3403 F1200
G01 X3.1647 Y-1.9643 Z-3.3542 F1200
G01 X3.2214 Y-1.8356 Z-3.3858 F1200
G01 X3.3006 Y-1.7158 Z-3.4266 F1200
G01 X3.4003 Y-1.6087 Z-3.4655 F1200
G01 X3.5181 Y-1.5176 Z-3.4923 F1200
G01 X3.6510 Y-1.4454 Z-3.4997 F1200
G01 X3.7953 Y-1.3944 Z-3.4858 F1200
G01 X3.9472 Y-1.3663 Z-3.4542 F1200
G01 X4.1027 Y-1.3622 Z-3.4134 F1200
G01 X4.2576 Y-1.3822 Z-3.3745 F1200
G01 X4.4076 Y-1.4258 Z-3.3477 F1200
G01 X4.5487 Y-1.4920 Z-3.3403 F1200
G01 X4.6772 Y-1.5787 Z-3.3542 F1200
G01 X4.7896 Y-1.6835 Z-3.3858 F1200
G01 X4.8831 Y-1.8032 Z-3.4266 F1200
G01 X4.9554 Y-1.9345 Z-3.4655 F1200
G01 X5.0048 Y-2.0735 Z-3.4923 F1200
G01 X5.0303 Y-2.2159 Z-3.4997 F1200
G01 X5.0316 Y-2.3578 Z-3.4858 F1200
G01 X5.0092 Y-2.4947 Z-3.4542 F1200
G01 X4.9644 Y-2.6228 Z-3.4134 F1200
G01 X4.9232 Y-2.7010 Z-3.3867 F1200
G01 X4.8458 Y-2.8050 Z-3.3548 F1200
G01 X4.7522 Y-2.8911 Z-3.3404 F1200
G01 X4.6459 Y-2.9566 Z-3.3473 F1200
G01 X4.5307 Y-2.9996 Z-3.3737 F1200
G01 X4.4105 Y-3.0191 Z-3.4125 F1200
G01 X4.2895 Y-3.0144 Z-3.4533 F1200
G01 X4.1720 Y-2.9858 Z-3.4852 F1200
G01 X4.0621 Y-2.9342 Z-3.4996 F1200
G01 X3.9635 Y-2.8614 Z-3.4927 F1200
G01 X3.8799 Y-2.7695 Z-3.4663 F1200
G01 X3.8143 Y-2.6616 Z-3.4275 F1200
G01 X3.7692 Y-2.5409 Z-3.3867 F1200
G01 X3.7465 Y-2.4113 Z-3.3548 F1200
G01 X3.7475 Y-2.2767 Z-3.3404 F1200
G01 X3.7727 Y-2.1414 Z-3.3473 F1200
G01 X3.8217 Y-2.0095 Z-3.3737 F1200
G01 X3.8937 Y-1.8851 Z-3.4125 F1200
G01 X3.9870 Y-1.7722 Z-3.4533 F1200
G01 X4.0993 Y-1.6742 Z-3.4852 F1200
G01 X4.2276 Y-1.5942 Z-3.4996 F1200
G01 X4.3687 Y-1.5347 Z-3.4927 F1200
G01 X4.5188 Y-1.4977 Z-3.4663 F1200
G01 X4.6738 Y-1.4843 Z-3.4275 F1200
G01 X4.8296 Y-1.4951 Z-3.3867 F1200
G01 X4.9819 Y-1.5297 Z-3.3548 F1200
G01 X5.1267 Y-1.5874 Z-3.3404 F1200
G01 X5.2600 Y-1.6663 Z-3.3473 F1200
G01 X5.3785 Y-1.7641 Z-3.3737 F1200
G01 X5.4789 Y-1.8781 Z-3.4125 F1200
G01 X5.5588 Y-2.0048 Z-3.4533 F1200
G01 X5.5995 Y-2.0940 Z-3.4761 F1200
G01 X5.6415 Y-2.2323 Z-3.4971 F1200
G01 X5.6595 Y-2.3728 Z-3.4975 F1200
G01 X5.6534 Y-2.5112 Z-3.4771 F1200
G01 X5.6240 Y-2.6435 Z-3.4414 F1200
G01 X5.5726 Y-2.7656 Z-3.4000 F1200
G01 X5.5014 Y-2.8739 Z-3.3639 F1200
G01 X5.4131 Y-2.9652 Z-3.3429 F1200
G01 X5.3108 Y-3.0368 Z-3.3425 F1200
G01 X5.1983 Y-3.0864 Z-3.3629 F1200
G01 X5.0795 Y-3.1128 Z-3.3986 F1200
G01 X4.9585 Y-3.1151 Z-3.4400 F1200
G01 X4.8395 Y-3.0934 Z-3.4761 F1200
G01 X4.7267 Y-3.0483 Z-3.4971 F1200
G01 X4.6240 Y-2.9812 Z-3.4975 F1200
G01 X4.5352 Y-2.8944 Z-3.4771 F1200
G01 X4.4634 Y-2.7904 Z-3.4414 F1200
G01 X4.4113 Y-2.6725 Z-3.4000 F1200
G01 X4.3810 Y-2.5443 Z-3.3639 F1200
G01 X4.3741 Y-2.4098 Z-3.3429 F1200
G01 X4.3913 Y-2.2731 Z-3.3425 F1200
G01 X4.4325 Y-2.1385 Z-3.3629 F1200
G01 X4.4971 Y-2.0100 Z-3.3986 F1200
G01 X4.5836 Y-1.8917 Z-3.4400 F1200
G01 X4.6899 Y-1.7871 Z-3.4761 F1200
G01 X4.8133 Y-1.6996 Z-3.4971 F1200
G01 X4.9507 Y-1.6319 Z-3.4975 F1200
G01 X5.0983 Y-1.5860 Z-3.4771 F1200
G01 X5.2523 Y-1.5634 Z-3.4414 F1200
G01 X5.4084 Y-1.5649 Z-3.4000 F1200
G01 X5.5626 Y-1.5904 Z-3.3639 F1200
G01 X5.6616 Y-1.6203 Z-3.3479 F1200
G01 X5.8033 Y-1.6828 Z-3.3402 F1200
G01 X5.9324 Y-1.7659 Z-3.3540 F1200
G01 X6.0455 Y-1.8671 Z-3.3854 F1200
G01 X6.1397 Y-1.9834 Z-3.4261 F1200
G01 X6.2127 Y-2.1112 Z-3.4652 F1200
G01 X6.2628 Y-2.2466 Z-3.4921 F1200
G01 X6.2891 Y-2.3857 Z-3.4998 F1200
G01 X6.2911 Y-2.5242 Z-3.4860 F1200
G01 X6.2695 Y-2.6578 Z-3.4546 F1200
G01 X6.2254 Y-2.7826 Z-3.4139 F1200
G01 X6.1607 Y-2.8949 Z-3.3748 F1200
G01 X6.0779 Y-2.9911 Z-3.3479 F1200
G01 X5.9801 Y-3.0684 Z-3.3402 F1200
G01 X5.8707 Y-3.1245 Z-3.3540 F1200
G01 X5.7536 Y-3.1577 Z-3.3854 F1200
G01 X5.6330 Y-3.1670 Z-3.4261 F1200
G01 X5.5129 Y-3.1522 Z-3.4652 F1200
G01 X5.3977 Y-3.1137 Z-3.4921 F1200
G01 X5.2912 Y-3.0527 Z-3.4998 F1200
G01 X5.1974 Y-2.9712 Z-3.4860 F1200
G01 X5.1196 Y-2.8715 Z-3.4546 F1200
G01 X5.0607 Y-2.7567 Z-3.4139 F1200
G01 X5.0230 Y-2.6304 Z-3.3748 F1200
G01 X5.0082 Y-2.4965 Z-3.3479 F1200
G01 X5.0173 Y-2.3589 Z-3.3402 F1200
G01 X5.0505 Y-2.2220 Z-3.3540 F1200
G01 X5.1074 Y-2.0898 Z-3.3854 F1200
G01 X5.1868 Y-1.9665 Z-3.4261 F1200
G01 X5.2868 Y-1.8558 Z-3.4652 F1200
G01 X5.4049 Y-1.7611 Z-3.4921 F1200
G01 X5.4917 Y-1.7086 Z-3.4996 F1200
G00 Z8.0000 F480


;No. 31: Engraving 2
G00 X-2.3837 Y389.0780 Z8.0000 F1500
G00 X-1.6008 Y388.9400 Z0.5107 F480
G01 X-1.6367 Y388.8061 Z0.5223 F180
G01 X-1.6952 Y388.6805 Z0.5447 F180
G01 X-1.7747 Y388.5670 Z0.5670 F180
G01 X-1.8727 Y388.4690 Z0.5786 F180
G01 X-1.9862 Y388.3895 Z0.5717 F180
G01 X-2.1118 Y388.3310 Z0.5433 F180
G01 X-2.2457 Y388.2951 Z0.4963 F180
G01 X-2.3837 Y388.2830 Z0.4387 F180
G01 X-2.5218 Y388.2951 Z0.3810 F180
G01 X-2.6556 Y388.3310 Z0.3341 F180
G01 X-2.7812 Y388.3895 Z0.3057 F180
G01 X-2.8947 Y388.4690 Z0.2987 F180
G01 X-2.9927 Y388.5670 Z0.3103 F180
G01 X-3.0722 Y388.6805 Z0.3327 F180
G01 X-3.1308 Y388.8061 Z0.3550 F180
G01 X-3.1666 Y388.9400 Z0.3666 F180
G01 X-3.1787 Y389.0780 Z0.3597 F180
G01 X-3.1666 Y389.2161 Z0.3313 F180
G01 X-3.1308 Y389.3499 Z0.2843 F180
G01 X-3.0722 Y389.4755 Z0.2267 F180
G01 X-2.9927 Y389.5891 Z0.1690 F180
G01 X-2.8947 Y389.6870 Z0.1221 F180
G01 X-2.7812 Y389.7665 Z0.0937 F180
G01 X-2.6556 Y389.8251 Z0.0867 F180
G01 X-2.5218 Y389.8610 Z0.0983 F180
G01 X-2.3837 Y389.8730 Z0.1207 F180
G01 X-2.2457 Y389.8610 Z0.1430 F180
G01 X-2.1118 Y389.8251 Z0.1546 F180
G01 X-2.0729 Y389.8097 Z0.1547 F180
G01 X-1.9500 Y389.7580 Z0.1474 F180
G01 X-1.8403 Y389.6860 Z0.1190 F180
G01 X-1.7471 Y389.5963 Z0.0739 F180
G01 X-1.6731 Y389.4921 Z0.0211 F180
G01 X-1.6207 Y389.3769 Z-0.0282 F180
G01 X-1.5914 Y389.2547 Z-0.0641 F180
G01 X-1.5861 Y389.1296 Z-0.0800 F180
G01 X-1.6049 Y389.0057 Z-0.0747 F180
G01 X-1.6473 Y388.8873 Z-0.0527 F180
G01 X-1.7118 Y388.7783 Z-0.0231 F180
G01 X-1.7967 Y388.6824 Z0.0032 F180
G01 X-1.8991 Y388.6031 Z0.0159 F180
G01 X-2.0162 Y388.5430 Z0.0086 F180
G01 X-2.1441 Y388.5045 Z-0.0198 F180
G01 X-2.2792 Y388.4891 Z-0.0649 F180
G01 X-2.4171 Y388.4976 Z-0.1177 F180
G01 X-2.5538 Y388.5303 Z-0.1670 F180
G01 X-2.6851 Y388.5865 Z-0.2029 F180
G01 X-2.8069 Y388.6650 Z-0.2188 F180
G01 X-2.9155 Y388.7637 Z-0.2135 F180
G01 X-3.0077 Y388.8800 Z-0.1915 F180
G01 X-3.0806 Y389.0109 Z-0.1619 F180
G01 X-3.1319 Y389.1527 Z-0.1356 F180
G01 X-3.1601 Y389.3017 Z-0.1229 F180
G01 X-3.1644 Y389.4535 Z-0.1302 F180
G01 X-3.1445 Y389.6041 Z-0.1586 F180
G01 X-3.1012 Y389.7492 Z-0.2037 F180
G01 X-3.0355 Y389.8849 Z-0.2565 F180
G01 X-2.9496 Y390.0074 Z-0.3058 F180
G01 X-2.8461 Y390.1134 Z-0.3417 F180
G01 X-2.7280 Y390.2001 Z-0.3576 F180
G01 X-2.5990 Y390.2654 Z-0.3523 F180
G01 X-2.4629 Y390.3075 Z-0.3303 F180
G01 X-2.3239 Y390.3256 Z-0.3007 F180
G01 X-2.1861 Y390.3196 Z-0.2744 F180
G01 X-2.0538 Y390.2901 Z-0.2617 F180
G01 X-1.9310 Y390.2383 Z-0.2690 F180
G01 X-1.8394 Y390.1803 Z-0.2910 F180
G01 X-1.7423 Y390.0935 Z-0.3337 F180
G01 X-1.6640 Y389.9915 Z-0.3859 F180
G01 X-1.6069 Y389.8780 Z-0.4367 F180
G01 X-1.5726 Y389.7566 Z-0.4755 F180
G01 X-1.5623 Y389.6316 Z-0.4952 F180
G01 X-1.5761 Y389.5072 Z-0.4934 F180
G01 X-1.6135 Y389.3874 Z-0.4738 F180
G01 X-1.6735 Y389.2764 Z-0.4447 F180
G01 X-1.7542 Y389.1780 Z-0.4171 F180
G01 X-1.8530 Y389.0955 Z-0.4014 F180
G01 X-1.9669 Y389.0318 Z-0.4049 F180
G01 X-2.0924 Y388.9893 Z-0.4298 F180
G01 X-2.2257 Y388.9697 Z-0.4725 F180
G01 X-2.3626 Y388.9740 Z-0.5247 F180
G01 X-2.4991 Y389.0024 Z-0.5755 F180
G01 X-2.6308 Y389.0545 Z-0.6143 F180
G01 X-2.7537 Y389.1291 Z-0.6340 F180
G01 X-2.8641 Y389.2243 Z-0.6322 F180
G01 X-2.9586 Y389.3378 Z-0.6126 F180
G01 X-3.0342 Y389.4663 Z-0.5835 F180
G01 X-3.0887 Y389.6064 Z-0.5559 F180
G01 X-3.1202 Y389.7543 Z-0.5402 F180
G01 X-3.1279 Y389.9059 Z-0.5437 F180
G01 X-3.1115 Y390.0569 Z-0.5686 F180
G01 X-3.0713 Y390.2033 Z-0.6113 F180
G01 X-3.0087 Y390.3408 Z-0.6635 F180
G01 X-2.9254 Y390.4658 Z-0.7143 F180
G01 X-2.8239 Y390.5749 Z-0.7531 F180
G01 X-2.7073 Y390.6652 Z-0.7728 F180
G01 X-2.5792 Y390.7342 Z-0.7710 F180
G01 X-2.4432 Y390.7804 Z-0.7514 F180
G01 X-2.3036 Y390.8027 Z-0.7223 F180
G01 X-2.1645 Y390.8009 Z-0.6947 F180
G01 X-2.0302 Y390.7754 Z-0.6790 F180
G01 X-1.9045 Y390.7274 Z-0.6825 F180
G01 X-1.7915 Y390.6587 Z-0.7074 F180
G01 X-1.6944 Y390.5718 Z-0.7501 F180
G01 X-1.6283 Y390.4887 Z-0.7930 F180
G01 X-1.5666 Y390.3768 Z-0.8448 F180
G01 X-1.5274 Y390.2564 Z-0.8864 F180
G01 X-1.5120 Y390.1317 Z-0.9097 F180
G01 X-1.5208 Y390.0067 Z-0.9115 F180
G01 X-1.5534 Y389.8857 Z-0.8946 F180
G01 X-1.6088 Y389.7728 Z-0.8664 F180
G01 X-1.6851 Y389.6718 Z-0.8378 F180
G01 X-1.7802 Y389.5862 Z-0.8193 F180
G01 X-1.8909 Y389.5189 Z-0.8191 F180
G01 X-2.0138 Y389.4725 Z-0.8404 F180
G01 X-2.1452 Y389.4486 Z-0.8805 F180
G01 X-2.2811 Z-0.9317 F180
G01 X-2.4171 Y389.4726 Z-0.9836 F180
G01 X-2.5491 Y389.5205 Z-1.0252 F180
G01 X-2.6731 Y389.5912 Z-1.0485 F180
G01 X-2.7851 Y389.6829 Z-1.0503 F180
G01 X-2.8818 Y389.7933 Z-1.0334 F180
G01 X-2.9602 Y389.9193 Z-1.0052 F180
G01 X-3.0177 Y390.0575 Z-0.9766 F180
G01 X-3.0525 Y390.2043 Z-0.9581 F180
G01 X-3.0637 Y390.3554 Z-0.9579 F180
G01 X-3.0506 Y390.5067 Z-0.9792 F180
G01 X-3.0138 Y390.6541 Z-1.0193 F180
G01 X-2.9542 Y390.7933 Z-1.0705 F180
G01 X-2.8735 Y390.9207 Z-1.1224 F180
G01 X-2.7743 Y391.0327 Z-1.1640 F180
G01 X-2.6593 Y391.1264 Z-1.1873 F180
G01 X-2.5321 Y391.1992 Z-1.1891 F180
G01 X-2.3964 Y391.2494 Z-1.1722 F180
G01 X-2.2563 Y391.2758 Z-1.1440 F180
G01 X-2.1161 Y391.2781 Z-1.1154 F180
G01 X-1.9798 Y391.2565 Z-1.0969 F180
G01 X-1.8515 Y391.2122 Z-1.0967 F180
G01 X-1.7352 Y391.1469 Z-1.1180 F180
G01 X-1.6343 Y391.0629 Z-1.1581 F180
G01 X-1.5517 Y390.9633 Z-1.2093 F180
G01 X-1.4899 Y390.8514 Z-1.2612 F180
G01 X-1.4560 Y390.7526 Z-1.2966 F180
G01 X-1.4356 Y390.6281 Z-1.3235 F180
G01 X-1.4393 Y390.5027 Z-1.3291 F180
G01 X-1.4670 Y390.3806 Z-1.3150 F180
G01 X-1.5177 Y390.2659 Z-1.2881 F180
G01 X-1.5898 Y390.1624 Z-1.2587 F180
G01 X-1.6809 Y390.0736 Z-1.2378 F180
G01 X-1.7883 Y390.0028 Z-1.2340 F180
G01 X-1.9086 Y389.9524 Z-1.2515 F180
G01 X-2.0380 Y389.9243 Z-1.2888 F180
G01 X-2.1726 Y389.9199 Z-1.3388 F180
G01 X-2.3081 Y389.9396 Z-1.3913 F180
G01 X-2.4403 Y389.9832 Z-1.4354 F180
G01 X-2.5652 Y390.0499 Z-1.4623 F180
G01 X-2.6788 Y390.1379 Z-1.4679 F180
G01 X-2.7777 Y390.2450 Z-1.4538 F180
G01 X-2.8586 Y390.3683 Z-1.4269 F180
G01 X-2.9191 Y390.5046 Z-1.3975 F180
G01 X-2.9573 Y390.6500 Z-1.3766 F180
G01 X-2.9718 Y390.8005 Z-1.3728 F180
G01 X-2.9622 Y390.9519 Z-1.3903 F180
G01 X-2.9287 Y391.1001 Z-1.4276 F180
G01 X-2.8722 Y391.2409 Z-1.4776 F180
G01 X-2.7943 Y391.3705 Z-1.5301 F180
G01 X-2.6973 Y391.4853 Z-1.5742 F180
G01 X-2.5841 Y391.5822 Z-1.6011 F180
G01 X-2.4580 Y391.6586 Z-1.6067 F180
G01 X-2.3227 Y391.7127 Z-1.5926 F180
G01 X-2.1823 Y391.7432 Z-1.5657 F180
G01 X-2.0410 Y391.7496 Z-1.5363 F180
G01 X-1.9029 Y391.7320 Z-1.5154 F180
G01 X-1.7722 Y391.6915 Z-1.5116 F180
G01 X-1.6527 Y391.6295 Z-1.5291 F180
G01 X-1.5481 Y391.5485 Z-1.5664 F180
G01 X-1.4613 Y391.4512 Z-1.6164 F180
G01 X-1.3949 Y391.3410 Z-1.6689 F180
G01 X-1.3509 Y391.2217 Z-1.7130 F180
G01 X-1.3305 Y391.0973 Z-1.7399 F180
G01 X-1.3319 Y390.9937 Z-1.7461 F180
G01 X-1.3612 Y390.8447 Z-1.7351 F180
G01 X-1.4138 Y390.7023 Z-1.7098 F180
G01 X-1.4881 Y390.5705 Z-1.6800 F180
G01 X-1.5820 Y390.4529 Z-1.6568 F180
G01 X-1.6926 Y390.3526 Z-1.6496 F180
G01 X-1.8167 Y390.2724 Z-1.6633 F180
G01 X-1.9506 Y390.2143 Z-1.6974 F180
G01 X-2.0904 Y390.1796 Z-1.7459 F180
G01 X-2.2319 Y390.1690 Z-1.7988 F180
G01 X-2.3709 Y390.1824 Z-1.8451 F180
G01 X-2.5031 Y390.2190 Z-1.8755 F180
G01 X-2.6248 Y390.2774 Z-1.8849 F180
G01 X-2.7323 Y390.3552 Z-1.8739 F180
G01 X-2.8225 Y390.4499 Z-1.8486 F180
G01 X-2.8926 Y390.5581 Z-1.8188 F180
G01 X-2.9406 Y390.6761 Z-1.7956 F180
G01 X-2.9652 Y390.7999 Z-1.7884 F180
G01 X-2.9657 Y390.9255 Z-1.8021 F180
G01 X-2.9421 Y391.0485 Z-1.8362 F180
G01 X-2.8954 Y391.1648 Z-1.8847 F180
G01 X-2.8269 Y391.2705 Z-1.9376 F180
G01 X-2.7389 Y391.3621 Z-1.9839 F180
G01 X-2.6342 Y391.4363 Z-2.0143 F180
G01 X-2.5159 Y391.4904 Z-2.0237 F180
G01 X-2.3878 Y391.5225 Z-2.0127 F180
G01 X-2.2538 Y391.5311 Z-1.9874 F180
G01 X-2.1182 Y391.5157 Z-1.9576 F180
G01 X-1.9850 Y391.4762 Z-1.9344 F180
G01 X-1.8586 Y391.4135 Z-1.9272 F180
G01 X-1.7427 Y391.3291 Z-1.9409 F180
G01 X-1.6411 Y391.2251 Z-1.9750 F180
G01 X-1.5568 Y391.1044 Z-2.0235 F180
G01 X-1.4925 Y390.9702 Z-2.0764 F180
G01 X-1.4503 Y390.8261 Z-2.1227 F180
G01 X-1.4316 Y390.6762 Z-2.1531 F180
G01 X-1.4369 Y390.5246 Z-2.1625 F180
G01 X-1.4663 Y390.3756 Z-2.1515 F180
G01 X-1.5080 Y390.2575 Z-2.1312 F180
G01 X-1.5779 Y390.1234 Z-2.1014 F180
G01 X-1.6677 Y390.0029 Z-2.0763 F180
G01 X-1.7748 Y389.8992 Z-2.0658 F180
G01 X-1.8960 Y389.8152 Z-2.0757 F180
G01 X-2.0277 Y389.7529 Z-2.1066 F180
G01 X-2.1660 Y389.7139 Z-2.1532 F180
G01 X-2.3067 Y389.6989 Z-2.2061 F180
G01 X-2.4456 Y389.7080 Z-2.2543 F180
G01 X-2.5785 Y389.7405 Z-2.2880 F180
G01 X-2.7016 Y389.7950 Z-2.3012 F180
G01 X-2.8110 Y389.8695 Z-2.2935 F180
G01 X-2.9036 Y389.9613 Z-2.2700 F180
G01 X-2.9766 Y390.0672 Z-2.2402 F180
G01 X-3.0278 Y390.1836 Z-2.2151 F180
G01 X-3.0558 Y390.3066 Z-2.2046 F180
G01 X-3.0598 Y390.4320 Z-2.2145 F180
G01 X-3.0396 Y390.5555 Z-2.2454 F180
G01 X-2.9961 Y390.6732 Z-2.2920 F180
G01 X-2.9305 Y390.7809 Z-2.3449 F180
G01 X-2.8449 Y390.8751 Z-2.3931 F180
G01 X-2.7421 Y390.9523 Z-2.4268 F180
G01 X-2.6251 Y391.0100 Z-2.4400 F180
G01 X-2.4977 Y391.0459 Z-2.4323 F180
G01 X-2.3636 Y391.0586 Z-2.4088 F180
G01 X-2.2272 Y391.0472 Z-2.3790 F180
G01 X-2.0925 Y391.0118 Z-2.3539 F180
G01 X-1.9638 Y390.9529 Z-2.3434 F180
G01 X-1.8451 Y390.8720 Z-2.3533 F180
G01 X-1.7399 Y390.7711 Z-2.3842 F180
G01 X-1.6515 Y390.6530 Z-2.4308 F180
G01 X-1.5828 Y390.5207 Z-2.4837 F180
G01 X-1.5358 Y390.3779 Z-2.5319 F180
G01 X-1.5121 Y390.2286 Z-2.5656 F180
G01 X-1.5124 Y390.0769 Z-2.5788 F180
G01 X-1.5368 Y389.9269 Z-2.5711 F180
G01 X-1.5846 Y389.7829 Z-2.5476 F180
G01 X-1.6545 Y389.6488 Z-2.5178 F180
G01 X-1.7272 Y389.5483 Z-2.4963 F180
G01 X-1.8307 Y389.4414 Z-2.4827 F180
G01 X-1.9489 Y389.3536 Z-2.4888 F180
G01 X-2.0783 Y389.2873 Z-2.5162 F180
G01 X-2.2149 Y389.2440 Z-2.5606 F180
G01 X-2.3546 Y389.2247 Z-2.6133 F180
G01 X-2.4934 Y389.2294 Z-2.6631 F180
G01 X-2.6269 Y389.2578 Z-2.6999 F180
G01 X-2.7511 Y389.3085 Z-2.7169 F180
G01 X-2.8624 Y389.3796 Z-2.7126 F180
G01 X-2.9574 Y389.4684 Z-2.6913 F180
G01 X-3.0332 Y389.5720 Z-2.6618 F180
G01 X-3.0875 Y389.6868 Z-2.6351 F180
G01 X-3.1189 Y389.8088 Z-2.6215 F180
G01 X-3.1263 Y389.9339 Z-2.6276 F180
G01 X-3.1095 Y390.0580 Z-2.6550 F180
G01 X-3.0692 Y390.1769 Z-2.6994 F180
G01 X-3.0066 Y390.2865 Z-2.7521 F180
G01 X-2.9235 Y390.3832 Z-2.8019 F180
G01 X-2.8227 Y390.4635 Z-2.8387 F180
G01 X-2.7072 Y390.5247 Z-2.8556 F180
G01 X-2.5805 Y390.5645 Z-2.8514 F180
G01 X-2.4465 Y390.5812 Z-2.8301 F180
G01 X-2.3094 Y390.5740 Z-2.8006 F180
G01 X-2.1733 Y390.5426 Z-2.7739 F180
G01 X-2.0425 Y390.4877 Z-2.7603 F180
G01 X-1.9209 Y390.4104 Z-2.7664 F180
G01 X-1.8123 Y390.3128 Z-2.7938 F180
G01 X-1.7200 Y390.1973 Z-2.8382 F180
G01 X-1.6468 Y390.0672 Z-2.8909 F180
G01 X-1.5951 Y389.9258 Z-2.9407 F180
G01 X-1.5665 Y389.7773 Z-2.9775 F180
G01 X-1.5617 Y389.6255 Z-2.9944 F180
G01 X-1.5811 Y389.4749 Z-2.9902 F180
G01 X-1.6241 Y389.3294 Z-2.9689 F180
G01 X-1.6894 Y389.1932 Z-2.9394 F180
G01 X-1.7751 Y389.0699 Z-2.9127 F180
G01 X-1.8786 Y388.9630 Z-2.8991 F180
G01 X-1.9752 Y388.8892 Z-2.9026 F180
G01 X-2.1020 Y388.8189 Z-2.9264 F180
G01 X-2.2369 Y388.7714 Z-2.9683 F180
G01 X-2.3756 Y388.7478 Z-3.0203 F180
G01 X-2.5140 Y388.7483 Z-3.0714 F180
G01 X-2.6479 Y388.7725 Z-3.1111 F180
G01 X-2.7733 Y388.8194 Z-3.1318 F180
G01 X-2.8863 Y388.8870 Z-3.1311 F180
G01 X-2.9835 Y388.9729 Z-3.1123 F180
G01 X-3.0621 Y389.0741 Z-3.0835 F180
G01 X-3.1195 Y389.1871 Z-3.0555 F180
G01 X-3.1542 Y389.3080 Z-3.0390 F180
G01 X-3.1650 Y389.4329 Z-3.0414 F180
G01 X-3.1517 Y389.5574 Z-3.0652 F180
G01 X-3.1146 Y389.6775 Z-3.1071 F180
G01 X-3.0550 Y389.7890 Z-3.1591 F180
G01 X-2.9745 Y389.8881 Z-3.2102 F180
G01 X-2.8758 Y389.9715 Z-3.2499 F180
G01 X-2.7618 Y390.0361 Z-3.2706 F180
G01 X-2.6360 Y390.0797 Z-3.2699 F180
G01 X-2.5022 Y390.1005 Z-3.2511 F180
G01 X-2.3646 Y390.0975 Z-3.2223 F180
G01 X-2.2272 Y390.0703 Z-3.1943 F180
G01 X-2.0943 Y390.0193 Z-3.1777 F180
G01 X-1.9700 Y389.9458 Z-3.1802 F180
G01 X-1.8581 Y389.8515 Z-3.2040 F180
G01 X-1.7619 Y389.7389 Z-3.2459 F180
G01 X-1.6844 Y389.6110 Z-3.2979 F180
G01 X-1.6280 Y389.4714 Z-3.3490 F180
G01 X-1.5944 Y389.3237 Z-3.3887 F180
G01 X-1.5847 Y389.1722 Z-3.4094 F180
G01 X-1.5990 Y389.0209 Z-3.4087 F180
G01 X-1.6372 Y388.8742 Z-3.3899 F180
G01 X-1.6979 Y388.7360 Z-3.3611 F180
G01 X-1.7794 Y388.6102 Z-3.3331 F180
G01 X-1.8791 Y388.5002 Z-3.3165 F180
G01 X-1.9942 Y388.4088 Z-3.3190 F180
G01 X-2.1211 Y388.3385 Z-3.3428 F180
G01 X-2.2318 Y388.2977 Z-3.3764 F180
G01 X-2.3689 Y388.3008 Z-3.4158 F1200
G01 X-2.5064 Y388.3281 Z-3.4563 F1200
G01 X-2.6402 Y388.3792 Z-3.4871 F1200
G01 X-2.7660 Y388.4532 Z-3.4999 F1200
G01 X-2.8802 Y388.5483 Z-3.4913 F1200
G01 X-2.9792 Y388.6622 Z-3.4636 F1200
G01 X-3.0599 Y388.7920 Z-3.4242 F1200
G01 X-3.1199 Y388.9342 Z-3.3837 F1200
G01 X-3.1574 Y389.0850 Z-3.3529 F1200
G01 X-3.1712 Y389.2405 Z-3.3401 F1200
G01 X-3.1608 Y389.3964 Z-3.3487 F1200
G01 X-3.1266 Y389.5485 Z-3.3764 F1200
G01 X-3.0695 Y389.6928 Z-3.4158 F1200
G01 X-2.9913 Y389.8253 Z-3.4563 F1200
G01 X-2.8943 Y389.9427 Z-3.4871 F1200
G01 X-2.7815 Y390.0418 Z-3.4999 F1200
G01 X-2.6562 Y390.1202 Z-3.4913 F1200
G01 X-2.5223 Y390.1761 Z-3.4636 F1200
G01 X-2.3837 Y390.2083 Z-3.4242 F1200
G01 X-2.2447 Y390.2163 Z-3.3837 F1200
G01 X-2.1095 Y390.2005 Z-3.3529 F1200
G01 X-1.9822 Y390.1618 Z-3.3401 F1200
G01 X-1.8665 Y390.1020 Z-3.3487 F1200
G01 X-1.7661 Y390.0234 Z-3.3764 F1200
G01 X-1.6839 Y389.9289 Z-3.4158 F1200
G01 X-1.6224 Y389.8220 Z-3.4563 F1200
G01 X-1.5834 Y389.7065 Z-3.4871 F1200
G01 X-1.5681 Y389.5863 Z-3.4999 F1200
G01 X-1.5770 Y389.4657 Z-3.4913 F1200
G01 X-1.6098 Y389.3489 Z-3.4636 F1200
G01 X-1.6512 Y389.2632 Z-3.4334 F1200
G01 X-1.7223 Y389.1629 Z-3.3922 F1200
G01 X-1.8127 Y389.0771 Z-3.3584 F1200
G01 X-1.9197 Y389.0090 Z-3.3411 F1200
G01 X-2.0399 Y388.9610 Z-3.3450 F1200
G01 X-2.1697 Y388.9352 Z-3.3689 F1200
G01 X-2.3050 Y388.9330 Z-3.4066 F1200
G01 X-2.4416 Y388.9548 Z-3.4478 F1200
G01 X-2.5754 Y389.0007 Z-3.4816 F1200
G01 X-2.7022 Y389.0697 Z-3.4989 F1200
G01 X-2.8181 Y389.1602 Z-3.4950 F1200
G01 X-2.9196 Y389.2701 Z-3.4711 F1200
G01 X-3.0034 Y389.3965 Z-3.4334 F1200
G01 X-3.0671 Y389.5362 Z-3.3922 F1200
G01 X-3.1085 Y389.6854 Z-3.3584 F1200
G01 X-3.1265 Y389.8401 Z-3.3411 F1200
G01 X-3.1203 Y389.9962 Z-3.3450 F1200
G01 X-3.0901 Y390.1494 Z-3.3689 F1200
G01 X-3.0368 Y390.2957 Z-3.4066 F1200
G01 X-2.9620 Y390.4311 Z-3.4478 F1200
G01 X-2.8677 Y390.5520 Z-3.4816 F1200
G01 X-2.7570 Y390.6553 Z-3.4989 F1200
G01 X-2.6330 Y390.7384 Z-3.4950 F1200
G01 X-2.4995 Y390.7993 Z-3.4711 F1200
G01 X-2.3605 Y390.8367 Z-3.4334 F1200
G01 X-2.2201 Y390.8499 Z-3.3922 F1200
G01 X-2.0825 Y390.8392 Z-3.3584 F1200
G01 X-1.9520 Y390.8054 Z-3.3411 F1200
G01 X-1.8323 Y390.7499 Z-3.3450 F1200
G01 X-1.7270 Y390.6752 Z-3.3689 F1200
G01 X-1.6394 Y390.5839 Z-3.4066 F1200
G01 X-1.5851 Y390.5034 Z-3.4390 F1200
G01 X-1.5337 Y390.3909 Z-3.4753 F1200
G01 X-1.5056 Y390.2721 Z-3.4968 F1200
G01 X-1.5015 Y390.1509 Z-3.4977 F1200
G01 X-1.5215 Y390.0316 Z-3.4778 F1200
G01 X-1.5649 Y389.9185 Z-3.4424 F1200
G01 X-1.6303 Y389.8154 Z-3.4010 F1200
G01 X-1.7155 Y389.7259 Z-3.3647 F1200
G01 X-1.8180 Y389.6535 Z-3.3432 F1200
G01 X-1.9345 Y389.6007 Z-3.3423 F1200
G01 X-2.0613 Y389.5697 Z-3.3622 F1200
G01 X-2.1946 Y389.5620 Z-3.3976 F1200
G01 X-2.3301 Y389.5784 Z-3.4390 F1200
G01 X-2.4638 Y389.6188 Z-3.4753 F1200
G01 X-2.5913 Y389.6827 Z-3.4968 F1200
G01 X-2.7088 Y389.7685 Z-3.4977 F1200
G01 X-2.8126 Y389.8741 Z-3.4778 F1200
G01 X-2.8995 Y389.9970 Z-3.4424 F1200
G01 X-2.9667 Y390.1339 Z-3.4010 F1200
G01 X-3.0120 Y390.2812 Z-3.3647 F1200
G01 X-3.0341 Y390.4349 Z-3.3432 F1200
G01 X-3.0321 Y390.5909 Z-3.3423 F1200
G01 X-3.0061 Y390.7449 Z-3.3622 F1200
G01 X-2.9567 Y390.8929 Z-3.3976 F1200
G01 X-2.8853 Y391.0308 Z-3.4390 F1200
G01 X-2.7940 Y391.1551 Z-3.4753 F1200
G01 X-2.6855 Y391.2624 Z-3.4968 F1200
G01 X-2.5630 Y391.3499 Z-3.4977 F1200
G01 X-2.4301 Y391.4157 Z-3.4778 F1200
G01 X-2.2908 Y391.4582 Z-3.4424 F1200
G01 X-2.1492 Y391.4767 Z-3.4010 F1200
G01 X-2.0400 Y391.4743 Z-3.3718 F1200
G01 X-1.9036 Y391.4502 Z-3.3463 F1200
G01 X-1.7764 Y391.4037 Z-3.3406 F1200
G01 X-1.6621 Y391.3367 Z-3.3562 F1200
G01 X-1.5641 Y391.2520 Z-3.3888 F1200
G01 X-1.4852 Y391.1525 Z-3.4299 F1200
G01 X-1.4277 Y391.0417 Z-3.4682 F1200
G01 X-1.3933 Y390.9237 Z-3.4937 F1200
G01 X-1.3827 Y390.8024 Z-3.4994 F1200
G01 X-1.3963 Y390.6822 Z-3.4838 F1200
G01 X-1.4336 Y390.5671 Z-3.4512 F1200
G01 X-1.4931 Y390.4612 Z-3.4101 F1200
G01 X-1.5731 Y390.3682 Z-3.3718 F1200
G01 X-1.6709 Y390.2915 Z-3.3463 F1200
G01 X-1.7834 Y390.2339 Z-3.3406 F1200
G01 X-1.9072 Y390.1978 Z-3.3562 F1200
G01 X-2.0382 Y390.1846 Z-3.3888 F1200
G01 X-2.1725 Y390.1954 Z-3.4299 F1200
G01 X-2.3058 Y390.2303 Z-3.4682 F1200
G01 X-2.4340 Y390.2889 Z-3.4937 F1200
G01 X-2.5529 Y390.3697 Z-3.4994 F1200
G01 X-2.6589 Y390.4710 Z-3.4838 F1200
G01 X-2.7486 Y390.5901 Z-3.4512 F1200
G01 X-2.8193 Y390.7240 Z-3.4101 F1200
G01 X-2.8685 Y390.8691 Z-3.3718 F1200
G01 X-2.8946 Y391.0214 Z-3.3463 F1200
G01 X-2.8969 Y391.1771 Z-3.3406 F1200
G01 X-2.8750 Y391.3317 Z-3.3562 F1200
G01 X-2.8295 Y391.4811 Z-3.3888 F1200
G01 X-2.7617 Y391.6214 Z-3.4299 F1200
G01 X-2.6735 Y391.7487 Z-3.4682 F1200
G01 X-2.5922 Y391.8367 Z-3.4896 F1200
G01 X-2.4732 Y391.9328 Z-3.5000 F1200
G01 X-2.3422 Y392.0079 Z-3.4890 F1200
G01 X-2.2031 Y392.0603 Z-3.4595 F1200
G01 X-2.0597 Y392.0889 Z-3.4194 F1200
G01 X-1.9165 Y392.0933 Z-3.3795 F1200
G01 X-1.7775 Y392.0740 Z-3.3504 F1200
G01 X-1.6468 Y392.0319 Z-3.3400 F1200
G01 X-1.5282 Y391.9690 Z-3.3510 F1200
G01 X-1.4253 Y391.8877 Z-3.3805 F1200
G01 X-1.3408 Y391.7908 Z-3.4206 F1200
G01 X-1.2774 Y391.6819 Z-3.4605 F1200
G01 X-1.2366 Y391.5648 Z-3.4896 F1200
G01 X-1.2196 Y391.4436 Z-3.5000 F1200
G01 X-1.2268 Y391.3225 Z-3.4890 F1200
G01 X-1.2578 Y391.2056 Z-3.4595 F1200
G01 X-1.3115 Y391.0970 Z-3.4194 F1200
G01 X-1.3860 Y391.0006 Z-3.3795 F1200
G01 X-1.4790 Y390.9197 Z-3.3504 F1200
G01 X-1.5875 Y390.8574 Z-3.3400 F1200
G01 X-1.7080 Y390.8161 Z-3.3510 F1200
G01 X-1.8367 Y390.7974 Z-3.3805 F1200
G01 X-1.9695 Y390.8026 Z-3.4206 F1200
G01 X-2.1023 Y390.8319 Z-3.4605 F1200
G01 X-2.2308 Y390.8850 Z-3.4896 F1200
G01 X-2.3510 Y390.9607 Z-3.5000 F1200
G01 X-2.4591 Y391.0574 Z-3.4890 F1200
G01 X-2.5516 Y391.1725 Z-3.4595 F1200
G01 X-2.6255 Y391.3031 Z-3.4194 F1200
G01 X-2.6785 Y391.4457 Z-3.3795 F1200
G01 X-2.7088 Y391.5965 Z-3.3504 F1200
G01 X-2.7159 Y391.7171 Z-3.3405 F1200
G01 X-2.7025 Y391.8720 Z-3.3468 F1200
G01 X-2.6651 Y392.0236 Z-3.3728 F1200
G01 X-2.6048 Y392.1677 Z-3.4114 F1200
G01 X-2.5231 Y392.3005 Z-3.4523 F1200
G01 X-2.4224 Y392.4184 Z-3.4846 F1200
G01 X-2.3055 Y392.5184 Z-3.4995 F1200
G01 X-2.1757 Y392.5979 Z-3.4932 F1200
G01 X-2.0369 Y392.6551 Z-3.4672 F1200
G01 X-1.8931 Y392.6886 Z-3.4286 F1200
G01 X-1.7483 Y392.6980 Z-3.3877 F1200
G01 X-1.6070 Y392.6835 Z-3.3554 F1200
G01 X-1.4730 Y392.6459 Z-3.3405 F1200
G01 X-1.3504 Y392.5871 Z-3.3468 F1200
G01 X-1.2426 Y392.5092 Z-3.3728 F1200
G01 X-1.1528 Y392.4151 Z-3.4114 F1200
G01 X-1.0834 Y392.3082 Z-3.4523 F1200
G01 X-1.0364 Y392.1922 Z-3.4846 F1200
G01 X-1.0131 Y392.0712 Z-3.4995 F1200
G01 X-1.0139 Y391.9493 Z-3.4932 F1200
G01 X-1.0386 Y391.8307 Z-3.4672 F1200
G01 X-1.0863 Y391.7196 Z-3.4286 F1200
G01 X-1.1553 Y391.6198 Z-3.3877 F1200
G01 X-1.2434 Y391.5348 Z-3.3554 F1200
G01 X-1.3476 Y391.4678 Z-3.3405 F1200
G01 X-1.4647 Y391.4213 Z-3.3468 F1200
G01 X-1.5909 Y391.3971 Z-3.3728 F1200
G01 X-1.7221 Y391.3966 Z-3.4114 F1200
G01 X-1.8542 Y391.4202 Z-3.4523 F1200
G01 X-1.9829 Y391.4677 Z-3.4846 F1200
G01 X-2.1042 Y391.5382 Z-3.4995 F1200
G01 X-2.1910 Y391.6080 Z-3.4964 F1200
G01 X-2.2887 Y391.7145 Z-3.4744 F1200
G01 X-2.3690 Y391.8379 Z-3.4377 F1200
G01 X-2.4294 Y391.9748 Z-3.3963 F1200
G01 X-2.4677 Y392.1217 Z-3.3613 F1200
G01 X-2.4826 Y392.2745 Z-3.3420 F1200
G01 X-2.4735 Y392.4291 Z-3.3436 F1200
G01 X-2.4403 Y392.5813 Z-3.3656 F1200
G01 X-2.3839 Y392.7270 Z-3.4023 F1200
G01 X-2.3057 Y392.8621 Z-3.4437 F1200
G01 X-2.2079 Y392.9832 Z-3.4787 F1200
G01 X-2.0932 Y393.0870 Z-3.4980 F1200
G01 X-1.9649 Y393.1708 Z-3.4964 F1200
G01 X-1.8267 Y393.2325 Z-3.4744 F1200
G01 X-1.6826 Y393.2709 Z-3.4377 F1200
G01 X-1.5366 Y393.2852 Z-3.3963 F1200
G01 X-1.3931 Y393.2754 Z-3.3613 F1200
G01 X-1.2561 Y393.2424 Z-3.3420 F1200
G01 X-1.1296 Y393.1877 Z-3.3436 F1200
G01 X-1.0172 Y393.1133 Z-3.3656 F1200
G01 X-0.9221 Y393.0220 Z-3.4023 F1200
G01 X-0.8470 Y392.9172 Z-3.4437 F1200
G01 X-0.7939 Y392.8024 Z-3.4787 F1200
G01 X-0.7642 Y392.6817 Z-3.4980 F1200
G01 X-0.7586 Y392.5592 Z-3.4964 F1200
G01 X-0.7770 Y392.4391 Z-3.4744 F1200
G01 X-0.8187 Y392.3256 Z-3.4377 F1200
G01 X-0.8821 Y392.2225 Z-3.3963 F1200
G01 X-0.9652 Y392.1335 Z-3.3613 F1200
G01 X-1.0651 Y392.0619 Z-3.3420 F1200
G01 X-1.1786 Y392.0102 Z-3.3436 F1200
G01 X-1.2741 Y391.9851 Z-3.3592 F1200
G01 X-1.4015 Y391.9730 Z-3.3934 F1200
G01 X-1.5316 Y391.9850 Z-3.4347 F1200
G01 X-1.6603 Y392.0211 Z-3.4720 F1200
G01 X-1.7833 Y392.0807 Z-3.4954 F1200
G01 X-1.8966 Y392.1624 Z-3.4986 F1200
G01 X-1.9966 Y392.2642 Z-3.4808 F1200
G01 X-2.0800 Y392.3836 Z-3.4466 F1200
G01 X-2.1440 Y392.5173 Z-3.4053 F1200
G01 X-2.1863 Y392.6618 Z-3.3680 F1200
G01 X-2.2055 Y392.8131 Z-3.3446 F1200
G01 X-2.2006 Y392.9672 Z-3.3414 F1200
G01 X-2.1717 Y393.1198 Z-3.3592 F1200
G01 X-2.1192 Y393.2667 Z-3.3934 F1200
G01 X-2.0447 Y393.4040 Z-3.4347 F1200
G01 X-1.9500 Y393.5280 Z-3.4720 F1200
G01 X-1.8377 Y393.6353 Z-3.4954 F1200
G01 X-1.7111 Y393.7232 Z-3.4986 F1200
G01 X-1.5738 Y393.7895 Z-3.4808 F1200
G01 X-1.4296 Y393.8326 Z-3.4466 F1200
G01 X-1.2826 Y393.8517 Z-3.4053 F1200
G01 X-1.1372 Y393.8467 Z-3.3680 F1200
G01 X-0.9974 Y393.8182 Z-3.3446 F1200
G01 X-0.8672 Y393.7676 Z-3.3414 F1200
G01 X-0.7504 Y393.6968 Z-3.3592 F1200
G01 X-0.6502 Y393.6085 Z-3.3934 F1200
G01 X-0.5694 Y393.5059 Z-3.4347 F1200
G01 X-0.5103 Y393.3925 Z-3.4720 F1200
G01 X-0.4743 Y393.2722 Z-3.4954 F1200
G01 X-0.4623 Y393.1492 Z-3.4986 F1200
G01 X-0.4745 Y393.0277 Z-3.4808 F1200
G01 X-0.5002 Y392.9367 Z-3.4551 F1200
G01 X-0.5523 Y392.8275 Z-3.4145 F1200
G01 X-0.6250 Y392.7308 Z-3.3753 F1200
G01 X-0.7158 Y392.6500 Z-3.3481 F1200
G01 X-0.8217 Y392.5881 Z-3.3402 F1200
G01 X-0.9392 Y392.5474 Z-3.3536 F1200
G01 X-1.0644 Y392.5296 Z-3.3849 F1200
G01 X-1.1933 Y392.5356 Z-3.4255 F1200
G01 X-1.3217 Y392.5659 Z-3.4647 F1200
G01 X-1.4453 Y392.6197 Z-3.4919 F1200
G01 X-1.5601 Y392.6961 Z-3.4998 F1200
G01 X-1.6624 Y392.7932 Z-3.4864 F1200
G01 X-1.7487 Y392.9083 Z-3.4551 F1200
G01 X-1.8162 Y393.0386 Z-3.4145 F1200
G01 X-1.8624 Y393.1805 Z-3.3753 F1200
G01 X-1.8858 Y393.3301 Z-3.3481 F1200
G01 X-1.8853 Y393.4833 Z-3.3402 F1200
G01 X-1.8607 Y393.6360 Z-3.3536 F1200
G01 X-1.8124 Y393.7840 Z-3.3849 F1200
G01 X-1.7416 Y393.9232 Z-3.4255 F1200
G01 X-1.6501 Y394.0498 Z-3.4647 F1200
G01 X-1.5405 Y394.1605 Z-3.4919 F1200
G01 X-1.4158 Y394.2523 Z-3.4998 F1200
G01 X-1.2795 Y394.3229 Z-3.4864 F1200
G01 X-1.1355 Y394.3707 Z-3.4551 F1200
G01 X-0.9878 Y394.3945 Z-3.4145 F1200
G01 X-0.8406 Y394.3943 Z-3.3753 F1200
G01 X-0.6982 Y394.3703 Z-3.3481 F1200
G01 X-0.5646 Y394.3238 Z-3.3402 F1200
G01 X-0.4436 Y394.2567 Z-3.3536 F1200
G01 X-0.3385 Y394.1715 Z-3.3849 F1200
G01 X-0.2695 Y394.0944 Z-3.4163 F1200
G01 X-0.1987 Y393.9841 Z-3.4567 F1200
G01 X-0.1504 Y393.8651 Z-3.4873 F1200
G01 X-0.1258 Y393.7416 Z-3.4999 F1200
G01 X-0.1254 Y393.6177 Z-3.4911 F1200
G01 X-0.1488 Y393.4976 Z-3.4632 F1200
G01 X-0.1950 Y393.3854 Z-3.4237 F1200
G01 X-0.2624 Y393.2850 Z-3.3833 F1200
G01 X-0.3485 Y393.1998 Z-3.3527 F1200
G01 X-0.4504 Y393.1329 Z-3.3401 F1200
G01 X-0.5647 Y393.0867 Z-3.3489 F1200
G01 X-0.6877 Y393.0631 Z-3.3768 F1200
G01 X-0.8152 Y393.0632 Z-3.4163 F1200
G01 X-0.9430 Y393.0874 Z-3.4567 F1200
G01 X-1.0671 Y393.1355 Z-3.4873 F1200
G01 X-1.1832 Y393.2064 Z-3.4999 F1200
G01 X-1.2876 Y393.2984 Z-3.4911 F1200
G01 X-1.3768 Y393.4092 Z-3.4632 F1200
G01 X-1.4477 Y393.5358 Z-3.4237 F1200
G01 X-1.4979 Y393.6748 Z-3.3833 F1200
G01 X-1.5255 Y393.8224 Z-3.3527 F1200
G01 X-1.5294 Y393.9745 Z-3.3401 F1200
G01 X-1.5091 Y394.1271 Z-3.3489 F1200
G01 X-1.4650 Y394.2758 Z-3.3768 F1200
G01 X-1.3981 Y394.4166 Z-3.4163 F1200
G01 X-1.3100 Y394.5457 Z-3.4567 F1200
G01 X-1.2032 Y394.6595 Z-3.4873 F1200
G01 X-1.0806 Y394.7551 Z-3.4999 F1200
G01 X-0.9456 Y394.8299 Z-3.4911 F1200
G01 X-0.8020 Y394.8822 Z-3.4632 F1200
G01 X-0.6538 Y394.9108 Z-3.4237 F1200
G01 X-0.5379 Y394.9163 Z-3.3917 F1200
G01 X-0.3910 Y394.9013 Z-3.3581 F1200
G01 X-0.2512 Y394.8633 Z-3.3411 F1200
G01 X-0.1223 Y394.8037 Z-3.3452 F1200
G01 X-0.0079 Y394.7247 Z-3.3693 F1200
G01 X0.0889 Y394.6293 Z-3.4071 F1200
G01 X0.1654 Y394.5207 Z-3.4483 F1200
G01 X0.2197 Y394.4026 Z-3.4819 F1200
G01 X0.2505 Y394.2790 Z-3.4989 F1200
G01 X0.2572 Y394.1542 Z-3.4948 F1200
G01 X0.2399 Y394.0322 Z-3.4707 F1200
G01 X0.1994 Y393.9172 Z-3.4329 F1200
G01 X0.1375 Y393.8132 Z-3.3917 F1200
G01 X0.0562 Y393.7236 Z-3.3581 F1200
G01 X-0.0416 Y393.6518 Z-3.3411 F1200
G01 X-0.1526 Y393.6001 Z-3.3452 F1200
G01 X-0.2731 Y393.5707 Z-3.3693 F1200
G01 X-0.3990 Y393.5647 Z-3.4071 F1200
G01 X-0.5263 Y393.5829 Z-3.4483 F1200
G01 X-0.6506 Y393.6251 Z-3.4819 F1200
G01 X-0.7679 Y393.6904 Z-3.4989 F1200
G01 X-0.8743 Y393.7773 Z-3.4948 F1200
G01 X-0.9662 Y393.8834 Z-3.4707 F1200
G01 X-1.0405 Y394.0061 Z-3.4329 F1200
G01 X-1.0945 Y394.1420 Z-3.3917 F1200
G01 X-1.1263 Y394.2873 Z-3.3581 F1200
G01 X-1.1346 Y394.4381 Z-3.3411 F1200
G01 X-1.1188 Y394.5902 Z-3.3452 F1200
G01 X-1.0790 Y394.7395 Z-3.3693 F1200
G01 X-1.0161 Y394.8817 Z-3.4071 F1200
G01 X-0.9316 Y395.0129 Z-3.4483 F1200
G01 X-0.8522 Y395.1053 Z-3.4756 F1200
G01 X-0.7345 Y395.2078 Z-3.4969 F1200
G01 X-0.6027 Y395.2907 Z-3.4976 F1200
G01 X-0.4607 Y395.3516 Z-3.4775 F1200
G01 X-0.3122 Y395.3893 Z-3.4420 F1200
G01 X-0.1615 Y395.4029 Z-3.4006 F1200
G01 X-0.0128 Y395.3925 Z-3.3644 F1200
G01 X0.1298 Y395.3586 Z-3.3431 F1200
G01 X0.2623 Y395.3029 Z-3.3424 F1200
G01 X0.3810 Y395.2272 Z-3.3625 F1200
G01 X0.4828 Y395.1344 Z-3.3980 F1200
G01 X0.5648 Y395.0277 Z-3.4394 F1200
G01 X0.6251 Y394.9106 Z-3.4756 F1200
G01 X0.6620 Y394.7871 Z-3.4969 F1200
G01 X0.6749 Y394.6614 Z-3.4976 F1200
G01 X0.6636 Y394.5376 Z-3.4775 F1200
G01 X0.6291 Y394.4200 Z-3.4420 F1200
G01 X0.5725 Y394.3125 Z-3.4006 F1200
G01 X0.4962 Y394.2187 Z-3.3644 F1200
G01 X0.4026 Y394.1419 Z-3.3431 F1200
G01 X0.2951 Y394.0849 Z-3.3424 F1200
G01 X0.1772 Y394.0496 Z-3.3625 F1200
G01 X0.0530 Y394.0377 Z-3.3980 F1200
G01 X-0.0735 Y394.0498 Z-3.4394 F1200
G01 X-0.1980 Y394.0859 Z-3.4756 F1200
G01 X-0.3163 Y394.1455 Z-3.4969 F1200
G01 X-0.4246 Y394.2270 Z-3.4976 F1200
G01 X-0.5191 Y394.3283 Z-3.4775 F1200
G01 X-0.5967 Y394.4469 Z-3.4420 F1200
G01 X-0.6545 Y394.5794 Z-3.4006 F1200
G01 X-0.6905 Y394.7222 Z-3.3644 F1200
G01 X-0.7025 Y394.8381 Z-3.3461 F1200
G01 X-0.6956 Y394.9886 Z-3.3407 F1200
G01 X-0.6647 Y395.1380 Z-3.3565 F1200
G01 X-0.6101 Y395.2823 Z-3.3893 F1200
G01 X-0.5333 Y395.4173 Z-3.4303 F1200
G01 X-0.4361 Y395.5393 Z-3.4686 F1200
G01 X-0.3210 Y395.6450 Z-3.4939 F1200
G01 X-0.1912 Y395.7316 Z-3.4993 F1200
G01 X-0.0503 Y395.7967 Z-3.4835 F1200
G01 X0.0979 Y395.8388 Z-3.4507 F1200
G01 X0.2492 Y395.8569 Z-3.4097 F1200
G01 X0.3996 Y395.8510 Z-3.3714 F1200
G01 X0.5447 Y395.8214 Z-3.3461 F1200
G01 X0.6805 Y395.7695 Z-3.3407 F1200
G01 X0.8034 Y395.6972 Z-3.3565 F1200
G01 X0.9100 Y395.6072 Z-3.3893 F1200
G01 X0.9974 Y395.5024 Z-3.4303 F1200
G01 X1.0634 Y395.3864 Z-3.4686 F1200
G01 X1.1064 Y395.2632 Z-3.4939 F1200
G01 X1.1254 Y395.1368 Z-3.4993 F1200
G01 X1.1203 Y395.0114 Z-3.4835 F1200
G01 X1.0916 Y394.8913 Z-3.4507 F1200
G01 X1.0406 Y394.7804 Z-3.4097 F1200
G01 X0.9692 Y394.6825 Z-3.3714 F1200
G01 X0.8799 Y394.6009 Z-3.3461 F1200
G01 X0.7760 Y394.5384 Z-3.3407 F1200
G01 X0.6609 Y394.4974 Z-3.3565 F1200
G01 X0.5386 Y394.4794 Z-3.3893 F1200
G01 X0.4130 Y394.4854 Z-3.4303 F1200
G01 X0.2886 Y394.5154 Z-3.4686 F1200
G01 X0.1693 Y394.5691 Z-3.4939 F1200
G01 X0.0826 Y394.6265 Z-3.5000 F1200
G01 X-0.0169 Y394.7177 Z-3.4887 F1200
G01 X-0.1007 Y394.8273 Z-3.4590 F1200
G01 X-0.1660 Y394.9524 Z-3.4189 F1200
G01 X-0.2103 Y395.0895 Z-3.3790 F1200
G01 X-0.2319 Y395.2347 Z-3.3502 F1200
G01 X-0.2297 Y395.3840 Z-3.3400 F1200
G01 X-0.2033 Y395.5331 Z-3.3513 F1200
G01 X-0.1531 Y395.6780 Z-3.3810 F1200
G01 X-0.0803 Y395.8145 Z-3.4211 F1200
G01 X0.0134 Y395.9389 Z-3.4610 F1200
G01 X0.1255 Y396.0476 Z-3.4898 F1200
G01 X0.2531 Y396.1377 Z-3.5000 F1200
G01 X0.3926 Y396.2069 Z-3.4887 F1200
G01 X0.5403 Y396.2533 Z-3.4590 F1200
G01 X0.6921 Y396.2759 Z-3.4189 F1200
G01 X0.8438 Y396.2744 Z-3.3790 F1200
G01 X0.9911 Y396.2491 Z-3.3502 F1200
G01 X1.1301 Y396.2011 Z-3.3400 F1200
G01 X1.2569 Y396.1323 Z-3.3513 F1200
G01 X1.3681 Y396.0450 Z-3.3810 F1200
G01 X1.4608 Y395.9423 Z-3.4211 F1200
G01 X1.5324 Y395.8277 Z-3.4610 F1200
G01 X1.5813 Y395.7048 Z-3.4898 F1200
G01 X1.6064 Y395.5779 Z-3.5000 F1200
G01 X1.6074 Y395.4511 Z-3.4887 F1200
G01 X1.5845 Y395.3286 Z-3.4590 F1200
G01 X1.5391 Y395.2145 Z-3.4189 F1200
G01 X1.4727 Y395.1125 Z-3.3790 F1200
G01 X1.3879 Y395.0262 Z-3.3502 F1200
G01 X1.2877 Y394.9584 Z-3.3400 F1200
G01 X1.2012 Y394.9201 Z-3.3470 F1200
G01 X1.0830 Y394.8900 Z-3.3732 F1200
G01 X0.9598 Y394.8835 Z-3.4119 F1200
G01 X0.8358 Y394.9012 Z-3.4528 F1200
G01 X0.7151 Y394.9428 Z-3.4849 F1200
G01 X0.6020 Y395.0073 Z-3.4996 F1200
G01 X0.5002 Y395.0932 Z-3.4930 F1200
G01 X0.4133 Y395.1981 Z-3.4668 F1200
G01 X0.3444 Y395.3191 Z-3.4281 F1200
G01 X0.2960 Y395.4530 Z-3.3872 F1200
G01 X0.2700 Y395.5958 Z-3.3551 F1200
G01 X0.2676 Y395.7436 Z-3.3404 F1200
G01 X0.2894 Y395.8923 Z-3.3470 F1200
G01 X0.3351 Y396.0376 Z-3.3732 F1200
G01 X0.4037 Y396.1754 Z-3.4119 F1200
G01 X0.4937 Y396.3018 Z-3.4528 F1200
G01 X0.6027 Y396.4133 Z-3.4849 F1200
G01 X0.7278 Y396.5069 Z-3.4996 F1200
G01 X0.8657 Y396.5799 Z-3.4930 F1200
G01 X1.0126 Y396.6306 Z-3.4668 F1200
G01 X1.1646 Y396.6576 Z-3.4281 F1200
G01 X1.3173 Y396.6605 Z-3.3872 F1200
G01 X1.4667 Y396.6395 Z-3.3551 F1200
G01 X1.6085 Y396.5955 Z-3.3404 F1200
G01 X1.7390 Y396.5302 Z-3.3470 F1200
G01 X1.8547 Y396.4458 Z-3.3732 F1200
G01 X1.9523 Y396.3453 Z-3.4119 F1200
G01 X2.0295 Y396.2321 Z-3.4528 F1200
G01 X2.0842 Y396.1098 Z-3.4849 F1200
G01 X2.1153 Y395.9825 Z-3.4996 F1200
G01 X2.1223 Y395.8544 Z-3.4930 F1200
G01 X2.1111 Y395.7568 Z-3.4740 F1200
G01 X2.0768 Y395.6366 Z-3.4372 F1200
G01 X2.0207 Y395.5269 Z-3.3959 F1200
G01 X1.9451 Y395.4314 Z-3.3610 F1200
G01 X1.8526 Y395.3533 Z-3.3419 F1200
G01 X1.7466 Y395.2951 Z-3.3437 F1200
G01 X1.6307 Y395.2590 Z-3.3660 F1200
G01 X1.5089 Y395.2463 Z-3.4028 F1200
G01 X1.3853 Y395.2576 Z-3.4441 F1200
G01 X1.2643 Y395.2931 Z-3.4790 F1200
G01 X1.1498 Y395.3517 Z-3.4981 F1200
G01 X1.0458 Y395.4321 Z-3.4963 F1200
G01 X0.9560 Y395.5321 Z-3.4740 F1200
G01 X0.8835 Y395.6489 Z-3.4372 F1200
G01 X0.8310 Y395.7792 Z-3.3959 F1200
G01 X0.8005 Y395.9194 Z-3.3610 F1200
G01 X0.7935 Y396.0656 Z-3.3419 F1200
G01 X0.8106 Y396.2135 Z-3.3437 F1200
G01 X0.8517 Y396.3589 Z-3.3660 F1200
G01 X0.9160 Y396.4977 Z-3.4028 F1200
G01 X1.0020 Y396.6260 Z-3.4441 F1200
G01 X1.1077 Y396.7402 Z-3.4790 F1200
G01 X1.2302 Y396.8370 Z-3.4981 F1200
G01 X1.3662 Y396.9138 Z-3.4963 F1200
G01 X1.5121 Y396.9686 Z-3.4740 F1200
G01 X1.6639 Y397.0000 Z-3.4372 F1200
G01 X1.8175 Y397.0072 Z-3.3959 F1200
G01 X1.9686 Y396.9905 Z-3.3610 F1200
G01 X2.1131 Y396.9505 Z-3.3419 F1200
G01 X2.2471 Y396.8887 Z-3.3437 F1200
G01 X2.3669 Y396.8074 Z-3.3660 F1200
G01 X2.4484 Y396.7323 Z-3.3939 F1200
G01 X2.5361 Y396.6223 Z-3.4352 F1200
G01 X2.6021 Y396.5015 Z-3.4724 F1200
G01 X2.6450 Y396.3740 Z-3.4956 F1200
G01 X2.6639 Y396.2438 Z-3.4986 F1200
G01 X2.6586 Y396.1151 Z-3.4804 F1200
G01 X2.6299 Y395.9922 Z-3.4461 F1200
G01 X2.5791 Y395.8789 Z-3.4048 F1200
G01 X2.5081 Y395.7790 Z-3.3676 F1200
G01 X2.4197 Y395.6957 Z-3.3444 F1200
G01 X2.3169 Y395.6320 Z-3.3414 F1200
G01 X2.2034 Y395.5898 Z-3.3596 F1200
G01 X2.0831 Y395.5709 Z-3.3939 F1200
G01 X1.9602 Y395.5759 Z-3.4352 F1200
G01 X1.8387 Y395.6051 Z-3.4724 F1200
G01 X1.7230 Y395.6577 Z-3.4956 F1200
G01 X1.6170 Y395.7325 Z-3.4986 F1200
G01 X1.5243 Y395.8273 Z-3.4804 F1200
G01 X1.4483 Y395.9397 Z-3.4461 F1200
G01 X1.3918 Y396.0663 Z-3.4048 F1200
G01 X1.3569 Y396.2037 Z-3.3676 F1200
G01 X1.3452 Y396.3479 Z-3.3444 F1200
G01 X1.3575 Y396.4948 Z-3.3414 F1200
G01 X1.3939 Y396.6401 Z-3.3596 F1200
G01 X1.4537 Y396.7798 Z-3.3939 F1200
G01 X1.5357 Y396.9097 Z-3.4352 F1200
G01 X1.6378 Y397.0263 Z-3.4724 F1200
G01 X1.7574 Y397.1262 Z-3.4956 F1200
G01 X1.8913 Y397.2067 Z-3.4986 F1200
G01 X2.0360 Y397.2655 Z-3.4804 F1200
G01 X2.1874 Y397.3011 Z-3.4461 F1200
G01 X2.3075 Y397.3122 Z-3.4140 F1200
G01 X2.4613 Y397.3040 Z-3.3749 F1200
G01 X2.6103 Y397.2721 Z-3.3479 F1200
G01 X2.7504 Y397.2178 Z-3.3402 F1200
G01 X2.8780 Y397.1428 Z-3.3539 F1200
G01 X2.9896 Y397.0497 Z-3.3853 F1200
G01 X3.0823 Y396.9415 Z-3.4260 F1200
G01 X3.1538 Y396.8218 Z-3.4651 F1200
G01 X3.2024 Y396.6944 Z-3.4921 F1200
G01 X3.2271 Y396.5634 Z-3.4998 F1200
G01 X3.2277 Y396.4330 Z-3.4861 F1200
G01 X3.2046 Y396.3074 Z-3.4547 F1200
G01 X3.1590 Y396.1906 Z-3.4140 F1200
G01 X3.0927 Y396.0864 Z-3.3749 F1200
G01 X3.0084 Y395.9982 Z-3.3479 F1200
G01 X2.9090 Y395.9289 Z-3.3402 F1200
G01 X2.7981 Y395.8808 Z-3.3539 F1200
G01 X2.6795 Y395.8556 Z-3.3853 F1200
G01 X2.5573 Y395.8543 Z-3.4260 F1200
G01 X2.4356 Y395.8771 Z-3.4651 F1200
G01 X2.3188 Y395.9236 Z-3.4921 F1200
G01 X2.2108 Y395.9926 Z-3.4998 F1200
G01 X2.1154 Y396.0822 Z-3.4861 F1200
G01 X2.0360 Y396.1899 Z-3.4547 F1200
G01 X1.9754 Y396.3127 Z-3.4140 F1200
G01 X1.9361 Y396.4470 Z-3.3749 F1200
G01 X1.9197 Y396.5891 Z-3.3479 F1200
G01 X1.9271 Y396.7347 Z-3.3402 F1200
G01 X1.9587 Y396.8797 Z-3.3539 F1200
G01 X2.0140 Y397.0199 Z-3.3853 F1200
G01 X2.0918 Y397.1513 Z-3.4260 F1200
G01 X2.1668 Y397.2451 Z-3.4571 F1200
G01 X2.2800 Y397.3507 Z-3.4876 F1200
G01 X2.4089 Y397.4380 Z-3.4999 F1200
G01 X2.5502 Y397.5045 Z-3.4909 F1200
G01 X2.7001 Y397.5484 Z-3.4628 F1200
G01 X2.8545 Y397.5686 Z-3.4233 F1200
G01 X3.0092 Y397.5646 Z-3.3829 F1200
G01 X3.1601 Y397.5368 Z-3.3524 F1200
G01 X3.3030 Y397.4862 Z-3.3401 F1200
G01 X3.4341 Y397.4146 Z-3.3491 F1200
G01 X3.5499 Y397.3241 Z-3.3772 F1200
G01 X3.6475 Y397.2180 Z-3.4167 F1200
G01 X3.7243 Y397.0994 Z-3.4571 F1200
G01 X3.7785 Y396.9723 Z-3.4876 F1200
G01 X3.8089 Y396.8407 Z-3.4999 F1200
G01 X3.8153 Y396.7088 Z-3.4909 F1200
G01 X3.7977 Y396.5807 Z-3.4628 F1200
G01 X3.7574 Y396.4605 Z-3.4233 F1200
G01 X3.6960 Y396.3522 Z-3.3829 F1200
G01 X3.6159 Y396.2592 Z-3.3524 F1200
G01 X3.5200 Y396.1844 Z-3.3401 F1200
G01 X3.4117 Y396.1304 Z-3.3491 F1200
G01 X3.2949 Y396.0989 Z-3.3772 F1200
G01 X3.1735 Y396.0912 Z-3.4167 F1200
G01 X3.0518 Y396.1077 Z-3.4571 F1200
G01 X2.9340 Y396.1480 Z-3.4876 F1200
G01 X2.8242 Y396.2111 Z-3.4999 F1200
G01 X2.7261 Y396.2953 Z-3.4909 F1200
G01 X2.6433 Y396.3982 Z-3.4628 F1200
G01 X2.5788 Y396.5169 Z-3.4233 F1200
G01 X2.5351 Y396.6479 Z-3.3829 F1200
G01 X2.5166 Y396.7561 Z-3.3578 F1200
G01 X2.5142 Y396.8985 Z-3.3410 F1200
G01 X2.5360 Y397.0422 Z-3.3453 F1200
G01 X2.5817 Y397.1829 Z-3.3697 F1200
G01 X2.6506 Y397.3166 Z-3.4075 F1200
G01 X2.7409 Y397.4392 Z-3.4487 F1200
G01 X2.8506 Y397.5473 Z-3.4822 F1200
G01 X2.9767 Y397.6378 Z-3.4990 F1200
G01 X3.1160 Y397.7080 Z-3.4947 F1200
G01 X3.2647 Y397.7560 Z-3.4703 F1200
G01 X3.4188 Y397.7804 Z-3.4325 F1200
G01 X3.5742 Y397.7807 Z-3.3913 F1200
G01 X3.7266 Y397.7570 Z-3.3578 F1200
G01 X3.8720 Y397.7102 Z-3.3410 F1200
G01 X4.0064 Y397.6419 Z-3.3453 F1200
G01 X4.1262 Y397.5543 Z-3.3697 F1200
G01 X4.2284 Y397.4503 Z-3.4075 F1200
G01 X4.3103 Y397.3331 Z-3.4487 F1200
G01 X4.3700 Y397.2064 Z-3.4822 F1200
G01 X4.4062 Y397.0744 Z-3.4990 F1200
G01 X4.4182 Y396.9410 Z-3.4947 F1200
G01 X4.4063 Y396.8107 Z-3.4703 F1200
G01 X4.3712 Y396.6874 Z-3.4325 F1200
G01 X4.3146 Y396.5750 Z-3.3913 F1200
G01 X4.2388 Y396.4772 Z-3.3578 F1200
G01 X4.1465 Y396.3971 Z-3.3410 F1200
G01 X4.0410 Y396.3372 Z-3.3453 F1200
G01 X3.9261 Y396.2996 Z-3.3697 F1200
G01 X3.8057 Y396.2855 Z-3.4075 F1200
G01 X3.6841 Y396.2956 Z-3.4487 F1200
G01 X3.5655 Y396.3296 Z-3.4822 F1200
G01 X3.4777 Y396.3721 Z-3.4971 F1200
G01 X3.3747 Y396.4451 Z-3.4975 F1200
G01 X3.2854 Y396.5379 Z-3.4771 F1200
G01 X3.2132 Y396.6478 Z-3.4415 F1200
G01 X3.1607 Y396.7716 Z-3.4001 F1200
G01 X3.1300 Y396.9057 Z-3.3640 F1200
G01 X3.1227 Y397.0462 Z-3.3429 F1200
G01 X3.1394 Y397.1888 Z-3.3425 F1200
G01 X3.1802 Y397.3294 Z-3.3629 F1200
G01 X3.2444 Y397.4639 Z-3.3985 F1200
G01 X3.3304 Y397.5882 Z-3.4399 F1200
G01 X3.4363 Y397.6987 Z-3.4760 F1200
G01 X3.5594 Y397.7922 Z-3.4971 F1200
G01 X3.6963 Y397.8660 Z-3.4975 F1200
G01 X3.8436 Y397.9179 Z-3.4771 F1200
G01 X3.9972 Y397.9464 Z-3.4415 F1200
G01 X4.1530 Y397.9510 Z-3.4001 F1200
G01 X4.3067 Y397.9314 Z-3.3640 F1200
G01 X4.4543 Y397.8885 Z-3.3429 F1200
G01 X4.5917 Y397.8237 Z-3.3425 F1200
G01 X4.7154 Y397.7391 Z-3.3629 F1200
G01 X4.8220 Y397.6373 Z-3.3985 F1200
G01 X4.9089 Y397.5216 Z-3.4399 F1200
G01 X4.9739 Y397.3956 Z-3.4760 F1200
G01 X5.0156 Y397.2632 Z-3.4971 F1200
G01 X5.0333 Y397.1287 Z-3.4975 F1200
G01 X5.0269 Y396.9962 Z-3.4771 F1200
G01 X4.9971 Y396.8699 Z-3.4415 F1200
G01 X4.9455 Y396.7537 Z-3.4001 F1200
G01 X4.8739 Y396.6513 Z-3.3640 F1200
G01 X4.7853 Y396.5660 Z-3.3429 F1200
G01 X4.7064 Y396.5130 Z-3.3407 F1200
G01 X4.5957 Y396.4631 Z-3.3568 F1200
G01 X4.4778 Y396.4363 Z-3.3898 F1200
G01 X4.3567 Y396.4334 Z-3.4308 F1200
G01 X4.2368 Y396.4547 Z-3.4690 F1200
G01 X4.1221 Y396.4995 Z-3.4941 F1200
G01 X4.0167 Y396.5666 Z-3.4993 F1200
G01 X3.9243 Y396.6541 Z-3.4832 F1200
G01 X3.8483 Y396.7594 Z-3.4502 F1200
G01 X3.7915 Y396.8793 Z-3.4092 F1200
G01 X3.7561 Y397.0104 Z-3.3710 F1200
G01 X3.7437 Y397.1486 Z-3.3459 F1200
G01 X3.7553 Y397.2900 Z-3.3407 F1200
G01 X3.7911 Y397.4303 Z-3.3568 F1200
G01 X3.8504 Y397.5654 Z-3.3898 F1200
G01 X3.9320 Y397.6911 Z-3.4308 F1200
G01 X4.0340 Y397.8039 Z-3.4690 F1200
G01 X4.1537 Y397.9002 Z-3.4941 F1200
G01 X4.2881 Y397.9774 Z-3.4993 F1200
G01 X4.4337 Y398.0332 Z-3.4832 F1200
G01 X4.5864 Y398.0659 Z-3.4502 F1200
G01 X4.7423 Y398.0747 Z-3.4092 F1200
G01 X4.8971 Y398.0593 Z-3.3710 F1200
G01 X5.0466 Y398.0203 Z-3.3459 F1200
G01 X5.1868 Y397.9591 Z-3.3407 F1200
G01 X5.3141 Y397.8775 Z-3.3568 F1200
G01 X5.4249 Y397.7781 Z-3.3898 F1200
G01 X5.5166 Y397.6640 Z-3.4308 F1200
G01 X5.5869 Y397.5388 Z-3.4690 F1200
G01 X5.6340 Y397.4064 Z-3.4941 F1200
G01 X5.6573 Y397.2709 Z-3.4993 F1200
G01 X5.6586 Y397.1659 Z-3.4885 F1200
G01 X5.6394 Y397.0341 Z-3.4586 F1200
G01 X5.5976 Y396.9107 Z-3.4184 F1200
G01 X5.5349 Y396.7995 Z-3.3786 F1200
G01 X5.4539 Y396.7040 Z-3.3499 F1200
G01 X5.3574 Y396.6271 Z-3.3400 F1200
G01 X5.2490 Y396.5711 Z-3.3515 F1200
G01 X5.1324 Y396.5380 Z-3.3814 F1200
G01 X5.0119 Y396.5286 Z-3.4216 F1200
G01 X4.8915 Y396.5435 Z-3.4614 F1200
G01 X4.7755 Y396.5820 Z-3.4901 F1200
G01 X4.6678 Y396.6432 Z-3.5000 F1200
G01 X4.5724 Y396.7253 Z-3.4885 F1200
G01 X4.4927 Y396.8257 Z-3.4586 F1200
G01 X4.4315 Y396.9416 Z-3.4184 F1200
G01 X4.3914 Y397.0694 Z-3.3786 F1200
G01 X4.3740 Y397.2053 Z-3.3499 F1200
G01 X4.3804 Y397.3452 Z-3.3400 F1200
G01 X4.4110 Y397.4850 Z-3.3515 F1200
G01 X4.4654 Y397.6204 Z-3.3814 F1200
G01 X4.5424 Y397.7474 Z-3.4216 F1200
G01 X4.6402 Y397.8622 Z-3.4614 F1200
G01 X4.7564 Y397.9613 Z-3.4901 F1200
G01 X4.8880 Y398.0418 Z-3.5000 F1200
G01 X5.0316 Y398.1013 Z-3.4885 F1200
G01 X5.1833 Y398.1381 Z-3.4586 F1200
G01 X5.3390 Y398.1511 Z-3.4184 F1200
G01 X5.4945 Y398.1398 Z-3.3786 F1200
G01 X5.6457 Y398.1049 Z-3.3499 F1200
G01 X5.7885 Y398.0473 Z-3.3400 F1200
G01 X5.9190 Y397.9688 Z-3.3515 F1200
G01 X6.0100 Y397.8948 Z-3.3736 F1200
G01 X6.1107 Y397.7845 Z-3.4124 F1200
G01 X6.1909 Y397.6615 Z-3.4532 F1200
G01 X6.2487 Y397.5295 Z-3.4852 F1200
G01 X6.2828 Y397.3926 Z-3.4996 F1200
G01 X6.2928 Y397.2549 Z-3.4928 F1200
G01 X6.2788 Y397.1206 Z-3.4664 F1200
G01 X6.2420 Y396.9939 Z-3.4276 F1200
G01 X6.1838 Y396.8786 Z-3.3868 F1200
G01 X6.1066 Y396.7782 Z-3.3548 F1200
G01 X6.0133 Y396.6958 Z-3.3404 F1200
G01 X5.9073 Y396.6339 Z-3.3472 F1200
G01 X5.7923 Y396.5945 Z-3.3736 F1200
G01 X5.6724 Y396.5787 Z-3.4124 F1200
G01 X5.5517 Y396.5870 Z-3.4532 F1200
G01 X5.4344 Y396.6193 Z-3.4852 F1200
G01 X5.3247 Y396.6745 Z-3.4996 F1200
G01 X5.2263 Y396.7510 Z-3.4928 F1200
G01 X5.1429 Y396.8464 Z-3.4664 F1200
G01 X5.0775 Y396.9580 Z-3.4276 F1200
G01 X5.0326 Y397.0824 Z-3.3868 F1200
G01 X5.0102 Y397.2157 Z-3.3548 F1200
G01 X5.0114 Y397.3539 Z-3.3404 F1200
G01 X5.0367 Y397.4929 Z-3.3472 F1200
G01 X5.0860 Y397.6285 Z-3.3736 F1200
G01 X5.1582 Y397.7566 Z-3.4124 F1200
G01 X5.2517 Y397.8732 Z-3.4532 F1200
G01 X5.3641 Y397.9750 Z-3.4852 F1200
G01 X5.4927 Y398.0587 Z-3.4996 F1200
G01 X5.6340 Y398.1219 Z-3.4928 F1200
G01 X5.7843 Y398.1626 Z-3.4664 F1200
G01 X5.9051 Y398.1780 Z-3.4368 F1200
G01 X6.0613 Y398.1757 Z-3.3954 F1200
G01 X6.2150 Y398.1493 Z-3.3606 F1200
G01 X6.3621 Y398.0997 Z-3.3418 F1200
G01 X6.4986 Y398.0284 Z-3.3439 F1200
G01 X6.6209 Y397.9376 Z-3.3664 F1200
G01 X6.7258 Y397.8299 Z-3.4032 F1200
G01 X6.8107 Y397.7088 Z-3.4446 F1200
G01 X6.8736 Y397.5778 Z-3.4794 F1200
G01 X6.9130 Y397.4409 Z-3.4982 F1200
G01 X6.9283 Y397.3023 Z-3.4961 F1200
G01 X6.9196 Y397.1663 Z-3.4736 F1200
G01 X6.8877 Y397.0369 Z-3.4368 F1200
G01 X6.8341 Y396.9181 Z-3.3954 F1200
G01 X6.7609 Y396.8134 Z-3.3606 F1200
G01 X6.6709 Y396.7262 Z-3.3418 F1200
G01 X6.5674 Y396.6589 Z-3.3439 F1200
G01 X6.4541 Y396.6137 Z-3.3664 F1200
G01 X6.3349 Y396.5920 Z-3.4032 F1200
G01 X6.2140 Y396.5943 Z-3.4446 F1200
G01 X6.0956 Y396.6207 Z-3.4794 F1200
G01 X5.9839 Y396.6703 Z-3.4982 F1200
G01 X5.8827 Y396.7416 Z-3.4961 F1200
G01 X5.7957 Y396.8324 Z-3.4736 F1200
G01 X5.7261 Y396.9401 Z-3.4368 F1200
G01 X5.6765 Y397.0612 Z-3.3954 F1200
G01 X5.6490 Y397.1922 Z-3.3606 F1200
G01 X5.6449 Y397.3291 Z-3.3418 F1200
G01 X5.6649 Y397.4677 Z-3.3439 F1200
G01 X5.7090 Y397.6037 Z-3.3664 F1200
G01 X5.7762 Y397.7331 Z-3.4032 F1200
G01 X5.8652 Y397.8519 Z-3.4446 F1200
G01 X5.9737 Y397.9566 Z-3.4794 F1200
G01 X6.0991 Y398.0438 Z-3.4982 F1200
G01 X6.2379 Y398.1111 Z-3.4961 F1200
G01 X6.3866 Y398.1563 Z-3.4736 F1200
G01 X6.5411 Y398.1780 Z-3.4368 F1200
G01 X6.6973 Y398.1757 Z-3.3954 F1200
G01 X6.8510 Y398.1493 Z-3.3606 F1200
G01 X6.9981 Y398.0997 Z-3.3418 F1200
G01 X7.1346 Y398.0284 Z-3.3439 F1200
G01 X7.2569 Y397.9376 Z-3.3664 F1200
G01 X7.3618 Y397.8299 Z-3.4032 F1200
G01 X7.4467 Y397.7088 Z-3.4446 F1200
G01 X7.5096 Y397.5778 Z-3.4794 F1200
G01 X7.5490 Y397.4409 Z-3.4982 F1200
G01 X7.5643 Y397.3023 Z-3.4961 F1200
G01 X7.5556 Y397.1663 Z-3.4736 F1200
G01 X7.5237 Y397.0369 Z-3.4368 F1200
G01 X7.4701 Y396.9181 Z-3.3954 F1200
G01 X7.3969 Y396.8134 Z-3.3606 F1200
G01 X7.3069 Y396.7262 Z-3.3418 F1200
G01 X7.2034 Y396.6589 Z-3.3439 F1200
G01 X7.0901 Y396.6137 Z-3.3664 F1200
G01 X7.0722 Y396.6089 Z-3.3713 F1200
G00 Z8.0000 F480


;No. 32: Engraving 3
G00 X437.3837 Y389.0780 Z8.0000 F1500
G00 X438.1666 Y388.9400 Z0.5107 F480
G01 X438.1308 Y388.8061 Z0.5223 F180
G01 X438.0722 Y388.6805 Z0.5447 F180
G01 X437.9927 Y388.5670 Z0.5670 F180
G01 X437.8947 Y388.4690 Z0.5786 F180
G01 X437.7812 Y388.3895 Z0.5717 F180
G01 X437.6556 Y388.3310 Z0.5433 F180
G01 X437.5218 Y388.2951 Z0.4963 F180
G01 X437.3837 Y388.2830 Z0.4387 F180
G01 X437.2457 Y388.2951 Z0.3810 F180
G01 X437.1118 Y388.3310 Z0.3341 F180
G01 X436.9862 Y388.3895 Z0.3057 F180
G01 X436.8727 Y388.4690 Z0.2987 F180
G01 X436.7747 Y388.5670 Z0.3103 F180
G01 X436.6952 Y388.6805 Z0.3327 F180
G01 X436.6367 Y388.8061 Z0.3550 F180
G01 X436.6008 Y388.9400 Z0.3666 F180
G01 X436.5887 Y389.0780 Z0.3597 F180
G01 X436.6008 Y389.2161 Z0.3313 F180
G01 X436.6367 Y389.3499 Z0.2843 F180
G01 X436.6952 Y389.4755 Z0.2267 F180
G01 X436.7747 Y389.5891 Z0.1690 F180
G01 X436.8727 Y389.6870 Z0.1221 F180
G01 X436.9862 Y389.7665 Z0.0937 F180
G01 X437.1118 Y389.8251 Z0.0867 F180
G01 X437.2457 Y389.8610 Z0.0983 F180
G01 X437.3837 Y389.8730 Z0.1207 F180
G01 X437.5218 Y389.8610 Z0.1430 F180
G01 X437.6556 Y389.8251 Z0.1546 F180
G01 X437.6946 Y389.8097 Z0.1547 F180
G01 X437.8164 Y389.7580 Z0.1474 F180
G01 X437.9250 Y389.6860 Z0.1190 F180
G01 X438.0172 Y389.5963 Z0.0739 F180
G01 X438.0901 Y389.4921 Z0.0211 F180
G01 X438.1414 Y389.3769 Z-0.0282 F180
G01 X438.1697 Y389.2547 Z-0.0641 F180
G01 X438.1739 Y389.1296 Z-0.0800 F180
G01 X438.1541 Y389.0057 Z-0.0747 F180
G01 X438.1107 Y388.8873 Z-0.0527 F180
G01 X438.0450 Y388.7783 Z-0.0231 F180
G01 X437.9592 Y388.6824 Z0.0032 F180
G01 X437.8556 Y388.6031 Z0.0159 F180
G01 X437.7375 Y388.5430 Z0.0086 F180
G01 X437.6085 Y388.5045 Z-0.0198 F180
G01 X437.4724 Y388.4891 Z-0.0649 F180
G01 X437.3334 Y388.4976 Z-0.1177 F180
G01 X437.1956 Y388.5303 Z-0.1670 F180
G01 X437.0633 Y388.5865 Z-0.2029 F180
G01 X436.9405 Y388.6650 Z-0.2188 F180
G01 X436.8308 Y388.7637 Z-0.2135 F180
G01 X436.7376 Y388.8800 Z-0.1915 F180
G01 X436.6636 Y389.0109 Z-0.1619 F180
G01 X436.6112 Y389.1527 Z-0.1356 F180
G01 X436.5819 Y389.3017 Z-0.1229 F180
G01 X436.5766 Y389.4535 Z-0.1302 F180
G01 X436.5954 Y389.6041 Z-0.1586 F180
G01 X436.6378 Y389.7492 Z-0.2037 F180
G01 X436.7023 Y389.8849 Z-0.2565 F180
G01 X436.7871 Y390.0074 Z-0.3058 F180
G01 X436.8896 Y390.1134 Z-0.3417 F180
G01 X437.0066 Y390.2001 Z-0.3576 F180
G01 X437.1346 Y390.2654 Z-0.3523 F180
G01 X437.2697 Y390.3075 Z-0.3303 F180
G01 X437.4076 Y390.3256 Z-0.3007 F180
G01 X437.5443 Y390.3196 Z-0.2744 F180
G01 X437.6756 Y390.2901 Z-0.2617 F180
G01 X437.7974 Y390.2383 Z-0.2690 F180
G01 X437.8881 Y390.1803 Z-0.2910 F180
G01 X437.9825 Y390.0935 Z-0.3337 F180
G01 X438.0582 Y389.9915 Z-0.3859 F180
G01 X438.1126 Y389.8780 Z-0.4367 F180
G01 X438.1442 Y389.7566 Z-0.4755 F180
G01 X438.1519 Y389.6316 Z-0.4952 F180
G01 X438.1354 Y389.5072 Z-0.4934 F180
G01 X438.0953 Y389.3874 Z-0.4738 F180
G01 X438.0326 Y389.2764 Z-0.4447 F180
G01 X437.9493 Y389.1780 Z-0.4171 F180
G01 X437.8479 Y389.0955 Z-0.4014 F180
G01 X437.7313 Y389.0318 Z-0.4049 F180
G01 X437.6031 Y388.9893 Z-0.4298 F180
G01 X437.4672 Y388.9697 Z-0.4725 F180
G01 X437.3276 Y388.9740 Z-0.5247 F180
G01 X437.1885 Y389.0024 Z-0.5755 F180
G01 X437.0541 Y389.0545 Z-0.6143 F180
G01 X436.9285 Y389.1291 Z-0.6340 F180
G01 X436.8154 Y389.2243 Z-0.6322 F180
G01 X436.7183 Y389.3378 Z-0.6126 F180
G01 X436.6400 Y389.4663 Z-0.5835 F180
G01 X436.5829 Y389.6064 Z-0.5559 F180
G01 X436.5487 Y389.7543 Z-0.5402 F180
G01 X436.5383 Y389.9059 Z-0.5437 F180
G01 X436.5521 Y390.0569 Z-0.5686 F180
G01 X436.5896 Y390.2033 Z-0.6113 F180
G01 X436.6496 Y390.3408 Z-0.6635 F180
G01 X436.7302 Y390.4658 Z-0.7143 F180
G01 X436.8290 Y390.5749 Z-0.7531 F180
G01 X436.9429 Y390.6652 Z-0.7728 F180
G01 X437.0685 Y390.7342 Z-0.7710 F180
G01 X437.2017 Y390.7804 Z-0.7514 F180
G01 X437.3387 Y390.8027 Z-0.7223 F180
G01 X437.4751 Y390.8009 Z-0.6947 F180
G01 X437.6068 Y390.7754 Z-0.6790 F180
G01 X437.7298 Y390.7274 Z-0.6825 F180
G01 X437.8402 Y390.6587 Z-0.7074 F180
G01 X437.9346 Y390.5718 Z-0.7501 F180
G01 X437.9985 Y390.4887 Z-0.7930 F180
G01 X438.0560 Y390.3768 Z-0.8448 F180
G01 X438.0908 Y390.2564 Z-0.8864 F180
G01 X438.1020 Y390.1317 Z-0.9097 F180
G01 X438.0890 Y390.0067 Z-0.9115 F180
G01 X438.0521 Y389.8857 Z-0.8946 F180
G01 X437.9925 Y389.7728 Z-0.8664 F180
G01 X437.9118 Y389.6718 Z-0.8378 F180
