;Project 250-panel-ext
;Created by Estlcam version 11 build 11.245
;Machining time about 00:11:26 hours

G90
M03 S10000
G00 X0.0000 Y0.0000 Z0.0000 F1500
G00 Z8.0000 F480


;No. 1: Part 1
G00 X0.5386 Y-0.3610 F1500
G00 X1.3215 Y-0.4991 Z0.5107 F480
G01 X1.2857 Y-0.6329 Z0.5223 F180 S10000
G01 X1.2271 Y-0.7585 Z0.5447 F180
G01 X1.1476 Y-0.8720 Z0.5670 F180
G01 X1.0496 Y-0.9700 Z0.5786 F180
G01 X0.9361 Y-1.0495 Z0.5717 F180
G01 X0.8105 Y-1.1081 Z0.5433 F180
G01 X0.6767 Y-1.1439 Z0.4963 F180
G01 X0.5386 Y-1.1560 Z0.4387 F180
G01 X0.4006 Y-1.1439 Z0.3810 F180
G01 X0.2667 Y-1.1081 Z0.3341 F180
G01 X0.1411 Y-1.0495 Z0.3057 F180
G01 X0.0276 Y-0.9700 Z0.2987 F180
G01 X-0.0704 Y-0.8720 Z0.3103 F180
G01 X-0.1499 Y-0.7585 Z0.3327 F180
G01 X-0.2084 Y-0.6329 Z0.3550 F180
G01 X-0.2443 Y-0.4991 Z0.3666 F180
G01 X-0.2564 Y-0.3610 Z0.3597 F180
G01 X-0.2443 Y-0.2230 Z0.3313 F180
G01 X-0.2084 Y-0.0891 Z0.2843 F180
G01 X-0.1499 Y0.0365 Z0.2267 F180
G01 X-0.0704 Y0.1500 Z0.1690 F180
G01 X0.0276 Y0.2480 Z0.1221 F180
G01 X0.1411 Y0.3275 Z0.0937 F180
G01 X0.2667 Y0.3860 Z0.0867 F180
G01 X0.4006 Y0.4219 Z0.0983 F180
G01 X0.5386 Y0.4340 Z0.1207 F180
G01 X0.6767 Y0.4219 Z0.1430 F180
G01 X0.8105 Y0.3860 Z0.1546 F180
G01 X0.8495 Y0.3707 Z0.1547 F180
G01 X0.9822 Y0.2972 Z0.1474 F180
G01 X1.1018 Y0.2035 Z0.1190 F180
G01 X1.2049 Y0.0921 Z0.0739 F180
G01 X1.2887 Y-0.0339 Z0.0211 F180
G01 X1.3509 Y-0.1708 Z-0.0282 F180
G01 X1.3901 Y-0.3147 Z-0.0641 F180
G01 X1.4053 Y-0.4616 Z-0.0800 F180
G01 X1.3963 Y-0.6072 Z-0.0747 F180
G01 X1.3638 Y-0.7474 Z-0.0527 F180
G01 X1.3091 Y-0.8781 Z-0.0231 F180
G01 X1.2342 Y-0.9957 Z0.0032 F180
G01 X1.1416 Y-1.0967 Z0.0159 F180
G01 X1.0344 Y-1.1785 Z0.0086 F180
G01 X0.9163 Y-1.2388 Z-0.0198 F180
G01 X0.7911 Y-1.2759 Z-0.0649 F180
G01 X0.6630 Y-1.2891 Z-0.1177 F180
G01 X0.5362 Y-1.2782 Z-0.1670 F180
G01 X0.4148 Y-1.2437 Z-0.2029 F180
G01 X0.3029 Y-1.1870 Z-0.2188 F180
G01 X0.2041 Y-1.1100 Z-0.2135 F180
G01 X0.1218 Y-1.0154 Z-0.1915 F180
G01 X0.0588 Y-0.9062 Z-0.1619 F180
G01 X0.0173 Y-0.7861 Z-0.1356 F180
G01 X-0.0011 Y-0.6589 Z-0.1229 F180
G01 X0.0045 Y-0.5288 Z-0.1302 F180
G01 X0.0342 Y-0.4000 Z-0.1586 F180
G01 X0.0875 Y-0.2766 Z-0.2037 F180
G01 X0.1630 Y-0.1627 Z-0.2565 F180
G01 X0.2587 Y-0.0619 Z-0.3058 F180
G01 X0.3721 Y0.0224 Z-0.3417 F180
G01 X0.5001 Y0.0874 Z-0.3576 F180
G01 X0.6390 Y0.1309 Z-0.3523 F180
G01 X0.7849 Y0.1513 Z-0.3303 F180
G01 X0.9338 Y0.1477 Z-0.3007 F180
G01 X1.0814 Y0.1200 Z-0.2744 F180
G01 X1.2236 Y0.0687 Z-0.2617 F180
G01 X1.3563 Y-0.0047 Z-0.2690 F180
G01 X1.4560 Y-0.0807 Z-0.2910 F180
G01 X1.5627 Y-0.1886 Z-0.3337 F180
G01 X1.6505 Y-0.3116 Z-0.3859 F180
G01 X1.7172 Y-0.4462 Z-0.4367 F180
G01 X1.7610 Y-0.5885 Z-0.4755 F180
G01 X1.7809 Y-0.7345 Z-0.4952 F180
G01 X1.7766 Y-0.8800 Z-0.4934 F180
G01 X1.7487 Y-1.0208 Z-0.4738 F180
G01 X1.6982 Y-1.1528 Z-0.4447 F180
G01 X1.6271 Y-1.2723 Z-0.4171 F180
G01 X1.5379 Y-1.3759 Z-0.4014 F180
G01 X1.4335 Y-1.4606 Z-0.4049 F180
G01 X1.3175 Y-1.5241 Z-0.4298 F180
G01 X1.1938 Y-1.5648 Z-0.4725 F180
G01 X1.0664 Y-1.5815 Z-0.5247 F180
G01 X0.9395 Y-1.5742 Z-0.5755 F180
G01 X0.8174 Y-1.5431 Z-0.6143 F180
G01 X0.7040 Y-1.4895 Z-0.6340 F180
G01 X0.6031 Y-1.4153 Z-0.6322 F180
G01 X0.5182 Y-1.3229 Z-0.6126 F180
G01 X0.4521 Y-1.2154 Z-0.5835 F180
G01 X0.4072 Y-1.0963 Z-0.5559 F180
G01 X0.3852 Y-0.9694 Z-0.5402 F180
G01 X0.3870 Y-0.8389 Z-0.5437 F180
G01 X0.4130 Y-0.7089 Z-0.5686 F180
G01 X0.4627 Y-0.5836 Z-0.6113 F180
G01 X0.5349 Y-0.4671 Z-0.6635 F180
G01 X0.6278 Y-0.3631 Z-0.7143 F180
G01 X0.7388 Y-0.2751 Z-0.7531 F180
G01 X0.8649 Y-0.2058 Z-0.7728 F180
G01 X1.0026 Y-0.1578 Z-0.7710 F180
G01 X1.1481 Y-0.1327 Z-0.7514 F180
G01 X1.2973 Y-0.1314 Z-0.7223 F180
G01 X1.4459 Y-0.1542 Z-0.6947 F180
G01 X1.5898 Y-0.2008 Z-0.6790 F180
G01 X1.7250 Y-0.2699 Z-0.6825 F180
G01 X1.8476 Y-0.3596 Z-0.7074 F180
G01 X1.9543 Y-0.4675 Z-0.7501 F180
G01 X2.0282 Y-0.5679 Z-0.7930 F180
G01 X2.0991 Y-0.7001 Z-0.8448 F180
G01 X2.1474 Y-0.8407 Z-0.8864 F180
G01 X2.1720 Y-0.9858 Z-0.9097 F180
G01 X2.1724 Y-1.1310 Z-0.9115 F180
G01 X2.1490 Y-1.2722 Z-0.8946 F180
G01 X2.1029 Y-1.4054 Z-0.8664 F180
G01 X2.0357 Y-1.5267 Z-0.8378 F180
G01 X1.9499 Y-1.6326 Z-0.8193 F180
G01 X1.8484 Y-1.7201 Z-0.8191 F180
G01 X1.7346 Y-1.7868 Z-0.8404 F180
G01 X1.6124 Y-1.8309 Z-0.8805 F180
G01 X1.4857 Y-1.8512 Z-0.9318 F180
G01 X1.3589 Y-1.8474 Z-0.9836 F180
G01 X1.2361 Y-1.8198 Z-1.0252 F180
G01 X1.1213 Y-1.7693 Z-1.0485 F180
G01 X1.0185 Y-1.6979 Z-1.0503 F180
G01 X0.9310 Y-1.6078 Z-1.0334 F180
G01 X0.8618 Y-1.5021 Z-1.0052 F180
G01 X0.8135 Y-1.3841 Z-0.9766 F180
G01 X0.7878 Y-1.2576 Z-0.9581 F180
G01 X0.7859 Y-1.1267 Z-0.9579 F180
G01 X0.8081 Y-0.9957 Z-0.9792 F180
G01 X0.8542 Y-0.8686 Z-1.0193 F180
G01 X0.9230 Y-0.7496 Z-1.0705 F180
G01 X1.0128 Y-0.6425 Z-1.1224 F180
G01 X1.1213 Y-0.5507 Z-1.1640 F180
G01 X1.2454 Y-0.4774 Z-1.1873 F180
G01 X1.3819 Y-0.4248 Z-1.1891 F180
G01 X1.5267 Y-0.3949 Z-1.1722 F180
G01 X1.6760 Y-0.3887 Z-1.1440 F180
G01 X1.8255 Y-0.4067 Z-1.1153 F180
G01 X1.9709 Y-0.4485 Z-1.0969 F180
G01 X2.1084 Y-0.5131 Z-1.0967 F180
G01 X2.2339 Y-0.5986 Z-1.1180 F180
G01 X2.3440 Y-0.7029 Z-1.1581 F180
G01 X2.4358 Y-0.8228 Z-1.2093 F180
G01 X2.5067 Y-0.9550 Z-1.2612 F180
G01 X2.5483 Y-1.0705 Z-1.2966 F180
G01 X2.5775 Y-1.2143 Z-1.3235 F180
G01 X2.5826 Y-1.3591 Z-1.3291 F180
G01 X2.5637 Y-1.5007 Z-1.3150 F180
G01 X2.5218 Y-1.6349 Z-1.2881 F180
G01 X2.4586 Y-1.7578 Z-1.2587 F180
G01 X2.3762 Y-1.8659 Z-1.2378 F180
G01 X2.2776 Y-1.9562 Z-1.2340 F180
G01 X2.1661 Y-2.0260 Z-1.2515 F180
G01 X2.0455 Y-2.0735 Z-1.2888 F180
G01 X1.9198 Y-2.0973 Z-1.3388 F180
G01 X1.7931 Y-2.0970 Z-1.3913 F180
G01 X1.6697 Y-2.0728 Z-1.4354 F180
G01 X1.5536 Y-2.0256 Z-1.4623 F180
G01 X1.4488 Y-1.9570 Z-1.4679 F180
G01 X1.3588 Y-1.8693 Z-1.4538 F180
G01 X1.2866 Y-1.7654 Z-1.4269 F180
G01 X1.2349 Y-1.6486 Z-1.3975 F180
G01 X1.2056 Y-1.5226 Z-1.3766 F180
G01 X1.1998 Y-1.3915 Z-1.3728 F180
G01 X1.2182 Y-1.2595 Z-1.3903 F180
G01 X1.2605 Y-1.1307 Z-1.4276 F180
G01 X1.3259 Y-1.0093 Z-1.4776 F180
G01 X1.4126 Y-0.8991 Z-1.5301 F180
G01 X1.5184 Y-0.8038 Z-1.5742 F180
G01 X1.6404 Y-0.7263 Z-1.6011 F180
G01 X1.7754 Y-0.6692 Z-1.6067 F180
G01 X1.9195 Y-0.6346 Z-1.5926 F180
G01 X2.0687 Y-0.6235 Z-1.5657 F180
G01 X2.2188 Y-0.6365 Z-1.5363 F180
G01 X2.3657 Y-0.6735 Z-1.5154 F180
G01 X2.5052 Y-0.7335 Z-1.5116 F180
G01 X2.6335 Y-0.8149 Z-1.5291 F180
G01 X2.7469 Y-0.9153 Z-1.5664 F180
G01 X2.8425 Y-1.0320 Z-1.6164 F180
G01 X2.9177 Y-1.1616 Z-1.6689 F180
G01 X2.9705 Y-1.3004 Z-1.7130 F180
G01 X2.9997 Y-1.4442 Z-1.7399 F180
G01 X3.0056 Y-1.5637 Z-1.7461 F180
G01 X2.9675 Y-1.6934 Z-1.7351 F180
G01 X2.9061 Y-1.8164 Z-1.7098 F180
G01 X2.8230 Y-1.9288 Z-1.6800 F180
G01 X2.7203 Y-2.0270 Z-1.6568 F180
G01 X2.6009 Y-2.1078 Z-1.6496 F180
G01 X2.4679 Y-2.1686 Z-1.6633 F180
G01 X2.3252 Y-2.2073 Z-1.6974 F180
G01 X2.1766 Y-2.2226 Z-1.7459 F180
G01 X2.0263 Y-2.2138 Z-1.7988 F180
G01 X1.8785 Y-2.1809 Z-1.8451 F180
G01 X1.7374 Y-2.1249 Z-1.8755 F180
G01 X1.6069 Y-2.0471 Z-1.8849 F180
G01 X1.4906 Y-1.9498 Z-1.8739 F180
G01 X1.3917 Y-1.8357 Z-1.8486 F180
G01 X1.3128 Y-1.7081 Z-1.8188 F180
G01 X1.2559 Y-1.5707 Z-1.7956 F180
G01 X1.2225 Y-1.4275 Z-1.7884 F180
G01 X1.2132 Y-1.2825 Z-1.8021 F180
G01 X1.2280 Y-1.1401 Z-1.8362 F180
G01 X1.2659 Y-1.0043 Z-1.8847 F180
G01 X1.3256 Y-0.8792 Z-1.9376 F180
G01 X1.4047 Y-0.7682 Z-1.9839 F180
G01 X1.5007 Y-0.6746 Z-2.0143 F180
G01 X1.6102 Y-0.6011 Z-2.0237 F180
G01 X1.7295 Y-0.5496 Z-2.0127 F180
G01 X1.8546 Y-0.5215 Z-1.9874 F180
G01 X1.9815 Y-0.5175 Z-1.9576 F180
G01 X2.1058 Y-0.5376 Z-1.9344 F180
G01 X2.2234 Y-0.5809 Z-1.9272 F180
G01 X2.3305 Y-0.6459 Z-1.9409 F180
G01 X2.4233 Y-0.7304 Z-1.9750 F180
G01 X2.4988 Y-0.8317 Z-2.0235 F180
G01 X2.5542 Y-0.9466 Z-2.0764 F180
G01 X2.5876 Y-1.0712 Z-2.1227 F180
G01 X2.5976 Y-1.2017 Z-2.1531 F180
G01 X2.5834 Y-1.3339 Z-2.1625 F180
G01 X2.5452 Y-1.4635 Z-2.1515 F180
G01 X2.4962 Y-1.5656 Z-2.1312 F180
G01 X2.4172 Y-1.6794 Z-2.1014 F180
G01 X2.3182 Y-1.7796 Z-2.0763 F180
G01 X2.2019 Y-1.8630 Z-2.0658 F180
G01 X2.0715 Y-1.9268 Z-2.0757 F180
G01 X1.9306 Y-1.9688 Z-2.1066 F180
G01 X1.7831 Y-1.9876 Z-2.1532 F180
G01 X1.6332 Y-1.9823 Z-2.2061 F180
G01 X1.4851 Y-1.9530 Z-2.2543 F180
G01 X1.3430 Y-1.9002 Z-2.2880 F180
G01 X1.2107 Y-1.8254 Z-2.3012 F180
G01 X1.0921 Y-1.7307 Z-2.2935 F180
G01 X0.9903 Y-1.6186 Z-2.2700 F180
G01 X0.9081 Y-1.4924 Z-2.2402 F180
G01 X0.8477 Y-1.3558 Z-2.2151 F180
G01 X0.8105 Y-1.2125 Z-2.2046 F180
G01 X0.7974 Y-1.0669 Z-2.2145 F180
G01 X0.8083 Y-0.9230 Z-2.2454 F180
G01 X0.8427 Y-0.7851 Z-2.2920 F180
G01 X0.8991 Y-0.6571 Z-2.3449 F180
G01 X0.9754 Y-0.5428 Z-2.3931 F180
G01 X1.0691 Y-0.4452 Z-2.4268 F180
G01 X1.1769 Y-0.3673 Z-2.4400 F180
G01 X1.2951 Y-0.3111 Z-2.4323 F180
G01 X1.4200 Y-0.2782 Z-2.4088 F180
G01 X1.5472 Y-0.2693 Z-2.3790 F180
G01 X1.6727 Y-0.2845 Z-2.3539 F180
G01 X1.7922 Y-0.3231 Z-2.3434 F180
G01 X1.9017 Y-0.3837 Z-2.3533 F180
G01 X1.9977 Y-0.4643 Z-2.3842 F180
G01 X2.0769 Y-0.5622 Z-2.4308 F180
G01 X2.1364 Y-0.6742 Z-2.4837 F180
G01 X2.1742 Y-0.7967 Z-2.5319 F180
G01 X2.1887 Y-0.9258 Z-2.5656 F180
G01 X2.1792 Y-1.0573 Z-2.5788 F180
G01 X2.1456 Y-1.1870 Z-2.5711 F180
G01 X2.0886 Y-1.3107 Z-2.5476 F180
G01 X2.0096 Y-1.4246 Z-2.5178 F180
G01 X1.9293 Y-1.5083 Z-2.4963 F180
G01 X1.8162 Y-1.5942 Z-2.4827 F180
G01 X1.6885 Y-1.6609 Z-2.4888 F180
G01 X1.5496 Y-1.7062 Z-2.5162 F180
G01 X1.4034 Y-1.7285 Z-2.5606 F180
G01 X1.2541 Y-1.7268 Z-2.6133 F180
G01 X1.1058 Y-1.7010 Z-2.6631 F180
G01 X0.9628 Y-1.6516 Z-2.6999 F180
G01 X0.8290 Y-1.5799 Z-2.7169 F180
G01 X0.7081 Y-1.4878 Z-2.7126 F180
G01 X0.6036 Y-1.3778 Z-2.6913 F180
G01 X0.5183 Y-1.2532 Z-2.6618 F180
G01 X0.4544 Y-1.1175 Z-2.6351 F180
G01 X0.4135 Y-0.9744 Z-2.6215 F180
G01 X0.3966 Y-0.8282 Z-2.6276 F180
G01 X0.4038 Y-0.6831 Z-2.6550 F180
G01 X0.4345 Y-0.5432 Z-2.6994 F180
G01 X0.4876 Y-0.4125 Z-2.7521 F180
G01 X0.5611 Y-0.2948 Z-2.8019 F180
G01 X0.6524 Y-0.1934 Z-2.8387 F180
G01 X0.7584 Y-0.1112 Z-2.8556 F180
G01 X0.8755 Y-0.0504 Z-2.8514 F180
G01 X1.0000 Y-0.0127 Z-2.8301 F180
G01 X1.1275 Y0.0011 Z-2.8006 F180
G01 X1.2540 Y-0.0092 Z-2.7739 F180
G01 X1.3753 Y-0.0431 Z-2.7603 F180
G01 X1.4874 Y-0.0993 Z-2.7664 F180
G01 X1.5865 Y-0.1759 Z-2.7938 F180
G01 X1.6692 Y-0.2704 Z-2.8382 F180
G01 X1.7328 Y-0.3795 Z-2.8909 F180
G01 X1.7750 Y-0.4998 Z-2.9407 F180
G01 X1.7941 Y-0.6273 Z-2.9775 F180
G01 X1.7893 Y-0.7580 Z-2.9944 F180
G01 X1.7603 Y-0.8876 Z-2.9902 F180
G01 X1.7078 Y-1.0121 Z-2.9689 F180
G01 X1.6329 Y-1.1272 Z-2.9394 F180
G01 X1.5377 Y-1.2294 Z-2.9127 F180
G01 X1.4247 Y-1.3153 Z-2.8991 F180
G01 X1.3202 Y-1.3718 Z-2.9026 F180
G01 X1.1835 Y-1.4204 Z-2.9264 F180
G01 X1.0388 Y-1.4461 Z-2.9684 F180
G01 X0.8902 Y-1.4480 Z-3.0203 F180
G01 X0.7419 Y-1.4258 Z-3.0714 F180
G01 X0.5982 Y-1.3798 Z-3.1111 F180
G01 X0.4630 Y-1.3112 Z-3.1318 F180
G01 X0.3401 Y-1.2219 Z-3.1311 F180
G01 X0.2330 Y-1.1143 Z-3.1123 F180
G01 X0.1446 Y-0.9913 Z-3.0835 F180
G01 X0.0772 Y-0.8566 Z-3.0555 F180
G01 X0.0327 Y-0.7139 Z-3.0390 F180
G01 X0.0120 Y-0.5673 Z-3.0414 F180
G01 X0.0155 Y-0.4211 Z-3.0652 F180
G01 X0.0427 Y-0.2793 Z-3.1071 F180
G01 X0.0925 Y-0.1461 Z-3.1591 F180
G01 X0.1631 Y-0.0252 Z-3.2102 F180
G01 X0.2519 Y0.0799 Z-3.2499 F180
G01 X0.3561 Y0.1663 Z-3.2706 F180
G01 X0.4720 Y0.2316 Z-3.2699 F180
G01 X0.5959 Y0.2741 Z-3.2511 F180
G01 X0.7237 Y0.2928 Z-3.2223 F180
G01 X0.8512 Y0.2873 Z-3.1943 F180
G01 X0.9742 Y0.2581 Z-3.1777 F180
G01 X1.0887 Y0.2063 Z-3.1802 F180
G01 X1.1907 Y0.1338 Z-3.2040 F180
G01 X1.2771 Y0.0429 Z-3.2459 F180
G01 X1.3447 Y-0.0632 Z-3.2979 F180
G01 X1.3912 Y-0.1812 Z-3.3490 F180
G01 X1.4150 Y-0.3071 Z-3.3887 F180
G01 X1.4149 Y-0.4369 Z-3.4094 F180
G01 X1.3906 Y-0.5664 Z-3.4087 F180
G01 X1.3426 Y-0.6914 Z-3.3899 F180
G01 X1.2721 Y-0.8079 Z-3.3611 F180
G01 X1.1807 Y-0.9119 Z-3.3331 F180
G01 X1.0711 Y-1.0003 Z-3.3165 F180
G01 X0.9461 Y-1.0699 Z-3.3190 F180
G01 X0.8094 Y-1.1184 Z-3.3428 F180
G01 X0.6905 Y-1.1414 Z-3.3764 F180
G01 X0.5664 Y-1.1670 Z-3.4158 F1200
G01 X0.4419 Y-1.1685 Z-3.4563 F1200
G01 X0.3212 Y-1.1461 Z-3.4871 F1200
G01 X0.2083 Y-1.1008 Z-3.4999 F1200
G01 X0.1071 Y-1.0345 Z-3.4913 F1200
G01 X0.0212 Y-0.9494 Z-3.4636 F1200
G01 X-0.0466 Y-0.8484 Z-3.4242 F1200
G01 X-0.0936 Y-0.7349 Z-3.3837 F1200
G01 X-0.1181 Y-0.6128 Z-3.3529 F1200
G01 X-0.1189 Y-0.4861 Z-3.3401 F1200
G01 X-0.0955 Y-0.3590 Z-3.3487 F1200
G01 X-0.0483 Y-0.2356 Z-3.3764 F1200
G01 X0.0218 Y-0.1201 Z-3.4158 F1200
G01 X0.1130 Y-0.0163 Z-3.4563 F1200
G01 X0.2230 Y0.0723 Z-3.4871 F1200
G01 X0.3488 Y0.1426 Z-3.4999 F1200
G01 X0.4871 Y0.1923 Z-3.4913 F1200
G01 X0.6341 Y0.2194 Z-3.4636 F1200
G01 X0.7856 Y0.2228 Z-3.4242 F1200
G01 X0.9376 Y0.2021 Z-3.3837 F1200
G01 X1.0858 Y0.1575 Z-3.3529 F1200
G01 X1.2261 Y0.0900 Z-3.3401 F1200
G01 X1.3548 Y0.0015 Z-3.3487 F1200
G01 X1.4682 Y-0.1059 Z-3.3764 F1200
G01 X1.5635 Y-0.2291 Z-3.4158 F1200
G01 X1.6380 Y-0.3647 Z-3.4563 F1200
G01 X1.6899 Y-0.5090 Z-3.4871 F1200
G01 X1.7159 Y-0.6383 Z-3.4994 F1200
G01 X1.7238 Y-0.7870 Z-3.4936 F1200
G01 X1.7077 Y-0.9325 Z-3.4681 F1200
G01 X1.6687 Y-1.0706 Z-3.4297 F1200
G01 X1.6082 Y-1.1975 Z-3.3887 F1200
G01 X1.5287 Y-1.3097 Z-3.3561 F1200
G01 X1.4328 Y-1.4040 Z-3.3406 F1200
G01 X1.3241 Y-1.4779 Z-3.3464 F1200
G01 X1.2062 Y-1.5295 Z-3.3719 F1200
G01 X1.0831 Y-1.5574 Z-3.4103 F1200
G01 X0.9590 Y-1.5612 Z-3.4513 F1200
G01 X0.8382 Y-1.5411 Z-3.4839 F1200
G01 X0.7247 Y-1.4980 Z-3.4994 F1200
G01 X0.6224 Y-1.4335 Z-3.4936 F1200
G01 X0.5349 Y-1.3498 Z-3.4681 F1200
G01 X0.4652 Y-1.2499 Z-3.4297 F1200
G01 X0.4160 Y-1.1371 Z-3.3887 F1200
G01 X0.3891 Y-1.0151 Z-3.3561 F1200
G01 X0.3858 Y-0.8879 Z-3.3406 F1200
G01 X0.4066 Y-0.7597 Z-3.3464 F1200
G01 X0.4514 Y-0.6348 Z-3.3719 F1200
G01 X0.5191 Y-0.5172 Z-3.4103 F1200
G01 X0.6083 Y-0.4109 Z-3.4513 F1200
G01 X0.7166 Y-0.3193 Z-3.4839 F1200
G01 X0.8412 Y-0.2455 Z-3.4994 F1200
G01 X0.9787 Y-0.1922 Z-3.4936 F1200
G01 X1.1253 Y-0.1612 Z-3.4681 F1200
G01 X1.2771 Y-0.1538 Z-3.4297 F1200
G01 X1.4099 Y-0.1670 Z-3.3938 F1200
G01 X1.5607 Y-0.2037 Z-3.3596 F1200
G01 X1.7048 Y-0.2636 Z-3.3414 F1200
G01 X1.8380 Y-0.3451 Z-3.3444 F1200
G01 X1.9570 Y-0.4461 Z-3.3676 F1200
G01 X2.0585 Y-0.5638 Z-3.4048 F1200
G01 X2.1398 Y-0.6948 Z-3.4462 F1200
G01 X2.1991 Y-0.8356 Z-3.4804 F1200
G01 X2.2348 Y-0.9820 Z-3.4986 F1200
G01 X2.2465 Y-1.1300 Z-3.4956 F1200
G01 X2.2341 Y-1.2752 Z-3.4724 F1200
G01 X2.1986 Y-1.4137 Z-3.4352 F1200
G01 X2.1414 Y-1.5415 Z-3.3938 F1200
G01 X2.0648 Y-1.6549 Z-3.3596 F1200
G01 X1.9715 Y-1.7509 Z-3.3414 F1200
G01 X1.8648 Y-1.8267 Z-3.3444 F1200
G01 X1.7485 Y-1.8804 Z-3.3676 F1200
G01 X1.6264 Y-1.9107 Z-3.4048 F1200
G01 X1.5028 Y-1.9168 Z-3.4462 F1200
G01 X1.3819 Y-1.8989 Z-3.4804 F1200
G01 X1.2678 Y-1.8579 Z-3.4986 F1200
G01 X1.1644 Y-1.7952 Z-3.4956 F1200
G01 X1.0753 Y-1.7130 Z-3.4724 F1200
G01 X1.0037 Y-1.6142 Z-3.4352 F1200
G01 X0.9523 Y-1.5020 Z-3.3938 F1200
G01 X0.9229 Y-1.3801 Z-3.3596 F1200
G01 X0.9170 Y-1.2525 Z-3.3414 F1200
G01 X0.9353 Y-1.1234 Z-3.3444 F1200
G01 X0.9706 Y-1.0133 Z-3.3636 F1200
G01 X1.0336 Y-0.8916 Z-3.3995 F1200
G01 X1.1184 Y-0.7802 Z-3.4409 F1200
G01 X1.2231 Y-0.6827 Z-3.4767 F1200
G01 X1.3448 Y-0.6022 Z-3.4973 F1200
G01 X1.4803 Y-0.5415 Z-3.4972 F1200
G01 X1.6260 Y-0.5028 Z-3.4764 F1200
G01 X1.7780 Y-0.4874 Z-3.4405 F1200
G01 X1.9320 Y-0.4960 Z-3.3991 F1200
G01 X2.0840 Y-0.5287 Z-3.3633 F1200
G01 X2.2296 Y-0.5847 Z-3.3427 F1200
G01 X2.3651 Y-0.6627 Z-3.3428 F1200
G01 X2.4866 Y-0.7603 Z-3.3636 F1200
G01 X2.5911 Y-0.8751 Z-3.3995 F1200
G01 X2.6757 Y-1.0037 Z-3.4409 F1200
G01 X2.7385 Y-1.1425 Z-3.4767 F1200
G01 X2.7779 Y-1.2875 Z-3.4973 F1200
G01 X2.7933 Y-1.4346 Z-3.4972 F1200
G01 X2.7846 Y-1.5796 Z-3.4764 F1200
G01 X2.7525 Y-1.7183 Z-3.4405 F1200
G01 X2.6986 Y-1.8468 Z-3.3991 F1200
G01 X2.6249 Y-1.9614 Z-3.3633 F1200
G01 X2.5342 Y-2.0589 Z-3.3427 F1200
G01 X2.4296 Y-2.1367 Z-3.3428 F1200
G01 X2.3148 Y-2.1925 Z-3.3636 F1200
G01 X2.1938 Y-2.2250 Z-3.3995 F1200
G01 X2.0707 Y-2.2334 Z-3.4409 F1200
G01 X1.9497 Y-2.2177 Z-3.4767 F1200
G01 X1.8495 Y-2.1852 Z-3.4957 F1200
G01 X1.7440 Y-2.1262 Z-3.4985 F1200
G01 X1.6518 Y-2.0471 Z-3.4802 F1200
G01 X1.5764 Y-1.9505 Z-3.4458 F1200
G01 X1.5204 Y-1.8397 Z-3.4045 F1200
G01 X1.4861 Y-1.7181 Z-3.3673 F1200
G01 X1.4749 Y-1.5898 Z-3.3443 F1200
G01 X1.4878 Y-1.4589 Z-3.3415 F1200
G01 X1.5248 Y-1.3295 Z-3.3598 F1200
G01 X1.5852 Y-1.2059 Z-3.3942 F1200
G01 X1.6678 Y-1.0920 Z-3.4355 F1200
G01 X1.7704 Y-0.9915 Z-3.4727 F1200
G01 X1.8906 Y-0.9077 Z-3.4957 F1200
G01 X2.0249 Y-0.8434 Z-3.4985 F1200
G01 X2.1700 Y-0.8007 Z-3.4802 F1200
G01 X2.3219 Y-0.7813 Z-3.4458 F1200
G01 X2.4764 Y-0.7858 Z-3.4045 F1200
G01 X2.6293 Y-0.8145 Z-3.3673 F1200
G01 X2.7765 Y-0.8666 Z-3.3443 F1200
G01 X2.9139 Y-0.9408 Z-3.3415 F1200
G01 X3.0380 Y-1.0351 Z-3.3598 F1200
G01 X3.1453 Y-1.1469 Z-3.3942 F1200
G01 X3.2332 Y-1.2730 Z-3.4355 F1200
G01 X3.2994 Y-1.4097 Z-3.4727 F1200
G01 X3.3424 Y-1.5532 Z-3.4957 F1200
G01 X3.3614 Y-1.6994 Z-3.4985 F1200
G01 X3.3563 Y-1.8439 Z-3.4802 F1200
G01 X3.3278 Y-1.9828 Z-3.4458 F1200
G01 X3.2849 Y-2.0956 Z-3.4099 F1200
G01 X3.2171 Y-2.2124 Z-3.3716 F1200
G01 X3.1314 Y-2.3128 Z-3.3462 F1200
G01 X3.0310 Y-2.3941 Z-3.3406 F1200
G01 X2.9194 Y-2.4539 Z-3.3563 F1200
G01 X2.8005 Y-2.4908 Z-3.3891 F1200
G01 X2.6785 Y-2.5037 Z-3.4301 F1200
G01 X2.5574 Y-2.4925 Z-3.4684 F1200
G01 X2.4416 Y-2.4576 Z-3.4938 F1200
G01 X2.3349 Y-2.4005 Z-3.4994 F1200
G01 X2.2412 Y-2.3229 Z-3.4837 F1200
G01 X2.1638 Y-2.2276 Z-3.4509 F1200
G01 X2.1056 Y-2.1175 Z-3.4099 F1200
G01 X2.0687 Y-1.9962 Z-3.3716 F1200
G01 X2.0549 Y-1.8676 Z-3.3462 F1200
G01 X2.0650 Y-1.7358 Z-3.3406 F1200
G01 X2.0993 Y-1.6050 Z-3.3563 F1200
G01 X2.1571 Y-1.4795 Z-3.3891 F1200
G01 X2.2373 Y-1.3631 Z-3.4301 F1200
G01 X2.3379 Y-1.2597 Z-3.4684 F1200
G01 X2.4563 Y-1.1726 Z-3.4938 F1200
G01 X2.5894 Y-1.1047 Z-3.4994 F1200
G01 X2.7337 Y-1.0581 Z-3.4837 F1200
G01 X2.8853 Y-1.0346 Z-3.4509 F1200
G01 X3.0401 Y-1.0350 Z-3.4099 F1200
G01 X3.1939 Y-1.0596 Z-3.3716 F1200
G01 X3.3425 Y-1.1077 Z-3.3462 F1200
G01 X3.4819 Y-1.1782 Z-3.3406 F1200
G01 X3.5925 Y-1.2560 Z-3.3531 F1200
G01 X3.7053 Y-1.3616 Z-3.3841 F1200
G01 X3.7993 Y-1.4823 Z-3.4246 F1200
G01 X3.8722 Y-1.6147 Z-3.4639 F1200
G01 X3.9222 Y-1.7549 Z-3.4915 F1200
G01 X3.9483 Y-1.8989 Z-3.4999 F1200
G01 X3.9503 Y-2.0423 Z-3.4869 F1200
G01 X3.9286 Y-2.1812 Z-3.4559 F1200
G01 X3.8844 Y-2.3113 Z-3.4154 F1200
G01 X3.8194 Y-2.4289 Z-3.3761 F1200
G01 X3.7363 Y-2.5307 Z-3.3485 F1200
G01 X3.6380 Y-2.6137 Z-3.3401 F1200
G01 X3.5280 Y-2.6755 Z-3.3531 F1200
G01 X3.4102 Y-2.7145 Z-3.3841 F1200
G01 X3.2887 Y-2.7296 Z-3.4246 F1200
G01 X3.1676 Y-2.7205 Z-3.4639 F1200
G01 X3.0512 Y-2.6878 Z-3.4915 F1200
G01 X2.9435 Y-2.6325 Z-3.4999 F1200
G01 X2.8482 Y-2.5565 Z-3.4869 F1200
G01 X2.7689 Y-2.4623 Z-3.4559 F1200
G01 X2.7083 Y-2.3530 Z-3.4154 F1200
G01 X2.6689 Y-2.2320 Z-3.3761 F1200
G01 X2.6524 Y-2.1032 Z-3.3485 F1200
G01 X2.6597 Y-1.9706 Z-3.3401 F1200
G01 X2.6912 Y-1.8385 Z-3.3531 F1200
G01 X2.7463 Y-1.7110 Z-3.3841 F1200
G01 X2.8240 Y-1.5923 Z-3.4246 F1200
G01 X2.9224 Y-1.4860 Z-3.4639 F1200
G01 X3.0227 Y-1.4065 Z-3.4888 F1200
G01 X3.1530 Y-1.3313 Z-3.5000 F1200
G01 X3.2954 Y-1.2770 Z-3.4897 F1200
G01 X3.4462 Y-1.2453 Z-3.4608 F1200
G01 X3.6012 Y-1.2374 Z-3.4209 F1200
G01 X3.7563 Y-1.2537 Z-3.3808 F1200
G01 X3.9073 Y-1.2938 Z-3.3512 F1200
G01 X4.0502 Y-1.3566 Z-3.3400 F1200
G01 X4.1810 Y-1.4404 Z-3.3503 F1200
G01 X4.2964 Y-1.5427 Z-3.3792 F1200
G01 X4.3933 Y-1.6606 Z-3.4191 F1200
G01 X4.4694 Y-1.7907 Z-3.4592 F1200
G01 X4.5228 Y-1.9291 Z-3.4888 F1200
G01 X4.5524 Y-2.0718 Z-3.5000 F1200
G01 X4.5578 Y-2.2146 Z-3.4897 F1200
G01 X4.5395 Y-2.3533 Z-3.4608 F1200
G01 X4.4984 Y-2.4838 Z-3.4209 F1200
G01 X4.4363 Y-2.6023 Z-3.3808 F1200
G01 X4.3557 Y-2.7054 Z-3.3512 F1200
G01 X4.2595 Y-2.7900 Z-3.3400 F1200
G01 X4.1512 Y-2.8537 Z-3.3503 F1200
G01 X4.0345 Y-2.8947 Z-3.3792 F1200
G01 X3.9135 Y-2.9120 Z-3.4191 F1200
G01 X3.7925 Y-2.9052 Z-3.4592 F1200
G01 X3.6755 Y-2.8745 Z-3.4888 F1200
G01 X3.5667 Y-2.8211 Z-3.5000 F1200
G01 X3.4700 Y-2.7467 Z-3.4897 F1200
G01 X3.3886 Y-2.6538 Z-3.4608 F1200
G01 X3.3329 Y-2.5603 Z-3.4264 F1200
G01 X3.2883 Y-2.4400 Z-3.3856 F1200
G01 X3.2662 Y-2.3108 Z-3.3541 F1200
G01 X3.2677 Y-2.1768 Z-3.3403 F1200
G01 X3.2934 Y-2.0422 Z-3.3478 F1200
G01 X3.3429 Y-1.9111 Z-3.3746 F1200
G01 X3.4154 Y-1.7877 Z-3.4136 F1200
G01 X3.5092 Y-1.6758 Z-3.4544 F1200
G01 X3.6218 Y-1.5789 Z-3.4859 F1200
G01 X3.7504 Y-1.5002 Z-3.4997 F1200
G01 X3.8917 Y-1.4420 Z-3.4922 F1200
G01 X4.0418 Y-1.4063 Z-3.4654 F1200
G01 X4.1968 Y-1.3942 Z-3.4264 F1200
G01 X4.3524 Y-1.4063 Z-3.3856 F1200
G01 X4.5044 Y-1.4423 Z-3.3541 F1200
G01 X4.6488 Y-1.5012 Z-3.3403 F1200
G01 X4.7817 Y-1.5813 Z-3.3478 F1200
G01 X4.8995 Y-1.6804 Z-3.3746 F1200
G01 X4.9992 Y-1.7955 Z-3.4136 F1200
G01 X5.0784 Y-1.9231 Z-3.4544 F1200
G01 X5.1351 Y-2.0597 Z-3.4859 F1200
G01 X5.1681 Y-2.2011 Z-3.4997 F1200
G01 X5.1770 Y-2.3431 Z-3.4922 F1200
G01 X5.1619 Y-2.4815 Z-3.4654 F1200
G01 X5.1240 Y-2.6123 Z-3.4264 F1200
G01 X5.0648 Y-2.7316 Z-3.3856 F1200
G01 X4.9868 Y-2.8359 Z-3.3541 F1200
G01 X4.8927 Y-2.9220 Z-3.3403 F1200
G01 X4.8006 Y-2.9802 Z-3.3456 F1200
G01 X4.6861 Y-3.0254 Z-3.3702 F1200
G01 X4.5663 Y-3.0469 Z-3.4082 F1200
G01 X4.4453 Y-3.0444 Z-3.4493 F1200
G01 X4.3273 Y-3.0178 Z-3.4826 F1200
G01 X4.2164 Y-2.9682 Z-3.4991 F1200
G01 X4.1166 Y-2.8971 Z-3.4944 F1200
G01 X4.0313 Y-2.8068 Z-3.4698 F1200
G01 X3.9638 Y-2.7000 Z-3.4318 F1200
G01 X3.9165 Y-2.5801 Z-3.3907 F1200
G01 X3.8915 Y-2.4509 Z-3.3574 F1200
G01 X3.8901 Y-2.3163 Z-3.3409 F1200
G01 X3.9128 Y-2.1805 Z-3.3456 F1200
G01 X3.9595 Y-2.0477 Z-3.3702 F1200
G01 X4.0292 Y-1.9220 Z-3.4082 F1200
G01 X4.1205 Y-1.8074 Z-3.4493 F1200
G01 X4.2309 Y-1.7073 Z-3.4826 F1200
G01 X4.3578 Y-1.6250 Z-3.4991 F1200
G01 X4.4979 Y-1.5630 Z-3.4944 F1200
G01 X4.6472 Y-1.5232 Z-3.4698 F1200
G01 X4.8020 Y-1.5070 Z-3.4318 F1200
G01 X4.9579 Y-1.5149 Z-3.3907 F1200
G01 X5.1109 Y-1.5468 Z-3.3574 F1200
G01 X5.2567 Y-1.6017 Z-3.3409 F1200
G01 X5.3914 Y-1.6782 Z-3.3456 F1200
G01 X5.5116 Y-1.7739 Z-3.3702 F1200
G01 X5.6141 Y-1.8860 Z-3.4082 F1200
G01 X5.6962 Y-2.0112 Z-3.4493 F1200
G01 X5.7496 Y-2.1277 Z-3.4790 F1200
G01 X5.7892 Y-2.2662 Z-3.4981 F1200
G01 X5.8048 Y-2.4064 Z-3.4963 F1200
G01 X5.7963 Y-2.5442 Z-3.4740 F1200
G01 X5.7645 Y-2.6753 Z-3.4372 F1200
G01 X5.7110 Y-2.7959 Z-3.3959 F1200
G01 X5.6380 Y-2.9024 Z-3.3610 F1200
G01 X5.5481 Y-2.9915 Z-3.3419 F1200
G01 X5.4447 Y-3.0607 Z-3.3437 F1200
G01 X5.3314 Y-3.1078 Z-3.3660 F1200
G01 X5.2121 Y-3.1314 Z-3.4028 F1200
G01 X5.0912 Y-3.1310 Z-3.4441 F1200
G01 X4.9726 Y-3.1066 Z-3.4790 F1200
G01 X4.8607 Y-3.0589 Z-3.4981 F1200
G01 X4.7594 Y-2.9895 Z-3.4963 F1200
G01 X4.6721 Y-2.9005 Z-3.4740 F1200
G01 X4.6022 Y-2.7947 Z-3.4372 F1200
G01 X4.5523 Y-2.6753 Z-3.3959 F1200
G01 X4.5245 Y-2.5460 Z-3.3610 F1200
G01 X4.5200 Y-2.4109 Z-3.3419 F1200
G01 X4.5397 Y-2.2739 Z-3.3437 F1200
G01 X4.5833 Y-2.1395 Z-3.3660 F1200
G01 X4.6502 Y-2.0116 Z-3.4028 F1200
G01 X4.7389 Y-1.8943 Z-3.4441 F1200
G01 X4.8471 Y-1.7911 Z-3.4790 F1200
G01 X4.9722 Y-1.7053 Z-3.4981 F1200
G01 X5.1108 Y-1.6394 Z-3.4963 F1200
G01 X5.2593 Y-1.5956 Z-3.4740 F1200
G01 X5.3932 Y-1.5766 Z-3.4426 F1200
G01 X5.5495 Y-1.5760 Z-3.4012 F1200
G01 X5.7038 Y-1.5996 Z-3.3648 F1200
G01 X5.8520 Y-1.6466 Z-3.3432 F1200
G01 X5.9903 Y-1.7155 Z-3.3422 F1200
G01 X6.1148 Y-1.8043 Z-3.3621 F1200
G01 X6.2224 Y-1.9104 Z-3.3974 F1200
G01 X6.3103 Y-2.0304 Z-3.4388 F1200
G01 X6.3764 Y-2.1609 Z-3.4752 F1200
G01 X6.4192 Y-2.2978 Z-3.4968 F1200
G01 X6.4380 Y-2.4370 Z-3.4978 F1200
G01 X6.4327 Y-2.5742 Z-3.4779 F1200
G01 X6.4040 Y-2.7054 Z-3.4426 F1200
G01 X6.3533 Y-2.8266 Z-3.4012 F1200
G01 X6.2828 Y-2.9341 Z-3.3648 F1200
G01 X6.1950 Y-3.0246 Z-3.3432 F1200
G01 X6.0932 Y-3.0955 Z-3.3422 F1200
G01 X5.9810 Y-3.1446 Z-3.3621 F1200
G01 X5.8624 Y-3.1703 Z-3.3974 F1200
G01 X5.7415 Y-3.1721 Z-3.4388 F1200
G01 X5.6225 Y-3.1497 Z-3.4752 F1200
G01 X5.5095 Y-3.1040 Z-3.4968 F1200
G01 X5.4066 Y-3.0363 Z-3.4978 F1200
G01 X5.3174 Y-2.9487 Z-3.4779 F1200
G01 X5.2451 Y-2.8439 Z-3.4426 F1200
G01 X5.1925 Y-2.7250 Z-3.4012 F1200
G01 X5.1618 Y-2.5958 Z-3.3648 F1200
G01 X5.1542 Y-2.4601 Z-3.3432 F1200
G01 X5.1672 Y-2.3403 Z-3.3411 F1200
G01 X5.2047 Y-2.2031 Z-3.3584 F1200
G01 X5.2657 Y-2.0715 Z-3.3922 F1200
G01 X5.3489 Y-1.9494 Z-3.4334 F1200
G01 X5.4523 Y-1.8405 Z-3.4711 F1200
G01 X5.5733 Y-1.7482 Z-3.4950 F1200
G01 X5.7088 Y-1.6752 Z-3.4989 F1200
G01 X5.8552 Y-1.6238 Z-3.4816 F1200
G01 X6.0085 Y-1.5956 Z-3.4478 F1200
G01 X6.1647 Y-1.5913 Z-3.4066 F1200
G01 X6.3195 Y-1.6111 Z-3.3689 F1200
G01 X6.4688 Y-1.6544 Z-3.3450 F1200
G01 X6.6086 Y-1.7200 Z-3.3411 F1200
G01 X6.7351 Y-1.8057 Z-3.3584 F1200
G01 X6.8451 Y-1.9090 Z-3.3922 F1200
G01 X6.9357 Y-2.0268 Z-3.4334 F1200
G01 X7.0048 Y-2.1555 Z-3.4711 F1200
G01 X7.0508 Y-2.2912 Z-3.4950 F1200
G01 X7.0727 Y-2.4297 Z-3.4989 F1200
G01 X7.0706 Y-2.5669 Z-3.4816 F1200
G01 X7.0449 Y-2.6985 Z-3.4478 F1200
G01 X6.9970 Y-2.8206 Z-3.4066 F1200
G01 X6.9289 Y-2.9295 Z-3.3689 F1200
G01 X6.8433 Y-3.0218 Z-3.3450 F1200
G01 X6.7431 Y-3.0948 Z-3.3411 F1200
G01 X6.6321 Y-3.1462 Z-3.3584 F1200
G01 X6.5141 Y-3.1744 Z-3.3922 F1200
G01 X6.3933 Y-3.1787 Z-3.4334 F1200
G01 X6.2738 Y-3.1589 Z-3.4711 F1200
G01 X6.1598 Y-3.1156 Z-3.4950 F1200
G01 X6.0554 Y-3.0500 Z-3.4989 F1200
G01 X5.9642 Y-2.9643 Z-3.4816 F1200
G01 X5.8895 Y-2.8610 Z-3.4478 F1200
G01 X5.8342 Y-2.7432 Z-3.4066 F1200
G01 X5.8005 Y-2.6145 Z-3.3689 F1200
G01 X5.7899 Y-2.4788 Z-3.3450 F1200
G01 X5.8032 Y-2.3403 Z-3.3411 F1200
G01 X5.8407 Y-2.2031 Z-3.3584 F1200
G01 X5.9017 Y-2.0715 Z-3.3922 F1200
G01 X5.9849 Y-1.9494 Z-3.4334 F1200
G01 X6.0883 Y-1.8405 Z-3.4711 F1200
G01 X6.2093 Y-1.7482 Z-3.4950 F1200
G01 X6.3448 Y-1.6752 Z-3.4989 F1200
G01 X6.4912 Y-1.6238 Z-3.4816 F1200
G01 X6.6445 Y-1.5956 Z-3.4478 F1200
G01 X6.8007 Y-1.5913 Z-3.4066 F1200
G01 X6.9555 Y-1.6111 Z-3.3689 F1200
G01 X7.1048 Y-1.6544 Z-3.3450 F1200
G01 X7.2446 Y-1.7200 Z-3.3411 F1200
G01 X7.3711 Y-1.8057 Z-3.3584 F1200
G01 X7.4811 Y-1.9090 Z-3.3922 F1200
G01 X7.5717 Y-2.0268 Z-3.4334 F1200
G01 X7.6408 Y-2.1555 Z-3.4711 F1200
G01 X7.6868 Y-2.2912 Z-3.4950 F1200
G01 X7.7087 Y-2.4297 Z-3.4989 F1200
G01 X7.7066 Y-2.5669 Z-3.4816 F1200
G01 X7.6809 Y-2.6985 Z-3.4478 F1200
G01 X7.6330 Y-2.8206 Z-3.4066 F1200
G01 X7.5649 Y-2.9295 Z-3.3689 F1200
G01 X7.4793 Y-3.0218 Z-3.3450 F1200
G01 X7.3791 Y-3.0948 Z-3.3411 F1200
G01 X7.2681 Y-3.1462 Z-3.3584 F1200
G01 X7.1501 Y-3.1744 Z-3.3922 F1200
G01 X7.0293 Y-3.1787 Z-3.4334 F1200
G01 X6.9098 Y-3.1589 Z-3.4711 F1200
G01 X6.7958 Y-3.1156 Z-3.4950 F1200
G01 X6.6914 Y-3.0500 Z-3.4989 F1200
G01 X6.6002 Y-2.9643 Z-3.4816 F1200
G01 X6.5255 Y-2.8610 Z-3.4478 F1200
G01 X6.4702 Y-2.7432 Z-3.4066 F1200
G01 X6.4365 Y-2.6145 Z-3.3689 F1200
G01 X6.4259 Y-2.4788 Z-3.3450 F1200
G01 X6.4392 Y-2.3403 Z-3.3411 F1200
G01 X6.4767 Y-2.2031 Z-3.3584 F1200
G01 X6.5377 Y-2.0715 Z-3.3922 F1200
G01 X6.6209 Y-1.9494 Z-3.4334 F1200
G01 X6.7243 Y-1.8405 Z-3.4711 F1200
G01 X6.8453 Y-1.7482 Z-3.4950 F1200
G01 X6.9808 Y-1.6752 Z-3.4989 F1200
G01 X7.1272 Y-1.6238 Z-3.4816 F1200
G01 X7.2805 Y-1.5956 Z-3.4478 F1200
G01 X7.4367 Y-1.5913 Z-3.4066 F1200
G01 X7.5915 Y-1.6111 Z-3.3689 F1200
G01 X7.7408 Y-1.6544 Z-3.3450 F1200
G01 X7.8806 Y-1.7200 Z-3.3411 F1200
G01 X8.0071 Y-1.8057 Z-3.3584 F1200
G01 X8.1171 Y-1.9090 Z-3.3922 F1200
G01 X8.2077 Y-2.0268 Z-3.4334 F1200
G01 X8.2768 Y-2.1555 Z-3.4711 F1200
G01 X8.3228 Y-2.2912 Z-3.4950 F1200
G01 X8.3447 Y-2.4297 Z-3.4989 F1200
G01 X8.3426 Y-2.5669 Z-3.4816 F1200
G01 X8.3169 Y-2.6985 Z-3.4478 F1200
G01 X8.2690 Y-2.8206 Z-3.4066 F1200
G01 X8.2009 Y-2.9295 Z-3.3689 F1200
G01 X8.1153 Y-3.0218 Z-3.3450 F1200
G01 X8.0151 Y-3.0948 Z-3.3411 F1200
G01 X7.9041 Y-3.1462 Z-3.3584 F1200
G01 X7.7861 Y-3.1744 Z-3.3922 F1200
G01 X7.6653 Y-3.1787 Z-3.4334 F1200
G01 X7.5458 Y-3.1589 Z-3.4711 F1200
G01 X7.4318 Y-3.1156 Z-3.4950 F1200
G01 X7.3274 Y-3.0500 Z-3.4989 F1200
G01 X7.2362 Y-2.9643 Z-3.4816 F1200
G01 X7.1615 Y-2.8610 Z-3.4478 F1200
G01 X7.1062 Y-2.7432 Z-3.4066 F1200
G01 X7.0725 Y-2.6145 Z-3.3689 F1200
G01 X7.0619 Y-2.4788 Z-3.3450 F1200
G01 X7.0752 Y-2.3403 Z-3.3411 F1200
G01 X7.1127 Y-2.2031 Z-3.3584 F1200
G01 X7.1737 Y-2.0715 Z-3.3922 F1200
G01 X7.2569 Y-1.9494 Z-3.4334 F1200
G01 X7.3603 Y-1.8405 Z-3.4711 F1200
G01 X7.4813 Y-1.7482 Z-3.4950 F1200
G01 X7.6168 Y-1.6752 Z-3.4989 F1200
G01 X7.7632 Y-1.6238 Z-3.4816 F1200
G01 X7.9165 Y-1.5956 Z-3.4478 F1200
G01 X8.0727 Y-1.5913 Z-3.4066 F1200
G01 X8.2275 Y-1.6111 Z-3.3689 F1200
G01 X8.3768 Y-1.6544 Z-3.3450 F1200
G01 X8.5166 Y-1.7200 Z-3.3411 F1200
G01 X8.6431 Y-1.8057 Z-3.3584 F1200
G01 X8.7531 Y-1.9090 Z-3.3922 F1200
G01 X8.8437 Y-2.0268 Z-3.4334 F1200
G01 X8.9128 Y-2.1555 Z-3.4711 F1200
G01 X8.9588 Y-2.2912 Z-3.4950 F1200
G01 X8.9807 Y-2.4297 Z-3.4989 F1200
G01 X8.9786 Y-2.5669 Z-3.4816 F1200
G01 X8.9529 Y-2.6985 Z-3.4478 F1200
G01 X8.9050 Y-2.8206 Z-3.4066 F1200
G01 X8.8369 Y-2.9295 Z-3.3689 F1200
G01 X8.7513 Y-3.0218 Z-3.3450 F1200
G01 X8.6511 Y-3.0948 Z-3.3411 F1200
G01 X8.5401 Y-3.1462 Z-3.3584 F1200
G01 X8.4221 Y-3.1744 Z-3.3922 F1200
G01 X8.3013 Y-3.1787 Z-3.4334 F1200
G01 X8.1818 Y-3.1589 Z-3.4711 F1200
G01 X8.0678 Y-3.1156 Z-3.4950 F1200
G01 X7.9634 Y-3.0500 Z-3.4989 F1200
G01 X7.8722 Y-2.9643 Z-3.4816 F1200
G01 X7.7975 Y-2.8610 Z-3.4478 F1200
G01 X7.7422 Y-2.7432 Z-3.4066 F1200
G01 X7.7085 Y-2.6145 Z-3.3689 F1200
G01 X7.6979 Y-2.4788 Z-3.3450 F1200
G01 X7.7112 Y-2.3403 Z-3.3411 F1200
G01 X7.7487 Y-2.2031 Z-3.3584 F1200
G01 X7.8097 Y-2.0715 Z-3.3922 F1200
G01 X7.8929 Y-1.9494 Z-3.4334 F1200
G01 X7.9963 Y-1.8405 Z-3.4711 F1200
G01 X8.1173 Y-1.7482 Z-3.4950 F1200
G01 X8.2528 Y-1.6752 Z-3.4989 F1200
G01 X8.3992 Y-1.6238 Z-3.4816 F1200
G01 X8.5525 Y-1.5956 Z-3.4478 F1200
G01 X8.7087 Y-1.5913 Z-3.4066 F1200
G01 X8.8635 Y-1.6111 Z-3.3689 F1200
G01 X9.0128 Y-1.6544 Z-3.3450 F1200
G01 X9.1526 Y-1.7200 Z-3.3411 F1200
G01 X9.2791 Y-1.8057 Z-3.3584 F1200
G01 X9.3891 Y-1.9090 Z-3.3922 F1200
G01 X9.4797 Y-2.0268 Z-3.4334 F1200
G01 X9.5488 Y-2.1555 Z-3.4711 F1200
G01 X9.5948 Y-2.2912 Z-3.4950 F1200
G01 X9.6167 Y-2.4297 Z-3.4989 F1200
G01 X9.6146 Y-2.5669 Z-3.4816 F1200
G01 X9.5889 Y-2.6985 Z-3.4478 F1200
G01 X9.5410 Y-2.8206 Z-3.4066 F1200
G01 X9.4729 Y-2.9295 Z-3.3689 F1200
G01 X9.3873 Y-3.0218 Z-3.3450 F1200
G01 X9.2871 Y-3.0948 Z-3.3411 F1200
G01 X9.1761 Y-3.1462 Z-3.3584 F1200
G01 X9.0581 Y-3.1744 Z-3.3922 F1200
G01 X8.9373 Y-3.1787 Z-3.4334 F1200
G01 X8.8178 Y-3.1589 Z-3.4711 F1200
G01 X8.7038 Y-3.1156 Z-3.4950 F1200
G01 X8.5994 Y-3.0500 Z-3.4989 F1200
G01 X8.5082 Y-2.9643 Z-3.4816 F1200
G01 X8.4335 Y-2.8610 Z-3.4478 F1200
G01 X8.3782 Y-2.7432 Z-3.4066 F1200
G01 X8.3445 Y-2.6145 Z-3.3689 F1200
G01 X8.3339 Y-2.4788 Z-3.3450 F1200
G01 X8.3472 Y-2.3403 Z-3.3411 F1200
G01 X8.3847 Y-2.2031 Z-3.3584 F1200
G01 X8.4457 Y-2.0715 Z-3.3922 F1200
G01 X8.5289 Y-1.9494 Z-3.4334 F1200
G01 X8.6323 Y-1.8405 Z-3.4711 F1200
G01 X8.7533 Y-1.7482 Z-3.4950 F1200
G01 X8.8888 Y-1.6752 Z-3.4989 F1200
G01 X9.0352 Y-1.6238 Z-3.4816 F1200
G01 X9.1885 Y-1.5956 Z-3.4478 F1200
G01 X9.3447 Y-1.5913 Z-3.4066 F1200
G01 X9.4995 Y-1.6111 Z-3.3689 F1200
G01 X9.6488 Y-1.6544 Z-3.3450 F1200
G01 X9.7886 Y-1.7200 Z-3.3411 F1200
G01 X9.9151 Y-1.8057 Z-3.3584 F1200
G01 X10.0251 Y-1.9090 Z-3.3922 F1200
G01 X10.1157 Y-2.0268 Z-3.4334 F1200
G01 X10.1848 Y-2.1555 Z-3.4711 F1200
G01 X10.2308 Y-2.2912 Z-3.4950 F1200
G01 X10.2527 Y-2.4297 Z-3.4989 F1200
G01 X10.2506 Y-2.5669 Z-3.4816 F1200
G01 X10.2249 Y-2.6985 Z-3.4478 F1200
G01 X10.1770 Y-2.8206 Z-3.4066 F1200
G01 X10.1089 Y-2.9295 Z-3.3689 F1200
G01 X10.0233 Y-3.0218 Z-3.3450 F1200
G01 X9.9231 Y-3.0948 Z-3.3411 F1200
G01 X9.8121 Y-3.1462 Z-3.3584 F1200
G01 X9.6941 Y-3.1744 Z-3.3922 F1200
G01 X9.5733 Y-3.1787 Z-3.4334 F1200
G01 X9.4538 Y-3.1589 Z-3.4711 F1200
G01 X9.3398 Y-3.1156 Z-3.4950 F1200
G01 X9.2354 Y-3.0500 Z-3.4989 F1200
G01 X9.1442 Y-2.9643 Z-3.4816 F1200
G01 X9.0695 Y-2.8610 Z-3.4478 F1200
G01 X9.0142 Y-2.7432 Z-3.4066 F1200
G01 X8.9805 Y-2.6145 Z-3.3689 F1200
G01 X8.9699 Y-2.4788 Z-3.3450 F1200
G01 X8.9832 Y-2.3403 Z-3.3411 F1200
G01 X9.0207 Y-2.2031 Z-3.3584 F1200
G01 X9.0817 Y-2.0715 Z-3.3922 F1200
G01 X9.1649 Y-1.9494 Z-3.4334 F1200
G01 X9.2683 Y-1.8405 Z-3.4711 F1200
G01 X9.3893 Y-1.7482 Z-3.4950 F1200
G01 X9.5248 Y-1.6752 Z-3.4989 F1200
G01 X9.6712 Y-1.6238 Z-3.4816 F1200
G01 X9.8245 Y-1.5956 Z-3.4478 F1200
G01 X9.9807 Y-1.5913 Z-3.4066 F1200
G01 X10.1355 Y-1.6111 Z-3.3689 F1200
G01 X10.2848 Y-1.6544 Z-3.3450 F1200
G01 X10.4246 Y-1.7200 Z-3.3411 F1200
G01 X10.5511 Y-1.8057 Z-3.3584 F1200
G01 X10.6611 Y-1.9090 Z-3.3922 F1200
G01 X10.7517 Y-2.0268 Z-3.4334 F1200
G01 X10.8208 Y-2.1555 Z-3.4711 F1200
G01 X10.8668 Y-2.2912 Z-3.4950 F1200
G01 X10.8887 Y-2.4297 Z-3.4989 F1200
G01 X10.8866 Y-2.5669 Z-3.4816 F1200
G01 X10.8609 Y-2.6985 Z-3.4478 F1200
G01 X10.8130 Y-2.8206 Z-3.4066 F1200
G01 X10.7449 Y-2.9295 Z-3.3689 F1200
G01 X10.6593 Y-3.0218 Z-3.3450 F1200
G01 X10.5591 Y-3.0948 Z-3.3411 F1200
G01 X10.4481 Y-3.1462 Z-3.3584 F1200
G01 X10.3301 Y-3.1744 Z-3.3922 F1200
G01 X10.2093 Y-3.1787 Z-3.4334 F1200
G01 X10.0898 Y-3.1589 Z-3.4711 F1200
G01 X9.9758 Y-3.1156 Z-3.4950 F1200
G01 X9.8714 Y-3.0500 Z-3.4989 F1200
G01 X9.7802 Y-2.9643 Z-3.4816 F1200
G01 X9.7055 Y-2.8610 Z-3.4478 F1200
G01 X9.6502 Y-2.7432 Z-3.4066 F1200
G01 X9.6165 Y-2.6145 Z-3.3689 F1200
G01 X9.6059 Y-2.4788 Z-3.3450 F1200
G01 X9.6192 Y-2.3403 Z-3.3411 F1200
G01 X9.6567 Y-2.2031 Z-3.3584 F1200
G01 X9.7177 Y-2.0715 Z-3.3922 F1200
G01 X9.8009 Y-1.9494 Z-3.4334 F1200
G01 X9.9043 Y-1.8405 Z-3.4711 F1200
G01 X10.0253 Y-1.7482 Z-3.4950 F1200
G01 X10.1608 Y-1.6752 Z-3.4989 F1200
G01 X10.3072 Y-1.6238 Z-3.4816 F1200
G01 X10.4605 Y-1.5956 Z-3.4478 F1200
G01 X10.6167 Y-1.5913 Z-3.4066 F1200
G01 X10.7715 Y-1.6111 Z-3.3689 F1200
G01 X10.9208 Y-1.6544 Z-3.3450 F1200
G01 X11.0606 Y-1.7200 Z-3.3411 F1200
G01 X11.1871 Y-1.8057 Z-3.3584 F1200
G01 X11.2971 Y-1.9090 Z-3.3922 F1200
G01 X11.3877 Y-2.0268 Z-3.4334 F1200
G01 X11.4568 Y-2.1555 Z-3.4711 F1200
G01 X11.5028 Y-2.2912 Z-3.4950 F1200
G01 X11.5247 Y-2.4297 Z-3.4989 F1200
G01 X11.5226 Y-2.5669 Z-3.4816 F1200
G01 X11.4969 Y-2.6985 Z-3.4478 F1200
G01 X11.4490 Y-2.8206 Z-3.4066 F1200
G01 X11.3809 Y-2.9295 Z-3.3689 F1200
G01 X11.2953 Y-3.0218 Z-3.3450 F1200
G01 X11.1951 Y-3.0948 Z-3.3411 F1200
G01 X11.0841 Y-3.1462 Z-3.3584 F1200
G01 X10.9661 Y-3.1744 Z-3.3922 F1200
G01 X10.8453 Y-3.1787 Z-3.4334 F1200
G01 X10.7258 Y-3.1589 Z-3.4711 F1200
G01 X10.6118 Y-3.1156 Z-3.4950 F1200
G01 X10.5074 Y-3.0500 Z-3.4989 F1200
G01 X10.4162 Y-2.9643 Z-3.4816 F1200
G01 X10.3415 Y-2.8610 Z-3.4478 F1200
G01 X10.2862 Y-2.7432 Z-3.4066 F1200
G01 X10.2525 Y-2.6145 Z-3.3689 F1200
G01 X10.2419 Y-2.4788 Z-3.3450 F1200
G01 X10.2552 Y-2.3403 Z-3.3411 F1200
G01 X10.2927 Y-2.2031 Z-3.3584 F1200
G01 X10.3537 Y-2.0715 Z-3.3922 F1200
G01 X10.4369 Y-1.9494 Z-3.4334 F1200
G01 X10.5403 Y-1.8405 Z-3.4711 F1200
G01 X10.6613 Y-1.7482 Z-3.4950 F1200
G01 X10.7968 Y-1.6752 Z-3.4989 F1200
G01 X10.9432 Y-1.6238 Z-3.4816 F1200
G01 X11.0965 Y-1.5956 Z-3.4478 F1200
G01 X11.2527 Y-1.5913 Z-3.4066 F1200
G01 X11.4075 Y-1.6111 Z-3.3689 F1200
G01 X11.5568 Y-1.6544 Z-3.3450 F1200
G01 X11.6966 Y-1.7200 Z-3.3411 F1200
G01 X11.8231 Y-1.8057 Z-3.3584 F1200
G01 X11.9331 Y-1.9090 Z-3.3922 F1200
G01 X12.0237 Y-2.0268 Z-3.4334 F1200
G01 X12.0928 Y-2.1555 Z-3.4711 F1200
G01 X12.1388 Y-2.2912 Z-3.4950 F1200
G01 X12.1607 Y-2.4297 Z-3.4989 F1200
G01 X12.1586 Y-2.5669 Z-3.4816 F1200
G01 X12.1329 Y-2.6985 Z-3.4478 F1200
G01 X12.0850 Y-2.8206 Z-3.4066 F1200
G01 X12.0169 Y-2.9295 Z-3.3689 F1200
G01 X11.9313 Y-3.0218 Z-3.3450 F1200
G01 X11.8311 Y-3.0948 Z-3.3411 F1200
G01 X11.7201 Y-3.1462 Z-3.3584 F1200
G01 X11.6021 Y-3.1744 Z-3.3922 F1200
G01 X11.4813 Y-3.1787 Z-3.4334 F1200
G01 X11.3618 Y-3.1589 Z-3.4711 F1200
G01 X11.2478 Y-3.1156 Z-3.4950 F1200
G01 X11.1434 Y-3.0500 Z-3.4989 F1200
G01 X11.0522 Y-2.9643 Z-3.4816 F1200
G01 X10.9775 Y-2.8610 Z-3.4478 F1200
G01 X10.9222 Y-2.7432 Z-3.4066 F1200
G01 X10.8885 Y-2.6145 Z-3.3689 F1200
G01 X10.8779 Y-2.4788 Z-3.3450 F1200
G01 X10.8912 Y-2.3403 Z-3.3411 F1200
G01 X10.9287 Y-2.2031 Z-3.3584 F1200
G01 X10.9897 Y-2.0715 Z-3.3922 F1200
G01 X11.0729 Y-1.9494 Z-3.4334 F1200
G01 X11.1763 Y-1.8405 Z-3.4711 F1200
G01 X11.2973 Y-1.7482 Z-3.4950 F1200
G01 X11.4328 Y-1.6752 Z-3.4989 F1200
G01 X11.5792 Y-1.6238 Z-3.4816 F1200
G01 X11.7325 Y-1.5956 Z-3.4478 F1200
G01 X11.8887 Y-1.5913 Z-3.4066 F1200
G01 X12.0435 Y-1.6111 Z-3.3689 F1200
G01 X12.1928 Y-1.6544 Z-3.3450 F1200
G01 X12.3326 Y-1.7200 Z-3.3411 F1200
G01 X12.4591 Y-1.8057 Z-3.3584 F1200
G01 X12.5691 Y-1.9090 Z-3.3922 F1200
G01 X12.6597 Y-2.0268 Z-3.4334 F1200
G01 X12.7288 Y-2.1555 Z-3.4711 F1200
G01 X12.7748 Y-2.2912 Z-3.4950 F1200
G01 X12.7967 Y-2.4297 Z-3.4989 F1200
G01 X12.7946 Y-2.5669 Z-3.4816 F1200
G01 X12.7689 Y-2.6985 Z-3.4478 F1200
G01 X12.7210 Y-2.8206 Z-3.4066 F1200
G01 X12.6529 Y-2.9295 Z-3.3689 F1200
G01 X12.5673 Y-3.0218 Z-3.3450 F1200
G01 X12.4671 Y-3.0948 Z-3.3411 F1200
G01 X12.3561 Y-3.1462 Z-3.3584 F1200
G01 X12.2381 Y-3.1744 Z-3.3922 F1200
G01 X12.1173 Y-3.1787 Z-3.4334 F1200
G01 X11.9978 Y-3.1589 Z-3.4711 F1200
G01 X11.8838 Y-3.1156 Z-3.4950 F1200
G01 X11.7794 Y-3.0500 Z-3.4989 F1200
G01 X11.6882 Y-2.9643 Z-3.4816 F1200
G01 X11.6135 Y-2.8610 Z-3.4478 F1200
G01 X11.5582 Y-2.7432 Z-3.4066 F1200
G01 X11.5245 Y-2.6145 Z-3.3689 F1200
G01 X11.5139 Y-2.4788 Z-3.3450 F1200
G01 X11.5272 Y-2.3403 Z-3.3411 F1200
G01 X11.5647 Y-2.2031 Z-3.3584 F1200
G01 X11.6257 Y-2.0715 Z-3.3922 F1200
G01 X11.7089 Y-1.9494 Z-3.4334 F1200
G01 X11.8123 Y-1.8405 Z-3.4711 F1200
G01 X11.9333 Y-1.7482 Z-3.4950 F1200
G01 X12.0688 Y-1.6752 Z-3.4989 F1200
G01 X12.2152 Y-1.6238 Z-3.4816 F1200
G01 X12.3685 Y-1.5956 Z-3.4478 F1200
G01 X12.5247 Y-1.5913 Z-3.4066 F1200
G01 X12.6795 Y-1.6111 Z-3.3689 F1200
G01 X12.8288 Y-1.6544 Z-3.3450 F1200
G01 X12.9686 Y-1.7200 Z-3.3411 F1200
G01 X13.0951 Y-1.8057 Z-3.3584 F1200
G01 X13.2051 Y-1.9090 Z-3.3922 F1200
G01 X13.2957 Y-2.0268 Z-3.4334 F1200
G01 X13.3648 Y-2.1555 Z-3.4711 F1200
G01 X13.4108 Y-2.2912 Z-3.4950 F1200
G01 X13.4327 Y-2.4297 Z-3.4989 F1200
G01 X13.4306 Y-2.5669 Z-3.4816 F1200
G01 X13.4049 Y-2.6985 Z-3.4478 F1200
G01 X13.3570 Y-2.8206 Z-3.4066 F1200
G01 X13.2889 Y-2.9295 Z-3.3689 F1200
G01 X13.2033 Y-3.0218 Z-3.3450 F1200
G01 X13.1031 Y-3.0948 Z-3.3411 F1200
G01 X12.9921 Y-3.1462 Z-3.3584 F1200
G01 X12.8741 Y-3.1744 Z-3.3922 F1200
G01 X12.7533 Y-3.1787 Z-3.4334 F1200
G01 X12.6338 Y-3.1589 Z-3.4711 F1200
G01 X12.5198 Y-3.1156 Z-3.4950 F1200
G01 X12.4154 Y-3.0500 Z-3.4989 F1200
G01 X12.3242 Y-2.9643 Z-3.4816 F1200
G01 X12.2495 Y-2.8610 Z-3.4478 F1200
G01 X12.1942 Y-2.7432 Z-3.4066 F1200
G01 X12.1605 Y-2.6145 Z-3.3689 F1200
G01 X12.1499 Y-2.4788 Z-3.3450 F1200
G01 X12.1632 Y-2.3403 Z-3.3411 F1200
G01 X12.2007 Y-2.2031 Z-3.3584 F1200
G01 X12.2617 Y-2.0715 Z-3.3922 F1200
G01 X12.3449 Y-1.9494 Z-3.4334 F1200
G01 X12.4483 Y-1.8405 Z-3.4711 F1200
G01 X12.5693 Y-1.7482 Z-3.4950 F1200
G01 X12.7048 Y-1.6752 Z-3.4989 F1200
G01 X12.8512 Y-1.6238 Z-3.4816 F1200
G01 X13.0045 Y-1.5956 Z-3.4478 F1200
G01 X13.1607 Y-1.5913 Z-3.4066 F1200
G01 X13.3155 Y-1.6111 Z-3.3689 F1200
G01 X13.4648 Y-1.6544 Z-3.3450 F1200
G01 X13.6046 Y-1.7200 Z-3.3411 F1200
G01 X13.7311 Y-1.8057 Z-3.3584 F1200
G01 X13.8411 Y-1.9090 Z-3.3922 F1200
G01 X13.9317 Y-2.0268 Z-3.4334 F1200
G01 X14.0008 Y-2.1555 Z-3.4711 F1200
G01 X14.0468 Y-2.2912 Z-3.4950 F1200
G01 X14.0687 Y-2.4297 Z-3.4989 F1200
G01 X14.0666 Y-2.5669 Z-3.4816 F1200
G01 X14.0409 Y-2.6985 Z-3.4478 F1200
G01 X13.9930 Y-2.8206 Z-3.4066 F1200
G01 X13.9249 Y-2.9295 Z-3.3689 F1200
G01 X13.8393 Y-3.0218 Z-3.3450 F1200
G01 X13.7391 Y-3.0948 Z-3.3411 F1200
G01 X13.6281 Y-3.1462 Z-3.3584 F1200
G01 X13.5101 Y-3.1744 Z-3.3922 F1200
G01 X13.3893 Y-3.1787 Z-3.4334 F1200
G01 X13.2698 Y-3.1589 Z-3.4711 F1200
G01 X13.1558 Y-3.1156 Z-3.4950 F1200
G01 X13.0514 Y-3.0500 Z-3.4989 F1200
G01 X12.9602 Y-2.9643 Z-3.4816 F1200
G01 X12.8855 Y-2.8610 Z-3.4478 F1200
G01 X12.8302 Y-2.7432 Z-3.4066 F1200
G01 X12.7965 Y-2.6145 Z-3.3689 F1200
G01 X12.7859 Y-2.4788 Z-3.3450 F1200
G01 X12.7992 Y-2.3403 Z-3.3411 F1200
G01 X12.8367 Y-2.2031 Z-3.3584 F1200
G01 X12.8977 Y-2.0715 Z-3.3922 F1200
G01 X12.9809 Y-1.9494 Z-3.4334 F1200
G01 X13.0843 Y-1.8405 Z-3.4711 F1200
G01 X13.2053 Y-1.7482 Z-3.4950 F1200
G01 X13.3408 Y-1.6752 Z-3.4989 F1200
G01 X13.4872 Y-1.6238 Z-3.4816 F1200
G01 X13.6405 Y-1.5956 Z-3.4478 F1200
G01 X13.7967 Y-1.5913 Z-3.4066 F1200
G01 X13.9515 Y-1.6111 Z-3.3689 F1200
G01 X14.1008 Y-1.6544 Z-3.3450 F1200
G01 X14.2406 Y-1.7200 Z-3.3411 F1200
G01 X14.3671 Y-1.8057 Z-3.3584 F1200
G01 X14.4771 Y-1.9090 Z-3.3922 F1200
G01 X14.5677 Y-2.0268 Z-3.4334 F1200
G01 X14.6368 Y-2.1555 Z-3.4711 F1200
G01 X14.6828 Y-2.2912 Z-3.4950 F1200
G01 X14.7047 Y-2.4297 Z-3.4989 F1200
G01 X14.7026 Y-2.5669 Z-3.4816 F1200
G01 X14.6769 Y-2.6985 Z-3.4478 F1200
G01 X14.6290 Y-2.8206 Z-3.4066 F1200
G01 X14.5609 Y-2.9295 Z-3.3689 F1200
G01 X14.4753 Y-3.0218 Z-3.3450 F1200
G01 X14.3751 Y-3.0948 Z-3.3411 F1200
G01 X14.2641 Y-3.1462 Z-3.3584 F1200
G01 X14.1461 Y-3.1744 Z-3.3922 F1200
G01 X14.0253 Y-3.1787 Z-3.4334 F1200
G01 X13.9058 Y-3.1589 Z-3.4711 F1200
G01 X13.7918 Y-3.1156 Z-3.4950 F1200
G01 X13.6874 Y-3.0500 Z-3.4989 F1200
G01 X13.5962 Y-2.9643 Z-3.4816 F1200
G01 X13.5215 Y-2.8610 Z-3.4478 F1200
G01 X13.4662 Y-2.7432 Z-3.4066 F1200
G01 X13.4325 Y-2.6145 Z-3.3689 F1200
G01 X13.4219 Y-2.4788 Z-3.3450 F1200
G01 X13.4352 Y-2.3403 Z-3.3411 F1200
G01 X13.4727 Y-2.2031 Z-3.3584 F1200
G01 X13.5337 Y-2.0715 Z-3.3922 F1200
G01 X13.6169 Y-1.9494 Z-3.4334 F1200
G01 X13.7203 Y-1.8405 Z-3.4711 F1200
G01 X13.8413 Y-1.7482 Z-3.4950 F1200
G01 X13.9768 Y-1.6752 Z-3.4989 F1200
G01 X14.1232 Y-1.6238 Z-3.4816 F1200
G01 X14.2765 Y-1.5956 Z-3.4478 F1200
G01 X14.4327 Y-1.5913 Z-3.4066 F1200
G01 X14.5875 Y-1.6111 Z-3.3689 F1200
G01 X14.7368 Y-1.6544 Z-3.3450 F1200
G01 X14.8766 Y-1.7200 Z-3.3411 F1200
G01 X15.0031 Y-1.8057 Z-3.3584 F1200
G01 X15.1131 Y-1.9090 Z-3.3922 F1200
G01 X15.2037 Y-2.0268 Z-3.4334 F1200
G01 X15.2728 Y-2.1555 Z-3.4711 F1200
G01 X15.3188 Y-2.2912 Z-3.4950 F1200
G01 X15.3407 Y-2.4297 Z-3.4989 F1200
G01 X15.3386 Y-2.5669 Z-3.4816 F1200
G01 X15.3129 Y-2.6985 Z-3.4478 F1200
G01 X15.2650 Y-2.8206 Z-3.4066 F1200
G01 X15.1969 Y-2.9295 Z-3.3689 F1200
G01 X15.1113 Y-3.0218 Z-3.3450 F1200
G01 X15.0111 Y-3.0948 Z-3.3411 F1200
G01 X14.9001 Y-3.1462 Z-3.3584 F1200
G01 X14.7821 Y-3.1744 Z-3.3922 F1200
G01 X14.6613 Y-3.1787 Z-3.4334 F1200
G01 X14.5418 Y-3.1589 Z-3.4711 F1200
G01 X14.4278 Y-3.1156 Z-3.4950 F1200
G01 X14.3234 Y-3.0500 Z-3.4989 F1200
G01 X14.2322 Y-2.9643 Z-3.4816 F1200
G01 X14.1575 Y-2.8610 Z-3.4478 F1200
G01 X14.1022 Y-2.7432 Z-3.4066 F1200
G01 X14.0685 Y-2.6145 Z-3.3689 F1200
G01 X14.0579 Y-2.4788 Z-3.3450 F1200
G01 X14.0712 Y-2.3403 Z-3.3411 F1200
G01 X14.1087 Y-2.2031 Z-3.3584 F1200
G01 X14.1697 Y-2.0715 Z-3.3922 F1200
G01 X14.2529 Y-1.9494 Z-3.4334 F1200
G01 X14.3563 Y-1.8405 Z-3.4711 F1200
G01 X14.4773 Y-1.7482 Z-3.4950 F1200
G01 X14.6128 Y-1.6752 Z-3.4989 F1200
G01 X14.7592 Y-1.6238 Z-3.4816 F1200
G01 X14.9125 Y-1.5956 Z-3.4478 F1200
G01 X15.0687 Y-1.5913 Z-3.4066 F1200
G01 X15.2235 Y-1.6111 Z-3.3689 F1200
G01 X15.3728 Y-1.6544 Z-3.3450 F1200
G01 X15.5126 Y-1.7200 Z-3.3411 F1200
G01 X15.6391 Y-1.8057 Z-3.3584 F1200
G01 X15.7491 Y-1.9090 Z-3.3922 F1200
G01 X15.8397 Y-2.0268 Z-3.4334 F1200
G01 X15.9088 Y-2.1555 Z-3.4711 F1200
G01 X15.9548 Y-2.2912 Z-3.4950 F1200
G01 X15.9767 Y-2.4297 Z-3.4989 F1200
G01 X15.9746 Y-2.5669 Z-3.4816 F1200
G01 X15.9489 Y-2.6985 Z-3.4478 F1200
G01 X15.9010 Y-2.8206 Z-3.4066 F1200
G01 X15.8329 Y-2.9295 Z-3.3689 F1200
G01 X15.7473 Y-3.0218 Z-3.3450 F1200
G01 X15.6471 Y-3.0948 Z-3.3411 F1200
G01 X15.5361 Y-3.1462 Z-3.3584 F1200
G01 X15.4181 Y-3.1744 Z-3.3922 F1200
G01 X15.2973 Y-3.1787 Z-3.4334 F1200
G01 X15.1778 Y-3.1589 Z-3.4711 F1200
G01 X15.0638 Y-3.1156 Z-3.4950 F1200
G01 X14.9594 Y-3.0500 Z-3.4989 F1200
G01 X14.8682 Y-2.9643 Z-3.4816 F1200
G01 X14.7935 Y-2.8610 Z-3.4478 F1200
G01 X14.7382 Y-2.7432 Z-3.4066 F1200
G01 X14.7045 Y-2.6145 Z-3.3689 F1200
G01 X14.6939 Y-2.4788 Z-3.3450 F1200
G01 X14.7072 Y-2.3403 Z-3.3411 F1200
G01 X14.7447 Y-2.2031 Z-3.3584 F1200
G01 X14.8057 Y-2.0715 Z-3.3922 F1200
G01 X14.8889 Y-1.9494 Z-3.4334 F1200
G01 X14.9923 Y-1.8405 Z-3.4711 F1200
G01 X15.1133 Y-1.7482 Z-3.4950 F1200
G01 X15.2488 Y-1.6752 Z-3.4989 F1200
G01 X15.3952 Y-1.6238 Z-3.4816 F1200
G01 X15.5485 Y-1.5956 Z-3.4478 F1200
G01 X15.7047 Y-1.5913 Z-3.4066 F1200
G01 X15.8595 Y-1.6111 Z-3.3689 F1200
G01 X16.0088 Y-1.6544 Z-3.3450 F1200
G01 X16.1486 Y-1.7200 Z-3.3411 F1200
G01 X16.2751 Y-1.8057 Z-3.3584 F1200
G01 X16.3851 Y-1.9090 Z-3.3922 F1200
G01 X16.4757 Y-2.0268 Z-3.4334 F1200
G01 X16.5448 Y-2.1555 Z-3.4711 F1200
G01 X16.5908 Y-2.2912 Z-3.4950 F1200
G01 X16.6127 Y-2.4297 Z-3.4989 F1200
G01 X16.6106 Y-2.5669 Z-3.4816 F1200
G01 X16.5849 Y-2.6985 Z-3.4478 F1200
G01 X16.5370 Y-2.8206 Z-3.4066 F1200
G01 X16.4689 Y-2.9295 Z-3.3689 F1200
G01 X16.3833 Y-3.0218 Z-3.3450 F1200
G01 X16.2831 Y-3.0948 Z-3.3411 F1200
G01 X16.1721 Y-3.1462 Z-3.3584 F1200
G01 X16.0541 Y-3.1744 Z-3.3922 F1200
G01 X15.9333 Y-3.1787 Z-3.4334 F1200
G01 X15.8138 Y-3.1589 Z-3.4711 F1200
G01 X15.6998 Y-3.1156 Z-3.4950 F1200
G01 X15.5954 Y-3.0500 Z-3.4989 F1200
G01 X15.5042 Y-2.9643 Z-3.4816 F1200
G01 X15.4295 Y-2.8610 Z-3.4478 F1200
G01 X15.3742 Y-2.7432 Z-3.4066 F1200
G01 X15.3405 Y-2.6145 Z-3.3689 F1200
G01 X15.3299 Y-2.4788 Z-3.3450 F1200
G01 X15.3432 Y-2.3403 Z-3.3411 F1200
G01 X15.3807 Y-2.2031 Z-3.3584 F1200
G01 X15.4417 Y-2.0715 Z-3.3922 F1200
G01 X15.5249 Y-1.9494 Z-3.4334 F1200
G01 X15.6283 Y-1.8405 Z-3.4711 F1200
G01 X15.7493 Y-1.7482 Z-3.4950 F1200
G01 X15.8848 Y-1.6752 Z-3.4989 F1200
G01 X16.0312 Y-1.6238 Z-3.4816 F1200
G01 X16.1845 Y-1.5956 Z-3.4478 F1200
G01 X16.3407 Y-1.5913 Z-3.4066 F1200
G01 X16.4955 Y-1.6111 Z-3.3689 F1200
G01 X16.6448 Y-1.6544 Z-3.3450 F1200
G01 X16.7846 Y-1.7200 Z-3.3411 F1200
G01 X16.9111 Y-1.8057 Z-3.3584 F1200
G01 X17.0211 Y-1.9090 Z-3.3922 F1200
G01 X17.1117 Y-2.0268 Z-3.4334 F1200
G01 X17.1808 Y-2.1555 Z-3.4711 F1200
G01 X17.2268 Y-2.2912 Z-3.4950 F1200
G01 X17.2487 Y-2.4297 Z-3.4989 F1200
G01 X17.2466 Y-2.5669 Z-3.4816 F1200
G01 X17.2209 Y-2.6985 Z-3.4478 F1200
G01 X17.1730 Y-2.8206 Z-3.4066 F1200
G01 X17.1049 Y-2.9295 Z-3.3689 F1200
G01 X17.0193 Y-3.0218 Z-3.3450 F1200
G01 X16.9191 Y-3.0948 Z-3.3411 F1200
G01 X16.8081 Y-3.1462 Z-3.3584 F1200
G01 X16.6901 Y-3.1744 Z-3.3922 F1200
G01 X16.5693 Y-3.1787 Z-3.4334 F1200
G01 X16.4498 Y-3.1589 Z-3.4711 F1200
G01 X16.3358 Y-3.1156 Z-3.4950 F1200
G01 X16.2314 Y-3.0500 Z-3.4989 F1200
G01 X16.1402 Y-2.9643 Z-3.4816 F1200
G01 X16.0655 Y-2.8610 Z-3.4478 F1200
G01 X16.0102 Y-2.7432 Z-3.4066 F1200
G01 X15.9765 Y-2.6145 Z-3.3689 F1200
G01 X15.9659 Y-2.4788 Z-3.3450 F1200
G01 X15.9792 Y-2.3403 Z-3.3411 F1200
G01 X16.0167 Y-2.2031 Z-3.3584 F1200
G01 X16.0777 Y-2.0715 Z-3.3922 F1200
G01 X16.1609 Y-1.9494 Z-3.4334 F1200
G01 X16.2643 Y-1.8405 Z-3.4711 F1200
G01 X16.3853 Y-1.7482 Z-3.4950 F1200
G01 X16.5208 Y-1.6752 Z-3.4989 F1200
G01 X16.6672 Y-1.6238 Z-3.4816 F1200
G01 X16.8205 Y-1.5956 Z-3.4478 F1200
G01 X16.9767 Y-1.5913 Z-3.4066 F1200
G01 X17.1315 Y-1.6111 Z-3.3689 F1200
G01 X17.2808 Y-1.6544 Z-3.3450 F1200
G01 X17.4206 Y-1.7200 Z-3.3411 F1200
G01 X17.5471 Y-1.8057 Z-3.3584 F1200
G01 X17.6571 Y-1.9090 Z-3.3922 F1200
G01 X17.7477 Y-2.0268 Z-3.4334 F1200
G01 X17.8168 Y-2.1555 Z-3.4711 F1200
G01 X17.8628 Y-2.2912 Z-3.4950 F1200
G01 X17.8847 Y-2.4297 Z-3.4989 F1200
G01 X17.8826 Y-2.5669 Z-3.4816 F1200
G01 X17.8569 Y-2.6985 Z-3.4478 F1200
G01 X17.8090 Y-2.8206 Z-3.4066 F1200
G01 X17.7409 Y-2.9295 Z-3.3689 F1200
G01 X17.6553 Y-3.0218 Z-3.3450 F1200
G01 X17.5551 Y-3.0948 Z-3.3411 F1200
G01 X17.4441 Y-3.1462 Z-3.3584 F1200
G01 X17.3261 Y-3.1744 Z-3.3922 F1200
G01 X17.2053 Y-3.1787 Z-3.4334 F1200
G01 X17.0858 Y-3.1589 Z-3.4711 F1200
G01 X16.9718 Y-3.1156 Z-3.4950 F1200
G01 X16.8674 Y-3.0500 Z-3.4989 F1200
G01 X16.7762 Y-2.9643 Z-3.4816 F1200
G01 X16.7015 Y-2.8610 Z-3.4478 F1200
G01 X16.6462 Y-2.7432 Z-3.4066 F1200
G01 X16.6125 Y-2.6145 Z-3.3689 F1200
G01 X16.6019 Y-2.4788 Z-3.3450 F1200
G01 X16.6152 Y-2.3403 Z-3.3411 F1200
G01 X16.6527 Y-2.2031 Z-3.3584 F1200
G01 X16.7137 Y-2.0715 Z-3.3922 F1200
G01 X16.7969 Y-1.9494 Z-3.4334 F1200
G01 X16.9003 Y-1.8405 Z-3.4711 F1200
G01 X17.0213 Y-1.7482 Z-3.4950 F1200
G01 X17.1568 Y-1.6752 Z-3.4989 F1200
G01 X17.3032 Y-1.6238 Z-3.4816 F1200
G01 X17.4565 Y-1.5956 Z-3.4478 F1200
G01 X17.6127 Y-1.5913 Z-3.4066 F1200
G01 X17.7675 Y-1.6111 Z-3.3689 F1200
G01 X17.9168 Y-1.6544 Z-3.3450 F1200
G01 X18.0566 Y-1.7200 Z-3.3411 F1200
G01 X18.1831 Y-1.8057 Z-3.3584 F1200
G01 X18.2931 Y-1.9090 Z-3.3922 F1200
G01 X18.3837 Y-2.0268 Z-3.4334 F1200
G01 X18.4528 Y-2.1555 Z-3.4711 F1200
G01 X18.4988 Y-2.2912 Z-3.4950 F1200
G01 X18.5207 Y-2.4297 Z-3.4989 F1200
G01 X18.5186 Y-2.5669 Z-3.4816 F1200
G01 X18.4929 Y-2.6985 Z-3.4478 F1200
G01 X18.4450 Y-2.8206 Z-3.4066 F1200
G01 X18.3769 Y-2.9295 Z-3.3689 F1200
G01 X18.2913 Y-3.0218 Z-3.3450 F1200
G01 X18.1911 Y-3.0948 Z-3.3411 F1200
G01 X18.0801 Y-3.1462 Z-3.3584 F1200
G01 X17.9621 Y-3.1744 Z-3.3922 F1200
G01 X17.8413 Y-3.1787 Z-3.4334 F1200
G01 X17.7218 Y-3.1589 Z-3.4711 F1200
G01 X17.6078 Y-3.1156 Z-3.4950 F1200
G01 X17.5034 Y-3.0500 Z-3.4989 F1200
G01 X17.4122 Y-2.9643 Z-3.4816 F1200
G01 X17.3375 Y-2.8610 Z-3.4478 F1200
G01 X17.2822 Y-2.7432 Z-3.4066 F1200
G01 X17.2485 Y-2.6145 Z-3.3689 F1200
G01 X17.2379 Y-2.4788 Z-3.3450 F1200
G01 X17.2512 Y-2.3403 Z-3.3411 F1200
G01 X17.2887 Y-2.2031 Z-3.3584 F1200
G01 X17.3497 Y-2.0715 Z-3.3922 F1200
G01 X17.4329 Y-1.9494 Z-3.4334 F1200
G01 X17.5363 Y-1.8405 Z-3.4711 F1200
G01 X17.6573 Y-1.7482 Z-3.4950 F1200
G01 X17.7928 Y-1.6752 Z-3.4989 F1200
G01 X17.9392 Y-1.6238 Z-3.4816 F1200
G01 X18.0925 Y-1.5956 Z-3.4478 F1200
G01 X18.2487 Y-1.5913 Z-3.4066 F1200
G01 X18.4035 Y-1.6111 Z-3.3689 F1200
G01 X18.5528 Y-1.6544 Z-3.3450 F1200
G01 X18.6926 Y-1.7200 Z-3.3411 F1200
G01 X18.8191 Y-1.8057 Z-3.3584 F1200
G01 X18.9291 Y-1.9090 Z-3.3922 F1200
G01 X19.0197 Y-2.0268 Z-3.4334 F1200
G01 X19.0888 Y-2.1555 Z-3.4711 F1200
G01 X19.1348 Y-2.2912 Z-3.4950 F1200
G01 X19.1567 Y-2.4297 Z-3.4989 F1200
G01 X19.1546 Y-2.5669 Z-3.4816 F1200
G01 X19.1289 Y-2.6985 Z-3.4478 F1200
G01 X19.0810 Y-2.8206 Z-3.4066 F1200
G01 X19.0129 Y-2.9295 Z-3.3689 F1200
G01 X18.9273 Y-3.0218 Z-3.3450 F1200
G01 X18.8271 Y-3.0948 Z-3.3411 F1200
G01 X18.7161 Y-3.1462 Z-3.3584 F1200
G01 X18.5981 Y-3.1744 Z-3.3922 F1200
G01 X18.4773 Y-3.1787 Z-3.4334 F1200
G01 X18.3578 Y-3.1589 Z-3.4711 F1200
G01 X18.2438 Y-3.1156 Z-3.4950 F1200
G01 X18.1394 Y-3.0500 Z-3.4989 F1200
G01 X18.0482 Y-2.9643 Z-3.4816 F1200
G01 X17.9735 Y-2.8610 Z-3.4478 F1200
G01 X17.9182 Y-2.7432 Z-3.4066 F1200
G01 X17.8845 Y-2.6145 Z-3.3689 F1200
G01 X17.8739 Y-2.4788 Z-3.3450 F1200
G01 X17.8872 Y-2.3403 Z-3.3411 F1200
G01 X17.9247 Y-2.2031 Z-3.3584 F1200
G01 X17.9857 Y-2.0715 Z-3.3922 F1200
G01 X18.0689 Y-1.9494 Z-3.4334 F1200
G01 X18.1723 Y-1.8405 Z-3.4711 F1200
G01 X18.2933 Y-1.7482 Z-3.4950 F1200
G01 X18.4288 Y-1.6752 Z-3.4989 F1200
G01 X18.5752 Y-1.6238 Z-3.4816 F1200
G01 X18.7285 Y-1.5956 Z-3.4478 F1200
G01 X18.8847 Y-1.5913 Z-3.4066 F1200
G01 X19.0395 Y-1.6111 Z-3.3689 F1200
G01 X19.1888 Y-1.6544 Z-3.3450 F1200
G01 X19.3286 Y-1.7200 Z-3.3411 F1200
G01 X19.4551 Y-1.8057 Z-3.3584 F1200
G01 X19.5651 Y-1.9090 Z-3.3922 F1200
G01 X19.6557 Y-2.0268 Z-3.4334 F1200
G01 X19.7248 Y-2.1555 Z-3.4711 F1200
G01 X19.7708 Y-2.2912 Z-3.4950 F1200
G01 X19.7927 Y-2.4297 Z-3.4989 F1200
G01 X19.7906 Y-2.5669 Z-3.4816 F1200
G01 X19.7649 Y-2.6985 Z-3.4478 F1200
G01 X19.7170 Y-2.8206 Z-3.4066 F1200
G01 X19.6489 Y-2.9295 Z-3.3689 F1200
G01 X19.5633 Y-3.0218 Z-3.3450 F1200
G01 X19.4631 Y-3.0948 Z-3.3411 F1200
G01 X19.3521 Y-3.1462 Z-3.3584 F1200
G01 X19.2341 Y-3.1744 Z-3.3922 F1200
G01 X19.1133 Y-3.1787 Z-3.4334 F1200
G01 X18.9938 Y-3.1589 Z-3.4711 F1200
G01 X18.8798 Y-3.1156 Z-3.4950 F1200
G01 X18.7754 Y-3.0500 Z-3.4989 F1200
G01 X18.6842 Y-2.9643 Z-3.4816 F1200
G01 X18.6095 Y-2.8610 Z-3.4478 F1200
G01 X18.5542 Y-2.7432 Z-3.4066 F1200
G01 X18.5205 Y-2.6145 Z-3.3689 F1200
G01 X18.5099 Y-2.4788 Z-3.3450 F1200
G01 X18.5232 Y-2.3403 Z-3.3411 F1200
G01 X18.5607 Y-2.2031 Z-3.3584 F1200
G01 X18.6217 Y-2.0715 Z-3.3922 F1200
G01 X18.7049 Y-1.9494 Z-3.4334 F1200
G01 X18.8083 Y-1.8405 Z-3.4711 F1200
G01 X18.9293 Y-1.7482 Z-3.4950 F1200
G01 X19.0648 Y-1.6752 Z-3.4989 F1200
G01 X19.2112 Y-1.6238 Z-3.4816 F1200
G01 X19.3645 Y-1.5956 Z-3.4478 F1200
G01 X19.5207 Y-1.5913 Z-3.4066 F1200
G01 X19.6755 Y-1.6111 Z-3.3689 F1200
G01 X19.8248 Y-1.6544 Z-3.3450 F1200
G01 X19.9646 Y-1.7200 Z-3.3411 F1200
G01 X20.0911 Y-1.8057 Z-3.3584 F1200
G01 X20.2011 Y-1.9090 Z-3.3922 F1200
G01 X20.2917 Y-2.0268 Z-3.4334 F1200
G01 X20.3608 Y-2.1555 Z-3.4711 F1200
G01 X20.4068 Y-2.2912 Z-3.4950 F1200
G01 X20.4287 Y-2.4297 Z-3.4989 F1200
G01 X20.4266 Y-2.5669 Z-3.4816 F1200
G01 X20.4009 Y-2.6985 Z-3.4478 F1200
G01 X20.3530 Y-2.8206 Z-3.4066 F1200
G01 X20.2849 Y-2.9295 Z-3.3689 F1200
G01 X20.1993 Y-3.0218 Z-3.3450 F1200
G01 X20.0991 Y-3.0948 Z-3.3411 F1200
G01 X19.9881 Y-3.1462 Z-3.3584 F1200
G01 X19.8701 Y-3.1744 Z-3.3922 F1200
G01 X19.7493 Y-3.1787 Z-3.4334 F1200
G01 X19.6298 Y-3.1589 Z-3.4711 F1200
G01 X19.5158 Y-3.1156 Z-3.4950 F1200
G01 X19.4114 Y-3.0500 Z-3.4989 F1200
G01 X19.3202 Y-2.9643 Z-3.4816 F1200
G01 X19.2455 Y-2.8610 Z-3.4478 F1200
G01 X19.1902 Y-2.7432 Z-3.4066 F1200
G01 X19.1565 Y-2.6145 Z-3.3689 F1200
G01 X19.1459 Y-2.4788 Z-3.3450 F1200
G01 X19.1592 Y-2.3403 Z-3.3411 F1200
G01 X19.1967 Y-2.2031 Z-3.3584 F1200
G01 X19.2577 Y-2.0715 Z-3.3922 F1200
G01 X19.3409 Y-1.9494 Z-3.4334 F1200
G01 X19.4443 Y-1.8405 Z-3.4711 F1200
G01 X19.5653 Y-1.7482 Z-3.4950 F1200
G01 X19.7008 Y-1.6752 Z-3.4989 F1200
G01 X19.8472 Y-1.6238 Z-3.4816 F1200
G01 X20.0005 Y-1.5956 Z-3.4478 F1200
G01 X20.1567 Y-1.5913 Z-3.4066 F1200
G01 X20.3115 Y-1.6111 Z-3.3689 F1200
G01 X20.4608 Y-1.6544 Z-3.3450 F1200
G01 X20.6006 Y-1.7200 Z-3.3411 F1200
G01 X20.7271 Y-1.8057 Z-3.3584 F1200
G01 X20.8371 Y-1.9090 Z-3.3922 F1200
G01 X20.9277 Y-2.0268 Z-3.4334 F1200
G01 X20.9968 Y-2.1555 Z-3.4711 F1200
G01 X21.0428 Y-2.2912 Z-3.4950 F1200
G01 X21.0647 Y-2.4297 Z-3.4989 F1200
G01 X21.0626 Y-2.5669 Z-3.4816 F1200
G01 X21.0369 Y-2.6985 Z-3.4478 F1200
G01 X20.9890 Y-2.8206 Z-3.4066 F1200
G01 X20.9209 Y-2.9295 Z-3.3689 F1200
G01 X20.8353 Y-3.0218 Z-3.3450 F1200
G01 X20.7351 Y-3.0948 Z-3.3411 F1200
G01 X20.6241 Y-3.1462 Z-3.3584 F1200
G01 X20.5061 Y-3.1744 Z-3.3922 F1200
G01 X20.3853 Y-3.1787 Z-3.4334 F1200
G01 X20.2658 Y-3.1589 Z-3.4711 F1200
G01 X20.1518 Y-3.1156 Z-3.4950 F1200
G01 X20.0474 Y-3.0500 Z-3.4989 F1200
G01 X19.9562 Y-2.9643 Z-3.4816 F1200
G01 X19.8815 Y-2.8610 Z-3.4478 F1200
G01 X19.8262 Y-2.7432 Z-3.4066 F1200
G01 X19.7925 Y-2.6145 Z-3.3689 F1200
G01 X19.7819 Y-2.4788 Z-3.3450 F1200
G01 X19.7952 Y-2.3403 Z-3.3411 F1200
G01 X19.8327 Y-2.2031 Z-3.3584 F1200
G01 X19.8937 Y-2.0715 Z-3.3922 F1200
G01 X19.9769 Y-1.9494 Z-3.4334 F1200
G01 X20.0803 Y-1.8405 Z-3.4711 F1200
G01 X20.2013 Y-1.7482 Z-3.4950 F1200
G01 X20.3368 Y-1.6752 Z-3.4989 F1200
G01 X20.4832 Y-1.6238 Z-3.4816 F1200
G01 X20.6365 Y-1.5956 Z-3.4478 F1200
G01 X20.7927 Y-1.5913 Z-3.4066 F1200
G01 X20.9475 Y-1.6111 Z-3.3689 F1200
G01 X21.0968 Y-1.6544 Z-3.3450 F1200
G01 X21.2366 Y-1.7200 Z-3.3411 F1200
G01 X21.3631 Y-1.8057 Z-3.3584 F1200
G01 X21.4731 Y-1.9090 Z-3.3922 F1200
G01 X21.5637 Y-2.0268 Z-3.4334 F1200
G01 X21.6328 Y-2.1555 Z-3.4711 F1200
G01 X21.6788 Y-2.2912 Z-3.4950 F1200
G01 X21.7007 Y-2.4297 Z-3.4989 F1200
G01 X21.6986 Y-2.5669 Z-3.4816 F1200
G01 X21.6729 Y-2.6985 Z-3.4478 F1200
G01 X21.6250 Y-2.8206 Z-3.4066 F1200
G01 X21.5569 Y-2.9295 Z-3.3689 F1200
G01 X21.4713 Y-3.0218 Z-3.3450 F1200
G01 X21.3711 Y-3.0948 Z-3.3411 F1200
G01 X21.2601 Y-3.1462 Z-3.3584 F1200
G01 X21.1421 Y-3.1744 Z-3.3922 F1200
G01 X21.0213 Y-3.1787 Z-3.4334 F1200
G01 X20.9018 Y-3.1589 Z-3.4711 F1200
G01 X20.7878 Y-3.1156 Z-3.4950 F1200
G01 X20.6834 Y-3.0500 Z-3.4989 F1200
G01 X20.5922 Y-2.9643 Z-3.4816 F1200
G01 X20.5175 Y-2.8610 Z-3.4478 F1200
G01 X20.4622 Y-2.7432 Z-3.4066 F1200
G01 X20.4285 Y-2.6145 Z-3.3689 F1200
G01 X20.4179 Y-2.4788 Z-3.3450 F1200
G01 X20.4312 Y-2.3403 Z-3.3411 F1200
G01 X20.4687 Y-2.2031 Z-3.3584 F1200
G01 X20.5297 Y-2.0715 Z-3.3922 F1200
G01 X20.6129 Y-1.9494 Z-3.4334 F1200
G01 X20.7163 Y-1.8405 Z-3.4711 F1200
G01 X20.8373 Y-1.7482 Z-3.4950 F1200
G01 X20.9728 Y-1.6752 Z-3.4989 F1200
G01 X21.1192 Y-1.6238 Z-3.4816 F1200
G01 X21.2725 Y-1.5956 Z-3.4478 F1200
G01 X21.4287 Y-1.5913 Z-3.4066 F1200
G01 X21.5835 Y-1.6111 Z-3.3689 F1200
G01 X21.7328 Y-1.6544 Z-3.3450 F1200
G01 X21.8726 Y-1.7200 Z-3.3411 F1200
G01 X21.9991 Y-1.8057 Z-3.3584 F1200
G01 X22.1091 Y-1.9090 Z-3.3922 F1200
G01 X22.1997 Y-2.0268 Z-3.4334 F1200
G01 X22.2688 Y-2.1555 Z-3.4711 F1200
G01 X22.3148 Y-2.2912 Z-3.4950 F1200
G01 X22.3367 Y-2.4297 Z-3.4989 F1200
G01 X22.3346 Y-2.5669 Z-3.4816 F1200
G01 X22.3089 Y-2.6985 Z-3.4478 F1200
G01 X22.2610 Y-2.8206 Z-3.4066 F1200
G01 X22.1929 Y-2.9295 Z-3.3689 F1200
G01 X22.1073 Y-3.0218 Z-3.3450 F1200
G01 X22.0071 Y-3.0948 Z-3.3411 F1200
G01 X21.8961 Y-3.1462 Z-3.3584 F1200
G01 X21.7781 Y-3.1744 Z-3.3922 F1200
G01 X21.6573 Y-3.1787 Z-3.4334 F1200
G01 X21.5378 Y-3.1589 Z-3.4711 F1200
G01 X21.4238 Y-3.1156 Z-3.4950 F1200
G01 X21.3194 Y-3.0500 Z-3.4989 F1200
G01 X21.2282 Y-2.9643 Z-3.4816 F1200
G01 X21.1535 Y-2.8610 Z-3.4478 F1200
G01 X21.0982 Y-2.7432 Z-3.4066 F1200
G01 X21.0645 Y-2.6145 Z-3.3689 F1200
G01 X21.0539 Y-2.4788 Z-3.3450 F1200
G01 X21.0672 Y-2.3403 Z-3.3411 F1200
G01 X21.1047 Y-2.2031 Z-3.3584 F1200
G01 X21.1657 Y-2.0715 Z-3.3922 F1200
G01 X21.2489 Y-1.9494 Z-3.4334 F1200
G01 X21.3523 Y-1.8405 Z-3.4711 F1200
G01 X21.4733 Y-1.7482 Z-3.4950 F1200
G01 X21.6088 Y-1.6752 Z-3.4989 F1200
G01 X21.7552 Y-1.6238 Z-3.4816 F1200
G01 X21.9085 Y-1.5956 Z-3.4478 F1200
G01 X22.0647 Y-1.5913 Z-3.4066 F1200
G01 X22.2195 Y-1.6111 Z-3.3689 F1200
G01 X22.3688 Y-1.6544 Z-3.3450 F1200
G01 X22.5086 Y-1.7200 Z-3.3411 F1200
G01 X22.6351 Y-1.8057 Z-3.3584 F1200
G01 X22.7451 Y-1.9090 Z-3.3922 F1200
G01 X22.8357 Y-2.0268 Z-3.4334 F1200
G01 X22.9048 Y-2.1555 Z-3.4711 F1200
G01 X22.9508 Y-2.2912 Z-3.4950 F1200
G01 X22.9727 Y-2.4297 Z-3.4989 F1200
G01 X22.9706 Y-2.5669 Z-3.4816 F1200
G01 X22.9449 Y-2.6985 Z-3.4478 F1200
G01 X22.8970 Y-2.8206 Z-3.4066 F1200
G01 X22.8289 Y-2.9295 Z-3.3689 F1200
G01 X22.7433 Y-3.0218 Z-3.3450 F1200
G01 X22.6431 Y-3.0948 Z-3.3411 F1200
G01 X22.5321 Y-3.1462 Z-3.3584 F1200
G01 X22.4141 Y-3.1744 Z-3.3922 F1200
G01 X22.2933 Y-3.1787 Z-3.4334 F1200
G01 X22.1738 Y-3.1589 Z-3.4711 F1200
G01 X22.0598 Y-3.1156 Z-3.4950 F1200
G01 X21.9554 Y-3.0500 Z-3.4989 F1200
G01 X21.8642 Y-2.9643 Z-3.4816 F1200
G01 X21.7895 Y-2.8610 Z-3.4478 F1200
G01 X21.7342 Y-2.7432 Z-3.4066 F1200
G01 X21.7005 Y-2.6145 Z-3.3689 F1200
G01 X21.6899 Y-2.4788 Z-3.3450 F1200
G01 X21.7032 Y-2.3403 Z-3.3411 F1200
G01 X21.7407 Y-2.2031 Z-3.3584 F1200
G01 X21.8017 Y-2.0715 Z-3.3922 F1200
G01 X21.8849 Y-1.9494 Z-3.4334 F1200
G01 X21.9883 Y-1.8405 Z-3.4711 F1200
G01 X22.1093 Y-1.7482 Z-3.4950 F1200
G01 X22.2448 Y-1.6752 Z-3.4989 F1200
G01 X22.3912 Y-1.6238 Z-3.4816 F1200
G01 X22.5445 Y-1.5956 Z-3.4478 F1200
G01 X22.7007 Y-1.5913 Z-3.4066 F1200
G01 X22.8555 Y-1.6111 Z-3.3689 F1200
G01 X23.0048 Y-1.6544 Z-3.3450 F1200
G01 X23.1446 Y-1.7200 Z-3.3411 F1200
G01 X23.2711 Y-1.8057 Z-3.3584 F1200
G01 X23.3811 Y-1.9090 Z-3.3922 F1200
G01 X23.4717 Y-2.0268 Z-3.4334 F1200
G01 X23.5408 Y-2.1555 Z-3.4711 F1200
G01 X23.5868 Y-2.2912 Z-3.4950 F1200
G01 X23.6087 Y-2.4297 Z-3.4989 F1200
G01 X23.6066 Y-2.5669 Z-3.4816 F1200
G01 X23.5809 Y-2.6985 Z-3.4478 F1200
G01 X23.5330 Y-2.8206 Z-3.4066 F1200
G01 X23.4649 Y-2.9295 Z-3.3689 F1200
G01 X23.3793 Y-3.0218 Z-3.3450 F1200
G01 X23.2791 Y-3.0948 Z-3.3411 F1200
G01 X23.1681 Y-3.1462 Z-3.3584 F1200
G01 X23.0501 Y-3.1744 Z-3.3922 F1200
G01 X22.9293 Y-3.1787 Z-3.4334 F1200
G01 X22.8098 Y-3.1589 Z-3.4711 F1200
G01 X22.6958 Y-3.1156 Z-3.4950 F1200
G01 X22.5914 Y-3.0500 Z-3.4989 F1200
G01 X22.5002 Y-2.9643 Z-3.4816 F1200
G01 X22.4255 Y-2.8610 Z-3.4478 F1200
G01 X22.3702 Y-2.7432 Z-3.4066 F1200
G01 X22.3365 Y-2.6145 Z-3.3689 F1200
G01 X22.3259 Y-2.4788 Z-3.3450 F1200
G01 X22.3392 Y-2.3403 Z-3.3411 F1200
G01 X22.3767 Y-2.2031 Z-3.3584 F1200
G01 X22.4377 Y-2.0715 Z-3.3922 F1200
G01 X22.5209 Y-1.9494 Z-3.4334 F1200
G01 X22.6243 Y-1.8405 Z-3.4711 F1200
G01 X22.7453 Y-1.7482 Z-3.4950 F1200
G01 X22.8808 Y-1.6752 Z-3.4989 F1200
G01 X23.0272 Y-1.6238 Z-3.4816 F1200
G01 X23.1805 Y-1.5956 Z-3.4478 F1200
G01 X23.3367 Y-1.5913 Z-3.4066 F1200
G01 X23.4915 Y-1.6111 Z-3.3689 F1200
G01 X23.6408 Y-1.6544 Z-3.3450 F1200
G01 X23.7806 Y-1.7200 Z-3.3411 F1200
G01 X23.9071 Y-1.8057 Z-3.3584 F1200
G01 X24.0171 Y-1.9090 Z-3.3922 F1200
G01 X24.1077 Y-2.0268 Z-3.4334 F1200
G01 X24.1768 Y-2.1555 Z-3.4711 F1200
G01 X24.2228 Y-2.2912 Z-3.4950 F1200
G01 X24.2447 Y-2.4297 Z-3.4989 F1200
G01 X24.2426 Y-2.5669 Z-3.4816 F1200
G01 X24.2169 Y-2.6985 Z-3.4478 F1200
G01 X24.1690 Y-2.8206 Z-3.4066 F1200
G01 X24.1009 Y-2.9295 Z-3.3689 F1200
G01 X24.0153 Y-3.0218 Z-3.3450 F1200
G01 X23.9151 Y-3.0948 Z-3.3411 F1200
G01 X23.8041 Y-3.1462 Z-3.3584 F1200
G01 X23.6861 Y-3.1744 Z-3.3922 F1200
G01 X23.5653 Y-3.1787 Z-3.4334 F1200
G01 X23.4458 Y-3.1589 Z-3.4711 F1200
G01 X23.3318 Y-3.1156 Z-3.4950 F1200
G01 X23.2274 Y-3.0500 Z-3.4989 F1200
G01 X23.1362 Y-2.9643 Z-3.4816 F1200
G01 X23.0615 Y-2.8610 Z-3.4478 F1200
G01 X23.0062 Y-2.7432 Z-3.4066 F1200
G01 X22.9725 Y-2.6145 Z-3.3689 F1200
G01 X22.9619 Y-2.4788 Z-3.3450 F1200
G01 X22.9752 Y-2.3403 Z-3.3411 F1200
G01 X23.0127 Y-2.2031 Z-3.3584 F1200
G01 X23.0737 Y-2.0715 Z-3.3922 F1200
G01 X23.1569 Y-1.9494 Z-3.4334 F1200
G01 X23.2603 Y-1.8405 Z-3.4711 F1200
G01 X23.3813 Y-1.7482 Z-3.4950 F1200
G01 X23.5168 Y-1.6752 Z-3.4989 F1200
G01 X23.6632 Y-1.6238 Z-3.4816 F1200
G01 X23.8165 Y-1.5956 Z-3.4478 F1200
G01 X23.9727 Y-1.5913 Z-3.4066 F1200
G01 X24.1275 Y-1.6111 Z-3.3689 F1200
G01 X24.2768 Y-1.6544 Z-3.3450 F1200
G01 X24.4166 Y-1.7200 Z-3.3411 F1200
G01 X24.5431 Y-1.8057 Z-3.3584 F1200
G01 X24.6531 Y-1.9090 Z-3.3922 F1200
G01 X24.7437 Y-2.0268 Z-3.4334 F1200
G01 X24.8128 Y-2.1555 Z-3.4711 F1200
G01 X24.8588 Y-2.2912 Z-3.4950 F1200
G01 X24.8807 Y-2.4297 Z-3.4989 F1200
G01 X24.8786 Y-2.5669 Z-3.4816 F1200
G01 X24.8529 Y-2.6985 Z-3.4478 F1200
G01 X24.8050 Y-2.8206 Z-3.4066 F1200
G01 X24.7369 Y-2.9295 Z-3.3689 F1200
G01 X24.6513 Y-3.0218 Z-3.3450 F1200
G01 X24.5511 Y-3.0948 Z-3.3411 F1200
G01 X24.4401 Y-3.1462 Z-3.3584 F1200
G01 X24.3221 Y-3.1744 Z-3.3922 F1200
G01 X24.2013 Y-3.1787 Z-3.4334 F1200
G01 X24.0818 Y-3.1589 Z-3.4711 F1200
G01 X23.9678 Y-3.1156 Z-3.4950 F1200
G01 X23.8634 Y-3.0500 Z-3.4989 F1200
G01 X23.7722 Y-2.9643 Z-3.4816 F1200
G01 X23.6975 Y-2.8610 Z-3.4478 F1200
G01 X23.6422 Y-2.7432 Z-3.4066 F1200
G01 X23.6085 Y-2.6145 Z-3.3689 F1200
G01 X23.5979 Y-2.4788 Z-3.3450 F1200
G01 X23.6112 Y-2.3403 Z-3.3411 F1200
G01 X23.6487 Y-2.2031 Z-3.3584 F1200
G01 X23.7097 Y-2.0715 Z-3.3922 F1200
G01 X23.7929 Y-1.9494 Z-3.4334 F1200
G01 X23.8963 Y-1.8405 Z-3.4711 F1200
G01 X24.0173 Y-1.7482 Z-3.4950 F1200
G01 X24.1528 Y-1.6752 Z-3.4989 F1200
G01 X24.2992 Y-1.6238 Z-3.4816 F1200
G01 X24.4525 Y-1.5956 Z-3.4478 F1200
G01 X24.6087 Y-1.5913 Z-3.4066 F1200
G01 X24.7635 Y-1.6111 Z-3.3689 F1200
G01 X24.9128 Y-1.6544 Z-3.3450 F1200
G01 X25.0526 Y-1.7200 Z-3.3411 F1200
G01 X25.1791 Y-1.8057 Z-3.3584 F1200
G01 X25.2891 Y-1.9090 Z-3.3922 F1200
G01 X25.3797 Y-2.0268 Z-3.4334 F1200
G01 X25.4488 Y-2.1555 Z-3.4711 F1200
G01 X25.4948 Y-2.2912 Z-3.4950 F1200
G01 X25.5167 Y-2.4297 Z-3.4989 F1200
G01 X25.5146 Y-2.5669 Z-3.4816 F1200
G01 X25.4889 Y-2.6985 Z-3.4478 F1200
G01 X25.4410 Y-2.8206 Z-3.4066 F1200
G01 X25.3729 Y-2.9295 Z-3.3689 F1200
G01 X25.2873 Y-3.0218 Z-3.3450 F1200
G01 X25.1871 Y-3.0948 Z-3.3411 F1200
G01 X25.0761 Y-3.1462 Z-3.3584 F1200
G01 X24.9581 Y-3.1744 Z-3.3922 F1200
G01 X24.8373 Y-3.1787 Z-3.4334 F1200
G01 X24.7178 Y-3.1589 Z-3.4711 F1200
G01 X24.6038 Y-3.1156 Z-3.4950 F1200
G01 X24.4994 Y-3.0500 Z-3.4989 F1200
G01 X24.4082 Y-2.9643 Z-3.4816 F1200
G01 X24.3335 Y-2.8610 Z-3.4478 F1200
G01 X24.2782 Y-2.7432 Z-3.4066 F1200
G01 X24.2445 Y-2.6145 Z-3.3689 F1200
G01 X24.2339 Y-2.4788 Z-3.3450 F1200
G01 X24.2472 Y-2.3403 Z-3.3411 F1200
G01 X24.2847 Y-2.2031 Z-3.3584 F1200
G01 X24.3457 Y-2.0715 Z-3.3922 F1200
G01 X24.4289 Y-1.9494 Z-3.4334 F1200
G01 X24.5323 Y-1.8405 Z-3.4711 F1200
G01 X24.6533 Y-1.7482 Z-3.4950 F1200
G01 X24.7888 Y-1.6752 Z-3.4989 F1200
G01 X24.9352 Y-1.6238 Z-3.4816 F1200
G01 X25.0885 Y-1.5956 Z-3.4478 F1200
G01 X25.2447 Y-1.5913 Z-3.4066 F1200
G01 X25.3995 Y-1.6111 Z-3.3689 F1200
G01 X25.5488 Y-1.6544 Z-3.3450 F1200
G01 X25.6886 Y-1.7200 Z-3.3411 F1200
G01 X25.8151 Y-1.8057 Z-3.3584 F1200
G01 X25.9251 Y-1.9090 Z-3.3922 F1200
G01 X26.0157 Y-2.0268 Z-3.4334 F1200
G01 X26.0848 Y-2.1555 Z-3.4711 F1200
G01 X26.1308 Y-2.2912 Z-3.4950 F1200
G01 X26.1527 Y-2.4297 Z-3.4989 F1200
G01 X26.1506 Y-2.5669 Z-3.4816 F1200
G01 X26.1249 Y-2.6985 Z-3.4478 F1200
G01 X26.0770 Y-2.8206 Z-3.4066 F1200
G01 X26.0089 Y-2.9295 Z-3.3689 F1200
G01 X25.9233 Y-3.0218 Z-3.3450 F1200
G01 X25.8231 Y-3.0948 Z-3.3411 F1200
G01 X25.7121 Y-3.1462 Z-3.3584 F1200
G01 X25.5941 Y-3.1744 Z-3.3922 F1200
G01 X25.4733 Y-3.1787 Z-3.4334 F1200
G01 X25.3538 Y-3.1589 Z-3.4711 F1200
G01 X25.2398 Y-3.1156 Z-3.4950 F1200
G01 X25.1354 Y-3.0500 Z-3.4989 F1200
G01 X25.0442 Y-2.9643 Z-3.4816 F1200
G01 X24.9695 Y-2.8610 Z-3.4478 F1200
G01 X24.9142 Y-2.7432 Z-3.4066 F1200
G01 X24.8805 Y-2.6145 Z-3.3689 F1200
G01 X24.8699 Y-2.4788 Z-3.3450 F1200
G01 X24.8832 Y-2.3403 Z-3.3411 F1200
G01 X24.9207 Y-2.2031 Z-3.3584 F1200
G01 X24.9817 Y-2.0715 Z-3.3922 F1200
G01 X25.0649 Y-1.9494 Z-3.4334 F1200
G01 X25.1683 Y-1.8405 Z-3.4711 F1200
G01 X25.2893 Y-1.7482 Z-3.4950 F1200
G01 X25.4248 Y-1.6752 Z-3.4989 F1200
G01 X25.5712 Y-1.6238 Z-3.4816 F1200
G01 X25.7245 Y-1.5956 Z-3.4478 F1200
G01 X25.8807 Y-1.5913 Z-3.4066 F1200
G01 X26.0355 Y-1.6111 Z-3.3689 F1200
G01 X26.1848 Y-1.6544 Z-3.3450 F1200
G01 X26.3246 Y-1.7200 Z-3.3411 F1200
G01 X26.4511 Y-1.8057 Z-3.3584 F1200
G01 X26.5611 Y-1.9090 Z-3.3922 F1200
G01 X26.6517 Y-2.0268 Z-3.4334 F1200
G01 X26.7208 Y-2.1555 Z-3.4711 F1200
G01 X26.7668 Y-2.2912 Z-3.4950 F1200
G01 X26.7887 Y-2.4297 Z-3.4989 F1200
G01 X26.7866 Y-2.5669 Z-3.4816 F1200
G01 X26.7609 Y-2.6985 Z-3.4478 F1200
G01 X26.7130 Y-2.8206 Z-3.4066 F1200
G01 X26.6449 Y-2.9295 Z-3.3689 F1200
G01 X26.5593 Y-3.0218 Z-3.3450 F1200
G01 X26.4591 Y-3.0948 Z-3.3411 F1200
G01 X26.3481 Y-3.1462 Z-3.3584 F1200
G01 X26.2301 Y-3.1744 Z-3.3922 F1200
G01 X26.1093 Y-3.1787 Z-3.4334 F1200
G01 X25.9898 Y-3.1589 Z-3.4711 F1200
G01 X25.8758 Y-3.1156 Z-3.4950 F1200
G01 X25.7714 Y-3.0500 Z-3.4989 F1200
G01 X25.6802 Y-2.9643 Z-3.4816 F1200
G01 X25.6055 Y-2.8610 Z-3.4478 F1200
G01 X25.5502 Y-2.7432 Z-3.4066 F1200
G01 X25.5165 Y-2.6145 Z-3.3689 F1200
G01 X25.5059 Y-2.4788 Z-3.3450 F1200
G01 X25.5192 Y-2.3403 Z-3.3411 F1200
G01 X25.5567 Y-2.2031 Z-3.3584 F1200
G01 X25.6177 Y-2.0715 Z-3.3922 F1200
G01 X25.7009 Y-1.9494 Z-3.4334 F1200
G01 X25.8043 Y-1.8405 Z-3.4711 F1200
G01 X25.9253 Y-1.7482 Z-3.4950 F1200
G01 X26.0608 Y-1.6752 Z-3.4989 F1200
G01 X26.2072 Y-1.6238 Z-3.4816 F1200
G01 X26.3605 Y-1.5956 Z-3.4478 F1200
G01 X26.5167 Y-1.5913 Z-3.4066 F1200
G01 X26.6715 Y-1.6111 Z-3.3689 F1200
G01 X26.8208 Y-1.6544 Z-3.3450 F1200
G01 X26.9606 Y-1.7200 Z-3.3411 F1200
G01 X27.0871 Y-1.8057 Z-3.3584 F1200
G01 X27.1971 Y-1.9090 Z-3.3922 F1200
G01 X27.2877 Y-2.0268 Z-3.4334 F1200
G01 X27.3568 Y-2.1555 Z-3.4711 F1200
G01 X27.4028 Y-2.2912 Z-3.4950 F1200
G01 X27.4247 Y-2.4297 Z-3.4989 F1200
G01 X27.4226 Y-2.5669 Z-3.4816 F1200
G01 X27.3969 Y-2.6985 Z-3.4478 F1200
G01 X27.3490 Y-2.8206 Z-3.4066 F1200
G01 X27.2809 Y-2.9295 Z-3.3689 F1200
G01 X27.1953 Y-3.0218 Z-3.3450 F1200
G01 X27.0951 Y-3.0948 Z-3.3411 F1200
G01 X26.9841 Y-3.1462 Z-3.3584 F1200
G01 X26.8661 Y-3.1744 Z-3.3922 F1200
G01 X26.7453 Y-3.1787 Z-3.4334 F1200
G01 X26.6258 Y-3.1589 Z-3.4711 F1200
G01 X26.5118 Y-3.1156 Z-3.4950 F1200
G01 X26.4074 Y-3.0500 Z-3.4989 F1200
G01 X26.3162 Y-2.9643 Z-3.4816 F1200
G01 X26.2415 Y-2.8610 Z-3.4478 F1200
G01 X26.1862 Y-2.7432 Z-3.4066 F1200
G01 X26.1525 Y-2.6145 Z-3.3689 F1200
G01 X26.1419 Y-2.4788 Z-3.3450 F1200
G01 X26.1552 Y-2.3403 Z-3.3411 F1200
G01 X26.1927 Y-2.2031 Z-3.3584 F1200
G01 X26.2537 Y-2.0715 Z-3.3922 F1200
G01 X26.3369 Y-1.9494 Z-3.4334 F1200
G01 X26.4403 Y-1.8405 Z-3.4711 F1200
G01 X26.5613 Y-1.7482 Z-3.4950 F1200
G01 X26.6968 Y-1.6752 Z-3.4989 F1200
G01 X26.8432 Y-1.6238 Z-3.4816 F1200
G01 X26.9965 Y-1.5956 Z-3.4478 F1200
G01 X27.1527 Y-1.5913 Z-3.4066 F1200
G01 X27.3075 Y-1.6111 Z-3.3689 F1200
G01 X27.4568 Y-1.6544 Z-3.3450 F1200
G01 X27.5966 Y-1.7200 Z-3.3411 F1200
G01 X27.7231 Y-1.8057 Z-3.3584 F1200
G01 X27.8331 Y-1.9090 Z-3.3922 F1200
G01 X27.9237 Y-2.0268 Z-3.4334 F1200
G01 X27.9928 Y-2.1555 Z-3.4711 F1200
G01 X28.0388 Y-2.2912 Z-3.4950 F1200
G01 X28.0607 Y-2.4297 Z-3.4989 F1200
G01 X28.0586 Y-2.5669 Z-3.4816 F1200
G01 X28.0329 Y-2.6985 Z-3.4478 F1200
G01 X27.9850 Y-2.8206 Z-3.4066 F1200
G01 X27.9169 Y-2.9295 Z-3.3689 F1200
G01 X27.8313 Y-3.0218 Z-3.3450 F1200
G01 X27.7311 Y-3.0948 Z-3.3411 F1200
G01 X27.6201 Y-3.1462 Z-3.3584 F1200
G01 X27.5021 Y-3.1744 Z-3.3922 F1200
G01 X27.3813 Y-3.1787 Z-3.4334 F1200
G01 X27.2618 Y-3.1589 Z-3.4711 F1200
G01 X27.1478 Y-3.1156 Z-3.4950 F1200
G01 X27.0434 Y-3.0500 Z-3.4989 F1200
G01 X26.9522 Y-2.9643 Z-3.4816 F1200
G01 X26.8775 Y-2.8610 Z-3.4478 F1200
G01 X26.8222 Y-2.7432 Z-3.4066 F1200
G01 X26.7885 Y-2.6145 Z-3.3689 F1200
G01 X26.7779 Y-2.4788 Z-3.3450 F1200
G01 X26.7912 Y-2.3403 Z-3.3411 F1200
G01 X26.8287 Y-2.2031 Z-3.3584 F1200
G01 X26.8897 Y-2.0715 Z-3.3922 F1200
G01 X26.9729 Y-1.9494 Z-3.4334 F1200
G01 X27.0763 Y-1.8405 Z-3.4711 F1200
G01 X27.1973 Y-1.7482 Z-3.4950 F1200
G01 X27.3328 Y-1.6752 Z-3.4989 F1200
G01 X27.4792 Y-1.6238 Z-3.4816 F1200
G01 X27.6325 Y-1.5956 Z-3.4478 F1200
G01 X27.7887 Y-1.5913 Z-3.4066 F1200
G01 X27.9435 Y-1.6111 Z-3.3689 F1200
G01 X28.0928 Y-1.6544 Z-3.3450 F1200
G01 X28.2326 Y-1.7200 Z-3.3411 F1200
G01 X28.3591 Y-1.8057 Z-3.3584 F1200
G01 X28.4691 Y-1.9090 Z-3.3922 F1200
G01 X28.5597 Y-2.0268 Z-3.4334 F1200
G01 X28.6288 Y-2.1555 Z-3.4711 F1200
G01 X28.6748 Y-2.2912 Z-3.4950 F1200
G01 X28.6967 Y-2.4297 Z-3.4989 F1200
G01 X28.6946 Y-2.5669 Z-3.4816 F1200
G01 X28.6689 Y-2.6985 Z-3.4478 F1200
G01 X28.6210 Y-2.8206 Z-3.4066 F1200
G01 X28.5529 Y-2.9295 Z-3.3689 F1200
G01 X28.4673 Y-3.0218 Z-3.3450 F1200
G01 X28.3671 Y-3.0948 Z-3.3411 F1200
G01 X28.2561 Y-3.1462 Z-3.3584 F1200
G01 X28.1381 Y-3.1744 Z-3.3922 F1200
G01 X28.0173 Y-3.1787 Z-3.4334 F1200
G01 X27.8978 Y-3.1589 Z-3.4711 F1200
G01 X27.7838 Y-3.1156 Z-3.4950 F1200
G01 X27.6794 Y-3.0500 Z-3.4989 F1200
G01 X27.5882 Y-2.9643 Z-3.4816 F1200
G01 X27.5135 Y-2.8610 Z-3.4478 F1200
G01 X27.4582 Y-2.7432 Z-3.4066 F1200
G01 X27.4245 Y-2.6145 Z-3.3689 F1200
G01 X27.4139 Y-2.4788 Z-3.3450 F1200
G01 X27.4272 Y-2.3403 Z-3.3411 F1200
G01 X27.4647 Y-2.2031 Z-3.3584 F1200
G01 X27.5257 Y-2.0715 Z-3.3922 F1200
G01 X27.6089 Y-1.9494 Z-3.4334 F1200
G01 X27.7123 Y-1.8405 Z-3.4711 F1200
G01 X27.8333 Y-1.7482 Z-3.4950 F1200
G01 X27.9688 Y-1.6752 Z-3.4989 F1200
G01 X28.1152 Y-1.6238 Z-3.4816 F1200
G01 X28.2685 Y-1.5956 Z-3.4478 F1200
G01 X28.4247 Y-1.5913 Z-3.4066 F1200
G01 X28.5795 Y-1.6111 Z-3.3689 F1200
G01 X28.7288 Y-1.6544 Z-3.3450 F1200
G01 X28.8686 Y-1.7200 Z-3.3411 F1200
G01 X28.9951 Y-1.8057 Z-3.3584 F1200
G01 X29.1051 Y-1.9090 Z-3.3922 F1200
G01 X29.1957 Y-2.0268 Z-3.4334 F1200
G01 X29.2648 Y-2.1555 Z-3.4711 F1200
G01 X29.3108 Y-2.2912 Z-3.4950 F1200
G01 X29.3327 Y-2.4297 Z-3.4989 F1200
G01 X29.3306 Y-2.5669 Z-3.4816 F1200
G01 X29.3049 Y-2.6985 Z-3.4478 F1200
G01 X29.2570 Y-2.8206 Z-3.4066 F1200
G01 X29.1889 Y-2.9295 Z-3.3689 F1200
G01 X29.1033 Y-3.0218 Z-3.3450 F1200
G01 X29.0031 Y-3.0948 Z-3.3411 F1200
G01 X28.8921 Y-3.1462 Z-3.3584 F1200
G01 X28.7741 Y-3.1744 Z-3.3922 F1200
G01 X28.6533 Y-3.1787 Z-3.4334 F1200
G01 X28.5338 Y-3.1589 Z-3.4711 F1200
G01 X28.4198 Y-3.1156 Z-3.4950 F1200
G01 X28.3154 Y-3.0500 Z-3.4989 F1200
G01 X28.2242 Y-2.9643 Z-3.4816 F1200
G01 X28.1495 Y-2.8610 Z-3.4478 F1200
G01 X28.0942 Y-2.7432 Z-3.4066 F1200
G01 X28.0605 Y-2.6145 Z-3.3689 F1200
G01 X28.0499 Y-2.4788 Z-3.3450 F1200
G01 X28.0632 Y-2.3403 Z-3.3411 F1200
G01 X28.1007 Y-2.2031 Z-3.3584 F1200
G01 X28.1617 Y-2.0715 Z-3.3922 F1200
G01 X28.2449 Y-1.9494 Z-3.4334 F1200
G01 X28.3483 Y-1.8405 Z-3.4711 F1200
G01 X28.4693 Y-1.7482 Z-3.4950 F1200
G01 X28.6048 Y-1.6752 Z-3.4989 F1200
G01 X28.7512 Y-1.6238 Z-3.4816 F1200
G01 X28.9045 Y-1.5956 Z-3.4478 F1200
G01 X29.0607 Y-1.5913 Z-3.4066 F1200
G01 X29.2155 Y-1.6111 Z-3.3689 F1200
G01 X29.3648 Y-1.6544 Z-3.3450 F1200
G01 X29.5046 Y-1.7200 Z-3.3411 F1200
G01 X29.6311 Y-1.8057 Z-3.3584 F1200
G01 X29.7411 Y-1.9090 Z-3.3922 F1200
G01 X29.8317 Y-2.0268 Z-3.4334 F1200
G01 X29.9008 Y-2.1555 Z-3.4711 F1200
G01 X29.9468 Y-2.2912 Z-3.4950 F1200
G01 X29.9687 Y-2.4297 Z-3.4989 F1200
G01 X29.9666 Y-2.5669 Z-3.4816 F1200
G01 X29.9409 Y-2.6985 Z-3.4478 F1200
G01 X29.8930 Y-2.8206 Z-3.4066 F1200
G01 X29.8249 Y-2.9295 Z-3.3689 F1200
G01 X29.7393 Y-3.0218 Z-3.3450 F1200
G01 X29.6391 Y-3.0948 Z-3.3411 F1200
G01 X29.5281 Y-3.1462 Z-3.3584 F1200
G01 X29.4101 Y-3.1744 Z-3.3922 F1200
G01 X29.2893 Y-3.1787 Z-3.4334 F1200
G01 X29.1698 Y-3.1589 Z-3.4711 F1200
G01 X29.0558 Y-3.1156 Z-3.4950 F1200
G01 X28.9514 Y-3.0500 Z-3.4989 F1200
G01 X28.8602 Y-2.9643 Z-3.4816 F1200
G01 X28.7855 Y-2.8610 Z-3.4478 F1200
G01 X28.7302 Y-2.7432 Z-3.4066 F1200
G01 X28.6965 Y-2.6145 Z-3.3689 F1200
G01 X28.6859 Y-2.4788 Z-3.3450 F1200
G01 X28.6992 Y-2.3403 Z-3.3411 F1200
G01 X28.7367 Y-2.2031 Z-3.3584 F1200
G01 X28.7977 Y-2.0715 Z-3.3922 F1200
G01 X28.8809 Y-1.9494 Z-3.4334 F1200
G01 X28.9843 Y-1.8405 Z-3.4711 F1200
G01 X29.1053 Y-1.7482 Z-3.4950 F1200
G01 X29.2408 Y-1.6752 Z-3.4989 F1200
G01 X29.3872 Y-1.6238 Z-3.4816 F1200
G01 X29.5405 Y-1.5956 Z-3.4478 F1200
G01 X29.6967 Y-1.5913 Z-3.4066 F1200
G01 X29.8515 Y-1.6111 Z-3.3689 F1200
G01 X30.0008 Y-1.6544 Z-3.3450 F1200
G01 X30.1406 Y-1.7200 Z-3.3411 F1200
G01 X30.2671 Y-1.8057 Z-3.3584 F1200
G01 X30.3771 Y-1.9090 Z-3.3922 F1200
G01 X30.4677 Y-2.0268 Z-3.4334 F1200
G01 X30.5368 Y-2.1555 Z-3.4711 F1200
G01 X30.5828 Y-2.2912 Z-3.4950 F1200
G01 X30.6047 Y-2.4297 Z-3.4989 F1200
G01 X30.6026 Y-2.5669 Z-3.4816 F1200
G01 X30.5769 Y-2.6985 Z-3.4478 F1200
G01 X30.5290 Y-2.8206 Z-3.4066 F1200
G01 X30.4609 Y-2.9295 Z-3.3689 F1200
G01 X30.3753 Y-3.0218 Z-3.3450 F1200
G01 X30.2751 Y-3.0948 Z-3.3411 F1200
G01 X30.1641 Y-3.1462 Z-3.3584 F1200
G01 X30.0461 Y-3.1744 Z-3.3922 F1200
G01 X29.9253 Y-3.1787 Z-3.4334 F1200
G01 X29.8058 Y-3.1589 Z-3.4711 F1200
G01 X29.6918 Y-3.1156 Z-3.4950 F1200
G01 X29.5874 Y-3.0500 Z-3.4989 F1200
G01 X29.4962 Y-2.9643 Z-3.4816 F1200
G01 X29.4215 Y-2.8610 Z-3.4478 F1200
G01 X29.3662 Y-2.7432 Z-3.4066 F1200
G01 X29.3325 Y-2.6145 Z-3.3689 F1200
G01 X29.3219 Y-2.4788 Z-3.3450 F1200
G01 X29.3352 Y-2.3403 Z-3.3411 F1200
G01 X29.3727 Y-2.2031 Z-3.3584 F1200
G01 X29.4337 Y-2.0715 Z-3.3922 F1200
G01 X29.5169 Y-1.9494 Z-3.4334 F1200
G01 X29.6203 Y-1.8405 Z-3.4711 F1200
G01 X29.7413 Y-1.7482 Z-3.4950 F1200
G01 X29.8768 Y-1.6752 Z-3.4989 F1200
G01 X30.0232 Y-1.6238 Z-3.4816 F1200
G01 X30.1765 Y-1.5956 Z-3.4478 F1200
G01 X30.3327 Y-1.5913 Z-3.4066 F1200
G01 X30.4875 Y-1.6111 Z-3.3689 F1200
G01 X30.6368 Y-1.6544 Z-3.3450 F1200
G01 X30.7766 Y-1.7200 Z-3.3411 F1200
G01 X30.9031 Y-1.8057 Z-3.3584 F1200
G01 X31.0131 Y-1.9090 Z-3.3922 F1200
G01 X31.1037 Y-2.0268 Z-3.4334 F1200
G01 X31.1728 Y-2.1555 Z-3.4711 F1200
G01 X31.2188 Y-2.2912 Z-3.4950 F1200
G01 X31.2407 Y-2.4297 Z-3.4989 F1200
G01 X31.2386 Y-2.5669 Z-3.4816 F1200
G01 X31.2129 Y-2.6985 Z-3.4478 F1200
G01 X31.1650 Y-2.8206 Z-3.4066 F1200
G01 X31.0969 Y-2.9295 Z-3.3689 F1200
G01 X31.0113 Y-3.0218 Z-3.3450 F1200
G01 X30.9111 Y-3.0948 Z-3.3411 F1200
G01 X30.8001 Y-3.1462 Z-3.3584 F1200
G01 X30.6821 Y-3.1744 Z-3.3922 F1200
G01 X30.5613 Y-3.1787 Z-3.4334 F1200
G01 X30.4418 Y-3.1589 Z-3.4711 F1200
G01 X30.3278 Y-3.1156 Z-3.4950 F1200
G01 X30.2234 Y-3.0500 Z-3.4989 F1200
G01 X30.1322 Y-2.9643 Z-3.4816 F1200
G01 X30.0575 Y-2.8610 Z-3.4478 F1200
G01 X30.0022 Y-2.7432 Z-3.4066 F1200
G01 X29.9685 Y-2.6145 Z-3.3689 F1200
G01 X29.9579 Y-2.4788 Z-3.3450 F1200
G01 X29.9712 Y-2.3403 Z-3.3411 F1200
G01 X30.0087 Y-2.2031 Z-3.3584 F1200
G01 X30.0697 Y-2.0715 Z-3.3922 F1200
G01 X30.1529 Y-1.9494 Z-3.4334 F1200
G01 X30.2563 Y-1.8405 Z-3.4711 F1200
G01 X30.3773 Y-1.7482 Z-3.4950 F1200
G01 X30.5128 Y-1.6752 Z-3.4989 F1200
G01 X30.6592 Y-1.6238 Z-3.4816 F1200
G01 X30.8125 Y-1.5956 Z-3.4478 F1200
G01 X30.9687 Y-1.5913 Z-3.4066 F1200
G01 X31.1235 Y-1.6111 Z-3.3689 F1200
G01 X31.2728 Y-1.6544 Z-3.3450 F1200
G01 X31.4126 Y-1.7200 Z-3.3411 F1200
G01 X31.5391 Y-1.8057 Z-3.3584 F1200
G01 X31.6491 Y-1.9090 Z-3.3922 F1200
G01 X31.7397 Y-2.0268 Z-3.4334 F1200
G01 X31.8088 Y-2.1555 Z-3.4711 F1200
G01 X31.8548 Y-2.2912 Z-3.4950 F1200
G01 X31.8767 Y-2.4297 Z-3.4989 F1200
G01 X31.8746 Y-2.5669 Z-3.4816 F1200
G01 X31.8489 Y-2.6985 Z-3.4478 F1200
G01 X31.8010 Y-2.8206 Z-3.4066 F1200
G01 X31.7329 Y-2.9295 Z-3.3689 F1200
G01 X31.6473 Y-3.0218 Z-3.3450 F1200
G01 X31.5471 Y-3.0948 Z-3.3411 F1200
G01 X31.4361 Y-3.1462 Z-3.3584 F1200
G01 X31.3181 Y-3.1744 Z-3.3922 F1200
G01 X31.1973 Y-3.1787 Z-3.4334 F1200
G01 X31.0778 Y-3.1589 Z-3.4711 F1200
G01 X30.9638 Y-3.1156 Z-3.4950 F1200
G01 X30.8594 Y-3.0500 Z-3.4989 F1200
G01 X30.7682 Y-2.9643 Z-3.4816 F1200
G01 X30.6935 Y-2.8610 Z-3.4478 F1200
G01 X30.6382 Y-2.7432 Z-3.4066 F1200
G01 X30.6045 Y-2.6145 Z-3.3689 F1200
G01 X30.5939 Y-2.4788 Z-3.3450 F1200
G01 X30.6072 Y-2.3403 Z-3.3411 F1200
G01 X30.6447 Y-2.2031 Z-3.3584 F1200
G01 X30.7057 Y-2.0715 Z-3.3922 F1200
G01 X30.7889 Y-1.9494 Z-3.4334 F1200
G01 X30.8923 Y-1.8405 Z-3.4711 F1200
G01 X31.0133 Y-1.7482 Z-3.4950 F1200
G01 X31.1488 Y-1.6752 Z-3.4989 F1200
G01 X31.2952 Y-1.6238 Z-3.4816 F1200
G01 X31.4485 Y-1.5956 Z-3.4478 F1200
G01 X31.6047 Y-1.5913 Z-3.4066 F1200
G01 X31.7595 Y-1.6111 Z-3.3689 F1200
G01 X31.9088 Y-1.6544 Z-3.3450 F1200
G01 X32.0486 Y-1.7200 Z-3.3411 F1200
G01 X32.1751 Y-1.8057 Z-3.3584 F1200
G01 X32.2851 Y-1.9090 Z-3.3922 F1200
G01 X32.3757 Y-2.0268 Z-3.4334 F1200
G01 X32.4448 Y-2.1555 Z-3.4711 F1200
G01 X32.4908 Y-2.2912 Z-3.4950 F1200
G01 X32.5127 Y-2.4297 Z-3.4989 F1200
G01 X32.5106 Y-2.5669 Z-3.4816 F1200
G01 X32.4849 Y-2.6985 Z-3.4478 F1200
G01 X32.4370 Y-2.8206 Z-3.4066 F1200
G01 X32.3689 Y-2.9295 Z-3.3689 F1200
G01 X32.2833 Y-3.0218 Z-3.3450 F1200
G01 X32.1831 Y-3.0948 Z-3.3411 F1200
G01 X32.0721 Y-3.1462 Z-3.3584 F1200
G01 X31.9541 Y-3.1744 Z-3.3922 F1200
G01 X31.8333 Y-3.1787 Z-3.4334 F1200
G01 X31.7138 Y-3.1589 Z-3.4711 F1200
G01 X31.5998 Y-3.1156 Z-3.4950 F1200
G01 X31.4954 Y-3.0500 Z-3.4989 F1200
G01 X31.4042 Y-2.9643 Z-3.4816 F1200
G01 X31.3295 Y-2.8610 Z-3.4478 F1200
G01 X31.2742 Y-2.7432 Z-3.4066 F1200
G01 X31.2405 Y-2.6145 Z-3.3689 F1200
G01 X31.2299 Y-2.4788 Z-3.3450 F1200
G01 X31.2432 Y-2.3403 Z-3.3411 F1200
G01 X31.2807 Y-2.2031 Z-3.3584 F1200
G01 X31.3417 Y-2.0715 Z-3.3922 F1200
G01 X31.4249 Y-1.9494 Z-3.4334 F1200
G01 X31.5283 Y-1.8405 Z-3.4711 F1200
G01 X31.6493 Y-1.7482 Z-3.4950 F1200
G01 X31.7848 Y-1.6752 Z-3.4989 F1200
G01 X31.9312 Y-1.6238 Z-3.4816 F1200
G01 X32.0845 Y-1.5956 Z-3.4478 F1200
G01 X32.2407 Y-1.5913 Z-3.4066 F1200
G01 X32.3955 Y-1.6111 Z-3.3689 F1200
G01 X32.5448 Y-1.6544 Z-3.3450 F1200
G01 X32.6846 Y-1.7200 Z-3.3411 F1200
G01 X32.8111 Y-1.8057 Z-3.3584 F1200
G01 X32.9211 Y-1.9090 Z-3.3922 F1200
G01 X33.0117 Y-2.0268 Z-3.4334 F1200
G01 X33.0808 Y-2.1555 Z-3.4711 F1200
G01 X33.1268 Y-2.2912 Z-3.4950 F1200
G01 X33.1487 Y-2.4297 Z-3.4989 F1200
G01 X33.1466 Y-2.5669 Z-3.4816 F1200
G01 X33.1209 Y-2.6985 Z-3.4478 F1200
G01 X33.0730 Y-2.8206 Z-3.4066 F1200
G01 X33.0049 Y-2.9295 Z-3.3689 F1200
G01 X32.9193 Y-3.0218 Z-3.3450 F1200
G01 X32.8191 Y-3.0948 Z-3.3411 F1200
G01 X32.7081 Y-3.1462 Z-3.3584 F1200
G01 X32.5901 Y-3.1744 Z-3.3922 F1200
G01 X32.4693 Y-3.1787 Z-3.4334 F1200
G01 X32.3498 Y-3.1589 Z-3.4711 F1200
G01 X32.2358 Y-3.1156 Z-3.4950 F1200
G01 X32.1314 Y-3.0500 Z-3.4989 F1200
G01 X32.0402 Y-2.9643 Z-3.4816 F1200
G01 X31.9655 Y-2.8610 Z-3.4478 F1200
G01 X31.9102 Y-2.7432 Z-3.4066 F1200
G01 X31.8765 Y-2.6145 Z-3.3689 F1200
G01 X31.8659 Y-2.4788 Z-3.3450 F1200
G01 X31.8792 Y-2.3403 Z-3.3411 F1200
G01 X31.9167 Y-2.2031 Z-3.3584 F1200
G01 X31.9777 Y-2.0715 Z-3.3922 F1200
G01 X32.0609 Y-1.9494 Z-3.4334 F1200
G01 X32.1643 Y-1.8405 Z-3.4711 F1200
G01 X32.2853 Y-1.7482 Z-3.4950 F1200
G01 X32.4208 Y-1.6752 Z-3.4989 F1200
G01 X32.5672 Y-1.6238 Z-3.4816 F1200
G01 X32.7205 Y-1.5956 Z-3.4478 F1200
G01 X32.8767 Y-1.5913 Z-3.4066 F1200
G01 X33.0315 Y-1.6111 Z-3.3689 F1200
G01 X33.1808 Y-1.6544 Z-3.3450 F1200
G01 X33.3206 Y-1.7200 Z-3.3411 F1200
G01 X33.4471 Y-1.8057 Z-3.3584 F1200
G01 X33.5571 Y-1.9090 Z-3.3922 F1200
G01 X33.6477 Y-2.0268 Z-3.4334 F1200
G01 X33.7168 Y-2.1555 Z-3.4711 F1200
G01 X33.7628 Y-2.2912 Z-3.4950 F1200
G01 X33.7847 Y-2.4297 Z-3.4989 F1200
G01 X33.7826 Y-2.5669 Z-3.4816 F1200
G01 X33.7569 Y-2.6985 Z-3.4478 F1200
G01 X33.7090 Y-2.8206 Z-3.4066 F1200
G01 X33.6409 Y-2.9295 Z-3.3689 F1200
G01 X33.5553 Y-3.0218 Z-3.3450 F1200
G01 X33.4551 Y-3.0948 Z-3.3411 F1200
G01 X33.3441 Y-3.1462 Z-3.3584 F1200
G01 X33.2261 Y-3.1744 Z-3.3922 F1200
G01 X33.1053 Y-3.1787 Z-3.4334 F1200
G01 X32.9858 Y-3.1589 Z-3.4711 F1200
G01 X32.8718 Y-3.1156 Z-3.4950 F1200
G01 X32.7674 Y-3.0500 Z-3.4989 F1200
G01 X32.6762 Y-2.9643 Z-3.4816 F1200
G01 X32.6015 Y-2.8610 Z-3.4478 F1200
G01 X32.5462 Y-2.7432 Z-3.4066 F1200
G01 X32.5125 Y-2.6145 Z-3.3689 F1200
G01 X32.5019 Y-2.4788 Z-3.3450 F1200
G01 X32.5152 Y-2.3403 Z-3.3411 F1200
G01 X32.5527 Y-2.2031 Z-3.3584 F1200
G01 X32.6137 Y-2.0715 Z-3.3922 F1200
G01 X32.6969 Y-1.9494 Z-3.4334 F1200
G01 X32.8003 Y-1.8405 Z-3.4711 F1200
G01 X32.9213 Y-1.7482 Z-3.4950 F1200
G01 X33.0568 Y-1.6752 Z-3.4989 F1200
G01 X33.2032 Y-1.6238 Z-3.4816 F1200
G01 X33.3565 Y-1.5956 Z-3.4478 F1200
G01 X33.5127 Y-1.5913 Z-3.4066 F1200
G01 X33.6675 Y-1.6111 Z-3.3689 F1200
G01 X33.8168 Y-1.6544 Z-3.3450 F1200
G01 X33.9566 Y-1.7200 Z-3.3411 F1200
G01 X34.0831 Y-1.8057 Z-3.3584 F1200
G01 X34.1931 Y-1.9090 Z-3.3922 F1200
G01 X34.2837 Y-2.0268 Z-3.4334 F1200
G01 X34.3528 Y-2.1555 Z-3.4711 F1200
G01 X34.3988 Y-2.2912 Z-3.4950 F1200
G01 X34.4207 Y-2.4297 Z-3.4989 F1200
G01 X34.4186 Y-2.5669 Z-3.4816 F1200
G01 X34.3929 Y-2.6985 Z-3.4478 F1200
G01 X34.3450 Y-2.8206 Z-3.4066 F1200
G01 X34.2769 Y-2.9295 Z-3.3689 F1200
G01 X34.1913 Y-3.0218 Z-3.3450 F1200
G01 X34.0911 Y-3.0948 Z-3.3411 F1200
G01 X33.9801 Y-3.1462 Z-3.3584 F1200
G01 X33.8621 Y-3.1744 Z-3.3922 F1200
G01 X33.7413 Y-3.1787 Z-3.4334 F1200
G01 X33.6218 Y-3.1589 Z-3.4711 F1200
G01 X33.5078 Y-3.1156 Z-3.4950 F1200
G01 X33.4034 Y-3.0500 Z-3.4989 F1200
G01 X33.3122 Y-2.9643 Z-3.4816 F1200
G01 X33.2375 Y-2.8610 Z-3.4478 F1200
G01 X33.1822 Y-2.7432 Z-3.4066 F1200
G01 X33.1485 Y-2.6145 Z-3.3689 F1200
G01 X33.1379 Y-2.4788 Z-3.3450 F1200
G01 X33.1512 Y-2.3403 Z-3.3411 F1200
G01 X33.1887 Y-2.2031 Z-3.3584 F1200
G01 X33.2497 Y-2.0715 Z-3.3922 F1200
G01 X33.3329 Y-1.9494 Z-3.4334 F1200
G01 X33.4363 Y-1.8405 Z-3.4711 F1200
G01 X33.5573 Y-1.7482 Z-3.4950 F1200
G01 X33.6928 Y-1.6752 Z-3.4989 F1200
G01 X33.8392 Y-1.6238 Z-3.4816 F1200
G01 X33.9925 Y-1.5956 Z-3.4478 F1200
G01 X34.1487 Y-1.5913 Z-3.4066 F1200
G01 X34.3035 Y-1.6111 Z-3.3689 F1200
G01 X34.4528 Y-1.6544 Z-3.3450 F1200
G01 X34.5926 Y-1.7200 Z-3.3411 F1200
G01 X34.7191 Y-1.8057 Z-3.3584 F1200
G01 X34.8291 Y-1.9090 Z-3.3922 F1200
G01 X34.9197 Y-2.0268 Z-3.4334 F1200
G01 X34.9888 Y-2.1555 Z-3.4711 F1200
G01 X35.0348 Y-2.2912 Z-3.4950 F1200
G01 X35.0567 Y-2.4297 Z-3.4989 F1200
G01 X35.0546 Y-2.5669 Z-3.4816 F1200
G01 X35.0289 Y-2.6985 Z-3.4478 F1200
G01 X34.9810 Y-2.8206 Z-3.4066 F1200
G01 X34.9129 Y-2.9295 Z-3.3689 F1200
G01 X34.8273 Y-3.0218 Z-3.3450 F1200
G01 X34.7271 Y-3.0948 Z-3.3411 F1200
G01 X34.6161 Y-3.1462 Z-3.3584 F1200
G01 X34.4981 Y-3.1744 Z-3.3922 F1200
G01 X34.3773 Y-3.1787 Z-3.4334 F1200
G01 X34.2578 Y-3.1589 Z-3.4711 F1200
G01 X34.1438 Y-3.1156 Z-3.4950 F1200
G01 X34.0394 Y-3.0500 Z-3.4989 F1200
G01 X33.9482 Y-2.9643 Z-3.4816 F1200
G01 X33.8735 Y-2.8610 Z-3.4478 F1200
G01 X33.8182 Y-2.7432 Z-3.4066 F1200
G01 X33.7845 Y-2.6145 Z-3.3689 F1200
G01 X33.7739 Y-2.4788 Z-3.3450 F1200
G01 X33.7872 Y-2.3403 Z-3.3411 F1200
G01 X33.8247 Y-2.2031 Z-3.3584 F1200
G01 X33.8857 Y-2.0715 Z-3.3922 F1200
G01 X33.9689 Y-1.9494 Z-3.4334 F1200
G01 X34.0723 Y-1.8405 Z-3.4711 F1200
G01 X34.1933 Y-1.7482 Z-3.4950 F1200
G01 X34.3288 Y-1.6752 Z-3.4989 F1200
G01 X34.4752 Y-1.6238 Z-3.4816 F1200
G01 X34.6285 Y-1.5956 Z-3.4478 F1200
G01 X34.7847 Y-1.5913 Z-3.4066 F1200
G01 X34.9395 Y-1.6111 Z-3.3689 F1200
G01 X35.0888 Y-1.6544 Z-3.3450 F1200
G01 X35.2286 Y-1.7200 Z-3.3411 F1200
G01 X35.3551 Y-1.8057 Z-3.3584 F1200
G01 X35.4651 Y-1.9090 Z-3.3922 F1200
G01 X35.5557 Y-2.0268 Z-3.4334 F1200
G01 X35.6248 Y-2.1555 Z-3.4711 F1200
G01 X35.6708 Y-2.2912 Z-3.4950 F1200
G01 X35.6927 Y-2.4297 Z-3.4989 F1200
G01 X35.6906 Y-2.5669 Z-3.4816 F1200
G01 X35.6649 Y-2.6985 Z-3.4478 F1200
G01 X35.6170 Y-2.8206 Z-3.4066 F1200
G01 X35.5489 Y-2.9295 Z-3.3689 F1200
G01 X35.4633 Y-3.0218 Z-3.3450 F1200
G01 X35.3631 Y-3.0948 Z-3.3411 F1200
G01 X35.2521 Y-3.1462 Z-3.3584 F1200
G01 X35.1341 Y-3.1744 Z-3.3922 F1200
G01 X35.0133 Y-3.1787 Z-3.4334 F1200
G01 X34.8938 Y-3.1589 Z-3.4711 F1200
G01 X34.7798 Y-3.1156 Z-3.4950 F1200
G01 X34.6754 Y-3.0500 Z-3.4989 F1200
G01 X34.5842 Y-2.9643 Z-3.4816 F1200
G01 X34.5095 Y-2.8610 Z-3.4478 F1200
G01 X34.4542 Y-2.7432 Z-3.4066 F1200
G01 X34.4205 Y-2.6145 Z-3.3689 F1200
G01 X34.4099 Y-2.4788 Z-3.3450 F1200
G01 X34.4232 Y-2.3403 Z-3.3411 F1200
G01 X34.4607 Y-2.2031 Z-3.3584 F1200
G01 X34.5217 Y-2.0715 Z-3.3922 F1200
G01 X34.6049 Y-1.9494 Z-3.4334 F1200
G01 X34.7083 Y-1.8405 Z-3.4711 F1200
G01 X34.8293 Y-1.7482 Z-3.4950 F1200
G01 X34.9648 Y-1.6752 Z-3.4989 F1200
G01 X35.1112 Y-1.6238 Z-3.4816 F1200
G01 X35.2645 Y-1.5956 Z-3.4478 F1200
G01 X35.4207 Y-1.5913 Z-3.4066 F1200
G01 X35.5755 Y-1.6111 Z-3.3689 F1200
G01 X35.7248 Y-1.6544 Z-3.3450 F1200
G01 X35.8646 Y-1.7200 Z-3.3411 F1200
G01 X35.9911 Y-1.8057 Z-3.3584 F1200
G01 X36.1011 Y-1.9090 Z-3.3922 F1200
G01 X36.1917 Y-2.0268 Z-3.4334 F1200
G01 X36.2608 Y-2.1555 Z-3.4711 F1200
G01 X36.3068 Y-2.2912 Z-3.4950 F1200
G01 X36.3287 Y-2.4297 Z-3.4989 F1200
G01 X36.3266 Y-2.5669 Z-3.4816 F1200
G01 X36.3009 Y-2.6985 Z-3.4478 F1200
G01 X36.2530 Y-2.8206 Z-3.4066 F1200
G01 X36.1849 Y-2.9295 Z-3.3689 F1200
G01 X36.0993 Y-3.0218 Z-3.3450 F1200
G01 X35.9991 Y-3.0948 Z-3.3411 F1200
G01 X35.8881 Y-3.1462 Z-3.3584 F1200
G01 X35.7701 Y-3.1744 Z-3.3922 F1200
G01 X35.6493 Y-3.1787 Z-3.4334 F1200
G01 X35.5298 Y-3.1589 Z-3.4711 F1200
G01 X35.4158 Y-3.1156 Z-3.4950 F1200
G01 X35.3114 Y-3.0500 Z-3.4989 F1200
G01 X35.2202 Y-2.9643 Z-3.4816 F1200
G01 X35.1455 Y-2.8610 Z-3.4478 F1200
G01 X35.0902 Y-2.7432 Z-3.4066 F1200
G01 X35.0565 Y-2.6145 Z-3.3689 F1200
G01 X35.0459 Y-2.4788 Z-3.3450 F1200
G01 X35.0592 Y-2.3403 Z-3.3411 F1200
G01 X35.0967 Y-2.2031 Z-3.3584 F1200
G01 X35.1577 Y-2.0715 Z-3.3922 F1200
G01 X35.2409 Y-1.9494 Z-3.4334 F1200
G01 X35.3443 Y-1.8405 Z-3.4711 F1200
G01 X35.4653 Y-1.7482 Z-3.4950 F1200
G01 X35.6008 Y-1.6752 Z-3.4989 F1200
G01 X35.7472 Y-1.6238 Z-3.4816 F1200
G01 X35.9005 Y-1.5956 Z-3.4478 F1200
G01 X36.0567 Y-1.5913 Z-3.4066 F1200
G01 X36.2115 Y-1.6111 Z-3.3689 F1200
G01 X36.3608 Y-1.6544 Z-3.3450 F1200
G01 X36.5006 Y-1.7200 Z-3.3411 F1200
G01 X36.6271 Y-1.8057 Z-3.3584 F1200
G01 X36.7371 Y-1.9090 Z-3.3922 F1200
G01 X36.8277 Y-2.0268 Z-3.4334 F1200
G01 X36.8968 Y-2.1555 Z-3.4711 F1200
G01 X36.9428 Y-2.2912 Z-3.4950 F1200
G01 X36.9647 Y-2.4297 Z-3.4989 F1200
G01 X36.9626 Y-2.5669 Z-3.4816 F1200
G01 X36.9369 Y-2.6985 Z-3.4478 F1200
G01 X36.8890 Y-2.8206 Z-3.4066 F1200
G01 X36.8209 Y-2.9295 Z-3.3689 F1200
G01 X36.7353 Y-3.0218 Z-3.3450 F1200
G01 X36.6351 Y-3.0948 Z-3.3411 F1200
G01 X36.5241 Y-3.1462 Z-3.3584 F1200
G01 X36.4061 Y-3.1744 Z-3.3922 F1200
G01 X36.2853 Y-3.1787 Z-3.4334 F1200
G01 X36.1658 Y-3.1589 Z-3.4711 F1200
G01 X36.0518 Y-3.1156 Z-3.4950 F1200
G01 X35.9474 Y-3.0500 Z-3.4989 F1200
G01 X35.8562 Y-2.9643 Z-3.4816 F1200
G01 X35.7815 Y-2.8610 Z-3.4478 F1200
G01 X35.7262 Y-2.7432 Z-3.4066 F1200
G01 X35.6925 Y-2.6145 Z-3.3689 F1200
G01 X35.6819 Y-2.4788 Z-3.3450 F1200
G01 X35.6952 Y-2.3403 Z-3.3411 F1200
G01 X35.7327 Y-2.2031 Z-3.3584 F1200
G01 X35.7937 Y-2.0715 Z-3.3922 F1200
G01 X35.8769 Y-1.9494 Z-3.4334 F1200
G01 X35.9803 Y-1.8405 Z-3.4711 F1200
G01 X36.1013 Y-1.7482 Z-3.4950 F1200
G01 X36.2368 Y-1.6752 Z-3.4989 F1200
G01 X36.3832 Y-1.6238 Z-3.4816 F1200
G01 X36.5365 Y-1.5956 Z-3.4478 F1200
G01 X36.6927 Y-1.5913 Z-3.4066 F1200
G01 X36.8475 Y-1.6111 Z-3.3689 F1200
G01 X36.9968 Y-1.6544 Z-3.3450 F1200
G01 X37.1366 Y-1.7200 Z-3.3411 F1200
G01 X37.2631 Y-1.8057 Z-3.3584 F1200
G01 X37.3731 Y-1.9090 Z-3.3922 F1200
G01 X37.4637 Y-2.0268 Z-3.4334 F1200
G01 X37.5328 Y-2.1555 Z-3.4711 F1200
G01 X37.5788 Y-2.2912 Z-3.4950 F1200
G01 X37.6007 Y-2.4297 Z-3.4989 F1200
G01 X37.5986 Y-2.5669 Z-3.4816 F1200
G01 X37.5729 Y-2.6985 Z-3.4478 F1200
G01 X37.5250 Y-2.8206 Z-3.4066 F1200
G01 X37.4569 Y-2.9295 Z-3.3689 F1200
G01 X37.3713 Y-3.0218 Z-3.3450 F1200
G01 X37.2711 Y-3.0948 Z-3.3411 F1200
G01 X37.1601 Y-3.1462 Z-3.3584 F1200
G01 X37.0421 Y-3.1744 Z-3.3922 F1200
G01 X36.9213 Y-3.1787 Z-3.4334 F1200
G01 X36.8018 Y-3.1589 Z-3.4711 F1200
G01 X36.6878 Y-3.1156 Z-3.4950 F1200
G01 X36.5834 Y-3.0500 Z-3.4989 F1200
G01 X36.4922 Y-2.9643 Z-3.4816 F1200
G01 X36.4175 Y-2.8610 Z-3.4478 F1200
G01 X36.3622 Y-2.7432 Z-3.4066 F1200
G01 X36.3285 Y-2.6145 Z-3.3689 F1200
G01 X36.3179 Y-2.4788 Z-3.3450 F1200
G01 X36.3312 Y-2.3403 Z-3.3411 F1200
G01 X36.3687 Y-2.2031 Z-3.3584 F1200
G01 X36.4297 Y-2.0715 Z-3.3922 F1200
G01 X36.5129 Y-1.9494 Z-3.4334 F1200
G01 X36.6163 Y-1.8405 Z-3.4711 F1200
G01 X36.7373 Y-1.7482 Z-3.4950 F1200
G01 X36.8728 Y-1.6752 Z-3.4989 F1200
G01 X37.0192 Y-1.6238 Z-3.4816 F1200
G01 X37.1725 Y-1.5956 Z-3.4478 F1200
G01 X37.3287 Y-1.5913 Z-3.4066 F1200
G01 X37.4835 Y-1.6111 Z-3.3689 F1200
G01 X37.6328 Y-1.6544 Z-3.3450 F1200
G01 X37.7726 Y-1.7200 Z-3.3411 F1200
G01 X37.8991 Y-1.8057 Z-3.3584 F1200
G01 X38.0091 Y-1.9090 Z-3.3922 F1200
G01 X38.0997 Y-2.0268 Z-3.4334 F1200
G01 X38.1688 Y-2.1555 Z-3.4711 F1200
G01 X38.2148 Y-2.2912 Z-3.4950 F1200
G01 X38.2367 Y-2.4297 Z-3.4989 F1200
G01 X38.2346 Y-2.5669 Z-3.4816 F1200
G01 X38.2089 Y-2.6985 Z-3.4478 F1200
G01 X38.1610 Y-2.8206 Z-3.4066 F1200
G01 X38.0929 Y-2.9295 Z-3.3689 F1200
G01 X38.0073 Y-3.0218 Z-3.3450 F1200
G01 X37.9071 Y-3.0948 Z-3.3411 F1200
G01 X37.7961 Y-3.1462 Z-3.3584 F1200
G01 X37.6781 Y-3.1744 Z-3.3922 F1200
G01 X37.5573 Y-3.1787 Z-3.4334 F1200
G01 X37.4378 Y-3.1589 Z-3.4711 F1200
G01 X37.3238 Y-3.1156 Z-3.4950 F1200
G01 X37.2194 Y-3.0500 Z-3.4989 F1200
G01 X37.1282 Y-2.9643 Z-3.4816 F1200
G01 X37.0535 Y-2.8610 Z-3.4478 F1200
G01 X36.9982 Y-2.7432 Z-3.4066 F1200
G01 X36.9645 Y-2.6145 Z-3.3689 F1200
G01 X36.9539 Y-2.4788 Z-3.3450 F1200
G01 X36.9672 Y-2.3403 Z-3.3411 F1200
G01 X37.0047 Y-2.2031 Z-3.3584 F1200
G01 X37.0657 Y-2.0715 Z-3.3922 F1200
G01 X37.1489 Y-1.9494 Z-3.4334 F1200
G01 X37.2523 Y-1.8405 Z-3.4711 F1200
G01 X37.3733 Y-1.7482 Z-3.4950 F1200
G01 X37.5088 Y-1.6752 Z-3.4989 F1200
G01 X37.6552 Y-1.6238 Z-3.4816 F1200
G01 X37.8085 Y-1.5956 Z-3.4478 F1200
G01 X37.9647 Y-1.5913 Z-3.4066 F1200
G01 X38.1195 Y-1.6111 Z-3.3689 F1200
G01 X38.2688 Y-1.6544 Z-3.3450 F1200
G01 X38.4086 Y-1.7200 Z-3.3411 F1200
G01 X38.5351 Y-1.8057 Z-3.3584 F1200
G01 X38.6451 Y-1.9090 Z-3.3922 F1200
G01 X38.7357 Y-2.0268 Z-3.4334 F1200
G01 X38.8048 Y-2.1555 Z-3.4711 F1200
G01 X38.8508 Y-2.2912 Z-3.4950 F1200
G01 X38.8727 Y-2.4297 Z-3.4989 F1200
G01 X38.8706 Y-2.5669 Z-3.4816 F1200
G01 X38.8449 Y-2.6985 Z-3.4478 F1200
G01 X38.7970 Y-2.8206 Z-3.4066 F1200
G01 X38.7289 Y-2.9295 Z-3.3689 F1200
G01 X38.6433 Y-3.0218 Z-3.3450 F1200
G01 X38.5431 Y-3.0948 Z-3.3411 F1200
G01 X38.4321 Y-3.1462 Z-3.3584 F1200
G01 X38.3141 Y-3.1744 Z-3.3922 F1200
G01 X38.1933 Y-3.1787 Z-3.4334 F1200
G01 X38.0738 Y-3.1589 Z-3.4711 F1200
G01 X37.9598 Y-3.1156 Z-3.4950 F1200
G01 X37.8554 Y-3.0500 Z-3.4989 F1200
G01 X37.7642 Y-2.9643 Z-3.4816 F1200
G01 X37.6895 Y-2.8610 Z-3.4478 F1200
G01 X37.6342 Y-2.7432 Z-3.4066 F1200
G01 X37.6005 Y-2.6145 Z-3.3689 F1200
G01 X37.5899 Y-2.4788 Z-3.3450 F1200
G01 X37.6032 Y-2.3403 Z-3.3411 F1200
G01 X37.6407 Y-2.2031 Z-3.3584 F1200
G01 X37.7017 Y-2.0715 Z-3.3922 F1200
G01 X37.7849 Y-1.9494 Z-3.4334 F1200
G01 X37.8883 Y-1.8405 Z-3.4711 F1200
G01 X38.0093 Y-1.7482 Z-3.4950 F1200
G01 X38.1448 Y-1.6752 Z-3.4989 F1200
G01 X38.2912 Y-1.6238 Z-3.4816 F1200
G01 X38.4445 Y-1.5956 Z-3.4478 F1200
G01 X38.6007 Y-1.5913 Z-3.4066 F1200
G01 X38.7555 Y-1.6111 Z-3.3689 F1200
G01 X38.9048 Y-1.6544 Z-3.3450 F1200
G01 X39.0446 Y-1.7200 Z-3.3411 F1200
G01 X39.1711 Y-1.8057 Z-3.3584 F1200
G01 X39.2811 Y-1.9090 Z-3.3922 F1200
G01 X39.3717 Y-2.0268 Z-3.4334 F1200
G01 X39.4408 Y-2.1555 Z-3.4711 F1200
G01 X39.4868 Y-2.2912 Z-3.4950 F1200
G01 X39.5087 Y-2.4297 Z-3.4989 F1200
G01 X39.5066 Y-2.5669 Z-3.4816 F1200
G01 X39.4809 Y-2.6985 Z-3.4478 F1200
G01 X39.4330 Y-2.8206 Z-3.4066 F1200
G01 X39.3649 Y-2.9295 Z-3.3689 F1200
G01 X39.2793 Y-3.0218 Z-3.3450 F1200
G01 X39.1791 Y-3.0948 Z-3.3411 F1200
G01 X39.0681 Y-3.1462 Z-3.3584 F1200
G01 X38.9501 Y-3.1744 Z-3.3922 F1200
G01 X38.8293 Y-3.1787 Z-3.4334 F1200
G01 X38.7098 Y-3.1589 Z-3.4711 F1200
G01 X38.5958 Y-3.1156 Z-3.4950 F1200
G01 X38.4914 Y-3.0500 Z-3.4989 F1200
G01 X38.4002 Y-2.9643 Z-3.4816 F1200
G01 X38.3255 Y-2.8610 Z-3.4478 F1200
G01 X38.2702 Y-2.7432 Z-3.4066 F1200
G01 X38.2365 Y-2.6145 Z-3.3689 F1200
G01 X38.2259 Y-2.4788 Z-3.3450 F1200
G01 X38.2392 Y-2.3403 Z-3.3411 F1200
G01 X38.2767 Y-2.2031 Z-3.3584 F1200
G01 X38.3377 Y-2.0715 Z-3.3922 F1200
G01 X38.4209 Y-1.9494 Z-3.4334 F1200
G01 X38.5243 Y-1.8405 Z-3.4711 F1200
G01 X38.6453 Y-1.7482 Z-3.4950 F1200
G01 X38.7808 Y-1.6752 Z-3.4989 F1200
G01 X38.9272 Y-1.6238 Z-3.4816 F1200
G01 X39.0805 Y-1.5956 Z-3.4478 F1200
G01 X39.2367 Y-1.5913 Z-3.4066 F1200
G01 X39.3915 Y-1.6111 Z-3.3689 F1200
G01 X39.5408 Y-1.6544 Z-3.3450 F1200
G01 X39.6806 Y-1.7200 Z-3.3411 F1200
G01 X39.8071 Y-1.8057 Z-3.3584 F1200
G01 X39.9171 Y-1.9090 Z-3.3922 F1200
G01 X40.0077 Y-2.0268 Z-3.4334 F1200
G01 X40.0768 Y-2.1555 Z-3.4711 F1200
G01 X40.1228 Y-2.2912 Z-3.4950 F1200
G01 X40.1447 Y-2.4297 Z-3.4989 F1200
G01 X40.1426 Y-2.5669 Z-3.4816 F1200
G01 X40.1169 Y-2.6985 Z-3.4478 F1200
G01 X40.0690 Y-2.8206 Z-3.4066 F1200
G01 X40.0009 Y-2.9295 Z-3.3689 F1200
G01 X39.9153 Y-3.0218 Z-3.3450 F1200
G01 X39.8151 Y-3.0948 Z-3.3411 F1200
G01 X39.7041 Y-3.1462 Z-3.3584 F1200
G01 X39.5861 Y-3.1744 Z-3.3922 F1200
G01 X39.4653 Y-3.1787 Z-3.4334 F1200
G01 X39.3458 Y-3.1589 Z-3.4711 F1200
G01 X39.2318 Y-3.1156 Z-3.4950 F1200
G01 X39.1274 Y-3.0500 Z-3.4989 F1200
G01 X39.0362 Y-2.9643 Z-3.4816 F1200
G01 X38.9615 Y-2.8610 Z-3.4478 F1200
G01 X38.9062 Y-2.7432 Z-3.4066 F1200
G01 X38.8725 Y-2.6145 Z-3.3689 F1200
G01 X38.8619 Y-2.4788 Z-3.3450 F1200
G01 X38.8752 Y-2.3403 Z-3.3411 F1200
G01 X38.9127 Y-2.2031 Z-3.3584 F1200
G01 X38.9737 Y-2.0715 Z-3.3922 F1200
G01 X39.0569 Y-1.9494 Z-3.4334 F1200
G01 X39.1603 Y-1.8405 Z-3.4711 F1200
G01 X39.2813 Y-1.7482 Z-3.4950 F1200
G01 X39.4168 Y-1.6752 Z-3.4989 F1200
G01 X39.5632 Y-1.6238 Z-3.4816 F1200
G01 X39.7165 Y-1.5956 Z-3.4478 F1200
G01 X39.8727 Y-1.5913 Z-3.4066 F1200
G01 X40.0275 Y-1.6111 Z-3.3689 F1200
G01 X40.1768 Y-1.6544 Z-3.3450 F1200
G01 X40.3166 Y-1.7200 Z-3.3411 F1200
G01 X40.4431 Y-1.8057 Z-3.3584 F1200
G01 X40.5531 Y-1.9090 Z-3.3922 F1200
G01 X40.6437 Y-2.0268 Z-3.4334 F1200
G01 X40.7128 Y-2.1555 Z-3.4711 F1200
G01 X40.7588 Y-2.2912 Z-3.4950 F1200
G01 X40.7807 Y-2.4297 Z-3.4989 F1200
G01 X40.7786 Y-2.5669 Z-3.4816 F1200
G01 X40.7529 Y-2.6985 Z-3.4478 F1200
G01 X40.7050 Y-2.8206 Z-3.4066 F1200
G01 X40.6369 Y-2.9295 Z-3.3689 F1200
G01 X40.5513 Y-3.0218 Z-3.3450 F1200
G01 X40.4511 Y-3.0948 Z-3.3411 F1200
G01 X40.3401 Y-3.1462 Z-3.3584 F1200
G01 X40.2221 Y-3.1744 Z-3.3922 F1200
G01 X40.1013 Y-3.1787 Z-3.4334 F1200
G01 X39.9818 Y-3.1589 Z-3.4711 F1200
G01 X39.8678 Y-3.1156 Z-3.4950 F1200
G01 X39.7634 Y-3.0500 Z-3.4989 F1200
G01 X39.6722 Y-2.9643 Z-3.4816 F1200
G01 X39.5975 Y-2.8610 Z-3.4478 F1200
G01 X39.5422 Y-2.7432 Z-3.4066 F1200
G01 X39.5085 Y-2.6145 Z-3.3689 F1200
G01 X39.4979 Y-2.4788 Z-3.3450 F1200
G01 X39.5112 Y-2.3403 Z-3.3411 F1200
G01 X39.5487 Y-2.2031 Z-3.3584 F1200
G01 X39.6097 Y-2.0715 Z-3.3922 F1200
G01 X39.6929 Y-1.9494 Z-3.4334 F1200
G01 X39.7963 Y-1.8405 Z-3.4711 F1200
G01 X39.9173 Y-1.7482 Z-3.4950 F1200
G01 X40.0528 Y-1.6752 Z-3.4989 F1200
G01 X40.1992 Y-1.6238 Z-3.4816 F1200
G01 X40.3525 Y-1.5956 Z-3.4478 F1200
G01 X40.5087 Y-1.5913 Z-3.4066 F1200
G01 X40.6635 Y-1.6111 Z-3.3689 F1200
G01 X40.8128 Y-1.6544 Z-3.3450 F1200
G01 X40.9526 Y-1.7200 Z-3.3411 F1200
G01 X41.0791 Y-1.8057 Z-3.3584 F1200
G01 X41.1891 Y-1.9090 Z-3.3922 F1200
G01 X41.2797 Y-2.0268 Z-3.4334 F1200
G01 X41.3488 Y-2.1555 Z-3.4711 F1200
G01 X41.3948 Y-2.2912 Z-3.4950 F1200
G01 X41.4167 Y-2.4297 Z-3.4989 F1200
G01 X41.4146 Y-2.5669 Z-3.4816 F1200
G01 X41.3889 Y-2.6985 Z-3.4478 F1200
G01 X41.3410 Y-2.8206 Z-3.4066 F1200
G01 X41.2729 Y-2.9295 Z-3.3689 F1200
G01 X41.1873 Y-3.0218 Z-3.3450 F1200
G01 X41.0871 Y-3.0948 Z-3.3411 F1200
G01 X40.9761 Y-3.1462 Z-3.3584 F1200
G01 X40.8581 Y-3.1744 Z-3.3922 F1200
G01 X40.7373 Y-3.1787 Z-3.4334 F1200
G01 X40.6178 Y-3.1589 Z-3.4711 F1200
G01 X40.5038 Y-3.1156 Z-3.4950 F1200
G01 X40.3994 Y-3.0500 Z-3.4989 F1200
G01 X40.3082 Y-2.9643 Z-3.4816 F1200
G01 X40.2335 Y-2.8610 Z-3.4478 F1200
G01 X40.1782 Y-2.7432 Z-3.4066 F1200
G01 X40.1445 Y-2.6145 Z-3.3689 F1200
G01 X40.1339 Y-2.4788 Z-3.3450 F1200
G01 X40.1472 Y-2.3403 Z-3.3411 F1200
G01 X40.1847 Y-2.2031 Z-3.3584 F1200
G01 X40.2457 Y-2.0715 Z-3.3922 F1200
G01 X40.3289 Y-1.9494 Z-3.4334 F1200
G01 X40.4323 Y-1.8405 Z-3.4711 F1200
G01 X40.5533 Y-1.7482 Z-3.4950 F1200
G01 X40.6888 Y-1.6752 Z-3.4989 F1200
G01 X40.8352 Y-1.6238 Z-3.4816 F1200
G01 X40.9885 Y-1.5956 Z-3.4478 F1200
G01 X41.1447 Y-1.5913 Z-3.4066 F1200
G01 X41.2995 Y-1.6111 Z-3.3689 F1200
G01 X41.4488 Y-1.6544 Z-3.3450 F1200
G01 X41.5886 Y-1.7200 Z-3.3411 F1200
G01 X41.7151 Y-1.8057 Z-3.3584 F1200
G01 X41.8251 Y-1.9090 Z-3.3922 F1200
G01 X41.9157 Y-2.0268 Z-3.4334 F1200
G01 X41.9848 Y-2.1555 Z-3.4711 F1200
G01 X42.0308 Y-2.2912 Z-3.4950 F1200
G01 X42.0527 Y-2.4297 Z-3.4989 F1200
G01 X42.0506 Y-2.5669 Z-3.4816 F1200
G01 X42.0249 Y-2.6985 Z-3.4478 F1200
G01 X41.9770 Y-2.8206 Z-3.4066 F1200
G01 X41.9089 Y-2.9295 Z-3.3689 F1200
G01 X41.8233 Y-3.0218 Z-3.3450 F1200
G01 X41.7231 Y-3.0948 Z-3.3411 F1200
G01 X41.6121 Y-3.1462 Z-3.3584 F1200
G01 X41.4941 Y-3.1744 Z-3.3922 F1200
G01 X41.3733 Y-3.1787 Z-3.4334 F1200
G01 X41.2538 Y-3.1589 Z-3.4711 F1200
G01 X41.1398 Y-3.1156 Z-3.4950 F1200
G01 X41.0354 Y-3.0500 Z-3.4989 F1200
G01 X40.9442 Y-2.9643 Z-3.4816 F1200
G01 X40.8695 Y-2.8610 Z-3.4478 F1200
G01 X40.8142 Y-2.7432 Z-3.4066 F1200
G01 X40.7805 Y-2.6145 Z-3.3689 F1200
G01 X40.7699 Y-2.4788 Z-3.3450 F1200
G01 X40.7832 Y-2.3403 Z-3.3411 F1200
G01 X40.8207 Y-2.2031 Z-3.3584 F1200
G01 X40.8817 Y-2.0715 Z-3.3922 F1200
G01 X40.9649 Y-1.9494 Z-3.4334 F1200
G01 X41.0683 Y-1.8405 Z-3.4711 F1200
G01 X41.1893 Y-1.7482 Z-3.4950 F1200
G01 X41.3248 Y-1.6752 Z-3.4989 F1200
G01 X41.4712 Y-1.6238 Z-3.4816 F1200
G01 X41.6245 Y-1.5956 Z-3.4478 F1200
G01 X41.7807 Y-1.5913 Z-3.4066 F1200
G01 X41.9355 Y-1.6111 Z-3.3689 F1200
G01 X42.0848 Y-1.6544 Z-3.3450 F1200
G01 X42.2246 Y-1.7200 Z-3.3411 F1200
G01 X42.3511 Y-1.8057 Z-3.3584 F1200
G01 X42.4611 Y-1.9090 Z-3.3922 F1200
G01 X42.5517 Y-2.0268 Z-3.4334 F1200
G01 X42.6208 Y-2.1555 Z-3.4711 F1200
G01 X42.6668 Y-2.2912 Z-3.4950 F1200
G01 X42.6887 Y-2.4297 Z-3.4989 F1200
G01 X42.6866 Y-2.5669 Z-3.4816 F1200
G01 X42.6609 Y-2.6985 Z-3.4478 F1200
G01 X42.6130 Y-2.8206 Z-3.4066 F1200
G01 X42.5449 Y-2.9295 Z-3.3689 F1200
G01 X42.4593 Y-3.0218 Z-3.3450 F1200
G01 X42.3591 Y-3.0948 Z-3.3411 F1200
G01 X42.2481 Y-3.1462 Z-3.3584 F1200
G01 X42.1301 Y-3.1744 Z-3.3922 F1200
G01 X42.0093 Y-3.1787 Z-3.4334 F1200
G01 X41.8898 Y-3.1589 Z-3.4711 F1200
G01 X41.7758 Y-3.1156 Z-3.4950 F1200
G01 X41.6714 Y-3.0500 Z-3.4989 F1200
G01 X41.5802 Y-2.9643 Z-3.4816 F1200
G01 X41.5055 Y-2.8610 Z-3.4478 F1200
G01 X41.4502 Y-2.7432 Z-3.4066 F1200
G01 X41.4165 Y-2.6145 Z-3.3689 F1200
G01 X41.4059 Y-2.4788 Z-3.3450 F1200
G01 X41.4192 Y-2.3403 Z-3.3411 F1200
G01 X41.4567 Y-2.2031 Z-3.3584 F1200
G01 X41.5177 Y-2.0715 Z-3.3922 F1200
G01 X41.6009 Y-1.9494 Z-3.4334 F1200
G01 X41.7043 Y-1.8405 Z-3.4711 F1200
G01 X41.8253 Y-1.7482 Z-3.4950 F1200
G01 X41.9608 Y-1.6752 Z-3.4989 F1200
G01 X42.1072 Y-1.6238 Z-3.4816 F1200
G01 X42.2605 Y-1.5956 Z-3.4478 F1200
G01 X42.4167 Y-1.5913 Z-3.4066 F1200
