;Project 250-panel-bot
;Created by Estlcam version 11 build 11.245
;Machining time about 00:04:03 hours

G90
M03 S10000
G00 X0.0000 Y0.0000 Z0.0000 F1500
G00 Z6.0000 F480


;No. 1: Part 1
G00 X-1.6900 Y19.0000 F1500
G00 Z0.5000 F480
G01 Z0.0000 F120 S10000
G03 X-1.5923 Y18.4338 Z-0.5000 I1.6900 J0.0000 F120
G02 X-1.6900 Y19.0000 Z-1.0000 I1.5923 J0.5662 F120
G03 X0.0000 Y17.3100 I1.6900 J0.0000 F900
G01 X17.3100 F900
G01 X17.8757 Y17.8757 F900
G01 X17.3100 Y17.3100 F900
G01 Y0.0000 F900
G03 X19.0000 Y-1.6900 I1.6900 J0.0000 F900
G01 X442.1750 F900
G03 X443.8650 Y0.0000 I0.0000 J1.6900 F900
G01 Y17.3100 F900
G01 X443.2993 Y17.8757 F900
G01 X443.8650 Y17.3100 F900
G01 X461.1750 F900
G03 X462.8650 Y19.0000 I0.0000 J1.6900 F900
G01 Y414.0000 F900
G03 X461.1750 Y415.6900 I-1.6900 J0.0000 F900
G01 X443.8650 F900
G01 X443.2993 Y415.1243 F900
G01 X443.8650 Y415.6900 F900
G01 Y433.0000 F900
G03 X442.1750 Y434.6900 I-1.6900 J0.0000 F900
G01 X19.0000 F900
G03 X17.3100 Y433.0000 I0.0000 J-1.6900 F900
G01 Y415.6900 F900
G01 X17.8757 Y415.1243 F900
G01 X17.3100 Y415.6900 F900
G01 X0.0000 F900
G03 X-1.6900 Y414.0000 I0.0000 J-1.6900 F900
G01 Y19.0000 F900
G00 Z6.0000 F480


;No. 2: Part 1
G00 X-1.6900 Y19.0000 Z6.0000 F1500
G00 Z0.5000 F480
G01 Z-1.0000 F120
G01 X-1.5900 F900
G03 X0.0000 Y17.4100 I1.5900 J0.0000 F900
G01 X17.4100 F900
G01 X17.8757 Y17.8757 F900
G01 X17.4100 Y17.4100 F900
G01 Y0.0000 F900
G03 X19.0000 Y-1.5900 I1.5900 J0.0000 F900
G01 X442.1750 F900
G03 X443.7650 Y0.0000 I0.0000 J1.5900 F900
G01 Y17.4100 F900
G01 X443.2993 Y17.8757 F900
G01 X443.7650 Y17.4100 F900
G01 X461.1750 F900
G03 X462.7650 Y19.0000 I0.0000 J1.5900 F900
G01 Y414.0000 F900
G03 X461.1750 Y415.5900 I-1.5900 J0.0000 F900
G01 X443.7650 F900
G01 X443.2993 Y415.1243 F900
G01 X443.7650 Y415.5900 F900
G01 Y433.0000 F900
G03 X442.1750 Y434.5900 I-1.5900 J0.0000 F900
G01 X19.0000 F900
G03 X17.4100 Y433.0000 I0.0000 J-1.5900 F900
G01 Y415.5900 F900
G01 X17.8757 Y415.1243 F900
G01 X17.4100 Y415.5900 F900
G01 X0.0000 F900
G03 X-1.5900 Y414.0000 I0.0000 J-1.5900 F900
G01 Y19.0000 F900
G01 X-1.6900 F900
G00 Z0.0000 F480
G00 Z6.0000 F480
G00 X0.0000 Y0.0000 F1500

M05
