;Project 250-panel-ext
;Created by Estlcam version 11 build 11.245
;Machining time about 00:14:30 hours

G90
M03 S10000
G00 X0.0000 Y0.0000 Z0.0000 F1500
G00 Z8.0000 F480


;No. 1: Drill 1
G00 F1500
G00 Z0.5000 F480
G01 Z-3.5000 F120 S10000
G00 Z8.0000 F480


;No. 2: Drill 8
G00 X0.0000 Y395.0000 Z8.0000 F1500
G00 Z0.5000 F480
G01 Z-3.5000 F120
G00 Z8.0000 F480


;No. 3: Drill 7
G00 X434.9991 Y395.0075 Z8.0000 F1500
G00 Z0.5000 F480
G01 Z-3.5000 F120
G00 Z8.0000 F480


;No. 4: Drill 3
G00 X434.9710 Y-0.0057 Z8.0000 F1500
G00 Z0.5000 F480
G01 Z-3.5000 F120
G00 Z8.0000 F480
G00 X0.0000 Y0.0000 F1500

M05
