;Project 250-panel-bot
;Created by Estlcam version 11 build 11.245
;Machining time about 00:24:47 hours

G90
M03 S10000
G00 X0.0000 Y0.0000 Z0.0000 F1500
G00 Z6.0000 F480


;No. 1: Drill 1
G00 F1500
G00 Z0.5000 F480
G01 Z-6.0000 F120 S10000
G00 Z0.5000 F480
G00 Z-5.5000 F480
G01 Z-12.0000 F120
G00 Z0.5000 F480
G00 Z-11.5000 F480
G01 Z-18.0000 F120
G00 Z0.5000 F480
G00 Z-17.5000 F480
G01 Z-19.0000 F120
G00 Z6.0000 F480


;No. 2: Hole 35
G00 X6.4506 Y45.1840 Z6.0000 F1500
G00 Z0.5000 F480
G01 Z0.0000 F120
G01 X9.9147 Z-3.0000 F120
G01 X6.4506 Z-6.0000 F120
G01 X11.5494 F900
G01 X12.8194 Y46.4560 F900
G01 X5.1806 F900
G01 X4.5915 Y47.7280 F900
G01 X13.4085 F900
G01 X13.5907 Y49.0000 F900
G01 X4.4093 F900
G01 X4.5915 Y50.2720 F900
G01 X13.4085 F900
G01 X12.8194 Y51.5440 F900
G01 X5.1806 F900
G01 X6.4506 Y52.8160 F900
G01 X11.5494 F900
G01 X11.6347 Y53.1380 F900
G02 X6.5456 Y44.7488 I-2.6342 J-4.1402 F900
G02 X11.6347 Y53.1380 I2.4521 J4.2507 F900
G01 X11.5494 Y52.8160 F900
G01 X10.6834 Z-6.7500 F120
G01 X11.5494 Z-7.5000 F120
G01 X6.4506 F900
G01 X5.1806 Y51.5440 F900
G01 X12.8194 F900
G01 X13.4085 Y50.2720 F900
G01 X4.5915 F900
G01 X4.4093 Y49.0000 F900
G01 X13.5907 F900
G01 X13.4085 Y47.7280 F900
G01 X4.5915 F900
G01 X5.1806 Y46.4560 F900
G01 X12.8194 F900
G01 X11.5494 Y45.1840 F900
G01 X6.4506 F900
G01 X6.3653 Y44.8620 F900
G02 X11.4544 Y53.2512 I2.6342 J4.1402 F900
G02 X6.3653 Y44.8620 I-2.4521 J-4.2507 F900
G01 X6.4506 Y45.1840 F900
G00 Z6.0000 F480


;No. 3: Hole 36
G00 X7.9087 Y49.0000 Z6.0000 F1500
G00 Z0.5000 F480
G01 Z0.0000 F120
G01 X10.0913 Z-1.8902 F120
G01 X10.4084 Y49.0377 Z-2.1667 F120
G02 X10.1166 Y48.1404 Z-3.0000 I-1.4086 J-0.0380 F120
G03 X10.4084 Y49.0377 Z-3.8333 I-1.1168 J0.8593 F120
G01 X10.0913 Y49.0000 Z-4.1098 F120
G01 X7.9087 Z-6.0000 F120
G01 X10.0913 F900
G01 X10.4084 Y49.0377 F900
G02 X7.5927 Y48.9237 I-1.4086 J-0.0380 F900
G02 X10.4084 Y49.0377 I1.4071 J0.0766 F900
G01 X10.0913 Y49.0000 F900
G01 X7.9087 Z-7.8902 F120
G01 X7.5916 Y48.9623 Z-8.1667 F120
G02 X7.8834 Y49.8596 Z-9.0000 I1.4086 J0.0380 F120
G03 X7.5916 Y48.9623 Z-9.8333 I1.1168 J-0.8593 F120
G01 X7.9087 Y49.0000 Z-10.1098 F120
G01 X10.0913 Z-12.0000 F120
G01 X7.9087 F900
G01 X7.5916 Y48.9623 F900
G02 X10.4073 Y49.0763 I1.4086 J0.0380 F900
G02 X7.5916 Y48.9623 I-1.4071 J-0.0766 F900
G01 X7.9087 Y49.0000 F900
G01 X10.0913 Z-13.8902 F120
G01 X10.4084 Y49.0377 Z-14.1667 F120
G02 X10.1166 Y48.1404 Z-15.0000 I-1.4086 J-0.0380 F120
G03 X10.4084 Y49.0377 Z-15.8333 I-1.1168 J0.8593 F120
G01 X10.0913 Y49.0000 Z-16.1098 F120
G01 X7.9087 Z-18.0000 F120
G01 X10.0913 F900
G01 X10.4084 Y49.0377 F900
G02 X7.5927 Y48.9237 I-1.4086 J-0.0380 F900
G02 X10.4084 Y49.0377 I1.4071 J0.0766 F900
G01 X10.0913 Y49.0000 F900
G01 X9.5139 Z-18.5000 F120
G01 X10.0913 Z-19.0000 F120
G01 X7.9087 F900
G01 X7.5916 Y48.9623 F900
G02 X10.4073 Y49.0763 I1.4086 J0.0380 F900
G02 X7.5916 Y48.9623 I-1.4071 J-0.0766 F900
G01 X7.9087 Y49.0000 F900
G00 Z6.0000 F480


;No. 4: Hole 33
G00 X44.1459 Y8.2684 Z6.0000 F1500
G00 Z0.5000 F480
G01 Z0.0000 F120
G02 X44.8307 Y11.5912 Z-3.0000 I4.8541 J0.7316 F120
G03 X44.1459 Y8.2684 Z-6.0000 I4.1693 J-2.5912 F120
G02 X50.7934 Y13.5696 I4.8541 J0.7316 F900
G02 X52.0606 Y5.1621 I-1.7934 J-4.5696 F900
G02 X44.1459 Y8.2684 I-3.0606 J3.8379 F900
G02 X44.0929 Y9.1316 Z-6.7500 I4.8541 J0.7316 F120
G03 X44.1459 Y8.2684 Z-7.5000 I4.9071 J-0.1316 F120
G02 X50.7934 Y13.5696 I4.8541 J0.7316 F900
G02 X52.0606 Y5.1621 I-1.7934 J-4.5696 F900
G02 X44.1459 Y8.2684 I-3.0606 J3.8379 F900
G00 Z6.0000 F480


;No. 5: Hole 34
G00 X47.9106 Y9.0000 Z6.0000 F1500
G00 Z0.5000 F480
G01 Z0.0000 F120
G01 X50.0894 Z-1.8869 F120
G01 X50.4041 Y8.9292 Z-2.1662 F120
G02 X50.0436 Y8.0567 Z-3.0000 I-1.4051 J0.0699 F120
G03 X50.4041 Y8.9292 Z-3.8338 I-1.0445 J0.9424 F120
G01 X50.0894 Y9.0000 Z-4.1131 F120
G01 X47.9106 Z-6.0000 F120
G01 X50.0894 F900
G01 X50.4041 Y8.9292 F900
G02 X47.5922 Y9.0000 I-1.4051 J0.0699 F900
G02 X50.4041 Y8.9292 I1.4069 J0.0010 F900
G01 X50.0894 Y9.0000 F900
G01 X47.9106 Z-7.8869 F120
G01 X47.5959 Y8.9292 Z-8.1662 F120
G02 X47.8669 Y9.8336 Z-9.0000 I1.4050 J0.0717 F120
G03 X47.5959 Y8.9292 Z-9.8338 I1.1340 J-0.8326 F120
G01 X47.9106 Y9.0000 Z-10.1131 F120
G01 X50.0894 Z-12.0000 F120
G01 X47.9106 F900
G01 X47.5959 Y8.9292 F900
G02 X50.4001 Y9.1472 I1.4050 J0.0717 F900
G02 X47.5959 Y8.9292 I-1.3991 J-0.1481 F900
G01 X47.9106 Y9.0000 F900
G01 X50.0894 Z-13.8869 F120
G01 X50.4041 Y8.9292 Z-14.1662 F120
G02 X50.0436 Y8.0567 Z-15.0000 I-1.4051 J0.0699 F120
G03 X50.4041 Y8.9292 Z-15.8338 I-1.0445 J0.9424 F120
G01 X50.0894 Y9.0000 Z-16.1131 F120
G01 X47.9106 Z-18.0000 F120
G01 X50.0894 F900
G01 X50.4041 Y8.9292 F900
G02 X47.5922 Y9.0000 I-1.4051 J0.0699 F900
G02 X50.4041 Y8.9292 I1.4069 J0.0010 F900
G01 X50.0894 Y9.0000 F900
G01 X49.5120 Z-18.5000 F120
G01 X50.0894 Z-19.0000 F120
G01 X47.9106 F900
G01 X47.5959 Y8.9292 F900
G02 X50.4001 Y9.1472 I1.4050 J0.0717 F900
G02 X47.5959 Y8.9292 I-1.3991 J-0.1481 F900
G01 X47.9106 Y9.0000 F900
G00 Z6.0000 F480


;No. 6: Hole 30
G00 X134.4093 Y9.0000 Z6.0000 F1500
G00 Z0.5000 F480
G01 Z0.0000 F120
G01 X137.8734 Z-3.0000 F120
G01 X134.4093 Z-6.0000 F120
G01 X143.5907 F900
G01 X143.4085 Y7.7280 F900
G01 X134.5915 F900
G01 X135.1806 Y6.4560 F900
G01 X142.8194 F900
G01 X141.5494 Y5.1840 F900
G01 X136.4506 F900
G01 X134.5915 Y10.2720 F900
G01 X143.4085 F900
G01 X142.8194 Y11.5440 F900
G01 X135.1806 F900
G01 X136.4506 Y12.8160 F900
G01 X141.5494 F900
G01 X141.6347 Y13.1380 F900
G02 X136.5456 Y4.7488 I-2.6342 J-4.1402 F900
G02 X141.6347 Y13.1380 I2.4521 J4.2507 F900
G01 X141.5494 Y12.8160 F900
G01 X140.6834 Z-6.7500 F120
G01 X141.5494 Z-7.5000 F120
G01 X136.4506 F900
G01 X135.1806 Y11.5440 F900
G01 X142.8194 F900
G01 X143.4085 Y10.2720 F900
G01 X134.5915 F900
G01 X134.4093 Y9.0000 F900
G01 X143.5907 F900
G01 X143.4085 Y7.7280 F900
G01 X134.5915 F900
G01 X135.1806 Y6.4560 F900
G01 X142.8194 F900
G01 X141.5494 Y5.1840 F900
G01 X136.4506 F900
G01 X136.3653 Y4.8620 F900
G02 X141.4544 Y13.2512 I2.6342 J4.1402 F900
G02 X136.3653 Y4.8620 I-2.4521 J-4.2507 F900
G01 X136.4506 Y5.1840 F900
G00 Z6.0000 F480


;No. 7: Hole 31
G00 X137.9087 Y9.0000 Z6.0000 F1500
G00 Z0.5000 F480
G01 Z0.0000 F120
G01 X140.0913 Z-1.8902 F120
G01 X140.4084 Y8.9623 Z-2.1667 F120
G02 X140.0689 Y8.0819 Z-3.0000 I-1.4087 J0.0375 F120
G03 X140.4084 Y8.9623 Z-3.8333 I-1.0692 J0.9179 F120
G01 X140.0913 Y9.0000 Z-4.1098 F120
G01 X137.9087 Z-6.0000 F120
G01 X140.0913 F900
G01 X140.4084 Y8.9623 F900
G02 X137.5906 Y9.0000 I-1.4087 J0.0375 F900
G02 X140.4084 Y8.9623 I1.4092 J0.0003 F900
G01 X140.0913 Y9.0000 F900
G01 X137.9087 Z-7.8902 F120
G01 X137.5916 Y8.9623 Z-8.1667 F120
G02 X137.8834 Y9.8596 Z-9.0000 I1.4086 J0.0380 F120
G03 X137.5916 Y8.9623 Z-9.8333 I1.1168 J-0.8593 F120
G01 X137.9087 Y9.0000 Z-10.1098 F120
G01 X140.0913 Z-12.0000 F120
G01 X137.9087 F900
G01 X137.5916 Y8.9623 F900
G02 X140.4073 Y9.0763 I1.4086 J0.0380 F900
G02 X137.5916 Y8.9623 I-1.4071 J-0.0766 F900
G01 X137.9087 Y9.0000 F900
G01 X140.0913 Z-13.8902 F120
G01 X140.4084 Y8.9623 Z-14.1667 F120
G02 X140.0689 Y8.0819 Z-15.0000 I-1.4087 J0.0375 F120
G03 X140.4084 Y8.9623 Z-15.8333 I-1.0692 J0.9179 F120
G01 X140.0913 Y9.0000 Z-16.1098 F120
G01 X137.9087 Z-18.0000 F120
G01 X140.0913 F900
G01 X140.4084 Y8.9623 F900
G02 X137.5906 Y9.0000 I-1.4087 J0.0375 F900
G02 X140.4084 Y8.9623 I1.4092 J0.0003 F900
G01 X140.0913 Y9.0000 F900
G01 X139.5139 Z-18.5000 F120
G01 X140.0913 Z-19.0000 F120
G01 X137.9087 F900
G01 X137.5916 Y8.9623 F900
G02 X140.4073 Y9.0763 I1.4086 J0.0380 F900
G02 X137.5916 Y8.9623 I-1.4071 J-0.0766 F900
G01 X137.9087 Y9.0000 F900
G00 Z6.0000 F480


;No. 8: Hole 28
G00 X225.9968 Y9.0000 Z6.0000 F1500
G00 Z0.5000 F480
G01 Z0.0000 F120
G01 X229.4609 Z-3.0000 F120
G01 X225.9968 Z-6.0000 F120
G01 X235.1782 F900
G01 X234.9960 Y7.7280 F900
G01 X226.1790 F900
G01 X226.7681 Y6.4560 F900
G01 X234.4069 F900
G01 X233.1369 Y5.1840 F900
G01 X228.0381 F900
G01 X226.1790 Y10.2720 F900
G01 X234.9960 F900
G01 X234.4069 Y11.5440 F900
G01 X226.7681 F900
G01 X228.0381 Y12.8160 F900
G01 X233.1369 F900
G01 X233.2222 Y13.1380 F900
G02 X228.1331 Y4.7488 I-2.6342 J-4.1402 F900
G02 X233.2222 Y13.1380 I2.4521 J4.2507 F900
G01 X233.1369 Y12.8160 F900
G01 X232.2709 Z-6.7500 F120
G01 X233.1369 Z-7.5000 F120
G01 X228.0381 F900
G01 X226.7681 Y11.5440 F900
G01 X234.4069 F900
G01 X234.9960 Y10.2720 F900
G01 X226.1790 F900
G01 X225.9968 Y9.0000 F900
G01 X235.1782 F900
G01 X234.9960 Y7.7280 F900
G01 X226.1790 F900
G01 X226.7681 Y6.4560 F900
G01 X234.4069 F900
G01 X233.1369 Y5.1840 F900
G01 X228.0381 F900
G01 X227.9528 Y4.8620 F900
G02 X233.0419 Y13.2512 I2.6342 J4.1402 F900
G02 X227.9528 Y4.8620 I-2.4521 J-4.2507 F900
G01 X228.0381 Y5.1840 F900
G00 Z6.0000 F480


;No. 9: Hole 29
G00 X229.4981 Y9.0000 Z6.0000 F1500
G00 Z0.5000 F480
G01 Z0.0000 F120
G01 X231.6769 Z-1.8869 F120
G01 X231.9916 Y8.9292 Z-2.1662 F120
G02 X231.6311 Y8.0567 Z-3.0000 I-1.4051 J0.0699 F120
G03 X231.9916 Y8.9292 Z-3.8338 I-1.0445 J0.9424 F120
G01 X231.6769 Y9.0000 Z-4.1131 F120
G01 X229.4981 Z-6.0000 F120
G01 X231.6769 F900
G01 X231.9916 Y8.9292 F900
G02 X229.1797 Y9.0000 I-1.4051 J0.0699 F900
G02 X231.9916 Y8.9292 I1.4069 J0.0010 F900
G01 X231.6769 Y9.0000 F900
G01 X229.4981 Z-7.8869 F120
G01 X229.1834 Y9.0708 Z-8.1662 F120
G02 X229.5439 Y9.9433 Z-9.0000 I1.4051 J-0.0699 F120
G03 X229.1834 Y9.0708 Z-9.8338 I1.0445 J-0.9424 F120
G01 X229.4981 Y9.0000 Z-10.1131 F120
G01 X231.6769 Z-12.0000 F120
G01 X229.4981 F900
G01 X229.1834 Y9.0708 F900
G02 X231.9953 Y9.0000 I1.4051 J-0.0699 F900
G02 X229.1834 Y9.0708 I-1.4069 J-0.0010 F900
G01 X229.4981 Y9.0000 F900
G01 X231.6769 Z-13.8869 F120
G01 X231.9916 Y8.9292 Z-14.1662 F120
G02 X231.6311 Y8.0567 Z-15.0000 I-1.4051 J0.0699 F120
G03 X231.9916 Y8.9292 Z-15.8338 I-1.0445 J0.9424 F120
G01 X231.6769 Y9.0000 Z-16.1131 F120
G01 X229.4981 Z-18.0000 F120
G01 X231.6769 F900
G01 X231.9916 Y8.9292 F900
G02 X229.1797 Y9.0000 I-1.4051 J0.0699 F900
G02 X231.9916 Y8.9292 I1.4069 J0.0010 F900
G01 X231.6769 Y9.0000 F900
G01 X231.0995 Z-18.5000 F120
G01 X231.6769 Z-19.0000 F120
G01 X229.4981 F900
G01 X229.1834 Y9.0708 F900
G02 X231.9953 Y9.0000 I1.4051 J-0.0699 F900
G02 X229.1834 Y9.0708 I-1.4069 J-0.0010 F900
G01 X229.4981 Y9.0000 F900
G00 Z6.0000 F480


;No. 10: Hole 25
G00 X317.5843 Y9.0000 Z6.0000 F1500
G00 Z0.5000 F480
G01 Z0.0000 F120
G01 X321.0484 Z-3.0000 F120
G01 X317.5843 Z-6.0000 F120
G01 X326.7657 F900
G01 X326.5835 Y7.7280 F900
G01 X317.7665 F900
G01 X318.3556 Y6.4560 F900
G01 X325.9944 F900
G01 X324.7244 Y5.1840 F900
G01 X319.6256 F900
G01 X317.7665 Y10.2720 F900
G01 X326.5835 F900
G01 X325.9944 Y11.5440 F900
G01 X318.3556 F900
G01 X319.6256 Y12.8160 F900
G01 X324.7244 F900
G01 X324.8097 Y13.1380 F900
G02 X319.7206 Y4.7488 I-2.6342 J-4.1402 F900
G02 X324.8097 Y13.1380 I2.4521 J4.2507 F900
G01 X324.7244 Y12.8160 F900
G01 X323.8584 Z-6.7500 F120
G01 X324.7244 Z-7.5000 F120
G01 X319.6256 F900
G01 X318.3556 Y11.5440 F900
G01 X325.9944 F900
G01 X326.5835 Y10.2720 F900
G01 X317.7665 F900
G01 X317.5843 Y9.0000 F900
G01 X326.7657 F900
G01 X326.5835 Y7.7280 F900
G01 X317.7665 F900
G01 X318.3556 Y6.4560 F900
G01 X325.9944 F900
G01 X324.7244 Y5.1840 F900
G01 X319.6256 F900
G01 X319.5403 Y4.8620 F900
G02 X324.6294 Y13.2512 I2.6342 J4.1402 F900
G02 X319.5403 Y4.8620 I-2.4521 J-4.2507 F900
G01 X319.6256 Y5.1840 F900
G00 Z6.0000 F480


;No. 11: Hole 26
G00 X321.0856 Y9.0000 Z6.0000 F1500
G00 Z0.5000 F480
G01 Z0.0000 F120
G01 X323.2644 Z-1.8869 F120
G01 X323.5791 Y8.9292 Z-2.1662 F120
G02 X323.2186 Y8.0567 Z-3.0000 I-1.4051 J0.0699 F120
G03 X323.5791 Y8.9292 Z-3.8338 I-1.0445 J0.9424 F120
G01 X323.2644 Y9.0000 Z-4.1131 F120
G01 X321.0856 Z-6.0000 F120
G01 X323.2644 F900
G01 X323.5791 Y8.9292 F900
G02 X320.7672 Y9.0000 I-1.4051 J0.0699 F900
G02 X323.5791 Y8.9292 I1.4069 J0.0010 F900
G01 X323.2644 Y9.0000 F900
G01 X321.0856 Z-7.8869 F120
G01 X320.7709 Y8.9292 Z-8.1662 F120
G02 X321.0419 Y9.8336 Z-9.0000 I1.4050 J0.0717 F120
G03 X320.7709 Y8.9292 Z-9.8338 I1.1340 J-0.8326 F120
G01 X321.0856 Y9.0000 Z-10.1131 F120
G01 X323.2644 Z-12.0000 F120
G01 X321.0856 F900
G01 X320.7709 Y8.9292 F900
G02 X323.5751 Y9.1472 I1.4050 J0.0717 F900
G02 X320.7709 Y8.9292 I-1.3991 J-0.1481 F900
G01 X321.0856 Y9.0000 F900
G01 X323.2644 Z-13.8869 F120
G01 X323.5791 Y8.9292 Z-14.1662 F120
G02 X323.2186 Y8.0567 Z-15.0000 I-1.4051 J0.0699 F120
G03 X323.5791 Y8.9292 Z-15.8338 I-1.0445 J0.9424 F120
G01 X323.2644 Y9.0000 Z-16.1131 F120
G01 X321.0856 Z-18.0000 F120
G01 X323.2644 F900
G01 X323.5791 Y8.9292 F900
G02 X320.7672 Y9.0000 I-1.4051 J0.0699 F900
G02 X323.5791 Y8.9292 I1.4069 J0.0010 F900
G01 X323.2644 Y9.0000 F900
G01 X322.6870 Z-18.5000 F120
G01 X323.2644 Z-19.0000 F120
G01 X321.0856 F900
G01 X320.7709 Y8.9292 F900
G02 X323.5751 Y9.1472 I1.4050 J0.0717 F900
G02 X320.7709 Y8.9292 I-1.3991 J-0.1481 F900
G01 X321.0856 Y9.0000 F900
G00 Z6.0000 F480


;No. 12: Hole 23
G00 X407.5843 Y9.0000 Z6.0000 F1500
G00 Z0.5000 F480
G01 Z0.0000 F120
G01 X411.0484 Z-3.0000 F120
G01 X407.5843 Z-6.0000 F120
G01 X416.7657 F900
G01 X416.5835 Y7.7280 F900
G01 X407.7665 F900
G01 X408.3556 Y6.4560 F900
G01 X415.9944 F900
G01 X414.7244 Y5.1840 F900
G01 X409.6256 F900
G01 X407.7665 Y10.2720 F900
G01 X416.5835 F900
G01 X415.9944 Y11.5440 F900
G01 X408.3556 F900
G01 X409.6256 Y12.8160 F900
G01 X414.7244 F900
G01 X414.8097 Y13.1380 F900
G02 X409.7206 Y4.7488 I-2.6342 J-4.1402 F900
G02 X414.8097 Y13.1380 I2.4521 J4.2507 F900
G01 X414.7244 Y12.8160 F900
G01 X413.8584 Z-6.7500 F120
G01 X414.7244 Z-7.5000 F120
G01 X409.6256 F900
G01 X408.3556 Y11.5440 F900
G01 X415.9944 F900
G01 X416.5835 Y10.2720 F900
G01 X407.7665 F900
G01 X407.5843 Y9.0000 F900
G01 X416.7657 F900
G01 X416.5835 Y7.7280 F900
G01 X407.7665 F900
G01 X408.3556 Y6.4560 F900
G01 X415.9944 F900
G01 X414.7244 Y5.1840 F900
G01 X409.6256 F900
G01 X409.5403 Y4.8620 F900
G02 X414.6294 Y13.2512 I2.6342 J4.1402 F900
G02 X409.5403 Y4.8620 I-2.4521 J-4.2507 F900
G01 X409.6256 Y5.1840 F900
G00 Z6.0000 F480


;No. 13: Hole 24
G00 X411.0837 Y9.0000 Z6.0000 F1500
G00 Z0.5000 F480
G01 Z0.0000 F120
G01 X413.2663 Z-1.8902 F120
G01 X413.5834 Y9.0377 Z-2.1667 F120
G02 X413.2916 Y8.1404 Z-3.0000 I-1.4086 J-0.0380 F120
G03 X413.5834 Y9.0377 Z-3.8333 I-1.1168 J0.8593 F120
G01 X413.2663 Y9.0000 Z-4.1098 F120
G01 X411.0837 Z-6.0000 F120
G01 X413.2663 F900
G01 X413.5834 Y9.0377 F900
G02 X410.7677 Y8.9237 I-1.4086 J-0.0380 F900
G02 X413.5834 Y9.0377 I1.4071 J0.0766 F900
G01 X413.2663 Y9.0000 F900
G01 X411.0837 Z-7.8902 F120
G01 X410.7666 Y9.0377 Z-8.1667 F120
G02 X411.1061 Y9.9181 Z-9.0000 I1.4087 J-0.0375 F120
G03 X410.7666 Y9.0377 Z-9.8333 I1.0692 J-0.9179 F120
G01 X411.0837 Y9.0000 Z-10.1098 F120
G01 X413.2663 Z-12.0000 F120
G01 X411.0837 F900
G01 X410.7666 Y9.0377 F900
G02 X413.5844 Y9.0000 I1.4087 J-0.0375 F900
G02 X410.7666 Y9.0377 I-1.4092 J-0.0003 F900
G01 X411.0837 Y9.0000 F900
G01 X413.2663 Z-13.8902 F120
G01 X413.5834 Y9.0377 Z-14.1667 F120
G02 X413.2916 Y8.1404 Z-15.0000 I-1.4086 J-0.0380 F120
G03 X413.5834 Y9.0377 Z-15.8333 I-1.1168 J0.8593 F120
G01 X413.2663 Y9.0000 Z-16.1098 F120
G01 X411.0837 Z-18.0000 F120
G01 X413.2663 F900
G01 X413.5834 Y9.0377 F900
G02 X410.7677 Y8.9237 I-1.4086 J-0.0380 F900
G02 X413.5834 Y9.0377 I1.4071 J0.0766 F900
G01 X413.2663 Y9.0000 F900
G01 X412.6889 Z-18.5000 F120
G01 X413.2663 Z-19.0000 F120
G01 X411.0837 F900
G01 X410.7666 Y9.0377 F900
G02 X413.5844 Y9.0000 I1.4087 J-0.0375 F900
G02 X410.7666 Y9.0377 I-1.4092 J-0.0003 F900
G01 X411.0837 Y9.0000 F900
G00 Z6.0000 F480


;No. 14: Hole 21
G00 X448.3556 Y46.4560 Z6.0000 F1500
G00 Z0.5000 F480
G01 Z0.0000 F120
G01 X451.8197 Z-3.0000 F120
G01 X448.3556 Z-6.0000 F120
G01 X455.9944 F900
G01 X456.5835 Y47.7280 F900
G01 X447.7665 F900
G01 X447.5843 Y49.0000 F900
G01 X456.7657 F900
G01 X456.5835 Y50.2720 F900
G01 X447.7665 F900
G01 X448.3556 Y51.5440 F900
G01 X455.9944 F900
G01 X454.7244 Y52.8160 F900
G01 X449.6256 F900
G01 Y45.1840 F900
G01 X454.7244 F900
G01 X454.8097 Y44.8620 F900
G02 X449.4097 Y53.0559 I-2.6369 J4.1385 F900
G02 X454.8097 Y44.8620 I2.7658 J-4.0536 F900
G01 X454.7244 Y45.1840 F900
G01 X453.8584 Z-6.7500 F120
G01 X454.7244 Z-7.5000 F120
G01 X449.6256 F900
G01 X448.3556 Y46.4560 F900
G01 X455.9944 F900
G01 X456.5835 Y47.7280 F900
G01 X447.7665 F900
G01 X447.5843 Y49.0000 F900
G01 X456.7657 F900
G01 X456.5835 Y50.2720 F900
G01 X447.7665 F900
G01 X448.3556 Y51.5440 F900
G01 X455.9944 F900
G01 X454.7244 Y52.8160 F900
G01 X449.6256 F900
G01 X449.5403 Y53.1380 F900
G02 X454.9403 Y44.9441 I2.6369 J-4.1385 F900
G02 X449.5403 Y53.1380 I-2.7658 J4.0536 F900
G01 X449.6256 Y52.8160 F900
G00 Z6.0000 F480


;No. 15: Hole 22
G00 X451.0856 Y49.0000 Z6.0000 F1500
G00 Z0.5000 F480
G01 Z0.0000 F120
G01 X453.2644 Z-1.8869 F120
G01 X453.5791 Y48.9292 Z-2.1662 F120
G02 X453.2186 Y48.0567 Z-3.0000 I-1.4051 J0.0699 F120
G03 X453.5791 Y48.9292 Z-3.8338 I-1.0445 J0.9424 F120
G01 X453.2644 Y49.0000 Z-4.1131 F120
G01 X451.0856 Z-6.0000 F120
G01 X453.2644 F900
G01 X453.5791 Y48.9292 F900
G02 X450.7672 Y49.0000 I-1.4051 J0.0699 F900
G02 X453.5791 Y48.9292 I1.4069 J0.0010 F900
G01 X453.2644 Y49.0000 F900
G01 X451.0856 Z-7.8869 F120
G01 X450.7709 Y48.9292 Z-8.1662 F120
G02 X451.0419 Y49.8336 Z-9.0000 I1.4050 J0.0717 F120
G03 X450.7709 Y48.9292 Z-9.8338 I1.1340 J-0.8326 F120
G01 X451.0856 Y49.0000 Z-10.1131 F120
G01 X453.2644 Z-12.0000 F120
G01 X451.0856 F900
G01 X450.7709 Y48.9292 F900
G02 X453.5751 Y49.1472 I1.4050 J0.0717 F900
G02 X450.7709 Y48.9292 I-1.3991 J-0.1481 F900
G01 X451.0856 Y49.0000 F900
G01 X453.2644 Z-13.8869 F120
G01 X453.5791 Y48.9292 Z-14.1662 F120
G02 X453.2186 Y48.0567 Z-15.0000 I-1.4051 J0.0699 F120
G03 X453.5791 Y48.9292 Z-15.8338 I-1.0445 J0.9424 F120
G01 X453.2644 Y49.0000 Z-16.1131 F120
G01 X451.0856 Z-18.0000 F120
G01 X453.2644 F900
G01 X453.5791 Y48.9292 F900
G02 X450.7672 Y49.0000 I-1.4051 J0.0699 F900
G02 X453.5791 Y48.9292 I1.4069 J0.0010 F900
G01 X453.2644 Y49.0000 F900
G01 X452.6870 Z-18.5000 F120
G01 X453.2644 Z-19.0000 F120
G01 X451.0856 F900
G01 X450.7709 Y48.9292 F900
G02 X453.5751 Y49.1472 I1.4050 J0.0717 F900
G02 X450.7709 Y48.9292 I-1.3991 J-0.1481 F900
G01 X451.0856 Y49.0000 F900
G00 Z6.0000 F480


;No. 16: Hole 19
G00 X449.6256 Y129.1840 Z6.0000 F1500
G00 Z0.5000 F480
G01 Z0.0000 F120
G01 X453.0897 Z-3.0000 F120
G01 X449.6256 Z-6.0000 F120
G01 X454.7244 F900
G01 X455.9944 Y130.4560 F900
G01 X448.3556 F900
G01 X447.7665 Y131.7280 F900
G01 X456.5835 F900
G01 X456.7657 Y133.0000 F900
G01 X447.5843 F900
G01 X447.7665 Y134.2720 F900
G01 X456.5835 F900
G01 X455.9944 Y135.5440 F900
G01 X448.3556 F900
G01 X449.6256 Y136.8160 F900
G01 X454.7244 F900
G01 X454.8097 Y137.1380 F900
G02 X449.7206 Y128.7488 I-2.6342 J-4.1402 F900
G02 X454.8097 Y137.1380 I2.4521 J4.2507 F900
G01 X454.7244 Y136.8160 F900
G01 X453.8584 Z-6.7500 F120
G01 X454.7244 Z-7.5000 F120
G01 X449.6256 F900
G01 X448.3556 Y135.5440 F900
G01 X455.9944 F900
G01 X456.5835 Y134.2720 F900
G01 X447.7665 F900
G01 X447.5843 Y133.0000 F900
G01 X456.7657 F900
G01 X456.5835 Y131.7280 F900
G01 X447.7665 F900
G01 X448.3556 Y130.4560 F900
G01 X455.9944 F900
G01 X454.7244 Y129.1840 F900
G01 X449.6256 F900
G01 X449.5403 Y128.8620 F900
G02 X454.6294 Y137.2512 I2.6342 J4.1402 F900
G02 X449.5403 Y128.8620 I-2.4521 J-4.2507 F900
G01 X449.6256 Y129.1840 F900
G00 Z6.0000 F480


;No. 17: Hole 20
G00 X451.0837 Y133.0000 Z6.0000 F1500
G00 Z0.5000 F480
G01 Z0.0000 F120
G01 X453.2663 Z-1.8902 F120
G01 X453.5834 Y132.9623 Z-2.1667 F120
G02 X453.2439 Y132.0819 Z-3.0000 I-1.4087 J0.0375 F120
G03 X453.5834 Y132.9623 Z-3.8333 I-1.0692 J0.9179 F120
G01 X453.2663 Y133.0000 Z-4.1098 F120
G01 X451.0837 Z-6.0000 F120
G01 X453.2663 F900
G01 X453.5834 Y132.9623 F900
G02 X450.7656 Y133.0000 I-1.4087 J0.0375 F900
G02 X453.5834 Y132.9623 I1.4092 J0.0003 F900
G01 X453.2663 Y133.0000 F900
G01 X451.0837 Z-7.8902 F120
G01 X450.7666 Y132.9623 Z-8.1667 F120
G02 X451.0584 Y133.8596 Z-9.0000 I1.4086 J0.0380 F120
G03 X450.7666 Y132.9623 Z-9.8333 I1.1168 J-0.8593 F120
G01 X451.0837 Y133.0000 Z-10.1098 F120
G01 X453.2663 Z-12.0000 F120
G01 X451.0837 F900
G01 X450.7666 Y132.9623 F900
G02 X453.5823 Y133.0763 I1.4086 J0.0380 F900
G02 X450.7666 Y132.9623 I-1.4071 J-0.0766 F900
G01 X451.0837 Y133.0000 F900
G01 X453.2663 Z-13.8902 F120
G01 X453.5834 Y132.9623 Z-14.1667 F120
G02 X453.2439 Y132.0819 Z-15.0000 I-1.4087 J0.0375 F120
G03 X453.5834 Y132.9623 Z-15.8333 I-1.0692 J0.9179 F120
G01 X453.2663 Y133.0000 Z-16.1098 F120
G01 X451.0837 Z-18.0000 F120
G01 X453.2663 F900
G01 X453.5834 Y132.9623 F900
G02 X450.7656 Y133.0000 I-1.4087 J0.0375 F900
G02 X453.5834 Y132.9623 I1.4092 J0.0003 F900
G01 X453.2663 Y133.0000 F900
G01 X452.6889 Z-18.5000 F120
G01 X453.2663 Z-19.0000 F120
G01 X451.0837 F900
G01 X450.7666 Y132.9623 F900
G02 X453.5823 Y133.0763 I1.4086 J0.0380 F900
G02 X450.7666 Y132.9623 I-1.4071 J-0.0766 F900
G01 X451.0837 Y133.0000 F900
G00 Z6.0000 F480


;No. 18: Hole 17
G00 X449.6256 Y212.6840 Z6.0000 F1500
G00 Z0.5000 F480
G01 Z0.0000 F120
G01 X453.0897 Z-3.0000 F120
G01 X449.6256 Z-6.0000 F120
G01 X454.7244 F900
G01 X455.9944 Y213.9560 F900
G01 X448.3556 F900
G01 X447.7665 Y215.2280 F900
G01 X456.5835 F900
G01 X456.7657 Y216.5000 F900
G01 X447.5843 F900
G01 X447.7665 Y217.7720 F900
G01 X456.5835 F900
G01 X455.9944 Y219.0440 F900
G01 X448.3556 F900
G01 X449.6256 Y220.3160 F900
G01 X454.7244 F900
G01 X454.8097 Y220.6380 F900
G02 X449.7206 Y212.2488 I-2.6342 J-4.1402 F900
G02 X454.8097 Y220.6380 I2.4521 J4.2507 F900
G01 X454.7244 Y220.3160 F900
G01 X453.8584 Z-6.7500 F120
G01 X454.7244 Z-7.5000 F120
G01 X449.6256 F900
G01 X448.3556 Y219.0440 F900
G01 X455.9944 F900
G01 X456.5835 Y217.7720 F900
G01 X447.7665 F900
G01 X447.5843 Y216.5000 F900
G01 X456.7657 F900
G01 X456.5835 Y215.2280 F900
G01 X447.7665 F900
G01 X448.3556 Y213.9560 F900
G01 X455.9944 F900
G01 X454.7244 Y212.6840 F900
G01 X449.6256 F900
G01 X449.5403 Y212.3620 F900
G02 X454.6294 Y220.7512 I2.6342 J4.1402 F900
G02 X449.5403 Y212.3620 I-2.4521 J-4.2507 F900
G01 X449.6256 Y212.6840 F900
G00 Z6.0000 F480


;No. 19: Hole 18
G00 X451.0837 Y216.5000 Z6.0000 F1500
G00 Z0.5000 F480
G01 Z0.0000 F120
G01 X453.2663 Z-1.8902 F120
G01 X453.5834 Y216.4623 Z-2.1667 F120
G02 X453.2439 Y215.5819 Z-3.0000 I-1.4087 J0.0375 F120
G03 X453.5834 Y216.4623 Z-3.8333 I-1.0692 J0.9179 F120
G01 X453.2663 Y216.5000 Z-4.1098 F120
G01 X451.0837 Z-6.0000 F120
G01 X453.2663 F900
G01 X453.5834 Y216.4623 F900
G02 X450.7656 Y216.5000 I-1.4087 J0.0375 F900
G02 X453.5834 Y216.4623 I1.4092 J0.0003 F900
G01 X453.2663 Y216.5000 F900
G01 X451.0837 Z-7.8902 F120
G01 X450.7666 Y216.4623 Z-8.1667 F120
G02 X451.0584 Y217.3596 Z-9.0000 I1.4086 J0.0380 F120
G03 X450.7666 Y216.4623 Z-9.8333 I1.1168 J-0.8593 F120
G01 X451.0837 Y216.5000 Z-10.1098 F120
G01 X453.2663 Z-12.0000 F120
G01 X451.0837 F900
G01 X450.7666 Y216.4623 F900
G02 X453.5823 Y216.5763 I1.4086 J0.0380 F900
G02 X450.7666 Y216.4623 I-1.4071 J-0.0766 F900
G01 X451.0837 Y216.5000 F900
G01 X453.2663 Z-13.8902 F120
G01 X453.5834 Y216.4623 Z-14.1667 F120
G02 X453.2439 Y215.5819 Z-15.0000 I-1.4087 J0.0375 F120
G03 X453.5834 Y216.4623 Z-15.8333 I-1.0692 J0.9179 F120
G01 X453.2663 Y216.5000 Z-16.1098 F120
G01 X451.0837 Z-18.0000 F120
G01 X453.2663 F900
G01 X453.5834 Y216.4623 F900
G02 X450.7656 Y216.5000 I-1.4087 J0.0375 F900
G02 X453.5834 Y216.4623 I1.4092 J0.0003 F900
G01 X453.2663 Y216.5000 F900
G01 X452.6889 Z-18.5000 F120
G01 X453.2663 Z-19.0000 F120
G01 X451.0837 F900
G01 X450.7666 Y216.4623 F900
G02 X453.5823 Y216.5763 I1.4086 J0.0380 F900
G02 X450.7666 Y216.4623 I-1.4071 J-0.0766 F900
G01 X451.0837 Y216.5000 F900
G00 Z6.0000 F480


;No. 20: Hole 15
G00 X449.6256 Y296.1840 Z6.0000 F1500
G00 Z0.5000 F480
G01 Z0.0000 F120
G01 X453.0897 Z-3.0000 F120
G01 X449.6256 Z-6.0000 F120
G01 X454.7244 F900
G01 X455.9944 Y297.4560 F900
G01 X448.3556 F900
G01 X447.7665 Y298.7280 F900
G01 X456.5835 F900
G01 X456.7657 Y300.0000 F900
G01 X447.5843 F900
G01 X447.7665 Y301.2720 F900
G01 X456.5835 F900
G01 X455.9944 Y302.5440 F900
G01 X448.3556 F900
G01 X449.6256 Y303.8160 F900
G01 X454.7244 F900
G01 X454.8097 Y304.1380 F900
G02 X449.7206 Y295.7488 I-2.6342 J-4.1402 F900
G02 X454.8097 Y304.1380 I2.4521 J4.2507 F900
G01 X454.7244 Y303.8160 F900
G01 X453.8584 Z-6.7500 F120
G01 X454.7244 Z-7.5000 F120
G01 X449.6256 F900
G01 X448.3556 Y302.5440 F900
G01 X455.9944 F900
G01 X456.5835 Y301.2720 F900
G01 X447.7665 F900
G01 X447.5843 Y300.0000 F900
G01 X456.7657 F900
G01 X456.5835 Y298.7280 F900
G01 X447.7665 F900
G01 X448.3556 Y297.4560 F900
G01 X455.9944 F900
G01 X454.7244 Y296.1840 F900
G01 X449.6256 F900
G01 X449.5403 Y295.8620 F900
G02 X454.6294 Y304.2512 I2.6342 J4.1402 F900
G02 X449.5403 Y295.8620 I-2.4521 J-4.2507 F900
G01 X449.6256 Y296.1840 F900
G00 Z6.0000 F480


;No. 21: Hole 16
G00 X451.0856 Y300.0000 Z6.0000 F1500
G00 Z0.5000 F480
G01 Z0.0000 F120
G01 X453.2644 Z-1.8869 F120
G01 X453.5791 Y299.9292 Z-2.1662 F120
G02 X453.2186 Y299.0567 Z-3.0000 I-1.4051 J0.0699 F120
G03 X453.5791 Y299.9292 Z-3.8338 I-1.0445 J0.9424 F120
G01 X453.2644 Y300.0000 Z-4.1131 F120
G01 X451.0856 Z-6.0000 F120
G01 X453.2644 F900
G01 X453.5791 Y299.9292 F900
G02 X450.7672 Y300.0000 I-1.4051 J0.0699 F900
G02 X453.5791 Y299.9292 I1.4069 J0.0010 F900
G01 X453.2644 Y300.0000 F900
G01 X451.0856 Z-7.8869 F120
G01 X450.7709 Y299.9292 Z-8.1662 F120
G02 X451.0419 Y300.8336 Z-9.0000 I1.4050 J0.0717 F120
G03 X450.7709 Y299.9292 Z-9.8338 I1.1340 J-0.8326 F120
G01 X451.0856 Y300.0000 Z-10.1131 F120
G01 X453.2644 Z-12.0000 F120
G01 X451.0856 F900
G01 X450.7709 Y299.9292 F900
G02 X453.5751 Y300.1472 I1.4050 J0.0717 F900
G02 X450.7709 Y299.9292 I-1.3991 J-0.1481 F900
G01 X451.0856 Y300.0000 F900
G01 X453.2644 Z-13.8869 F120
G01 X453.5791 Y299.9292 Z-14.1662 F120
G02 X453.2186 Y299.0567 Z-15.0000 I-1.4051 J0.0699 F120
G03 X453.5791 Y299.9292 Z-15.8338 I-1.0445 J0.9424 F120
G01 X453.2644 Y300.0000 Z-16.1131 F120
G01 X451.0856 Z-18.0000 F120
G01 X453.2644 F900
G01 X453.5791 Y299.9292 F900
G02 X450.7672 Y300.0000 I-1.4051 J0.0699 F900
G02 X453.5791 Y299.9292 I1.4069 J0.0010 F900
G01 X453.2644 Y300.0000 F900
G01 X452.6870 Z-18.5000 F120
G01 X453.2644 Z-19.0000 F120
G01 X451.0856 F900
G01 X450.7709 Y299.9292 F900
G02 X453.5751 Y300.1472 I1.4050 J0.0717 F900
G02 X450.7709 Y299.9292 I-1.3991 J-0.1481 F900
G01 X451.0856 Y300.0000 F900
G00 Z6.0000 F480


;No. 22: Hole 13
G00 X449.6256 Y380.1840 Z6.0000 F1500
G00 Z0.5000 F480
G01 Z0.0000 F120
G01 X453.0897 Z-3.0000 F120
G01 X449.6256 Z-6.0000 F120
G01 X454.7244 F900
G01 X455.9944 Y381.4560 F900
G01 X448.3556 F900
G01 X447.7665 Y382.7280 F900
G01 X456.5835 F900
G01 X456.7657 Y384.0000 F900
G01 X447.5843 F900
G01 X447.7665 Y385.2720 F900
G01 X456.5835 F900
G01 X455.9944 Y386.5440 F900
G01 X448.3556 F900
G01 X449.6256 Y387.8160 F900
G01 X454.7244 F900
G01 X454.8097 Y388.1380 F900
G02 X449.7206 Y379.7488 I-2.6342 J-4.1402 F900
G02 X454.8097 Y388.1380 I2.4521 J4.2507 F900
G01 X454.7244 Y387.8160 F900
G01 X453.8584 Z-6.7500 F120
G01 X454.7244 Z-7.5000 F120
G01 X449.6256 F900
G01 X448.3556 Y386.5440 F900
G01 X455.9944 F900
G01 X456.5835 Y385.2720 F900
G01 X447.7665 F900
G01 X447.5843 Y384.0000 F900
G01 X456.7657 F900
G01 X456.5835 Y382.7280 F900
G01 X447.7665 F900
G01 X448.3556 Y381.4560 F900
G01 X455.9944 F900
G01 X454.7244 Y380.1840 F900
G01 X449.6256 F900
G01 X449.5403 Y379.8620 F900
G02 X454.6294 Y388.2512 I2.6342 J4.1402 F900
G02 X449.5403 Y379.8620 I-2.4521 J-4.2507 F900
G01 X449.6256 Y380.1840 F900
G00 Z6.0000 F480


;No. 23: Hole 14
G00 X451.0837 Y384.0000 Z6.0000 F1500
G00 Z0.5000 F480
G01 Z0.0000 F120
G01 X453.2663 Z-1.8902 F120
G01 X453.5834 Y384.0377 Z-2.1667 F120
G02 X453.2916 Y383.1404 Z-3.0000 I-1.4086 J-0.0380 F120
G03 X453.5834 Y384.0377 Z-3.8333 I-1.1168 J0.8593 F120
G01 X453.2663 Y384.0000 Z-4.1098 F120
G01 X451.0837 Z-6.0000 F120
G01 X453.2663 F900
G01 X453.5834 Y384.0377 F900
G02 X450.7677 Y383.9237 I-1.4086 J-0.0380 F900
G02 X453.5834 Y384.0377 I1.4071 J0.0766 F900
G01 X453.2663 Y384.0000 F900
G01 X451.0837 Z-7.8902 F120
G01 X450.7666 Y384.0377 Z-8.1667 F120
G02 X451.1061 Y384.9181 Z-9.0000 I1.4087 J-0.0375 F120
G03 X450.7666 Y384.0377 Z-9.8333 I1.0692 J-0.9179 F120
G01 X451.0837 Y384.0000 Z-10.1098 F120
G01 X453.2663 Z-12.0000 F120
G01 X451.0837 F900
G01 X450.7666 Y384.0377 F900
G02 X453.5844 Y384.0000 I1.4087 J-0.0375 F900
G02 X450.7666 Y384.0377 I-1.4092 J-0.0003 F900
G01 X451.0837 Y384.0000 F900
G01 X453.2663 Z-13.8902 F120
G01 X453.5834 Y384.0377 Z-14.1667 F120
G02 X453.2916 Y383.1404 Z-15.0000 I-1.4086 J-0.0380 F120
G03 X453.5834 Y384.0377 Z-15.8333 I-1.1168 J0.8593 F120
G01 X453.2663 Y384.0000 Z-16.1098 F120
G01 X451.0837 Z-18.0000 F120
G01 X453.2663 F900
G01 X453.5834 Y384.0377 F900
G02 X450.7677 Y383.9237 I-1.4086 J-0.0380 F900
G02 X453.5834 Y384.0377 I1.4071 J0.0766 F900
G01 X453.2663 Y384.0000 F900
G01 X452.6889 Z-18.5000 F120
G01 X453.2663 Z-19.0000 F120
G01 X451.0837 F900
G01 X450.7666 Y384.0377 F900
G02 X453.5844 Y384.0000 I1.4087 J-0.0375 F900
G02 X450.7666 Y384.0377 I-1.4092 J-0.0003 F900
G01 X451.0837 Y384.0000 F900
G00 Z6.0000 F480


;No. 24: Hole 11
G00 X414.7244 Y420.1840 Z6.0000 F1500
G00 Z0.5000 F480
G01 Z0.0000 F120
G01 X411.2603 Z-3.0000 F120
G01 X414.7244 Z-6.0000 F120
G01 X409.6256 F900
G01 X408.3556 Y421.4560 F900
G01 X415.9944 F900
G01 X416.5835 Y422.7280 F900
G01 X407.7665 F900
G01 X407.5843 Y424.0000 F900
G01 X416.7657 F900
G01 X416.5835 Y425.2720 F900
G01 X407.7665 F900
G01 X408.3556 Y426.5440 F900
G01 X415.9944 F900
G01 X414.7244 Y427.8160 F900
G01 X409.6256 F900
G01 X409.5403 Y428.1380 F900
G02 X414.9403 Y419.9441 I2.6369 J-4.1385 F900
G02 X409.5403 Y428.1380 I-2.7658 J4.0536 F900
G01 X409.6256 Y427.8160 F900
G01 X410.4916 Z-6.7500 F120
G01 X409.6256 Z-7.5000 F120
G01 X414.7244 F900
G01 X415.9944 Y426.5440 F900
G01 X408.3556 F900
G01 X407.7665 Y425.2720 F900
G01 X416.5835 F900
G01 X416.7657 Y424.0000 F900
G01 X407.5843 F900
G01 X407.7665 Y422.7280 F900
G01 X416.5835 F900
G01 X415.9944 Y421.4560 F900
G01 X408.3556 F900
G01 X409.6256 Y420.1840 F900
G01 X414.7244 F900
G01 X414.8097 Y419.8620 F900
G02 X409.4097 Y428.0559 I-2.6369 J4.1385 F900
G02 X414.8097 Y419.8620 I2.7658 J-4.0536 F900
G01 X414.7244 Y420.1840 F900
G00 Z6.0000 F480


;No. 25: Hole 12
G00 X413.2644 Y424.0000 Z6.0000 F1500
G00 Z0.5000 F480
G01 Z0.0000 F120
G01 X411.0856 Z-1.8869 F120
G01 X410.7709 Y423.9292 Z-2.1662 F120
G02 X411.0419 Y424.8336 Z-3.0000 I1.4050 J0.0717 F120
G03 X410.7709 Y423.9292 Z-3.8338 I1.1340 J-0.8326 F120
G01 X411.0856 Y424.0000 Z-4.1131 F120
G01 X413.2644 Z-6.0000 F120
G01 X411.0856 F900
G01 X410.7709 Y423.9292 F900
G02 X413.5751 Y424.1472 I1.4050 J0.0717 F900
G02 X410.7709 Y423.9292 I-1.3991 J-0.1481 F900
G01 X411.0856 Y424.0000 F900
G01 X413.2644 Z-7.8869 F120
G01 X413.5791 Y424.0708 Z-8.1662 F120
G02 X413.3081 Y423.1664 Z-9.0000 I-1.4050 J-0.0717 F120
G03 X413.5791 Y424.0708 Z-9.8338 I-1.1340 J0.8326 F120
G01 X413.2644 Y424.0000 Z-10.1131 F120
G01 X411.0856 Z-12.0000 F120
G01 X413.2644 F900
G01 X413.5791 Y424.0708 F900
G02 X410.7749 Y423.8528 I-1.4050 J-0.0717 F900
G02 X413.5791 Y424.0708 I1.3991 J0.1481 F900
G01 X413.2644 Y424.0000 F900
G01 X411.0856 Z-13.8869 F120
G01 X410.7709 Y423.9292 Z-14.1662 F120
G02 X411.0419 Y424.8336 Z-15.0000 I1.4050 J0.0717 F120
G03 X410.7709 Y423.9292 Z-15.8338 I1.1340 J-0.8326 F120
G01 X411.0856 Y424.0000 Z-16.1131 F120
G01 X413.2644 Z-18.0000 F120
G01 X411.0856 F900
G01 X410.7709 Y423.9292 F900
G02 X413.5751 Y424.1472 I1.4050 J0.0717 F900
G02 X410.7709 Y423.9292 I-1.3991 J-0.1481 F900
G01 X411.0856 Y424.0000 F900
G01 X411.6630 Z-18.5000 F120
G01 X411.0856 Z-19.0000 F120
G01 X413.2644 F900
G01 X413.5791 Y424.0708 F900
G02 X410.7749 Y423.8528 I-1.4050 J-0.0717 F900
G02 X413.5791 Y424.0708 I1.3991 J0.1481 F900
G01 X413.2644 Y424.0000 F900
G00 Z6.0000 F480


;No. 26: Hole 10
G00 X323.2663 Y424.0000 Z6.0000 F1500
G00 Z0.5000 F480
G01 Z0.0000 F120
G01 X321.0837 Z-1.8902 F120
G01 X320.7666 Y423.9623 Z-2.1667 F120
G02 X321.0584 Y424.8596 Z-3.0000 I1.4086 J0.0380 F120
G03 X320.7666 Y423.9623 Z-3.8333 I1.1168 J-0.8593 F120
G01 X321.0837 Y424.0000 Z-4.1098 F120
G01 X323.2663 Z-6.0000 F120
G01 X321.0837 F900
G01 X320.7666 Y423.9623 F900
G02 X323.5823 Y424.0763 I1.4086 J0.0380 F900
G02 X320.7666 Y423.9623 I-1.4071 J-0.0766 F900
G01 X321.0837 Y424.0000 F900
G01 X323.2663 Z-7.8902 F120
G01 X323.5834 Y423.9623 Z-8.1667 F120
G02 X323.2439 Y423.0819 Z-9.0000 I-1.4087 J0.0375 F120
G03 X323.5834 Y423.9623 Z-9.8333 I-1.0692 J0.9179 F120
G01 X323.2663 Y424.0000 Z-10.1098 F120
G01 X321.0837 Z-12.0000 F120
G01 X323.2663 F900
G01 X323.5834 Y423.9623 F900
G02 X320.7656 Y424.0000 I-1.4087 J0.0375 F900
G02 X323.5834 Y423.9623 I1.4092 J0.0003 F900
G01 X323.2663 Y424.0000 F900
G01 X321.0837 Z-13.8902 F120
G01 X320.7666 Y423.9623 Z-14.1667 F120
G02 X321.0584 Y424.8596 Z-15.0000 I1.4086 J0.0380 F120
G03 X320.7666 Y423.9623 Z-15.8333 I1.1168 J-0.8593 F120
G01 X321.0837 Y424.0000 Z-16.1098 F120
G01 X323.2663 Z-18.0000 F120
G01 X321.0837 F900
G01 X320.7666 Y423.9623 F900
G02 X323.5823 Y424.0763 I1.4086 J0.0380 F900
G02 X320.7666 Y423.9623 I-1.4071 J-0.0766 F900
G01 X321.0837 Y424.0000 F900
G01 X321.6611 Z-18.5000 F120
G01 X321.0837 Z-19.0000 F120
G01 X323.2663 F900
G01 X323.5834 Y423.9623 F900
G02 X320.7656 Y424.0000 I-1.4087 J0.0375 F900
G02 X323.5834 Y423.9623 I1.4092 J0.0003 F900
G01 X323.2663 Y424.0000 F900
G00 Z6.0000 F480


;No. 27: Hole 9
G00 X326.7657 Y424.0000 Z6.0000 F1500
G00 Z0.5000 F480
G01 Z0.0000 F120
G01 X323.3016 Z-3.0000 F120
G01 X326.7657 Z-6.0000 F120
G01 X317.5843 F900
G01 X317.7665 Y422.7280 F900
G01 X326.5835 F900
G01 X325.9944 Y421.4560 F900
G01 X318.3556 F900
G01 X319.6256 Y420.1840 F900
G01 X324.7244 F900
G01 X317.7665 Y425.2720 F900
G01 X326.5835 F900
G01 X325.9944 Y426.5440 F900
G01 X318.3556 F900
G01 X319.6256 Y427.8160 F900
G01 X324.7244 F900
G01 X324.8097 Y428.1380 F900
G02 X319.7206 Y419.7488 I-2.6342 J-4.1402 F900
G02 X324.8097 Y428.1380 I2.4521 J4.2507 F900
G01 X324.7244 Y427.8160 F900
G01 X323.8584 Z-6.7500 F120
G01 X324.7244 Z-7.5000 F120
G01 X319.6256 F900
G01 X318.3556 Y426.5440 F900
G01 X325.9944 F900
G01 X326.5835 Y425.2720 F900
G01 X317.7665 F900
G01 X317.5843 Y424.0000 F900
G01 X326.7657 F900
G01 X326.5835 Y422.7280 F900
G01 X317.7665 F900
G01 X318.3556 Y421.4560 F900
G01 X325.9944 F900
G01 X324.7244 Y420.1840 F900
G01 X319.6256 F900
G01 X319.5403 Y419.8620 F900
G02 X324.6294 Y428.2512 I2.6342 J4.1402 F900
G02 X319.5403 Y419.8620 I-2.4521 J-4.2507 F900
G01 X319.6256 Y420.1840 F900
G00 Z6.0000 F480


;No. 28: Hole 8
G00 X231.6769 Y424.0000 Z6.0000 F1500
G00 Z0.5000 F480
G01 Z0.0000 F120
G01 X229.4981 Z-1.8869 F120
G01 X229.1834 Y424.0708 Z-2.1662 F120
G02 X229.5439 Y424.9433 Z-3.0000 I1.4051 J-0.0699 F120
G03 X229.1834 Y424.0708 Z-3.8338 I1.0445 J-0.9424 F120
G01 X229.4981 Y424.0000 Z-4.1131 F120
G01 X231.6769 Z-6.0000 F120
G01 X229.4981 F900
G01 X229.1834 Y424.0708 F900
G02 X231.9953 Y424.0000 I1.4051 J-0.0699 F900
G02 X229.1834 Y424.0708 I-1.4069 J-0.0010 F900
G01 X229.4981 Y424.0000 F900
G01 X231.6769 Z-7.8869 F120
G01 X231.9916 Y424.0708 Z-8.1662 F120
G02 X231.7206 Y423.1664 Z-9.0000 I-1.4050 J-0.0717 F120
G03 X231.9916 Y424.0708 Z-9.8338 I-1.1340 J0.8326 F120
G01 X231.6769 Y424.0000 Z-10.1131 F120
G01 X229.4981 Z-12.0000 F120
G01 X231.6769 F900
G01 X231.9916 Y424.0708 F900
G02 X229.1874 Y423.8528 I-1.4050 J-0.0717 F900
G02 X231.9916 Y424.0708 I1.3991 J0.1481 F900
G01 X231.6769 Y424.0000 F900
G01 X229.4981 Z-13.8869 F120
G01 X229.1834 Y424.0708 Z-14.1662 F120
G02 X229.5439 Y424.9433 Z-15.0000 I1.4051 J-0.0699 F120
G03 X229.1834 Y424.0708 Z-15.8338 I1.0445 J-0.9424 F120
G01 X229.4981 Y424.0000 Z-16.1131 F120
G01 X231.6769 Z-18.0000 F120
G01 X229.4981 F900
G01 X229.1834 Y424.0708 F900
G02 X231.9953 Y424.0000 I1.4051 J-0.0699 F900
G02 X229.1834 Y424.0708 I-1.4069 J-0.0010 F900
G01 X229.4981 Y424.0000 F900
G01 X230.0755 Z-18.5000 F120
G01 X229.4981 Z-19.0000 F120
G01 X231.6769 F900
G01 X231.9916 Y424.0708 F900
G02 X229.1874 Y423.8528 I-1.4050 J-0.0717 F900
G02 X231.9916 Y424.0708 I1.3991 J0.1481 F900
G01 X231.6769 Y424.0000 F900
G00 Z6.0000 F480


;No. 29: Hole 7
G00 X235.1782 Y424.0000 Z6.0000 F1500
G00 Z0.5000 F480
G01 Z0.0000 F120
G01 X231.7141 Z-3.0000 F120
G01 X235.1782 Z-6.0000 F120
G01 X225.9968 F900
G01 X226.1790 Y425.2720 F900
G01 X234.9960 F900
G01 X234.4069 Y426.5440 F900
G01 X226.7681 F900
G01 X228.0381 Y427.8160 F900
G01 X233.1369 F900
G01 X226.1790 Y422.7280 F900
G01 X234.9960 F900
G01 X234.4069 Y421.4560 F900
G01 X226.7681 F900
G01 X228.0381 Y420.1840 F900
G01 X233.1369 F900
G01 X233.2222 Y419.8620 F900
G02 X227.8222 Y428.0559 I-2.6369 J4.1385 F900
G02 X233.2222 Y419.8620 I2.7658 J-4.0536 F900
G01 X233.1369 Y420.1840 F900
G01 X232.2709 Z-6.7500 F120
G01 X233.1369 Z-7.5000 F120
G01 X228.0381 F900
G01 X226.7681 Y421.4560 F900
G01 X234.4069 F900
G01 X234.9960 Y422.7280 F900
G01 X226.1790 F900
G01 X225.9968 Y424.0000 F900
G01 X235.1782 F900
G01 X234.9960 Y425.2720 F900
G01 X226.1790 F900
G01 X226.7681 Y426.5440 F900
G01 X234.4069 F900
G01 X233.1369 Y427.8160 F900
G01 X228.0381 F900
G01 X227.9528 Y428.1380 F900
G02 X233.3528 Y419.9441 I2.6369 J-4.1385 F900
G02 X227.9528 Y428.1380 I-2.7658 J4.0536 F900
G01 X228.0381 Y427.8160 F900
G00 Z6.0000 F480


;No. 30: Hole 6
G00 X140.0894 Y424.0000 Z6.0000 F1500
G00 Z0.5000 F480
G01 Z0.0000 F120
G01 X137.9106 Z-1.8869 F120
G01 X137.5959 Y424.0708 Z-2.1662 F120
G02 X137.9564 Y424.9433 Z-3.0000 I1.4051 J-0.0699 F120
G03 X137.5959 Y424.0708 Z-3.8338 I1.0445 J-0.9424 F120
G01 X137.9106 Y424.0000 Z-4.1131 F120
G01 X140.0894 Z-6.0000 F120
G01 X137.9106 F900
G01 X137.5959 Y424.0708 F900
G02 X140.4078 Y424.0000 I1.4051 J-0.0699 F900
G02 X137.5959 Y424.0708 I-1.4069 J-0.0010 F900
G01 X137.9106 Y424.0000 F900
G01 X140.0894 Z-7.8869 F120
G01 X140.4041 Y424.0708 Z-8.1662 F120
G02 X140.1331 Y423.1664 Z-9.0000 I-1.4050 J-0.0717 F120
G03 X140.4041 Y424.0708 Z-9.8338 I-1.1340 J0.8326 F120
G01 X140.0894 Y424.0000 Z-10.1131 F120
G01 X137.9106 Z-12.0000 F120
G01 X140.0894 F900
G01 X140.4041 Y424.0708 F900
G02 X137.5999 Y423.8528 I-1.4050 J-0.0717 F900
G02 X140.4041 Y424.0708 I1.3991 J0.1481 F900
G01 X140.0894 Y424.0000 F900
G01 X137.9106 Z-13.8869 F120
G01 X137.5959 Y424.0708 Z-14.1662 F120
G02 X137.9564 Y424.9433 Z-15.0000 I1.4051 J-0.0699 F120
G03 X137.5959 Y424.0708 Z-15.8338 I1.0445 J-0.9424 F120
G01 X137.9106 Y424.0000 Z-16.1131 F120
G01 X140.0894 Z-18.0000 F120
G01 X137.9106 F900
G01 X137.5959 Y424.0708 F900
G02 X140.4078 Y424.0000 I1.4051 J-0.0699 F900
G02 X137.5959 Y424.0708 I-1.4069 J-0.0010 F900
G01 X137.9106 Y424.0000 F900
G01 X138.4880 Z-18.5000 F120
G01 X137.9106 Z-19.0000 F120
G01 X140.0894 F900
G01 X140.4041 Y424.0708 F900
G02 X137.5999 Y423.8528 I-1.4050 J-0.0717 F900
G02 X140.4041 Y424.0708 I1.3991 J0.1481 F900
G01 X140.0894 Y424.0000 F900
G00 Z6.0000 F480


;No. 31: Hole 5
G00 X143.5907 Y424.0000 Z6.0000 F1500
G00 Z0.5000 F480
G01 Z0.0000 F120
G01 X140.1266 Z-3.0000 F120
G01 X143.5907 Z-6.0000 F120
G01 X134.4093 F900
G01 X134.5915 Y425.2720 F900
G01 X143.4085 F900
G01 X142.8194 Y426.5440 F900
G01 X135.1806 F900
G01 X136.4506 Y427.8160 F900
G01 X141.5494 F900
G01 X134.5915 Y422.7280 F900
G01 X143.4085 F900
G01 X142.8194 Y421.4560 F900
G01 X135.1806 F900
G01 X136.4506 Y420.1840 F900
G01 X141.5494 F900
G01 X141.6347 Y419.8620 F900
G02 X136.2347 Y428.0559 I-2.6369 J4.1385 F900
G02 X141.6347 Y419.8620 I2.7658 J-4.0536 F900
G01 X141.5494 Y420.1840 F900
G01 X140.6834 Z-6.7500 F120
G01 X141.5494 Z-7.5000 F120
G01 X136.4506 F900
G01 X135.1806 Y421.4560 F900
G01 X142.8194 F900
G01 X143.4085 Y422.7280 F900
G01 X134.5915 F900
G01 X134.4093 Y424.0000 F900
G01 X143.5907 F900
G01 X143.4085 Y425.2720 F900
G01 X134.5915 F900
G01 X135.1806 Y426.5440 F900
G01 X142.8194 F900
G01 X141.5494 Y427.8160 F900
G01 X136.4506 F900
G01 X136.3653 Y428.1380 F900
G02 X141.7653 Y419.9441 I2.6369 J-4.1385 F900
G02 X136.3653 Y428.1380 I-2.7658 J4.0536 F900
G01 X136.4506 Y427.8160 F900
G00 Z6.0000 F480


;No. 32: Hole 4
G00 X50.0894 Y424.0000 Z6.0000 F1500
G00 Z0.5000 F480
G01 Z0.0000 F120
G01 X47.9106 Z-1.8869 F120
G01 X47.5959 Y424.0708 Z-2.1662 F120
G02 X47.9564 Y424.9433 Z-3.0000 I1.4051 J-0.0699 F120
G03 X47.5959 Y424.0708 Z-3.8338 I1.0445 J-0.9424 F120
G01 X47.9106 Y424.0000 Z-4.1131 F120
G01 X50.0894 Z-6.0000 F120
G01 X47.9106 F900
G01 X47.5959 Y424.0708 F900
G02 X50.4078 Y424.0000 I1.4051 J-0.0699 F900
G02 X47.5959 Y424.0708 I-1.4069 J-0.0010 F900
G01 X47.9106 Y424.0000 F900
G01 X50.0894 Z-7.8869 F120
G01 X50.4041 Y424.0708 Z-8.1662 F120
G02 X50.1331 Y423.1664 Z-9.0000 I-1.4050 J-0.0717 F120
G03 X50.4041 Y424.0708 Z-9.8338 I-1.1340 J0.8326 F120
G01 X50.0894 Y424.0000 Z-10.1131 F120
G01 X47.9106 Z-12.0000 F120
G01 X50.0894 F900
G01 X50.4041 Y424.0708 F900
G02 X47.5999 Y423.8528 I-1.4050 J-0.0717 F900
G02 X50.4041 Y424.0708 I1.3991 J0.1481 F900
G01 X50.0894 Y424.0000 F900
G01 X47.9106 Z-13.8869 F120
G01 X47.5959 Y424.0708 Z-14.1662 F120
G02 X47.9564 Y424.9433 Z-15.0000 I1.4051 J-0.0699 F120
G03 X47.5959 Y424.0708 Z-15.8338 I1.0445 J-0.9424 F120
G01 X47.9106 Y424.0000 Z-16.1131 F120
G01 X50.0894 Z-18.0000 F120
G01 X47.9106 F900
G01 X47.5959 Y424.0708 F900
G02 X50.4078 Y424.0000 I1.4051 J-0.0699 F900
G02 X47.5959 Y424.0708 I-1.4069 J-0.0010 F900
G01 X47.9106 Y424.0000 F900
G01 X48.4880 Z-18.5000 F120
G01 X47.9106 Z-19.0000 F120
G01 X50.0894 F900
G01 X50.4041 Y424.0708 F900
G02 X47.5999 Y423.8528 I-1.4050 J-0.0717 F900
G02 X50.4041 Y424.0708 I1.3991 J0.1481 F900
G01 X50.0894 Y424.0000 F900
G00 Z6.0000 F480


;No. 33: Hole 3
G00 X53.5907 Y424.0000 Z6.0000 F1500
G00 Z0.5000 F480
G01 Z0.0000 F120
G01 X50.1266 Z-3.0000 F120
G01 X53.5907 Z-6.0000 F120
G01 X44.4093 F900
G01 X44.5915 Y425.2720 F900
G01 X53.4085 F900
G01 X52.8194 Y426.5440 F900
G01 X45.1806 F900
G01 X46.4506 Y427.8160 F900
G01 X51.5494 F900
G01 X44.5915 Y422.7280 F900
G01 X53.4085 F900
G01 X52.8194 Y421.4560 F900
G01 X45.1806 F900
G01 X46.4506 Y420.1840 F900
G01 X51.5494 F900
G01 X51.6347 Y419.8620 F900
G02 X46.2347 Y428.0559 I-2.6369 J4.1385 F900
G02 X51.6347 Y419.8620 I2.7658 J-4.0536 F900
G01 X51.5494 Y420.1840 F900
G01 X50.6834 Z-6.7500 F120
G01 X51.5494 Z-7.5000 F120
G01 X46.4506 F900
G01 X45.1806 Y421.4560 F900
G01 X52.8194 F900
G01 X53.4085 Y422.7280 F900
G01 X44.5915 F900
G01 X44.4093 Y424.0000 F900
G01 X53.5907 F900
G01 X53.4085 Y425.2720 F900
G01 X44.5915 F900
G01 X45.1806 Y426.5440 F900
G01 X52.8194 F900
G01 X51.5494 Y427.8160 F900
G01 X46.4506 F900
G01 X46.3653 Y428.1380 F900
G02 X51.7653 Y419.9441 I2.6369 J-4.1385 F900
G02 X46.3653 Y428.1380 I-2.7658 J4.0536 F900
G01 X46.4506 Y427.8160 F900
G00 Z6.0000 F480


;No. 34: Hole 45
G00 X10.0913 Y384.0000 Z6.0000 F1500
G00 Z0.5000 F480
G01 Z0.0000 F120
G01 X7.9087 Z-1.8902 F120
G01 X7.5916 Y383.9623 Z-2.1667 F120
G02 X7.8834 Y384.8596 Z-3.0000 I1.4086 J0.0380 F120
G03 X7.5916 Y383.9623 Z-3.8333 I1.1168 J-0.8593 F120
G01 X7.9087 Y384.0000 Z-4.1098 F120
G01 X10.0913 Z-6.0000 F120
G01 X7.9087 F900
G01 X7.5916 Y383.9623 F900
G02 X10.4073 Y384.0763 I1.4086 J0.0380 F900
G02 X7.5916 Y383.9623 I-1.4071 J-0.0766 F900
G01 X7.9087 Y384.0000 F900
G01 X10.0913 Z-7.8902 F120
G01 X10.4084 Y383.9623 Z-8.1667 F120
G02 X10.0689 Y383.0819 Z-9.0000 I-1.4087 J0.0375 F120
G03 X10.4084 Y383.9623 Z-9.8333 I-1.0692 J0.9179 F120
G01 X10.0913 Y384.0000 Z-10.1098 F120
G01 X7.9087 Z-12.0000 F120
G01 X10.0913 F900
G01 X10.4084 Y383.9623 F900
G02 X7.5906 Y384.0000 I-1.4087 J0.0375 F900
G02 X10.4084 Y383.9623 I1.4092 J0.0003 F900
G01 X10.0913 Y384.0000 F900
G01 X7.9087 Z-13.8902 F120
G01 X7.5916 Y383.9623 Z-14.1667 F120
G02 X7.8834 Y384.8596 Z-15.0000 I1.4086 J0.0380 F120
G03 X7.5916 Y383.9623 Z-15.8333 I1.1168 J-0.8593 F120
G01 X7.9087 Y384.0000 Z-16.1098 F120
G01 X10.0913 Z-18.0000 F120
G01 X7.9087 F900
G01 X7.5916 Y383.9623 F900
G02 X10.4073 Y384.0763 I1.4086 J0.0380 F900
G02 X7.5916 Y383.9623 I-1.4071 J-0.0766 F900
G01 X7.9087 Y384.0000 F900
G01 X8.4861 Z-18.5000 F120
G01 X7.9087 Z-19.0000 F120
G01 X10.0913 F900
G01 X10.4084 Y383.9623 F900
G02 X7.5906 Y384.0000 I-1.4087 J0.0375 F900
G02 X10.4084 Y383.9623 I1.4092 J0.0003 F900
G01 X10.0913 Y384.0000 F900
G00 Z6.0000 F480


;No. 35: Hole 44
G00 X13.5907 Y384.0000 Z6.0000 F1500
G00 Z0.5000 F480
G01 Z0.0000 F120
G01 X10.1266 Z-3.0000 F120
G01 X13.5907 Z-6.0000 F120
G01 X4.4093 F900
G01 X4.5915 Y385.2720 F900
G01 X13.4085 F900
G01 X12.8194 Y386.5440 F900
G01 X5.1806 F900
G01 X6.4506 Y387.8160 F900
G01 X11.5494 F900
G01 X4.5915 Y382.7280 F900
G01 X13.4085 F900
G01 X12.8194 Y381.4560 F900
G01 X5.1806 F900
G01 X6.4506 Y380.1840 F900
G01 X11.5494 F900
G01 X11.6347 Y379.8620 F900
G02 X6.2347 Y388.0559 I-2.6369 J4.1385 F900
G02 X11.6347 Y379.8620 I2.7658 J-4.0536 F900
G01 X11.5494 Y380.1840 F900
G01 X10.6834 Z-6.7500 F120
G01 X11.5494 Z-7.5000 F120
G01 X6.4506 F900
G01 X5.1806 Y381.4560 F900
G01 X12.8194 F900
G01 X13.4085 Y382.7280 F900
G01 X4.5915 F900
G01 X4.4093 Y384.0000 F900
G01 X13.5907 F900
G01 X13.4085 Y385.2720 F900
G01 X4.5915 F900
G01 X5.1806 Y386.5440 F900
G01 X12.8194 F900
G01 X11.5494 Y387.8160 F900
G01 X6.4506 F900
G01 X6.3653 Y388.1380 F900
G02 X11.7653 Y379.9441 I2.6369 J-4.1385 F900
G02 X6.3653 Y388.1380 I-2.7658 J4.0536 F900
G01 X6.4506 Y387.8160 F900
G00 Z6.0000 F480


;No. 36: Hole 43
G00 X7.9087 Y300.0000 Z6.0000 F1500
G00 Z0.5000 F480
G01 Z0.0000 F120
G01 X10.0913 Z-1.8902 F120
G01 X10.4084 Y300.0377 Z-2.1667 F120
G02 X10.1166 Y299.1404 Z-3.0000 I-1.4086 J-0.0380 F120
G03 X10.4084 Y300.0377 Z-3.8333 I-1.1168 J0.8593 F120
G01 X10.0913 Y300.0000 Z-4.1098 F120
G01 X7.9087 Z-6.0000 F120
G01 X10.0913 F900
G01 X10.4084 Y300.0377 F900
G02 X7.5927 Y299.9237 I-1.4086 J-0.0380 F900
G02 X10.4084 Y300.0377 I1.4071 J0.0766 F900
G01 X10.0913 Y300.0000 F900
G01 X7.9087 Z-7.8902 F120
G01 X7.5916 Y300.0377 Z-8.1667 F120
G02 X7.9311 Y300.9181 Z-9.0000 I1.4087 J-0.0375 F120
G03 X7.5916 Y300.0377 Z-9.8333 I1.0692 J-0.9179 F120
G01 X7.9087 Y300.0000 Z-10.1098 F120
G01 X10.0913 Z-12.0000 F120
G01 X7.9087 F900
G01 X7.5916 Y300.0377 F900
G02 X10.4094 Y300.0000 I1.4087 J-0.0375 F900
G02 X7.5916 Y300.0377 I-1.4092 J-0.0003 F900
G01 X7.9087 Y300.0000 F900
G01 X10.0913 Z-13.8902 F120
G01 X10.4084 Y300.0377 Z-14.1667 F120
G02 X10.1166 Y299.1404 Z-15.0000 I-1.4086 J-0.0380 F120
G03 X10.4084 Y300.0377 Z-15.8333 I-1.1168 J0.8593 F120
G01 X10.0913 Y300.0000 Z-16.1098 F120
G01 X7.9087 Z-18.0000 F120
G01 X10.0913 F900
G01 X10.4084 Y300.0377 F900
G02 X7.5927 Y299.9237 I-1.4086 J-0.0380 F900
G02 X10.4084 Y300.0377 I1.4071 J0.0766 F900
G01 X10.0913 Y300.0000 F900
G01 X9.5139 Z-18.5000 F120
G01 X10.0913 Z-19.0000 F120
G01 X7.9087 F900
G01 X7.5916 Y300.0377 F900
G02 X10.4094 Y300.0000 I1.4087 J-0.0375 F900
G02 X7.5916 Y300.0377 I-1.4092 J-0.0003 F900
G01 X7.9087 Y300.0000 F900
G00 Z6.0000 F480


;No. 37: Hole 42
G00 X4.4093 Y300.0000 Z6.0000 F1500
G00 Z0.5000 F480
G01 Z0.0000 F120
G01 X7.8734 Z-3.0000 F120
G01 X4.4093 Z-6.0000 F120
G01 X13.5907 F900
G01 X13.4085 Y301.2720 F900
G01 X4.5915 F900
G01 X5.1806 Y302.5440 F900
G01 X12.8194 F900
G01 X11.5494 Y303.8160 F900
G01 X6.4506 F900
G01 X4.5915 Y298.7280 F900
G01 X13.4085 F900
G01 X12.8194 Y297.4560 F900
G01 X5.1806 F900
G01 X6.4506 Y296.1840 F900
G01 X11.5494 F900
G01 X11.6347 Y295.8620 F900
G02 X6.2347 Y304.0559 I-2.6369 J4.1385 F900
G02 X11.6347 Y295.8620 I2.7658 J-4.0536 F900
G01 X11.5494 Y296.1840 F900
G01 X10.6834 Z-6.7500 F120
G01 X11.5494 Z-7.5000 F120
G01 X6.4506 F900
G01 X5.1806 Y297.4560 F900
G01 X12.8194 F900
G01 X13.4085 Y298.7280 F900
G01 X4.5915 F900
G01 X4.4093 Y300.0000 F900
G01 X13.5907 F900
G01 X13.4085 Y301.2720 F900
G01 X4.5915 F900
G01 X5.1806 Y302.5440 F900
G01 X12.8194 F900
G01 X11.5494 Y303.8160 F900
G01 X6.4506 F900
G01 X6.3653 Y304.1380 F900
G02 X11.7653 Y295.9441 I2.6369 J-4.1385 F900
G02 X6.3653 Y304.1380 I-2.7658 J4.0536 F900
G01 X6.4506 Y303.8160 F900
G00 Z6.0000 F480


;No. 38: Hole 40
G00 X7.9087 Y216.5000 Z6.0000 F1500
G00 Z0.5000 F480
G01 Z0.0000 F120
G01 X10.0913 Z-1.8902 F120
G01 X10.4084 Y216.4623 Z-2.1667 F120
G02 X10.0689 Y215.5819 Z-3.0000 I-1.4087 J0.0375 F120
G03 X10.4084 Y216.4623 Z-3.8333 I-1.0692 J0.9179 F120
G01 X10.0913 Y216.5000 Z-4.1098 F120
G01 X7.9087 Z-6.0000 F120
G01 X10.0913 F900
G01 X10.4084 Y216.4623 F900
G02 X7.5906 Y216.5000 I-1.4087 J0.0375 F900
G02 X10.4084 Y216.4623 I1.4092 J0.0003 F900
G01 X10.0913 Y216.5000 F900
G01 X7.9087 Z-7.8902 F120
G01 X7.5916 Y216.5377 Z-8.1667 F120
G02 X7.9311 Y217.4181 Z-9.0000 I1.4087 J-0.0375 F120
G03 X7.5916 Y216.5377 Z-9.8333 I1.0692 J-0.9179 F120
G01 X7.9087 Y216.5000 Z-10.1098 F120
G01 X10.0913 Z-12.0000 F120
G01 X7.9087 F900
G01 X7.5916 Y216.5377 F900
G02 X10.4094 Y216.5000 I1.4087 J-0.0375 F900
G02 X7.5916 Y216.5377 I-1.4092 J-0.0003 F900
G01 X7.9087 Y216.5000 F900
G01 X10.0913 Z-13.8902 F120
G01 X10.4084 Y216.4623 Z-14.1667 F120
G02 X10.0689 Y215.5819 Z-15.0000 I-1.4087 J0.0375 F120
G03 X10.4084 Y216.4623 Z-15.8333 I-1.0692 J0.9179 F120
G01 X10.0913 Y216.5000 Z-16.1098 F120
G01 X7.9087 Z-18.0000 F120
G01 X10.0913 F900
G01 X10.4084 Y216.4623 F900
G02 X7.5906 Y216.5000 I-1.4087 J0.0375 F900
G02 X10.4084 Y216.4623 I1.4092 J0.0003 F900
G01 X10.0913 Y216.5000 F900
G01 X9.5139 Z-18.5000 F120
G01 X10.0913 Z-19.0000 F120
G01 X7.9087 F900
G01 X7.5916 Y216.5377 F900
G02 X10.4094 Y216.5000 I1.4087 J-0.0375 F900
G02 X7.5916 Y216.5377 I-1.4092 J-0.0003 F900
G01 X7.9087 Y216.5000 F900
G00 Z6.0000 F480


;No. 39: Hole 39
G00 X4.4093 Y216.5000 Z6.0000 F1500
G00 Z0.5000 F480
G01 Z0.0000 F120
G01 X7.8734 Z-3.0000 F120
G01 X4.4093 Z-6.0000 F120
G01 X13.5907 F900
G01 X13.4085 Y217.7720 F900
G01 X4.5915 F900
G01 X5.1806 Y219.0440 F900
G01 X12.8194 F900
G01 X11.5494 Y220.3160 F900
G01 X6.4506 F900
G01 X4.5915 Y215.2280 F900
G01 X13.4085 F900
G01 X12.8194 Y213.9560 F900
G01 X5.1806 F900
G01 X6.4506 Y212.6840 F900
G01 X11.5494 F900
G01 X11.6347 Y212.3620 F900
G02 X6.2347 Y220.5559 I-2.6369 J4.1385 F900
G02 X11.6347 Y212.3620 I2.7658 J-4.0536 F900
G01 X11.5494 Y212.6840 F900
G01 X10.6834 Z-6.7500 F120
G01 X11.5494 Z-7.5000 F120
G01 X6.4506 F900
G01 X5.1806 Y213.9560 F900
G01 X12.8194 F900
G01 X13.4085 Y215.2280 F900
G01 X4.5915 F900
G01 X4.4093 Y216.5000 F900
G01 X13.5907 F900
G01 X13.4085 Y217.7720 F900
G01 X4.5915 F900
G01 X5.1806 Y219.0440 F900
G01 X12.8194 F900
G01 X11.5494 Y220.3160 F900
G01 X6.4506 F900
G01 X6.3653 Y220.6380 F900
G02 X11.7653 Y212.4441 I2.6369 J-4.1385 F900
G02 X6.3653 Y220.6380 I-2.7658 J4.0536 F900
G01 X6.4506 Y220.3160 F900
G00 Z6.0000 F480


;No. 40: Hole 38
G00 X7.9106 Y133.0000 Z6.0000 F1500
G00 Z0.5000 F480
G01 Z0.0000 F120
G01 X10.0894 Z-1.8869 F120
G01 X10.4041 Y133.0708 Z-2.1662 F120
G02 X10.1331 Y132.1664 Z-3.0000 I-1.4050 J-0.0717 F120
G03 X10.4041 Y133.0708 Z-3.8338 I-1.1340 J0.8326 F120
G01 X10.0894 Y133.0000 Z-4.1131 F120
G01 X7.9106 Z-6.0000 F120
G01 X10.0894 F900
G01 X10.4041 Y133.0708 F900
G02 X7.5999 Y132.8528 I-1.4050 J-0.0717 F900
G02 X10.4041 Y133.0708 I1.3991 J0.1481 F900
G01 X10.0894 Y133.0000 F900
G01 X7.9106 Z-7.8869 F120
G01 X7.5959 Y132.9292 Z-8.1662 F120
G02 X7.8669 Y133.8336 Z-9.0000 I1.4050 J0.0717 F120
G03 X7.5959 Y132.9292 Z-9.8338 I1.1340 J-0.8326 F120
G01 X7.9106 Y133.0000 Z-10.1131 F120
G01 X10.0894 Z-12.0000 F120
G01 X7.9106 F900
G01 X7.5959 Y132.9292 F900
G02 X10.4001 Y133.1472 I1.4050 J0.0717 F900
G02 X7.5959 Y132.9292 I-1.3991 J-0.1481 F900
G01 X7.9106 Y133.0000 F900
G01 X10.0894 Z-13.8869 F120
G01 X10.4041 Y133.0708 Z-14.1662 F120
G02 X10.1331 Y132.1664 Z-15.0000 I-1.4050 J-0.0717 F120
G03 X10.4041 Y133.0708 Z-15.8338 I-1.1340 J0.8326 F120
G01 X10.0894 Y133.0000 Z-16.1131 F120
G01 X7.9106 Z-18.0000 F120
G01 X10.0894 F900
G01 X10.4041 Y133.0708 F900
G02 X7.5999 Y132.8528 I-1.4050 J-0.0717 F900
G02 X10.4041 Y133.0708 I1.3991 J0.1481 F900
G01 X10.0894 Y133.0000 F900
G01 X9.5120 Z-18.5000 F120
G01 X10.0894 Z-19.0000 F120
G01 X7.9106 F900
G01 X7.5959 Y132.9292 F900
G02 X10.4001 Y133.1472 I1.4050 J0.0717 F900
G02 X7.5959 Y132.9292 I-1.3991 J-0.1481 F900
G01 X7.9106 Y133.0000 F900
G00 Z6.0000 F480


;No. 41: Hole 37
G00 X4.4093 Y133.0000 Z6.0000 F1500
G00 Z0.5000 F480
G01 Z0.0000 F120
G01 X7.8734 Z-3.0000 F120
G01 X4.4093 Z-6.0000 F120
G01 X13.5907 F900
G01 X13.4085 Y134.2720 F900
G01 X4.5915 F900
G01 X5.1806 Y135.5440 F900
G01 X12.8194 F900
G01 X11.5494 Y136.8160 F900
G01 X6.4506 F900
G01 X4.5915 Y131.7280 F900
G01 X13.4085 F900
G01 X12.8194 Y130.4560 F900
G01 X5.1806 F900
G01 X6.4506 Y129.1840 F900
G01 X11.5494 F900
G01 X11.6347 Y128.8620 F900
G02 X6.2347 Y137.0559 I-2.6369 J4.1385 F900
G02 X11.6347 Y128.8620 I2.7658 J-4.0536 F900
G01 X11.5494 Y129.1840 F900
G01 X10.6834 Z-6.7500 F120
G01 X11.5494 Z-7.5000 F120
G01 X6.4506 F900
G01 X5.1806 Y130.4560 F900
G01 X12.8194 F900
G01 X13.4085 Y131.7280 F900
G01 X4.5915 F900
G01 X4.4093 Y133.0000 F900
G01 X13.5907 F900
G01 X13.4085 Y134.2720 F900
G01 X4.5915 F900
G01 X5.1806 Y135.5440 F900
G01 X12.8194 F900
G01 X11.5494 Y136.8160 F900
G01 X6.4506 F900
G01 X6.3653 Y137.1380 F900
G02 X11.7653 Y128.9441 I2.6369 J-4.1385 F900
G02 X6.3653 Y137.1380 I-2.7658 J4.0536 F900
G01 X6.4506 Y136.8160 F900
G00 Z6.0000 F480


;No. 42: Hole 32
;M05
;G0 Z60 F2000	
;G0 X0 Y0 F4000
;M0 ("CHANGE BIT TO: "< n >) ; 
;M108
;M0 (?SET UP PROBE?)
;M108
;; Touch off Z
;G38.2 Z-20 F300 ; perform z-probe
;G92 Z0.5 ; Set Z to thickness of touch plate 6.6mm in my case
;G0 Z15 F500 ; raise 15mm
;M0 (?Remove probe - READY TO RESUME JOB?)
;M108
;;Change tool: 1/8" Troch
;M03
G00 X149.9891 Y28.8728 Z6.0000 F1500
G00 X150.7721 Y28.7348 Z0.5107 F480
G01 X150.7362 Y28.6009 Z0.5223 F180
G01 X150.6776 Y28.4753 Z0.5447 F180
G01 X150.5981 Y28.3618 Z0.5670 F180
G01 X150.5002 Y28.2638 Z0.5786 F180
G01 X150.3866 Y28.1843 Z0.5717 F180
G01 X150.2610 Y28.1258 Z0.5433 F180
G01 X150.1272 Y28.0899 Z0.4963 F180
G01 X149.9891 Y28.0778 Z0.4387 F180
G01 X149.8511 Y28.0899 Z0.3810 F180
G01 X149.7172 Y28.1258 Z0.3341 F180
G01 X149.5916 Y28.1843 Z0.3057 F180
G01 X149.4781 Y28.2638 Z0.2987 F180
G01 X149.3801 Y28.3618 Z0.3103 F180
G01 X149.3007 Y28.4753 Z0.3327 F180
G01 X149.2421 Y28.6009 Z0.3550 F180
G01 X149.2062 Y28.7348 Z0.3666 F180
G01 X149.1941 Y28.8728 Z0.3597 F180
G01 X149.2062 Y29.0109 Z0.3313 F180
G01 X149.2421 Y29.1447 Z0.2843 F180
G01 X149.3007 Y29.2703 Z0.2267 F180
G01 X149.3801 Y29.3838 Z0.1690 F180
G01 X149.4781 Y29.4818 Z0.1221 F180
G01 X149.5916 Y29.5613 Z0.0937 F180
G01 X149.7172 Y29.6199 Z0.0867 F180
G01 X149.8511 Y29.6557 Z0.0983 F180
G01 X149.9891 Y29.6678 Z0.1207 F180
G01 X150.1272 Y29.6557 Z0.1430 F180
G01 X150.2610 Y29.6199 Z0.1546 F180
G01 X150.3000 Y29.6045 Z0.1547 F180
G01 X150.4200 Y29.5526 Z0.1474 F180
G01 X150.5267 Y29.4803 Z0.1190 F180
G01 X150.5888 Y29.4224 Z0.0904 F180
G01 X150.6673 Y29.3226 Z0.0390 F180
G01 X150.7250 Y29.2106 Z-0.0127 F180
G01 X150.7508 Y29.1313 Z-0.0420 F180
G01 X150.7709 Y29.0076 Z-0.0717 F180
G01 X150.7669 Y28.8824 Z-0.0804 F180
G01 X150.7509 Y28.8004 Z-0.0747 F180
G01 X150.7081 Y28.6819 Z-0.0529 F180
G01 X150.6430 Y28.5728 Z-0.0233 F180
G01 X150.5884 Y28.5074 Z-0.0047 F180
G01 X150.4918 Y28.4221 Z0.0136 F180
G01 X150.3796 Y28.3552 F180
G01 X150.2980 Y28.3221 Z0.0016 F180
G01 X150.1682 Y28.2908 Z-0.0329 F180
G01 X150.0327 Y28.2830 Z-0.0816 F180
G01 X149.9415 Y28.2912 Z-0.1170 F180
G01 X149.8065 Y28.3234 Z-0.1665 F180
G01 X149.6769 Y28.3791 Z-0.2026 F180
G01 X149.5957 Y28.4286 Z-0.2157 F180
G01 X149.4845 Y28.5202 Z-0.2175 F180
G01 X149.3888 Y28.6304 Z-0.2005 F180
G01 X149.3351 Y28.7125 Z-0.1824 F180
G01 X149.2721 Y28.8468 Z-0.1526 F180
G01 X149.2312 Y28.9908 Z-0.1297 F180
G01 X149.2169 Y29.0899 Z-0.1229 F180
G01 X149.2162 Y29.2410 Z-0.1298 F180
G01 X149.2396 Y29.3908 Z-0.1579 F180
G01 X149.2682 Y29.4877 Z-0.1864 F180
G01 X149.3309 Y29.6261 Z-0.2376 F180
G01 X149.4146 Y29.7527 Z-0.2895 F180
G01 X149.4807 Y29.8284 Z-0.3189 F180
G01 X149.5945 Y29.9274 Z-0.3490 F180
G01 X149.7218 Y30.0062 Z-0.3581 F180
G01 X149.8120 Y30.0465 Z-0.3526 F180
G01 X149.9541 Y30.0875 Z-0.3309 F180
G01 X150.0991 Y30.1045 Z-0.3014 F180
G01 X150.1952 Y30.1024 Z-0.2828 F180
G01 X150.3367 Y30.0791 Z-0.2642 F180
G01 X150.4701 Y30.0329 Z-0.2638 F180
G01 X150.5525 Y29.9905 Z-0.2755 F180
G01 X150.6649 Y29.9102 Z-0.3098 F180
G01 X150.7598 Y29.8132 Z-0.3583 F180
G01 X150.8120 Y29.7410 Z-0.3937 F180
G01 X150.8731 Y29.6231 Z-0.4433 F180
G01 X150.9111 Y29.4979 Z-0.4797 F180
G01 X150.9231 Y29.4128 Z-0.4931 F180
G01 X150.9217 Y29.2844 Z-0.4953 F180
G01 X150.8964 Y29.1599 Z-0.4785 F180
G01 X150.8669 Y29.0814 Z-0.4605 F180
G01 X150.8052 Y28.9718 Z-0.4307 F180
G01 X150.7239 Y28.8765 Z-0.4076 F180
G01 X150.6604 Y28.8225 Z-0.4006 F180
G01 X150.5535 Y28.7571 Z-0.4071 F180
G01 X150.4355 Y28.7130 Z-0.4348 F180
G01 X150.3528 Y28.6964 Z-0.4631 F180
G01 X150.2256 Y28.6907 Z-0.5143 F180
G01 X150.0981 Y28.7092 Z-0.5662 F180
G01 X150.0152 Y28.7347 Z-0.5957 F180
G01 X149.8969 Y28.7916 Z-0.6262 F180
G01 X149.7892 Y28.8703 Z-0.6357 F180
G01 X149.7252 Y28.9336 Z-0.6305 F180
G01 X149.6433 Y29.0426 Z-0.6090 F180
G01 X149.5806 Y29.1664 Z-0.5795 F180
G01 X149.5506 Y29.2550 Z-0.5608 F180
G01 X149.5249 Y29.3945 Z-0.5420 F180
G01 X149.5229 Y29.5384 Z-0.5413 F180
G01 X149.5350 Y29.6345 Z-0.5527 F180
G01 X149.5734 Y29.7760 Z-0.5866 F180
G01 X149.6350 Y29.9108 Z-0.6349 F180
G01 X149.6881 Y29.9948 Z-0.6703 F180
G01 X149.7851 Y30.1093 Z-0.7201 F180
G01 X149.8999 Y30.2075 Z-0.7568 F180
G01 X149.9845 Y30.2623 Z-0.7704 F180
G01 X150.1220 Y30.3266 Z-0.7730 F180
G01 X150.2681 Y30.3682 Z-0.7566 F180
G01 X150.3680 Y30.3828 Z-0.7387 F180
G01 X150.5195 Y30.3840 Z-0.7089 F180
G01 X150.6686 Y30.3611 Z-0.6855 F180
G01 X150.7643 Y30.3330 Z-0.6783 F180
G01 X150.9004 Y30.2714 Z-0.6844 F180
G01 X151.0235 Y30.1895 Z-0.7118 F180
G01 X151.0965 Y30.1250 Z-0.7399 F180
G01 X151.1909 Y30.0143 Z-0.7909 F180
G01 X151.2647 Y29.8913 Z-0.8429 F180
G01 X151.3013 Y29.8045 Z-0.8726 F180
G01 X151.3368 Y29.6685 Z-0.9034 F180
G01 X151.3483 Y29.5308 Z-0.9133 F180
G01 X151.3425 Y29.4404 Z-0.9083 F180
G01 X151.3144 Y29.3082 Z-0.8871 F180
G01 X151.2640 Y29.1853 Z-0.8577 F180
G01 X151.2190 Y29.1105 Z-0.8389 F180
G01 X151.1359 Y29.0103 Z-0.8198 F180
G01 X151.0371 Y28.9282 Z-0.8187 F180
G01 X150.9643 Y28.8851 Z-0.8298 F180
G01 X150.8467 Y28.8378 Z-0.8634 F180
G01 X150.7232 Y28.8140 Z-0.9116 F180
G01 X150.6399 Y28.8114 Z-0.9469 F180
G01 X150.5156 Y28.8270 Z-0.9969 F180
G01 X150.3965 Y28.8661 Z-1.0339 F180
G01 X150.3222 Y28.9045 Z-1.0478 F180
G01 X150.2204 Y28.9790 Z-1.0507 F180
G01 X150.1337 Y29.0723 Z-1.0346 F180
G01 X150.0860 Y29.1432 Z-1.0168 F180
G01 X150.0309 Y29.2603 Z-0.9870 F180
G01 X149.9978 Y29.3873 Z-0.9634 F180
G01 X149.9887 Y29.4753 Z-0.9560 F180
G01 X149.9947 Y29.6092 Z-0.9617 F180
G01 X150.0249 Y29.7421 Z-0.9887 F180
G01 X150.0581 Y29.8279 Z-1.0166 F180
G01 X150.1266 Y29.9494 Z-1.0675 F180
G01 X150.2163 Y30.0591 Z-1.1196 F180
G01 X150.2865 Y30.1238 Z-1.1495 F180
G01 X150.4055 Y30.2059 Z-1.1806 F180
G01 X150.5382 Y30.2680 Z-1.1909 F180
G01 X150.6322 Y30.2972 Z-1.1861 F180
G01 X150.7789 Y30.3212 Z-1.1652 F180
G01 X150.9290 Y30.3213 Z-1.1358 F180
G01 X151.0284 Y30.3080 Z-1.1169 F180
G01 X151.1741 Y30.2674 Z-1.0976 F180
G01 X151.3120 Y30.2041 Z-1.0961 F180
G01 X151.3975 Y30.1501 Z-1.1070 F180
G01 X151.5136 Y30.0521 Z-1.1403 F180
G01 X151.6124 Y29.9372 Z-1.1882 F180
G01 X151.6672 Y29.8531 Z-1.2236 F180
G01 X151.7313 Y29.7168 Z-1.2737 F180
G01 X151.7723 Y29.5732 Z-1.3110 F180
G01 X151.7863 Y29.4756 Z-1.3251 F180
G01 X151.7869 Y29.3282 Z-1.3285 F180
G01 X151.7635 Y29.1846 Z-1.3126 F180
G01 X151.7352 Y29.0931 Z-1.2949 F180
G01 X151.6742 Y28.9641 Z-1.2651 F180
G01 X151.5935 Y28.8490 Z-1.2413 F180
G01 X151.5302 Y28.7818 Z-1.2337 F180
G01 X151.4225 Y28.6964 Z-1.2390 F180
G01 X151.3035 Y28.6324 Z-1.2656 F180
G01 X151.2200 Y28.6024 Z-1.2934 F180
G01 X151.0903 Y28.5767 Z-1.3442 F180
G01 X150.9600 Y28.5752 Z-1.3963 F180
G01 X150.8753 Y28.5874 Z-1.4264 F180
G01 X150.7528 Y28.6246 Z-1.4578 F180
G01 X150.6407 Y28.6836 Z-1.4685 F180
G01 X150.5737 Y28.7339 Z-1.4640 F180
G01 X150.4860 Y28.8238 Z-1.4433 F180
G01 X150.4174 Y28.9286 Z-1.4139 F180
G01 X150.3835 Y29.0048 Z-1.3950 F180
G01 X150.3507 Y29.1259 Z-1.3754 F180
G01 X150.3416 Y29.2517 Z-1.3735 F180
G01 X150.3489 Y29.3359 Z-1.3842 F180
G01 X150.3791 Y29.4600 Z-1.4171 F180
G01 X150.4327 Y29.5777 Z-1.4649 F180
G01 X150.4805 Y29.6504 Z-1.5002 F180
G01 X150.5685 Y29.7486 Z-1.5505 F180
G01 X150.6745 Y29.8306 Z-1.5881 F180
G01 X150.7534 Y29.8747 Z-1.6025 F180
G01 X150.8815 Y29.9234 Z-1.6062 F180
G01 X151.0183 Y29.9497 Z-1.5906 F180
G01 X151.1122 Y29.9541 Z-1.5730 F180
G01 X151.2539 Y29.9404 Z-1.5432 F180
G01 X151.3934 Y29.9027 Z-1.5192 F180
G01 X151.4829 Y29.8646 Z-1.5113 F180
G01 X151.6088 Y29.7887 Z-1.5163 F180
G01 X151.7220 Y29.6923 Z-1.5426 F180
G01 X151.7885 Y29.6181 Z-1.5701 F180
G01 X151.8723 Y29.4933 Z-1.6208 F180
G01 X151.9356 Y29.3559 Z-1.6730 F180
G01 X151.9653 Y29.2595 Z-1.7032 F180
G01 X151.9897 Y29.1096 Z-1.7351 F180
G01 X151.9900 Y28.9577 Z-1.7461 F180
G01 X151.9768 Y28.8577 Z-1.7418 F180
G01 X151.9367 Y28.7117 Z-1.7214 F180
G01 X151.8741 Y28.5748 Z-1.6921 F180
G01 X151.8210 Y28.4906 Z-1.6731 F180
G01 X151.7249 Y28.3768 Z-1.6532 F180
G01 X151.6127 Y28.2811 Z-1.6510 F180
G01 X151.5310 Y28.2287 Z-1.6613 F180
G01 X151.3992 Y28.1684 Z-1.6939 F180
G01 X151.2611 Y28.1315 Z-1.7416 F180
G01 X151.1680 Y28.1203 Z-1.7769 F180
G01 X151.0282 Y28.1236 Z-1.8272 F180
G01 X150.8933 Y28.1505 Z-1.8652 F180
G01 X150.8084 Y28.1809 Z-1.8798 F180
G01 X150.6898 Y28.2443 Z-1.8839 F180
G01 X150.5862 Y28.3266 Z-1.8686 F180
G01 X150.5272 Y28.3904 Z-1.8511 F180
G01 X150.4544 Y28.4977 Z-1.8213 F180
G01 X150.4035 Y28.6152 Z-1.7971 F180
G01 X150.3825 Y28.6970 Z-1.7890 F180
G01 X150.3702 Y28.8228 Z-1.7936 F180
G01 X150.3820 Y28.9478 Z-1.8195 F180
G01 X150.4030 Y29.0285 Z-1.8469 F180
G01 X150.4528 Y29.1434 Z-1.8974 F180
G01 X150.5239 Y29.2468 Z-1.9498 F180
G01 X150.5818 Y29.3074 Z-1.9801 F180
G01 X150.6821 Y29.3844 Z-2.0123 F180
G01 X150.7962 Y29.4416 Z-2.0237 F180
G01 X150.8780 Y29.4676 Z-2.0196 F180
G01 X151.0062 Y29.4879 Z-1.9994 F180
G01 X151.1380 Y29.4843 Z-1.9702 F180
G01 X151.2254 Y29.4685 Z-1.9511 F180
G01 X151.3530 Y29.4253 Z-1.9310 F180
G01 X151.4729 Y29.3592 Z-1.9284 F180
G01 X151.5465 Y29.3033 Z-1.9385 F180
G01 X151.6448 Y29.2035 Z-1.9708 F180
G01 X151.7260 Y29.0866 Z-2.0182 F180
G01 X151.7691 Y29.0010 Z-2.0535 F180
G01 X151.8156 Y28.8635 Z-2.1040 F180
G01 X151.8391 Y28.7184 Z-2.1422 F180
G01 X151.8415 Y28.6198 Z-2.1571 F180
G01 X151.8244 Y28.4716 Z-2.1616 F180
G01 X151.7835 Y28.3270 Z-2.1466 F180
G01 X151.7435 Y28.2348 Z-2.1293 F180
G01 X151.6647 Y28.1055 Z-2.0994 F180
G01 X151.5660 Y27.9900 Z-2.0750 F180
G01 X151.4909 Y27.9225 Z-2.0667 F180
G01 X151.3650 Y27.8375 Z-2.0709 F180
G01 X151.2277 Y27.7738 Z-2.0965 F180
G01 X151.1688 Y27.7541 Z-2.1125 F180
G01 X151.0215 Y27.7236 Z-2.1607 F180
G01 X150.8723 Y27.7172 Z-2.2136 F180
G01 X150.8114 Y27.7215 Z-2.2342 F180
G01 X150.6664 Y27.7494 Z-2.2753 F180
G01 X150.5296 Y27.7999 Z-2.2980 F180
G01 X150.4766 Y27.8270 Z-2.3011 F180
G01 X150.3574 Y27.9070 Z-2.2940 F180
G01 X150.2550 Y28.0045 Z-2.2710 F180
G01 X150.2183 Y28.0489 Z-2.2589 F180
G01 X150.1437 Y28.1661 Z-2.2296 F180
G01 X150.0916 Y28.2923 Z-2.2090 F180
G01 X150.0769 Y28.3459 Z-2.2052 F180
G01 X150.0579 Y28.4785 Z-2.2106 F180
G01 X150.0631 Y28.6103 Z-2.2373 F180
G01 X150.0721 Y28.6633 Z-2.2537 F180
G01 X150.1100 Y28.7873 Z-2.3024 F180
G01 X150.1696 Y28.9007 Z-2.3553 F180
G01 X150.1999 Y28.9434 Z-2.3757 F180
G01 X150.2859 Y29.0363 Z-2.4159 F180
G01 X150.3873 Y29.1106 Z-2.4374 F180
G01 X150.4327 Y29.1352 Z-2.4400 F180
G01 X150.5497 Y29.1800 Z-2.4319 F180
G01 X150.6731 Y29.2016 Z-2.4081 F180
G01 X150.7248 Y29.2035 Z-2.3960 F180
G01 X150.8501 Y29.1917 Z-2.3669 F180
G01 X150.9718 Y29.1561 Z-2.3471 F180
G01 X151.0198 Y29.1347 Z-2.3438 F180
G01 X151.1294 Y29.0678 Z-2.3504 F180
G01 X151.2259 Y28.9807 Z-2.3782 F180
G01 X151.2610 Y28.9395 Z-2.3949 F180
G01 X151.3334 Y28.8289 Z-2.4442 F180
G01 X151.3856 Y28.7051 Z-2.4970 F180
G01 X151.4007 Y28.6512 Z-2.5171 F180
G01 X151.4211 Y28.5157 Z-2.5565 F180
G01 X151.4176 Y28.3765 Z-2.5768 F180
G01 X151.4092 Y28.3191 Z-2.5789 F180
G01 X151.3717 Y28.1824 Z-2.5697 F180
G01 X151.3108 Y28.0519 Z-2.5453 F180
G01 X151.2793 Y28.0010 Z-2.5331 F180
G01 X151.1882 Y27.8867 Z-2.5042 F180
G01 X151.0783 Y27.7877 Z-2.4852 F180
G01 X151.0284 Y27.7521 Z-2.4824 F180
G01 X150.8972 Y27.6803 Z-2.4902 F180
G01 X150.7551 Y27.6301 Z-2.5191 F180
G01 X150.6945 Y27.6161 Z-2.5362 F180
G01 X150.5439 Y27.5996 Z-2.5860 F180
G01 X150.3922 Y27.6071 Z-2.6386 F180
G01 X150.3305 Y27.6172 Z-2.6585 F180
G01 X150.1845 Y27.6591 Z-2.6970 F180
G01 X150.0473 Y27.7234 Z-2.7161 F180
G01 X149.9944 Y27.7559 Z-2.7177 F180
G01 X149.8762 Y27.8493 Z-2.7074 F180
G01 X149.7753 Y27.9596 Z-2.6825 F180
G01 X149.7395 Y28.0091 Z-2.6702 F180
G01 X149.6675 Y28.1383 Z-2.6416 F180
G01 X149.6182 Y28.2758 Z-2.6234 F180
G01 X149.6048 Y28.3339 Z-2.6210 F180
G01 X149.5894 Y28.4769 Z-2.6301 F180
G01 X149.5981 Y28.6184 Z-2.6601 F180
G01 X149.6085 Y28.6751 Z-2.6776 F180
G01 X149.6503 Y28.8079 Z-2.7277 F180
G01 X149.7133 Y28.9294 Z-2.7802 F180
G01 X149.7449 Y28.9753 Z-2.7999 F180
G01 X149.8343 Y29.0755 Z-2.8374 F180
G01 X149.9386 Y29.1567 Z-2.8553 F180
G01 X149.9850 Y29.1840 Z-2.8564 F180
G01 X150.1045 Y29.2352 Z-2.8451 F180
G01 X150.2297 Y29.2629 Z-2.8196 F180
G01 X150.2819 Y29.2673 Z-2.8073 F180
G01 X150.4086 Y29.2616 Z-2.7790 F180
G01 X150.5309 Y29.2322 Z-2.7617 F180
G01 X150.5790 Y29.2134 Z-2.7598 F180
G01 X150.6888 Y29.1530 Z-2.7700 F180
G01 X150.7850 Y29.0727 Z-2.8011 F180
G01 X150.8198 Y29.0345 Z-2.8189 F180
G01 X150.8916 Y28.9313 Z-2.8695 F180
G01 X150.9429 Y28.8155 Z-2.9218 F180
G01 X150.9576 Y28.7651 Z-2.9412 F180
G01 X150.9772 Y28.6385 Z-2.9778 F180
G01 X150.9729 Y28.5088 Z-2.9945 F180
G01 X150.9641 Y28.4555 Z-2.9951 F180
G01 X150.9460 Y28.3111 Z-2.9828 F180
G01 X150.9048 Y28.1736 Z-2.9568 F180
G01 X150.8815 Y28.1200 Z-2.9444 F180
G01 X150.8108 Y27.9994 Z-2.9164 F180
G01 X150.7220 Y27.8947 Z-2.9000 F180
G01 X150.6808 Y27.8569 Z-2.8986 F180
G01 X150.5718 Y27.7799 Z-2.9100 F180
G01 X150.4525 Y27.7247 Z-2.9422 F180
G01 X150.4015 Y27.7088 Z-2.9603 F180
G01 X150.2750 Y27.6874 Z-3.0113 F180
G01 X150.1481 Y27.6902 Z-3.0634 F180
G01 X150.0968 Y27.6983 Z-3.0825 F180
G01 X149.9768 Y27.7351 Z-3.1181 F180
G01 X149.8663 Y27.7941 Z-3.1336 F180
G01 X149.8245 Y27.8243 Z-3.1337 F180
G01 X149.7340 Y27.9117 Z-3.1204 F180
G01 X149.6613 Y28.0155 Z-3.0939 F180
G01 X149.6372 Y28.0622 Z-3.0815 F180
G01 X149.5940 Y28.1840 Z-3.0539 F180
G01 X149.5737 Y28.3136 Z-3.0384 F180
G01 X149.5723 Y28.3681 Z-3.0374 F180
G01 X149.5861 Y28.5021 Z-3.0501 F180
G01 X149.6240 Y28.6339 Z-3.0833 F180
G01 X149.6464 Y28.6864 Z-3.1018 F180
G01 X149.7169 Y28.8085 Z-3.1531 F180
G01 X149.8084 Y28.9186 Z-3.2049 F180
G01 X149.8516 Y28.9597 Z-3.2237 F180
G01 X149.9688 Y29.0479 Z-3.2583 F180
G01 X150.1002 Y29.1166 Z-3.2726 F180
G01 X150.1576 Y29.1387 Z-3.2722 F180
G01 X150.3031 Y29.1770 Z-3.2580 F180
G01 X150.4537 Y29.1917 Z-3.2310 F180
G01 X150.5162 Y29.1908 Z-3.2186 F180
G01 X150.6670 Y29.1722 Z-3.1914 F180
G01 X150.8128 Y29.1299 Z-3.1769 F180
G01 X150.8703 Y29.1060 Z-3.1764 F180
G01 X151.0023 Y29.0333 Z-3.1903 F180
G01 X151.1201 Y28.9412 Z-3.2245 F180
G01 X151.1636 Y28.8982 Z-3.2433 F180
G01 X151.2561 Y28.7840 Z-3.2949 F180
G01 X151.3275 Y28.6578 Z-3.3464 F180
G01 X151.3504 Y28.6033 Z-3.3649 F180
G01 X151.3895 Y28.4675 Z-3.3985 F180
G01 X151.4045 Y28.3292 Z-3.4116 F180
G01 X151.4037 Y28.2726 Z-3.4107 F180
G01 X151.3849 Y28.1388 Z-3.3955 F180
G01 X151.3431 Y28.0127 Z-3.3681 F180
G01 X151.3196 Y27.9639 Z-3.3557 F180
G01 X151.2485 Y27.8557 Z-3.3290 F180
G01 X151.1595 Y27.7638 Z-3.3154 F180
G01 X151.1184 Y27.7315 F180
G01 X151.0096 Y27.6680 Z-3.3305 F180
G01 X150.8912 Y27.6268 Z-3.3658 F180
G01 X150.8407 Y27.6166 Z-3.3848 F180
G01 X150.7155 Y27.6094 Z-3.4367 F180
G01 X150.5906 Y27.6264 Z-3.4878 F180
G01 X150.5403 Y27.6403 Z-3.5061 F180
G01 X150.4228 Y27.6912 Z-3.5386 F180
G01 X150.3154 Y27.7640 Z-3.5504 F180
G01 X150.2751 Y27.7998 Z-3.5491 F180
G01 X150.1880 Y27.9004 Z-3.5330 F180
G01 X150.1191 Y28.0170 Z-3.5052 F180
G01 X150.0966 Y28.0687 Z-3.4928 F180
G01 X150.0573 Y28.2024 Z-3.4666 F180
G01 X150.0410 Y28.3430 Z-3.4540 F180
G01 X150.0413 Y28.4020 Z-3.4544 F180
G01 X150.0587 Y28.5462 Z-3.4708 F180
G01 X150.1001 Y28.6874 Z-3.5070 F180
G01 X150.1238 Y28.7436 Z-3.5263 F180
G01 X150.1970 Y28.8741 Z-3.5785 F180
G01 X150.2908 Y28.9922 Z-3.6293 F180
G01 X150.3349 Y29.0362 Z-3.6472 F180
G01 X150.4531 Y29.1315 Z-3.6786 F180
G01 X150.5850 Y29.2068 Z-3.6893 F180
G01 X150.6424 Y29.2315 Z-3.6875 F180
G01 X150.7870 Y29.2760 Z-3.6704 F180
G01 X150.9359 Y29.2968 Z-3.6423 F180
G01 X150.9975 Y29.2983 Z-3.6299 F180
G01 X151.1451 Y29.2855 Z-3.6042 F180
G01 X151.2870 Y29.2493 Z-3.5926 F180
G01 X151.3427 Y29.2279 Z-3.5936 F180
G01 X151.4694 Y29.1616 Z-3.6111 F180
G01 X151.5813 Y29.0762 Z-3.6483 F180
G01 X151.6223 Y29.0361 Z-3.6679 F180
G01 X151.7077 Y28.9293 Z-3.7203 F180
G01 X151.7717 Y28.8111 Z-3.7707 F180
G01 X151.8017 Y28.7281 Z-3.7977 F180
G01 X151.8264 Y28.6002 Z-3.8230 F180
G01 X151.8270 Y28.4716 Z-3.8270 F180
G01 X151.8141 Y28.3879 Z-3.8186 F180
G01 X151.7748 Y28.2681 Z-3.7941 F180
G01 X151.7137 Y28.1586 Z-3.7643 F180
G01 X151.6620 Y28.0933 Z-3.7469 F180
G01 X151.5689 Y28.0092 Z-3.7322 F180
G01 X151.4608 Y27.9441 Z-3.7369 F180
G01 X151.3824 Y27.9125 Z-3.7519 F180
G01 X151.2568 Y27.8843 Z-3.7903 F180
G01 X151.1264 Y27.8797 Z-3.8409 F180
G01 X151.0391 Y27.8901 Z-3.8762 F180
G01 X150.9093 Y27.9260 Z-3.9235 F180
G01 X150.7858 Y27.9853 Z-3.9555 F180
G01 X150.7092 Y28.0369 Z-3.9655 F180
G01 X150.6041 Y28.1318 Z-3.9627 F180
G01 X150.5150 Y28.2447 Z-3.9424 F180
G01 X150.4662 Y28.3282 Z-3.9233 F180
G01 X150.4094 Y28.4644 Z-3.8941 F180
G01 X150.3751 Y28.6095 Z-3.8741 F180
G01 X150.3653 Y28.7089 Z-3.8701 F180
G01 X150.3699 Y28.8601 Z-3.8818 F180
G01 X150.3986 Y29.0091 Z-3.9142 F180
G01 X150.4306 Y29.1049 Z-3.9446 F180
G01 X150.4967 Y29.2415 Z-3.9970 F180
G01 X150.5832 Y29.3655 Z-4.0474 F180
G01 X150.6509 Y29.4391 Z-4.0747 F180
G01 X150.7651 Y29.5349 Z-4.1004 F180
G01 X150.8920 Y29.6100 Z-4.1047 F180
G01 X150.9815 Y29.6477 Z-4.0965 F180
G01 X151.1202 Y29.6849 Z-4.0722 F180
G01 X151.2610 Y29.6981 Z-4.0424 F180
G01 X151.3537 Y29.6935 Z-4.0250 F180
G01 X151.4879 Y29.6671 Z-4.0099 F180
G01 X151.6133 Y29.6182 Z-4.0142 F180
G01 X151.6898 Y29.5742 Z-4.0290 F180
G01 X151.7914 Y29.4926 Z-4.0671 F180
G01 X151.8749 Y29.3948 Z-4.1175 F180
G01 X151.9192 Y29.3226 Z-4.1528 F180
G01 X151.9667 Y29.2058 Z-4.2003 F180
G01 X151.9908 Y29.0827 Z-4.2327 F180
G01 X151.9936 Y28.9994 Z-4.2429 F180
G01 X151.9768 Y28.8751 Z-4.2405 F180
G01 X151.9364 Y28.7556 Z-4.2205 F180
G01 X151.8970 Y28.6808 Z-4.2014 F180
G01 X151.8195 Y28.5782 Z-4.1722 F180
G01 X151.7229 Y28.4905 Z-4.1519 F180
G01 X151.6497 Y28.4420 Z-4.1477 F180
G01 X151.5274 Y28.3855 Z-4.1590 F180
G01 X151.3949 Y28.3510 Z-4.1910 F180
G01 X151.3031 Y28.3409 Z-4.2213 F180
G01 X151.1616 Y28.3454 Z-4.2736 F180
G01 X151.0208 Y28.3742 Z-4.3242 F180
G01 X150.9296 Y28.4064 Z-4.3516 F180
G01 X150.7983 Y28.4737 Z-4.3777 F180
G01 X150.6784 Y28.5623 Z-4.3824 F180
G01 X150.6067 Y28.6318 Z-4.3744 F180
G01 X150.5127 Y28.7502 Z-4.3503 F180
G01 X150.4383 Y28.8825 Z-4.3205 F180
G01 X150.4009 Y28.9764 Z-4.3030 F180
G01 X150.3631 Y29.1233 Z-4.2876 F180
G01 X150.3492 Y29.2739 Z-4.2915 F180
G01 X150.3533 Y29.3739 Z-4.3061 F180
G01 X150.3787 Y29.5207 Z-4.3439 F180
G01 X150.4270 Y29.6601 Z-4.3942 F180
G01 X150.4711 Y29.7467 Z-4.4295 F180
G01 X150.5529 Y29.8647 Z-4.4772 F180
G01 X150.6520 Y29.9658 Z-4.5099 F180
G01 X150.7257 Y30.0222 Z-4.5204 F180
G01 X150.8453 Y30.0888 Z-4.5183 F180
G01 X150.9726 Y30.1325 Z-4.4985 F180
G01 X151.0595 Y30.1483 Z-4.4796 F180
G01 X151.1898 Y30.1516 Z-4.4503 F180
G01 X151.3168 Y30.1310 Z-4.4297 F180
G01 X151.3973 Y30.1045 Z-4.4253 F180
G01 X151.5090 Y30.0460 Z-4.4362 F180
G01 X151.6070 Y29.9677 Z-4.4679 F180
G01 X151.6629 Y29.9059 Z-4.4980 F180
G01 X151.7305 Y29.8003 Z-4.5502 F180
G01 X151.7769 Y29.6830 Z-4.6010 F180
G01 X151.7951 Y29.6005 Z-4.6286 F180
G01 X151.8023 Y29.4721 Z-4.6550 F180
G01 X151.7853 Y29.3428 Z-4.6601 F180
G01 X151.7607 Y29.2585 Z-4.6523 F180
G01 X151.7039 Y29.1365 Z-4.6285 F180
G01 X151.6251 Y29.0245 Z-4.5986 F180
G01 X151.5615 Y28.9575 Z-4.5810 F180
G01 X151.4506 Y28.8697 Z-4.5653 F180
G01 X151.3246 Y28.8007 Z-4.5688 F180
G01 X151.2342 Y28.7664 Z-4.5831 F180
G01 X151.0905 Y28.7330 Z-4.6206 F180
G01 X150.9418 Y28.7232 Z-4.6708 F180
G01 X150.8422 Y28.7300 Z-4.7061 F180
G01 X150.6939 Y28.7597 Z-4.7540 F180
G01 X150.5518 Y28.8127 Z-4.7871 F180
G01 X150.4626 Y28.8603 Z-4.7978 F180
G01 X150.3388 Y28.9481 Z-4.7961 F180
G01 X150.2310 Y29.0541 Z-4.7766 F180
G01 X150.1696 Y29.1331 Z-4.7577 F180
G01 X150.0941 Y29.2616 Z-4.7283 F180
G01 X150.0410 Y29.3993 Z-4.7075 F180
G01 X150.0187 Y29.4938 Z-4.7029 F180
G01 X150.0049 Y29.6369 Z-4.7134 F180
G01 X150.0153 Y29.7781 Z-4.7448 F180
G01 X150.0351 Y29.8688 Z-4.7747 F180
G01 X150.0834 Y29.9969 Z-4.8269 F180
G01 X150.1524 Y30.1126 Z-4.8777 F180
G01 X150.2085 Y30.1808 Z-4.9055 F180
G01 X150.3058 Y30.2676 Z-4.9323 F180
G01 X150.4161 Y30.3339 Z-4.9378 F180
G01 X150.4947 Y30.3657 Z-4.9303 F180
G01 X150.6177 Y30.3933 Z-4.9066 F180
G01 X150.7431 Y30.3969 Z-4.8767 F180
G01 X150.8257 Y30.3859 Z-4.8590 F180
G01 X150.9456 Y30.3489 Z-4.8430 F180
G01 X151.0568 Y30.2894 Z-4.8462 F180
G01 X151.1240 Y30.2383 Z-4.8602 F180
G01 X151.2124 Y30.1449 Z-4.8974 F180
G01 X151.2829 Y30.0353 Z-4.9475 F180
G01 X151.3187 Y29.9551 Z-4.9828 F180
G01 X151.3541 Y29.8253 Z-5.0309 F180
G01 X151.3662 Y29.6891 Z-5.0643 F180
G01 X151.3610 Y29.5969 Z-5.0753 F180
G01 X151.3331 Y29.4582 Z-5.0739 F180
G01 X151.2815 Y29.3242 Z-5.0547 F180
G01 X151.2346 Y29.2397 Z-5.0359 F180
G01 X151.1465 Y29.1214 Z-5.0064 F180
G01 X151.0393 Y29.0179 Z-4.9854 F180
G01 X150.9588 Y28.9589 Z-4.9805 F180
G01 X150.8265 Y28.8858 Z-4.9906 F180
G01 X150.6837 Y28.8345 Z-5.0216 F180
G01 X150.5849 Y28.8132 Z-5.0514 F180
G01 X150.4337 Y28.8003 Z-5.1035 F180
G01 X150.2829 Y28.8116 Z-5.1545 F180
G01 X150.1850 Y28.8323 Z-5.1825 F180
G01 X150.0443 Y28.8817 Z-5.2096 F180
G01 X149.9148 Y28.9525 Z-5.2155 F180
G01 X149.8367 Y29.0103 Z-5.2082 F180
G01 X149.7338 Y29.1107 Z-5.1847 F180
G01 X149.6505 Y29.2252 Z-5.1549 F180
G01 X149.6070 Y29.3073 Z-5.1370 F180
G01 X149.5611 Y29.4364 Z-5.1207 F180
G01 X149.5390 Y29.5693 Z-5.1235 F180
G01 X149.5377 Y29.6576 Z-5.1373 F180
G01 X149.5559 Y29.7868 Z-5.1742 F180
G01 X149.5972 Y29.9087 Z-5.2241 F180
G01 X149.6366 Y29.9838 Z-5.2595 F180
G01 X149.7127 Y30.0844 Z-5.3077 F180
G01 X149.8061 Y30.1682 Z-5.3414 F180
G01 X149.8762 Y30.2132 Z-5.3527 F180
G01 X149.9916 Y30.2624 Z-5.3517 F180
G01 X150.1148 Y30.2889 Z-5.3327 F180
G01 X150.1992 Y30.2933 Z-5.3140 F180
G01 X150.3269 Y30.2792 Z-5.2845 F180
G01 X150.4516 Y30.2411 Z-5.2632 F180
G01 X150.5306 Y30.2030 Z-5.2581 F180
G01 X150.6415 Y30.1269 Z-5.2679 F180
G01 X150.7387 Y30.0307 Z-5.2985 F180
G01 X150.7943 Y29.9570 Z-5.3282 F180
G01 X150.8625 Y29.8332 Z-5.3801 F180
G01 X150.9096 Y29.6976 Z-5.4312 F180
G01 X150.9284 Y29.6028 Z-5.4594 F180
G01 X150.9375 Y29.4557 Z-5.4869 F180
G01 X150.9225 Y29.3074 Z-5.4932 F180
G01 X150.8992 Y29.2104 Z-5.4861 F180
G01 X150.8454 Y29.0692 Z-5.4628 F180
G01 X150.7695 Y28.9378 Z-5.4330 F180
G01 X150.7078 Y28.8578 Z-5.4150 F180
G01 X150.6006 Y28.7503 Z-5.3985 F180
G01 X150.4782 Y28.6615 Z-5.4009 F180
G01 X150.3900 Y28.6141 Z-5.4144 F180
G01 X150.2507 Y28.5609 Z-5.4510 F180
G01 X150.1060 Y28.5314 Z-5.5007 F180
G01 X150.0090 Y28.5251 Z-5.5361 F180
G01 X149.8656 Y28.5352 Z-5.5845 F180
G01 X149.7280 Y28.5688 Z-5.6186 F180
G01 X149.6417 Y28.6035 Z-5.6301 F180
G01 X149.5232 Y28.6723 Z-5.6295 F180
G01 X149.4205 Y28.7595 Z-5.6108 F180
G01 X149.3624 Y28.8261 Z-5.5921 F180
G01 X149.2928 Y28.9366 Z-5.5626 F180
G01 X149.2455 Y29.0563 Z-5.5411 F180
G01 X149.2271 Y29.1391 Z-5.5357 F180
G01 X149.2201 Y29.2651 Z-5.5451 F180
G01 X149.2372 Y29.3894 Z-5.5754 F180
G01 X149.2617 Y29.4690 Z-5.6049 F180
G01 X149.3178 Y29.5812 Z-5.6568 F180
G01 X149.3948 Y29.6810 Z-5.7080 F180
G01 X149.4562 Y29.7388 Z-5.7363 F180
G01 X149.5628 Y29.8106 Z-5.7642 F180
G01 X149.6825 Y29.8621 Z-5.7708 F180
G01 X149.7674 Y29.8841 Z-5.7639 F180
G01 X149.9012 Y29.8976 Z-5.7409 F180
G01 X150.0375 Y29.8870 Z-5.7111 F180
G01 X150.1274 Y29.8667 Z-5.6931 F180
G01 X150.2595 Y29.8162 Z-5.6762 F180
G01 X150.3830 Y29.7431 Z-5.6782 F180
G01 X150.4586 Y29.6829 Z-5.6915 F180
G01 X150.5605 Y29.5765 Z-5.7278 F180
G01 X150.6447 Y29.4537 Z-5.7774 F180
G01 X150.6896 Y29.3645 Z-5.8128 F180
G01 X150.7397 Y29.2219 Z-5.8614 F180
G01 X150.7665 Y29.0726 Z-5.8957 F180
G01 X150.7711 Y28.9717 Z-5.9075 F180
G01 X150.7587 Y28.8204 Z-5.9073 F180
G01 X150.7225 Y28.6736 Z-5.8888 F180
G01 X150.6858 Y28.5804 Z-5.8703 F180
G01 X150.6137 Y28.4498 Z-5.8407 F180
G01 X150.5224 Y28.3338 Z-5.8189 F180
G01 X150.4523 Y28.2663 Z-5.8134 F180
G01 X150.3362 Y28.1814 Z-5.8223 F180
G01 X150.2094 Y28.1181 Z-5.8523 F180
G01 X150.1211 Y28.0889 Z-5.8816 F180
G01 X149.9798 Y28.0952 Z-5.9219 F1200
G01 X149.8387 Y28.1257 Z-5.9616 F1200
G01 X149.8367 Y28.1263 Z-5.9621 F1200
G01 X149.7011 Y28.1811 Z-5.9905 F1200
G01 X149.5740 Y28.2585 Z-6.0000 F1200
G01 X149.5722 Y28.2597 Z-5.9999 F1200
G01 X149.4586 Y28.3583 Z-5.9877 F1200
G01 X149.3607 Y28.4751 Z-5.9573 F1200
G01 X149.3595 Y28.4769 Z-5.9568 F1200
G01 X149.2816 Y28.6093 Z-5.9164 F1200
G01 X149.2249 Y28.7534 Z-5.8769 F1200
G01 X149.2242 Y28.7555 Z-5.8764 F1200
G01 X149.1916 Y28.9076 Z-5.8487 F1200
G01 X149.1829 Y29.0635 Z-5.8401 F1200
G01 X149.1830 Y29.0657 F1200
G01 X149.1998 Y29.2211 Z-5.8533 F1200
G01 X149.2403 Y29.3717 Z-5.8842 F1200
G01 X149.2410 Y29.3738 Z-5.8848 F1200
G01 X149.3053 Y29.5155 Z-5.9254 F1200
G01 X149.3903 Y29.6446 Z-5.9646 F1200
G01 X149.3917 Y29.6463 Z-5.9651 F1200
G01 X149.4961 Y29.7590 Z-5.9921 F1200
G01 X149.6155 Y29.8529 Z-5.9998 F1200
G01 X149.6173 Y29.8541 Z-5.9997 F1200
G01 X149.7494 Y29.9261 Z-5.9857 F1200
G01 X149.8892 Y29.9752 Z-5.9542 F1200
G01 X149.8912 Y29.9757 Z-5.9536 F1200
G01 X150.0355 Y30.0003 Z-5.9128 F1200
G01 X150.1791 Y30.0007 Z-5.8739 F1200
G01 X150.1811 Y30.0006 Z-5.8735 F1200
G01 X150.3206 Y29.9766 Z-5.8472 F1200
G01 X150.4511 Y29.9303 Z-5.8404 F1200
G01 X150.4529 Y29.9295 F1200
G01 X150.5714 Y29.8619 Z-5.8553 F1200
G01 X150.6737 Y29.7764 Z-5.8875 F1200
G01 X150.6751 Y29.7751 Z-5.8880 F1200
G01 X150.7590 Y29.6740 Z-5.9290 F1200
G01 X150.8216 Y29.5617 Z-5.9675 F1200
G01 X150.8223 Y29.5600 Z-5.9680 F1200
G01 X150.8624 Y29.4396 Z-5.9936 F1200
G01 X150.8786 Y29.3160 Z-5.9994 F1200
G01 X150.8787 Y29.3143 F1200
G01 X150.8712 Y29.1911 Z-5.9837 F1200
G01 X150.8402 Y29.0731 Z-5.9509 F1200
G01 X150.8396 Y29.0715 Z-5.9503 F1200
G01 X150.7867 Y28.9623 Z-5.9093 F1200
G01 X150.7135 Y28.8660 Z-5.8711 F1200
G01 X150.7123 Y28.8648 Z-5.8706 F1200
G01 X150.6219 Y28.7844 Z-5.8458 F1200
G01 X150.5168 Y28.7233 Z-5.8408 F1200
G01 X150.5152 Y28.7226 Z-5.8409 F1200
G01 X150.3996 Y28.6826 Z-5.8574 F1200
G01 X150.2769 Y28.6656 Z-5.8908 F1200
G01 X150.2751 Y28.6655 Z-5.8913 F1200
G01 X150.1501 Y28.6721 Z-5.9325 F1200
G01 X150.0264 Y28.7028 Z-5.9703 F1200
G01 X150.0246 Y28.7034 Z-5.9708 F1200
G01 X149.9070 Y28.7572 Z-5.9949 F1200
G01 X149.7989 Y28.8332 Z-5.9989 F1200
G01 X149.7975 Y28.8344 Z-5.9988 F1200
G01 X149.7034 Y28.9300 Z-5.9814 F1200
G01 X149.6259 Y29.0433 Z-5.9476 F1200
G01 X149.6249 Y29.0450 Z-5.9470 F1200
G01 X149.5676 Y29.1720 Z-5.9058 F1200
G01 X149.5319 Y29.3098 Z-5.8683 F1200
G01 X149.5315 Y29.3118 Z-5.8678 F1200
G01 X149.5198 Y29.4556 Z-5.8445 F1200
G01 X149.5321 Y29.6022 Z-5.8414 F1200
G01 X149.5324 Y29.6042 Z-5.8415 F1200
G01 X149.5696 Y29.7483 Z-5.8597 F1200
G01 X149.6302 Y29.8867 Z-5.8941 F1200
G01 X149.6312 Y29.8886 Z-5.8947 F1200
G01 X149.7146 Y30.0161 Z-5.9360 F1200
G01 X149.8181 Y30.1302 Z-5.9730 F1200
G01 X149.8197 Y30.1317 Z-5.9735 F1200
G01 X149.9412 Y30.2278 Z-5.9961 F1200
G01 X150.0768 Y30.3043 Z-5.9983 F1200
G01 X150.0788 Y30.3053 Z-5.9981 F1200
G01 X150.2255 Y30.3588 Z-5.9791 F1200
G01 X150.3787 Y30.3891 Z-5.9442 F1200
G01 X150.3809 Y30.3894 Z-5.9436 F1200
G01 X150.5369 Y30.3943 Z-5.9023 F1200
G01 X150.6910 Y30.3752 Z-5.8656 F1200
G01 X150.6932 Y30.3747 Z-5.8652 F1200
G01 X150.8414 Y30.3308 Z-5.8434 F1200
G01 X150.9797 Y30.2649 Z-5.8421 F1200
G01 X150.9815 Y30.2638 Z-5.8423 F1200
G01 X151.1060 Y30.1767 Z-5.8621 F1200
G01 X151.2136 Y30.0724 Z-5.8975 F1200
G01 X151.2149 Y30.0708 Z-5.8981 F1200
G01 X151.3025 Y29.9513 Z-5.9395 F1200
G01 X151.3683 Y29.8214 Z-5.9757 F1200
G01 X151.3691 Y29.8195 Z-5.9761 F1200
G01 X151.4112 Y29.6822 Z-5.9971 F1200
G01 X151.4292 Y29.5427 Z-5.9974 F1200
G01 X151.4293 Y29.5407 Z-5.9973 F1200
G01 X151.4228 Y29.4023 Z-5.9766 F1200
G01 X151.3930 Y29.2701 Z-5.9408 F1200
G01 X151.3924 Y29.2683 Z-5.9402 F1200
G01 X151.3403 Y29.1454 Z-5.8988 F1200
G01 X151.2684 Y29.0365 Z-5.8631 F1200
G01 X151.2673 Y29.0351 Z-5.8627 F1200
G01 X151.1779 Y28.9425 Z-5.8424 F1200
G01 X151.0748 Y28.8698 Z-5.8430 F1200
G01 X151.0733 Y28.8689 Z-5.8432 F1200
G01 X150.9597 Y28.8175 Z-5.8646 F1200
G01 X150.8400 Y28.7894 Z-5.9009 F1200
G01 X150.8383 Y28.7892 Z-5.9015 F1200
G01 X150.7163 Y28.7846 Z-5.9429 F1200
G01 X150.5967 Y28.8040 Z-5.9782 F1200
G01 X150.5951 Y28.8044 Z-5.9786 F1200
G01 X150.4817 Y28.8465 Z-5.9980 F1200
G01 X150.3788 Y28.9103 Z-5.9965 F1200
G01 X150.3774 Y28.9114 Z-5.9963 F1200
G01 X150.2884 Y28.9941 Z-5.9741 F1200
G01 X150.2167 Y29.0937 Z-5.9373 F1200
G01 X150.2158 Y29.0952 Z-5.9367 F1200
G01 X150.1639 Y29.2077 Z-5.8954 F1200
G01 X150.1341 Y29.3299 Z-5.8606 F1200
G01 X150.1338 Y29.3317 Z-5.8602 F1200
G01 X150.1273 Y29.4590 Z-5.8417 F1200
G01 X150.1448 Y29.5879 Z-5.8441 F1200
G01 X150.1452 Y29.5897 Z-5.8443 F1200
G01 X150.1865 Y29.7152 Z-5.8673 F1200
G01 X150.2509 Y29.8339 Z-5.9044 F1200
G01 X150.2520 Y29.8355 Z-5.9050 F1200
G01 X150.3378 Y29.9425 Z-5.9463 F1200
G01 X150.4430 Y30.0352 Z-5.9806 F1200
G01 X150.4447 Y30.0364 Z-5.9809 F1200
G01 X150.5661 Y30.1105 Z-5.9987 F1200
G01 X150.7008 Y30.1645 Z-5.9954 F1200
G01 X150.7028 Y30.1651 Z-5.9952 F1200
G01 X150.8466 Y30.1959 Z-5.9714 F1200
G01 X150.9959 Y30.2032 Z-5.9338 F1200
G01 X150.9980 Y30.2031 Z-5.9332 F1200
G01 X151.1480 Y30.1852 Z-5.8920 F1200
G01 X151.2950 Y30.1434 Z-5.8583 F1200
G01 X151.2971 Y30.1426 Z-5.8579 F1200
G01 X151.4362 Y30.0767 Z-5.8410 F1200
G01 X151.5644 Y29.9892 Z-5.8453 F1200
G01 X151.5662 Y29.9878 Z-5.8455 F1200
G01 X151.6788 Y29.8802 Z-5.8700 F1200
G01 X151.7737 Y29.7561 Z-5.9079 F1200
G01 X151.7749 Y29.7543 Z-5.9085 F1200
G01 X151.8483 Y29.6164 Z-5.9496 F1200
G01 X151.8995 Y29.4692 Z-5.9828 F1200
G01 X151.9001 Y29.4670 Z-5.9832 F1200
G01 X151.9264 Y29.3139 Z-5.9993 F1200
G01 X151.9287 Y29.1597 Z-5.9941 F1200
G01 X151.9285 Y29.1576 Z-5.9939 F1200
G01 X151.9056 Y29.0061 Z-5.9686 F1200
G01 X151.8596 Y28.8619 Z-5.9303 F1200
G01 X151.8587 Y28.8599 Z-5.9297 F1200
G01 X151.7901 Y28.7267 Z-5.8887 F1200
G01 X151.7023 Y28.6083 Z-5.8561 F1200
G01 X151.7009 Y28.6067 Z-5.8557 F1200
G01 X151.5957 Y28.5061 Z-5.8405 F1200
G01 X151.4776 Y28.4259 Z-5.8466 F1200
G01 X151.4758 Y28.4249 Z-5.8468 F1200
G01 X151.3475 Y28.3671 Z-5.8728 F1200
G01 X151.2141 Y28.3329 Z-5.9115 F1200
G01 X151.2122 Y28.3326 Z-5.9120 F1200
G01 X151.0770 Y28.3227 Z-5.9529 F1200
G01 X150.9452 Y28.3368 Z-5.9850 F1200
G01 X150.9434 Y28.3371 Z-5.9853 F1200
G01 X150.8182 Y28.3743 Z-5.9997 F1200
G01 X150.7045 Y28.4327 Z-5.9927 F1200
G01 X150.7030 Y28.4337 Z-5.9924 F1200
G01 X150.6034 Y28.5112 Z-5.9657 F1200
G01 X150.5218 Y28.6048 Z-5.9268 F1200
G01 X150.5208 Y28.6062 Z-5.9262 F1200
G01 X150.4592 Y28.7126 Z-5.8855 F1200
G01 X150.4200 Y28.8278 Z-5.8540 F1200
G01 X150.4196 Y28.8295 Z-5.8537 F1200
G01 X150.4034 Y28.9496 Z-5.8402 F1200
G01 X150.4113 Y29.0703 Z-5.8481 F1200
G01 X150.4116 Y29.0720 Z-5.8484 F1200
G01 X150.4427 Y29.1890 Z-5.8758 F1200
G01 X150.4967 Y29.2982 Z-5.9150 F1200
G01 X150.4976 Y29.2997 Z-5.9156 F1200
G01 X150.5720 Y29.3972 Z-5.9561 F1200
G01 X150.6652 Y29.4796 Z-5.9870 F1200
G01 X150.6667 Y29.4806 Z-5.9873 F1200
G01 X150.7749 Y29.5447 Z-5.9999 F1200
G01 X150.8956 Y29.5880 Z-5.9911 F1200
G01 X150.8974 Y29.5885 Z-5.9908 F1200
G01 X151.0258 Y29.6092 Z-5.9628 F1200
G01 X151.1587 Y29.6061 Z-5.9232 F1200
G01 X151.1606 Y29.6059 Z-5.9226 F1200
G01 X151.2928 Y29.5787 Z-5.8823 F1200
G01 X151.4211 Y29.5277 Z-5.8521 F1200
G01 X151.4229 Y29.5268 Z-5.8518 F1200
G01 X151.5421 Y29.4530 Z-5.8400 F1200
G01 X151.6494 Y29.3582 Z-5.8497 F1200
G01 X151.6508 Y29.3567 Z-5.8500 F1200
G01 X151.7415 Y29.2435 Z-5.8788 F1200
G01 X151.8138 Y29.1146 Z-5.9186 F1200
G01 X151.8147 Y29.1127 Z-5.9192 F1200
G01 X151.8650 Y28.9720 Z-5.9593 F1200
G01 X151.8926 Y28.8229 Z-5.9889 F1200
G01 X151.8928 Y28.8207 Z-5.9892 F1200
G01 X151.8954 Y28.6679 Z-6.0000 F1200
G01 X151.8738 Y28.5150 Z-5.9894 F1200
G01 X151.8734 Y28.5129 Z-5.9891 F1200
G01 X151.8268 Y28.3648 Z-5.9597 F1200
G01 X151.7576 Y28.2251 Z-5.9197 F1200
G01 X151.7565 Y28.2232 Z-5.9191 F1200
G01 X151.6653 Y28.0964 Z-5.8792 F1200
G01 X151.5556 Y27.9852 Z-5.8503 F1200
G01 X151.5539 Y27.9837 Z-5.8500 F1200
G01 X151.4279 Y27.8921 Z-5.8400 F1200
G01 X151.2899 Y27.8214 Z-5.8515 F1200
G01 X151.2878 Y27.8205 Z-5.8518 F1200
G01 X151.1409 Y27.7737 Z-5.8819 F1200
G01 X150.9900 Y27.7506 Z-5.9221 F1200
G01 X150.9878 Y27.7504 Z-5.9227 F1200
G01 X150.8364 Y27.7527 Z-5.9623 F1200
G01 X150.6895 Y27.7786 Z-5.9906 F1200
G01 X150.6875 Y27.7791 Z-5.9909 F1200
G01 X150.5486 Y27.8288 Z-5.9999 F1200
G01 X150.4221 Y27.8992 Z-5.9876 F1200
G01 X150.4204 Y27.9004 Z-5.9872 F1200
G01 X150.3093 Y27.9901 Z-5.9566 F1200
G01 X150.2170 Y28.0951 Z-5.9161 F1200
G01 X150.2158 Y28.0967 Z-5.9155 F1200
G01 X150.1444 Y28.2145 Z-5.8762 F1200
G01 X150.0958 Y28.3401 Z-5.8486 F1200
G01 X150.0953 Y28.3419 Z-5.8483 F1200
G01 X150.0704 Y28.4721 Z-5.8402 F1200
G01 X150.0697 Y28.6019 Z-5.8534 F1200
G01 X150.0698 Y28.6037 Z-5.8537 F1200
G01 X150.0927 Y28.7296 Z-5.8850 F1200
G01 X150.1380 Y28.8466 Z-5.9257 F1200
G01 X150.1388 Y28.8482 Z-5.9263 F1200
G01 X150.2047 Y28.9535 Z-5.9653 F1200
G01 X150.2886 Y29.0427 Z-5.9922 F1200
G01 X150.2899 Y29.0439 Z-5.9925 F1200
G01 X150.3888 Y29.1149 Z-5.9997 F1200
G01 X150.4991 Y29.1647 Z-5.9856 F1200
G01 X150.5008 Y29.1652 Z-5.9852 F1200
G01 X150.6185 Y29.1927 Z-5.9534 F1200
G01 X150.7397 Y29.1963 Z-5.9125 F1200
G01 X150.7414 Y29.1962 Z-5.9119 F1200
G01 X150.8616 Y29.1763 Z-5.8732 F1200
G01 X150.9768 Y29.1328 Z-5.8470 F1200
G01 X150.9784 Y29.1320 Z-5.8468 F1200
G01 X151.0842 Y29.0668 Z-5.8405 F1200
G01 X151.1773 Y28.9811 Z-5.8554 F1200
G01 X151.1785 Y28.9798 Z-5.8558 F1200
G01 X151.2550 Y28.8769 Z-5.8883 F1200
G01 X151.3124 Y28.7593 Z-5.9292 F1200
G01 X151.3131 Y28.7576 Z-5.9298 F1200
G01 X151.3488 Y28.6296 Z-5.9682 F1200
G01 X151.3614 Y28.4942 Z-5.9937 F1200
G01 X151.3615 Y28.4923 Z-5.9939 F1200
G01 X151.3499 Y28.3548 Z-5.9993 F1200
G01 X151.3142 Y28.2183 Z-5.9835 F1200
G01 X151.3135 Y28.2164 Z-5.9831 F1200
G01 X151.2539 Y28.0863 Z-5.9501 F1200
G01 X151.1721 Y27.9655 Z-5.9090 F1200
G01 X151.1708 Y27.9638 Z-5.9084 F1200
G01 X151.0685 Y27.8573 Z-5.8704 F1200
G01 X150.9484 Y27.7671 Z-5.8457 F1200
G01 X150.9466 Y27.7660 Z-5.8454 F1200
G01 X150.8120 Y27.6963 Z-5.8409 F1200
G01 X150.6664 Y27.6482 Z-5.8576 F1200
G01 X150.6642 Y27.6477 Z-5.8580 F1200
G01 X150.5117 Y27.6240 Z-5.8916 F1200
G01 X150.3563 Y27.6243 Z-5.9328 F1200
G01 X150.3541 Y27.6245 Z-5.9334 F1200
G01 X150.2003 Y27.6502 Z-5.9710 F1200
G01 X150.0520 Y27.6994 Z-5.9950 F1200
G01 X150.0499 Y27.7003 Z-5.9952 F1200
G01 X149.9117 Y27.7730 Z-5.9988 F1200
G01 X149.7868 Y27.8658 Z-5.9813 F1200
G01 X149.7851 Y27.8673 Z-5.9809 F1200
G01 X149.6774 Y27.9789 Z-5.9468 F1200
G01 X149.5892 Y28.1049 Z-5.9055 F1200
G01 X149.5880 Y28.1067 Z-5.9049 F1200
G01 X149.5222 Y28.2445 Z-5.8676 F1200
G01 X149.4795 Y28.3891 Z-5.8444 F1200
G01 X149.4791 Y28.3912 Z-5.8442 F1200
G01 X149.4613 Y28.5394 Z-5.8416 F1200
G01 X149.4676 Y28.6860 Z-5.8599 F1200
G01 X149.4679 Y28.6880 Z-5.8603 F1200
G01 X149.4985 Y28.8296 Z-5.8949 F1200
G01 X149.5513 Y28.9613 Z-5.9363 F1200
G01 X149.5522 Y28.9631 Z-5.9369 F1200
G01 X149.6259 Y29.0820 Z-5.9737 F1200
G01 X149.7170 Y29.1841 Z-5.9962 F1200
G01 X149.7184 Y29.1854 Z-5.9963 F1200
G01 X149.8245 Y29.2684 Z-5.9981 F1200
G01 X149.9411 Y29.3297 Z-5.9789 F1200
G01 X149.9428 Y29.3304 Z-5.9785 F1200
G01 X150.0668 Y29.3688 Z-5.9434 F1200
G01 X150.1932 Y29.3832 Z-5.9020 F1200
G01 X150.1950 Z-5.9014 F1200
G01 X150.3202 Y29.3739 Z-5.8650 F1200
G01 X150.4394 Y29.3412 Z-5.8433 F1200
G01 X150.4411 Y29.3405 Z-5.8432 F1200
G01 X150.5509 Y29.2861 Z-5.8423 F1200
G01 X150.6470 Y29.2119 Z-5.8623 F1200
G01 X150.6483 Y29.2107 Z-5.8627 F1200
G01 X150.7280 Y29.1196 Z-5.8983 F1200
G01 X150.7880 Y29.0146 Z-5.9397 F1200
G01 X150.7887 Y29.0130 Z-5.9403 F1200
G01 X150.8274 Y28.8981 Z-5.9763 F1200
G01 X150.8427 Y28.7769 Z-5.9972 F1200
G01 X150.8428 Y28.7752 Z-5.9973 F1200
G01 X150.8347 Y28.6524 Z-5.9972 F1200
G01 X150.8025 Y28.5317 Z-5.9764 F1200
G01 X150.8018 Y28.5300 Z-5.9760 F1200
G01 X150.7469 Y28.4161 Z-5.9399 F1200
G01 X150.6701 Y28.3125 Z-5.8985 F1200
G01 X150.6689 Y28.3111 Z-5.8980 F1200
G01 X150.5731 Y28.2220 Z-5.8625 F1200
G01 X150.4603 Y28.1501 Z-5.8424 F1200
G01 X150.4586 Y28.1493 Z-5.8422 F1200
G01 X150.3328 Y28.0979 Z-5.8433 F1200
G01 X150.1971 Y28.0684 Z-5.8648 F1200
G01 X150.1951 Y28.0682 Z-5.8653 F1200
G01 X150.0542 Y28.0627 Z-5.9018 F1200
G01 X149.9114 Y28.0814 Z-5.9432 F1200
G01 X149.9094 Y28.0818 Z-5.9437 F1200
G01 X149.7709 Y28.1208 Z-5.9903 F180
G01 X149.6389 Y28.1831 Z-6.0212 F180
G01 X149.5568 Y28.2366 Z-6.0302 F180
G01 X149.4450 Y28.3340 Z-6.0261 F180
G01 X149.3496 Y28.4493 Z-6.0050 F180
G01 X149.2966 Y28.5343 Z-5.9856 F180
G01 X149.2351 Y28.6722 Z-5.9567 F180
G01 X149.1962 Y28.8188 Z-5.9376 F180
G01 X149.1834 Y28.9190 Z-5.9345 F180
G01 X149.1850 Y29.0709 Z-5.9476 F180
G01 X149.2106 Y29.2204 Z-5.9811 F180
G01 X149.2406 Y29.3164 Z-6.0121 F180
G01 X149.3050 Y29.4529 Z-6.0646 F180
G01 X149.3897 Y29.5764 Z-6.1146 F180
G01 X149.4561 Y29.6497 Z-6.1412 F180
G01 X149.5697 Y29.7444 Z-6.1656 F180
G01 X149.6957 Y29.8185 Z-6.1685 F180
G01 X149.7845 Y29.8553 Z-6.1596 F180
G01 X149.9235 Y29.8910 Z-6.1346 F180
G01 X150.0643 Y29.9026 Z-6.1048 F180
G01 X150.1568 Y29.8970 Z-6.0878 F180
G01 X150.2921 Y29.8689 Z-6.0738 F180
G01 X150.4183 Y29.8184 Z-6.0794 F180
G01 X150.4952 Y29.7733 Z-6.0951 F180
G01 X150.5988 Y29.6900 Z-6.1343 F180
G01 X150.6841 Y29.5908 Z-6.1852 F180
G01 X150.7296 Y29.5178 Z-6.2204 F180
G01 X150.7801 Y29.3997 Z-6.2672 F180
G01 X150.8073 Y29.2755 Z-6.2984 F180
G01 X150.8121 Y29.1917 Z-6.3077 F180
G01 X150.7999 Y29.0665 Z-6.3039 F180
G01 X150.7641 Y28.9465 Z-6.2830 F180
G01 X150.7278 Y28.8715 Z-6.2638 F180
G01 X150.6565 Y28.7684 Z-6.2348 F180
G01 X150.5664 Y28.6804 Z-6.2154 F180
G01 X150.4975 Y28.6319 Z-6.2120 F180
G01 X150.3835 Y28.5753 Z-6.2247 F180
G01 X150.2595 Y28.5407 Z-6.2580 F180
G01 X150.1734 Y28.5305 Z-6.2888 F180
G01 X150.0423 Y28.5349 Z-6.3413 F180
G01 X149.9121 Y28.5633 Z-6.3914 F180
G01 X149.8281 Y28.5954 Z-6.4181 F180
G01 X149.7092 Y28.6621 Z-6.4429 F180
G01 X149.6020 Y28.7500 Z-6.4463 F180
G01 X149.5389 Y28.8189 Z-6.4375 F180
G01 X149.4592 Y28.9361 Z-6.4127 F180
G01 X149.3993 Y29.0669 Z-6.3829 F180
G01 X149.3716 Y29.1597 Z-6.3658 F180
G01 X149.3498 Y29.3045 Z-6.3514 F180
G01 X149.3519 Y29.4527 Z-6.3568 F180
G01 X149.3667 Y29.5509 Z-6.3722 F180
G01 X149.4093 Y29.6948 Z-6.4111 F180
G01 X149.4747 Y29.8308 Z-6.4618 F180
G01 X149.5301 Y29.9151 Z-6.4971 F180
G01 X149.6301 Y30.0293 Z-6.5441 F180
G01 X149.7470 Y30.1262 Z-6.5756 F180
G01 X149.8326 Y30.1798 Z-6.5851 F180
G01 X149.9708 Y30.2419 Z-6.5818 F180
G01 X150.1166 Y30.2810 Z-6.5611 F180
G01 X150.2155 Y30.2938 Z-6.5419 F180
G01 X150.3649 Y30.2923 Z-6.5128 F180
G01 X150.5107 Y30.2669 Z-6.4932 F180
G01 X150.6035 Y30.2373 Z-6.4896 F180
G01 X150.7347 Y30.1741 Z-6.5019 F180
G01 X150.8518 Y30.0911 Z-6.5348 F180
G01 X150.9204 Y30.0264 Z-6.5654 F180
G01 X151.0078 Y29.9163 Z-6.6179 F180
G01 X151.0739 Y29.7948 Z-6.6682 F180
G01 X151.1051 Y29.7097 Z-6.6951 F180
G01 X151.1328 Y29.5773 Z-6.7202 F180
G01 X151.1362 Y29.4444 Z-6.7240 F180
G01 X151.1253 Y29.3577 Z-6.7154 F180
G01 X151.0898 Y29.2324 Z-6.6909 F180
G01 X151.0324 Y29.1174 Z-6.6610 F180
G01 X150.9832 Y29.0484 Z-6.6438 F180
G01 X150.8948 Y28.9577 Z-6.6291 F180
G01 X150.7914 Y28.8859 Z-6.6341 F180
G01 X150.7162 Y28.8499 Z-6.6493 F180
G01 X150.5963 Y28.8139 Z-6.6878 F180
G01 X150.4716 Y28.8015 Z-6.7385 F180
G01 X150.3881 Y28.8066 Z-6.7737 F180
G01 X150.2648 Y28.8336 Z-6.8209 F180
G01 X150.1479 Y28.8839 Z-6.8528 F180
G01 X150.0757 Y28.9295 Z-6.8626 F180
G01 X149.9780 Y29.0143 Z-6.8596 F180
G01 X149.8965 Y29.1170 Z-6.8392 F180
G01 X149.8527 Y29.1938 Z-6.8200 F180
G01 X149.8042 Y29.3187 Z-6.7909 F180
G01 X149.7782 Y29.4524 Z-6.7710 F180
G01 X149.7740 Y29.5442 Z-6.7672 F180
G01 X149.7877 Y29.6829 Z-6.7791 F180
G01 X149.8255 Y29.8193 Z-6.8116 F180
G01 X149.8636 Y29.9068 Z-6.8421 F180
G01 X149.9394 Y30.0298 Z-6.8945 F180
G01 X150.0358 Y30.1401 Z-6.9449 F180
G01 X150.1099 Y30.2046 Z-6.9721 F180
G01 X150.2345 Y30.2857 Z-6.9976 F180
G01 X150.3718 Y30.3462 Z-7.0017 F180
G01 X150.4681 Y30.3740 Z-6.9934 F180
G01 X150.6178 Y30.3956 Z-6.9690 F180
G01 X150.7696 Y30.3931 Z-6.9391 F180
G01 X150.8695 Y30.3782 Z-6.9218 F180
G01 X151.0152 Y30.3352 Z-6.9068 F180
G01 X151.1520 Y30.2699 Z-6.9114 F180
G01 X151.2361 Y30.2149 Z-6.9263 F180
G01 X151.3496 Y30.1160 Z-6.9646 F180
G01 X151.4451 Y30.0010 Z-7.0151 F180
G01 X151.4973 Y29.9173 Z-7.0504 F180
G01 X151.5571 Y29.7826 Z-7.0978 F180
G01 X151.5937 Y29.6416 Z-7.1300 F180
G01 X151.6047 Y29.5465 Z-7.1401 F180
G01 X151.6009 Y29.4036 Z-7.1374 F180
G01 X151.5734 Y29.2657 Z-7.1173 F180
G01 X151.5426 Y29.1787 Z-7.0982 F180
G01 X151.4784 Y29.0570 Z-7.0690 F180
G01 X151.3953 Y28.9502 Z-7.0488 F180
G01 X151.3310 Y28.8891 Z-7.0448 F180
G01 X151.2226 Y28.8131 Z-7.0563 F180
G01 X151.1040 Y28.7591 Z-7.0885 F180
G01 X151.0214 Y28.7360 Z-7.1189 F180
G01 X150.8943 Y28.7206 Z-7.1712 F180
G01 X150.7679 Y28.7293 Z-7.2217 F180
G01 X150.6862 Y28.7482 Z-7.2490 F180
G01 X150.5697 Y28.7950 Z-7.2749 F180
G01 X150.4646 Y28.8631 Z-7.2794 F180
G01 X150.4028 Y28.9191 Z-7.2713 F180
G01 X150.3238 Y29.0166 Z-7.2471 F180
G01 X150.2647 Y29.1280 Z-7.2172 F180
G01 X150.2373 Y29.2079 Z-7.1998 F180
G01 X150.2149 Y29.3336 Z-7.1845 F180
G01 X150.2163 Y29.4628 Z-7.1887 F180
G01 X150.2307 Y29.5486 Z-7.2034 F180
G01 X150.2716 Y29.6738 Z-7.2414 F180
G01 X150.3354 Y29.7915 Z-7.2918 F180
G01 X150.3897 Y29.8637 Z-7.3271 F180
G01 X150.4872 Y29.9599 Z-7.3746 F180
G01 X150.6017 Y30.0390 Z-7.4072 F180
G01 X150.6858 Y30.0809 Z-7.4175 F180
G01 X150.8209 Y30.1255 Z-7.4153 F180
G01 X150.9637 Y30.1471 Z-7.3953 F180
G01 X151.0609 Y30.1484 Z-7.3763 F180
G01 X151.2066 Y30.1296 Z-7.3470 F180
G01 X151.3490 Y30.0870 Z-7.3266 F180
G01 X151.4397 Y30.0459 Z-7.3224 F180
G01 X151.5667 Y29.9655 Z-7.3335 F180
G01 X151.6799 Y29.8653 Z-7.3654 F180
G01 X151.7459 Y29.7890 Z-7.3956 F180
G01 X151.8286 Y29.6616 Z-7.4478 F180
G01 X151.8900 Y29.5227 Z-7.4985 F180
G01 X151.9183 Y29.4258 Z-7.5260 F180
G01 X151.9403 Y29.2760 Z-7.5522 F180
G01 X151.9382 Y29.1254 Z-7.5571 F180
G01 X151.9235 Y29.0269 Z-7.5492 F180
G01 X151.8814 Y28.8840 Z-7.5252 F180
G01 X151.8173 Y28.7511 Z-7.4954 F180
G01 X151.7636 Y28.6702 Z-7.4778 F180
G01 X151.6671 Y28.5619 Z-7.4623 F180
G01 X151.5556 Y28.4724 Z-7.4660 F180
G01 X151.4749 Y28.4245 Z-7.4805 F180
G01 X151.3455 Y28.3711 Z-7.5181 F180
G01 X151.2111 Y28.3413 Z-7.5684 F180
G01 X151.1211 Y28.3348 Z-7.6037 F180
G01 X150.9868 Y28.3450 Z-7.6515 F180
G01 X150.8588 Y28.3785 Z-7.6844 F180
G01 X150.7790 Y28.4130 Z-7.6950 F180
G01 X150.6689 Y28.4819 Z-7.6931 F180
G01 X150.5749 Y28.5688 Z-7.6734 F180
G01 X150.5226 Y28.6352 Z-7.6545 F180
G01 X150.4605 Y28.7453 Z-7.6251 F180
G01 X150.4207 Y28.8645 Z-7.6045 F180
G01 X150.4074 Y28.9467 Z-7.5999 F180
G01 X150.4065 Y29.0720 Z-7.6107 F180
G01 X150.4297 Y29.1952 Z-7.6422 F180
G01 X150.4582 Y29.2741 Z-7.6723 F180
G01 X150.5188 Y29.3850 Z-7.7245 F180
G01 X150.6001 Y29.4834 Z-7.7752 F180
G01 X150.6643 Y29.5402 Z-7.8029 F180
G01 X150.7734 Y29.6105 Z-7.8295 F180
G01 X150.8953 Y29.6603 Z-7.8348 F180
G01 X150.9816 Y29.6812 Z-7.8271 F180
G01 X151.1156 Y29.6931 Z-7.8033 F180
G01 X151.2519 Y29.6810 Z-7.7735 F180
G01 X151.3417 Y29.6596 Z-7.7558 F180
G01 X151.4718 Y29.6080 Z-7.7400 F180
G01 X151.5931 Y29.5338 Z-7.7434 F180
G01 X151.6671 Y29.4729 Z-7.7576 F180
G01 X151.7649 Y29.3658 Z-7.7949 F180
G01 X151.8449 Y29.2425 Z-7.8450 F180
G01 X151.8868 Y29.1533 Z-7.8804 F180
G01 X151.9309 Y29.0109 Z-7.9283 F180
G01 X151.9516 Y28.8621 Z-7.9615 F180
G01 X151.9522 Y28.7616 Z-7.9724 F180
G01 X151.9321 Y28.6115 Z-7.9709 F180
G01 X151.8884 Y28.4661 Z-7.9515 F180
G01 X151.8467 Y28.3741 Z-7.9326 F180
G01 X151.7658 Y28.2456 Z-7.9032 F180
G01 X151.6657 Y28.1319 Z-7.8823 F180
G01 X151.5900 Y28.0661 Z-7.8775 F180
G01 X151.4641 Y27.9840 Z-7.8879 F180
G01 X151.3277 Y27.9238 Z-7.9191 F180
G01 X151.2333 Y27.8965 Z-7.9490 F180
G01 X151.0877 Y27.8758 Z-8.0011 F180
G01 X150.9427 Y27.8793 Z-8.0520 F180
G01 X150.8485 Y27.8948 Z-8.0799 F180
G01 X150.7128 Y27.9376 Z-8.1068 F180
G01 X150.5883 Y28.0018 Z-8.1125 F180
G01 X150.5136 Y28.0551 Z-8.1050 F180
G01 X150.4148 Y28.1500 Z-8.0814 F180
G01 X150.3357 Y28.2590 Z-8.0516 F180
G01 X150.2950 Y28.3375 Z-8.0338 F180
G01 X150.2525 Y28.4622 Z-8.0177 F180
G01 X150.2337 Y28.5906 Z-8.0207 F180
G01 X150.2347 Y28.6761 Z-8.0346 F180
G01 X150.2554 Y28.8020 Z-8.0717 F180
G01 X150.2992 Y28.9207 Z-8.1217 F180
G01 X150.3402 Y28.9936 Z-8.1570 F180
G01 X150.4178 Y29.0921 Z-8.2052 F180
G01 X150.5128 Y29.1738 Z-8.2387 F180
G01 X150.5561 Y29.2018 Z-8.2467 F180
G01 X150.6694 Y29.2557 Z-8.2509 F180
G01 X150.7917 Y29.2871 Z-8.2357 F180
G01 X150.8436 Y29.2932 Z-8.2253 F180
G01 X150.9710 Y29.2916 Z-8.1958 F180
G01 X151.0974 Y29.2658 Z-8.1692 F180
G01 X151.1481 Y29.2483 Z-8.1615 F180
G01 X151.2655 Y29.1902 Z-8.1556 F180
G01 X151.3720 Y29.1105 Z-8.1707 F180
G01 X151.4119 Y29.0720 Z-8.1830 F180
G01 X151.4968 Y28.9664 Z-8.2250 F180
G01 X151.5630 Y28.8454 Z-8.2770 F180
G01 X151.5842 Y28.7921 Z-8.2988 F180
G01 X151.6199 Y28.6562 Z-8.3463 F180
G01 X151.6321 Y28.5141 Z-8.3788 F180
G01 X151.6302 Y28.4547 Z-8.3863 F180
G01 X151.6082 Y28.3114 Z-8.3893 F180
G01 X151.5624 Y28.1719 Z-8.3732 F180
G01 X151.5368 Y28.1165 Z-8.3626 F180
G01 X151.4590 Y27.9899 Z-8.3329 F180
G01 X151.3608 Y27.8764 Z-8.3068 F180
G01 X151.3152 Y27.8343 Z-8.2995 F180
G01 X151.1929 Y27.7457 Z-8.2946 F180
G01 X151.0575 Y27.6773 Z-8.3110 F180
G01 X150.9988 Y27.6556 Z-8.3238 F180
G01 X150.8512 Y27.6197 Z-8.3666 F180
G01 X150.6999 Y27.6078 Z-8.4188 F180
G01 X150.6376 Y27.6099 Z-8.4405 F180
G01 X150.4882 Y27.6326 Z-8.4874 F180
G01 X150.3452 Y27.6786 Z-8.5189 F180
G01 X150.2892 Y27.7039 Z-8.5259 F180
G01 X150.1618 Y27.7808 Z-8.5276 F180
G01 X150.0498 Y27.8764 Z-8.5106 F180
G01 X150.0089 Y27.9204 Z-8.4998 F180
G01 X149.9236 Y28.0377 Z-8.4701 F180
G01 X149.8598 Y28.1658 Z-8.4444 F180
G01 X149.8403 Y28.2207 Z-8.4375 F180
G01 X149.8095 Y28.3579 Z-8.4338 F180
G01 X149.8029 Y28.4960 Z-8.4513 F180
G01 X149.8071 Y28.5521 Z-8.4646 F180
G01 X149.8340 Y28.6851 Z-8.5082 F180
G01 X149.8834 Y28.8091 Z-8.5606 F180
G01 X149.9097 Y28.8566 Z-8.5822 F180
G01 X149.9874 Y28.9623 Z-8.6285 F180
G01 X150.0817 Y29.0506 Z-8.6588 F180
G01 X150.1247 Y29.0812 Z-8.6653 F180
G01 X150.2372 Y29.1413 Z-8.6659 F180
G01 X150.3579 Y29.1787 Z-8.6480 F180
G01 X150.4089 Y29.1872 Z-8.6370 F180
G01 X150.5344 Y29.1916 Z-8.6072 F180
G01 X150.6581 Y29.1719 Z-8.5821 F180
G01 X150.7074 Y29.1569 Z-8.5756 F180
G01 X150.8217 Y29.1052 Z-8.5730 F180
G01 X150.9245 Y29.0322 Z-8.5917 F180
G01 X150.9626 Y28.9966 Z-8.6054 F180
G01 X151.0435 Y28.8983 Z-8.6498 F180
G01 X151.1053 Y28.7854 Z-8.7024 F180
G01 X151.1246 Y28.7355 Z-8.7239 F180
G01 X151.1558 Y28.6085 Z-8.7695 F180
G01 X151.1636 Y28.4760 Z-8.7987 F180
G01 X151.1598 Y28.4208 Z-8.8047 F180
G01 X151.1338 Y28.2881 Z-8.8042 F180
G01 X151.0840 Y28.1599 Z-8.7854 F180
G01 X151.0569 Y28.1094 Z-8.7742 F180
G01 X150.9761 Y27.9949 Z-8.7444 F180
G01 X150.8754 Y27.8943 Z-8.7199 F180
G01 X150.8288 Y27.8577 Z-8.7137 F180
G01 X150.7051 Y27.7825 Z-8.7123 F180
G01 X150.5690 Y27.7280 Z-8.7322 F180
G01 X150.5103 Y27.7120 Z-8.7463 F180
G01 X150.3634 Y27.6903 Z-8.7914 F180
G01 X150.2135 Y27.6925 Z-8.8442 F180
G01 X150.1520 Y27.7005 Z-8.8655 F180
G01 X150.0056 Y27.7372 Z-8.9104 F180
G01 X149.8663 Y27.7971 Z-8.9386 F180
G01 X149.8120 Y27.8281 Z-8.9441 F180
G01 X149.6897 Y27.9182 Z-8.9423 F180
G01 X149.5833 Y28.0265 Z-8.9228 F180
G01 X149.5449 Y28.0756 Z-8.9114 F180
G01 X149.4662 Y28.2048 Z-8.8815 F180
G01 X149.4096 Y28.3441 Z-8.8576 F180
G01 X149.3930 Y28.4033 Z-8.8519 F180
G01 X149.3897 Y28.5325 Z-8.8516 F180
G01 X149.4106 Y28.6619 Z-8.8728 F180
G01 X149.4261 Y28.7142 Z-8.8873 F180
G01 X149.4808 Y28.8374 Z-8.9331 F180
G01 X149.5576 Y28.9508 Z-8.9859 F180
