;Project 250-panel-ext
;Created by Estlcam version 11 build 11.245
;Machining time about 00:07:07 hours

G90
M03 S10000
G00 X0.0000 Y0.0000 Z0.0000 F1500
G00 Z8.0000 F480


;No. 1: Drill 1
G00 F1500
G00 Z0.5000 F480
G01 Z-3.5000 F120 S10000
G00 Z8.0000 F480


;No. 2: Hole 18
G00 X29.8510 Y9.9444 Z8.0000 F1500
G00 Z0.5000 F480
G01 Z0.0000 F120
G02 X30.0264 Y10.1568 Z-0.5892 I0.1490 J0.0556 F120
G02 X30.1226 Y9.8988 Z-1.1785 I-0.0264 J-0.1568 F120
G02 X29.8548 Y9.9352 Z-1.7500 I-0.1226 J0.1012 F120
G03 X30.1226 Y9.8988 Z-2.3215 I0.1452 J0.0648 F120
G03 X30.0264 Y10.1568 Z-2.9108 I-0.1226 J0.1012 F120
G03 X29.8510 Y9.9444 Z-3.5000 I-0.0264 J-0.1568 F120
G02 X30.0264 Y10.1568 I0.1490 J0.0556 F900
G02 X30.1226 Y9.8988 I-0.0264 J-0.1568 F900
G02 X29.8510 Y9.9444 I-0.1226 J0.1012 F900
G00 Z8.0000 F480


;No. 3: Hole 19
G00 X9.9444 Y29.8510 Z8.0000 F1500
G00 Z0.5000 F480
G01 Z0.0000 F120
G02 X9.8988 Y30.1226 Z-0.5892 I0.0556 J0.1490 F120
G02 X10.1568 Y30.0264 Z-1.1785 I0.1012 J-0.1226 F120
G02 X9.9539 Y29.8478 Z-1.7500 I-0.1568 J-0.0264 F120
G03 X10.1568 Y30.0264 Z-2.3215 I0.0461 J0.1522 F120
G03 X9.8988 Y30.1226 Z-2.9108 I-0.1568 J-0.0264 F120
G03 X9.9444 Y29.8510 Z-3.5000 I0.1012 J-0.1226 F120
G02 X9.8988 Y30.1226 I0.0556 J0.1490 F900
G02 X10.1568 Y30.0264 I0.1012 J-0.1226 F900
G02 X9.9444 Y29.8510 I-0.1568 J-0.0264 F900
G00 Z8.0000 F480


;No. 4: Hole 17
G00 X84.8510 Y29.9444 Z8.0000 F1500
G00 Z0.5000 F480
G01 Z0.0000 F120
G02 X85.0264 Y30.1568 Z-0.5892 I0.1490 J0.0556 F120
G02 X85.1226 Y29.8988 Z-1.1785 I-0.0264 J-0.1568 F120
G02 X84.8548 Y29.9352 Z-1.7500 I-0.1226 J0.1012 F120
G03 X85.1226 Y29.8988 Z-2.3215 I0.1452 J0.0648 F120
G03 X85.0264 Y30.1568 Z-2.9108 I-0.1226 J0.1012 F120
G03 X84.8510 Y29.9444 Z-3.5000 I-0.0264 J-0.1568 F120
G02 X85.0264 Y30.1568 I0.1490 J0.0556 F900
G02 X85.1226 Y29.8988 I-0.0264 J-0.1568 F900
G02 X84.8510 Y29.9444 I-0.1226 J0.1012 F900
G00 Z8.0000 F480


;No. 5: Hole 16
G00 X123.5914 Y9.9887 Z8.0000 F1500
G00 Z0.5000 F480
G01 Z0.0000 F120
G02 X123.8195 Y10.1430 Z-0.5892 I0.1586 J0.0113 F120
G02 X123.8391 Y9.8683 Z-1.1785 I-0.0695 J-0.1430 F120
G02 X123.5924 Y9.9787 Z-1.7500 I-0.0891 J0.1317 F120
G03 X123.8391 Y9.8683 Z-2.3215 I0.1576 J0.0213 F120
G03 X123.8195 Y10.1430 Z-2.9108 I-0.0891 J0.1317 F120
G03 X123.5914 Y9.9887 Z-3.5000 I-0.0695 J-0.1430 F120
G02 X123.8195 Y10.1430 I0.1586 J0.0113 F900
G02 X123.8391 Y9.8683 I-0.0695 J-0.1430 F900
G02 X123.5914 Y9.9887 I-0.0891 J0.1317 F900
G00 Z8.0000 F480


;No. 6: Hole 15
G00 X217.3414 Y9.9887 Z8.0000 F1500
G00 Z0.5000 F480
G01 Z0.0000 F120
G02 X217.5695 Y10.1430 Z-0.5892 I0.1586 J0.0113 F120
G02 X217.5891 Y9.8683 Z-1.1785 I-0.0695 J-0.1430 F120
G02 X217.3424 Y9.9787 Z-1.7500 I-0.0891 J0.1317 F120
G03 X217.5891 Y9.8683 Z-2.3215 I0.1576 J0.0213 F120
G03 X217.5695 Y10.1430 Z-2.9108 I-0.0891 J0.1317 F120
G03 X217.3414 Y9.9887 Z-3.5000 I-0.0695 J-0.1430 F120
G02 X217.5695 Y10.1430 I0.1586 J0.0113 F900
G02 X217.5891 Y9.8683 I-0.0695 J-0.1430 F900
G02 X217.3414 Y9.9887 I-0.0891 J0.1317 F900
G00 Z8.0000 F480


;No. 7: Hole 14
G00 X311.0910 Y10.0000 Z8.0000 F1500
G00 Z0.5000 F480
G01 Z0.0000 F120
G02 X311.3295 Y10.1377 Z-0.5892 I0.1590 J0.0000 F120
G02 Y9.8623 Z-1.1785 I-0.0795 J-0.1377 F120
G02 X311.0913 Y9.9900 Z-1.7500 I-0.0795 J0.1377 F120
G03 X311.3295 Y9.8623 Z-2.3215 I0.1587 J0.0100 F120
G03 Y10.1377 Z-2.9108 I-0.0795 J0.1377 F120
G03 X311.0910 Y10.0000 Z-3.5000 I-0.0795 J-0.1377 F120
G02 X311.3295 Y10.1377 I0.1590 J0.0000 F900
G02 Y9.8623 I-0.0795 J-0.1377 F900
G02 X311.0910 Y10.0000 I-0.0795 J0.1377 F900
G00 Z8.0000 F480


;No. 8: Hole 13
G00 X404.8410 Y10.0000 Z8.0000 F1500
G00 Z0.5000 F480
G01 Z0.0000 F120
G02 X405.0795 Y10.1377 Z-0.5892 I0.1590 J0.0000 F120
G02 Y9.8623 Z-1.1785 I-0.0795 J-0.1377 F120
G02 X404.8413 Y9.9900 Z-1.7500 I-0.0795 J0.1377 F120
G03 X405.0795 Y9.8623 Z-2.3215 I0.1587 J0.0100 F120
G03 Y10.1377 Z-2.9108 I-0.0795 J0.1377 F120
G03 X404.8410 Y10.0000 Z-3.5000 I-0.0795 J-0.1377 F120
G02 X405.0795 Y10.1377 I0.1590 J0.0000 F900
G02 Y9.8623 I-0.0795 J-0.1377 F900
G02 X404.8410 Y10.0000 I-0.0795 J0.1377 F900
G00 Z8.0000 F480


;No. 9: Hole 12
G00 X424.8414 Y29.9887 Z8.0000 F1500
G00 Z0.5000 F480
G01 Z0.0000 F120
G02 X425.0695 Y30.1430 Z-0.5892 I0.1586 J0.0113 F120
G02 X425.0891 Y29.8683 Z-1.1785 I-0.0695 J-0.1430 F120
G02 X424.8424 Y29.9787 Z-1.7500 I-0.0891 J0.1317 F120
G03 X425.0891 Y29.8683 Z-2.3215 I0.1576 J0.0213 F120
G03 X425.0695 Y30.1430 Z-2.9108 I-0.0891 J0.1317 F120
G03 X424.8414 Y29.9887 Z-3.5000 I-0.0695 J-0.1430 F120
G02 X425.0695 Y30.1430 I0.1586 J0.0113 F900
G02 X425.0891 Y29.8683 I-0.0695 J-0.1430 F900
G02 X424.8414 Y29.9887 I-0.0891 J0.1317 F900
G00 Z8.0000 F480


;No. 10: Drill 3
G00 X434.9710 Y-0.0057 Z8.0000 F1500
G00 Z0.5000 F480
G01 Z-3.5000 F120
G00 Z8.0000 F480


;No. 11: Hole 11
G00 X424.8475 Y113.7052 Z8.0000 F1500
G00 Z0.5000 F480
G01 Z0.0000 F120
G02 X425.0375 Y113.9045 Z-0.5892 I0.1525 J0.0448 F120
G02 X425.1151 Y113.6403 Z-1.1785 I-0.0375 J-0.1545 F120
G02 X424.8506 Y113.6957 Z-1.7500 I-0.1151 J0.1097 F120
G03 X425.1151 Y113.6403 Z-2.3215 I0.1494 J0.0543 F120
G03 X425.0375 Y113.9045 Z-2.9108 I-0.1151 J0.1097 F120
G03 X424.8475 Y113.7052 Z-3.5000 I-0.0375 J-0.1545 F120
G02 X425.0375 Y113.9045 I0.1525 J0.0448 F900
G02 X425.1151 Y113.6403 I-0.0375 J-0.1545 F900
G02 X424.8475 Y113.7052 I-0.1151 J0.1097 F900
G00 Z8.0000 F480


;No. 12: Hole 10
G00 X424.8554 Y197.4340 Z8.0000 F1500
G00 Z0.5000 F480
G01 Z0.0000 F120
G02 X425.0151 Y197.6583 Z-0.5892 I0.1446 J0.0660 F120
G02 X425.1295 Y197.4078 Z-1.1785 I-0.0151 J-0.1583 F120
G02 X424.8598 Y197.4250 Z-1.7500 I-0.1295 J0.0922 F120
G03 X425.1295 Y197.4078 Z-2.3215 I0.1402 J0.0750 F120
G03 X425.0151 Y197.6583 Z-2.9108 I-0.1295 J0.0922 F120
G03 X424.8554 Y197.4340 Z-3.5000 I-0.0151 J-0.1583 F120
G02 X425.0151 Y197.6583 I0.1446 J0.0660 F900
G02 X425.1295 Y197.4078 I-0.0151 J-0.1583 F900
G02 X424.8554 Y197.4340 I-0.1295 J0.0922 F900
G00 Z8.0000 F480


;No. 13: Hole 9
G00 X424.8663 Y281.1640 Z8.0000 F1500
G00 Z0.5000 F480
G01 Z0.0000 F120
G02 X424.9924 Y281.4088 Z-0.5892 I0.1337 J0.0860 F120
G02 X425.1413 Y281.1771 Z-1.1785 I0.0076 J-0.1588 F120
G02 X424.8719 Y281.1558 Z-1.7500 I-0.1413 J0.0729 F120
G03 X425.1413 Y281.1771 Z-2.3215 I0.1281 J0.0942 F120
G03 X424.9924 Y281.4088 Z-2.9108 I-0.1413 J0.0729 F120
G03 X424.8663 Y281.1640 Z-3.5000 I0.0076 J-0.1588 F120
G02 X424.9924 Y281.4088 I0.1337 J0.0860 F900
G02 X425.1413 Y281.1771 I0.0076 J-0.1588 F900
G02 X424.8663 Y281.1640 I-0.1413 J0.0729 F900
G00 Z8.0000 F480


;No. 14: Hole 8
G00 X424.8798 Y364.8959 Z8.0000 F1500
G00 Z0.5000 F480
G01 Z0.0000 F120
G02 X424.9699 Y365.1561 Z-0.5892 I0.1202 J0.1041 F120
G02 X425.1502 Y364.9480 Z-1.1785 I0.0301 J-0.1561 F120
G02 X424.8866 Y364.8885 Z-1.7500 I-0.1502 J0.0520 F120
G03 X425.1502 Y364.9480 Z-2.3215 I0.1134 J0.1115 F120
G03 X424.9699 Y365.1561 Z-2.9108 I-0.1502 J0.0520 F120
G03 X424.8798 Y364.8959 Z-3.5000 I0.0301 J-0.1561 F120
G02 X424.9699 Y365.1561 I0.1202 J0.1041 F900
G02 X425.1502 Y364.9480 I0.0301 J-0.1561 F900
G02 X424.8798 Y364.8959 I-0.1502 J0.0520 F900
G00 Z8.0000 F480


;No. 15: Hole 7
G00 X404.8876 Y384.8876 Z8.0000 F1500
G00 Z0.5000 F480
G01 Z0.0000 F120
G02 X404.9589 Y385.1536 Z-0.5892 I0.1124 J0.1124 F120
G02 X405.1536 Y384.9589 Z-1.1785 I0.0411 J-0.1536 F120
G02 X404.8949 Y384.8807 Z-1.7500 I-0.1536 J0.0411 F120
G03 X405.1536 Y384.9589 Z-2.3215 I0.1051 J0.1193 F120
G03 X404.9589 Y385.1536 Z-2.9108 I-0.1536 J0.0411 F120
G03 X404.8876 Y384.8876 Z-3.5000 I0.0411 J-0.1536 F120
G02 X404.9589 Y385.1536 I0.1124 J0.1124 F900
G02 X405.1536 Y384.9589 I0.0411 J-0.1536 F900
G02 X404.8876 Y384.8876 I-0.1536 J0.0411 F900
G00 Z8.0000 F480


;No. 16: Drill 7
G00 X434.9991 Y395.0075 Z8.0000 F1500
G00 Z0.5000 F480
G01 Z-3.5000 F120
G00 Z8.0000 F480


;No. 17: Hole 6
G00 X311.1459 Y384.8798 Z8.0000 F1500
G00 Z0.5000 F480
G01 Z0.0000 F120
G02 X311.1980 Y385.1502 Z-0.5892 I0.1041 J0.1202 F120
G02 X311.4061 Y384.9699 Z-1.1785 I0.0520 J-0.1502 F120
G02 X311.1536 Y384.8735 Z-1.7500 I-0.1561 J0.0301 F120
G03 X311.4061 Y384.9699 Z-2.3215 I0.0964 J0.1265 F120
G03 X311.1980 Y385.1502 Z-2.9108 I-0.1561 J0.0301 F120
G03 X311.1459 Y384.8798 Z-3.5000 I0.0520 J-0.1502 F120
G02 X311.1980 Y385.1502 I0.1041 J0.1202 F900
G02 X311.4061 Y384.9699 I0.0520 J-0.1502 F900
G02 X311.1459 Y384.8798 I-0.1561 J0.0301 F900
G00 Z8.0000 F480


;No. 18: Hole 5
G00 X217.4238 Y384.8605 Z8.0000 F1500
G00 Z0.5000 F480
G01 Z0.0000 F120
G02 X217.4173 Y385.1358 Z-0.5892 I0.0762 J0.1395 F120
G02 X217.6589 Y385.0038 Z-1.1785 I0.0827 J-0.1358 F120
G02 X217.4327 Y384.8559 Z-1.7500 I-0.1589 J-0.0038 F120
G03 X217.6589 Y385.0038 Z-2.3215 I0.0673 J0.1441 F120
G03 X217.4173 Y385.1358 Z-2.9108 I-0.1589 J-0.0038 F120
G03 X217.4238 Y384.8605 Z-3.5000 I0.0827 J-0.1358 F120
G02 X217.4173 Y385.1358 I0.0762 J0.1395 F900
G02 X217.6589 Y385.0038 I0.0827 J-0.1358 F900
G02 X217.4238 Y384.8605 I-0.1589 J-0.0038 F900
G00 Z8.0000 F480


;No. 19: Hole 4
G00 X123.7052 Y384.8475 Z8.0000 F1500
G00 Z0.5000 F480
G01 Z0.0000 F120
G02 X123.6403 Y385.1151 Z-0.5892 I0.0448 J0.1525 F120
G02 X123.9045 Y385.0375 Z-1.1785 I0.1097 J-0.1151 F120
G02 X123.7149 Y384.8449 Z-1.7500 I-0.1545 J-0.0375 F120
G03 X123.9045 Y385.0375 Z-2.3215 I0.0351 J0.1551 F120
G03 X123.6403 Y385.1151 Z-2.9108 I-0.1545 J-0.0375 F120
G03 X123.7052 Y384.8475 Z-3.5000 I0.1097 J-0.1151 F120
G02 X123.6403 Y385.1151 I0.0448 J0.1525 F900
G02 X123.9045 Y385.0375 I0.1097 J-0.1151 F900
G02 X123.7052 Y384.8475 I-0.1545 J-0.0375 F900
G00 Z8.0000 F480


;No. 20: Hole 3
G00 X84.9662 Y364.8446 Z8.0000 F1500
G00 Z0.5000 F480
G01 Z0.0000 F120
G02 X84.8824 Y365.1069 Z-0.5892 I0.0338 J0.1554 F120
G02 X85.1514 Y365.0484 Z-1.1785 I0.1176 J-0.1069 F120
G02 X84.9760 Y364.8428 Z-1.7500 I-0.1514 J-0.0484 F120
G03 X85.1514 Y365.0484 Z-2.3215 I0.0240 J0.1572 F120
G03 X84.8824 Y365.1069 Z-2.9108 I-0.1514 J-0.0484 F120
G03 X84.9662 Y364.8446 Z-3.5000 I0.1176 J-0.1069 F120
G02 X84.8824 Y365.1069 I0.0338 J0.1554 F900
G02 X85.1514 Y365.0484 I0.1176 J-0.1069 F900
G02 X84.9662 Y364.8446 I-0.1514 J-0.0484 F900
G00 Z8.0000 F480


;No. 21: Hole 2
G00 X29.9887 Y384.8414 Z8.0000 F1500
G00 Z0.5000 F480
G01 Z0.0000 F120
G02 X29.8683 Y385.0891 Z-0.5892 I0.0113 J0.1586 F120
G02 X30.1430 Y385.0695 Z-1.1785 I0.1317 J-0.0891 F120
G02 X29.9986 Y384.8410 Z-1.7500 I-0.1430 J-0.0695 F120
G03 X30.1430 Y385.0695 Z-2.3215 I0.0014 J0.1590 F120
G03 X29.8683 Y385.0891 Z-2.9108 I-0.1430 J-0.0695 F120
G03 X29.9887 Y384.8414 Z-3.5000 I0.1317 J-0.0891 F120
G02 X29.8683 Y385.0891 I0.0113 J0.1586 F900
G02 X30.1430 Y385.0695 I0.1317 J-0.0891 F900
G02 X29.9887 Y384.8414 I-0.1430 J-0.0695 F900
G00 Z8.0000 F480


;No. 22: Hole 1
G00 X10.0000 Y364.8410 Z8.0000 F1500
G00 Z0.5000 F480
G01 Z0.0000 F120
G02 X9.8623 Y365.0795 Z-0.5892 I0.0000 J0.1590 F120
G02 X10.1377 Z-1.1785 I0.1377 J-0.0795 F120
G02 X10.0100 Y364.8413 Z-1.7500 I-0.1377 J-0.0795 F120
G03 X10.1377 Y365.0795 Z-2.3215 I-0.0100 J0.1587 F120
G03 X9.8623 Z-2.9108 I-0.1377 J-0.0795 F120
G03 X10.0000 Y364.8410 Z-3.5000 I0.1377 J-0.0795 F120
G02 X9.8623 Y365.0795 I0.0000 J0.1590 F900
G02 X10.1377 I0.1377 J-0.0795 F900
G02 X10.0000 Y364.8410 I-0.1377 J-0.0795 F900
G00 Z8.0000 F480


;No. 23: Drill 8
G00 X0.0000 Y395.0000 Z8.0000 F1500
G00 Z0.5000 F480
G01 Z-3.5000 F120
G00 Z8.0000 F480


;No. 24: Hole 24
G00 X10.0000 Y281.0910 Z8.0000 F1500
G00 Z0.5000 F480
G01 Z0.0000 F120
G02 X9.8623 Y281.3295 Z-0.5892 I0.0000 J0.1590 F120
G02 X10.1377 Z-1.1785 I0.1377 J-0.0795 F120
G02 X10.0100 Y281.0913 Z-1.7500 I-0.1377 J-0.0795 F120
G03 X10.1377 Y281.3295 Z-2.3215 I-0.0100 J0.1587 F120
G03 X9.8623 Z-2.9108 I-0.1377 J-0.0795 F120
G03 X10.0000 Y281.0910 Z-3.5000 I0.1377 J-0.0795 F120
G02 X9.8623 Y281.3295 I0.0000 J0.1590 F900
G02 X10.1377 I0.1377 J-0.0795 F900
G02 X10.0000 Y281.0910 I-0.1377 J-0.0795 F900
G00 Z8.0000 F480


;No. 25: Hole 25
G00 X84.9552 Y281.0975 Z8.0000 F1500
G00 Z0.5000 F480
G01 Z0.0000 F120
G02 X84.8903 Y281.3651 Z-0.5892 I0.0448 J0.1525 F120
G02 X85.1545 Y281.2875 Z-1.1785 I0.1097 J-0.1151 F120
G02 X84.9649 Y281.0949 Z-1.7500 I-0.1545 J-0.0375 F120
G03 X85.1545 Y281.2875 Z-2.3215 I0.0351 J0.1551 F120
G03 X84.8903 Y281.3651 Z-2.9108 I-0.1545 J-0.0375 F120
G03 X84.9552 Y281.0975 Z-3.5000 I0.1097 J-0.1151 F120
G02 X84.8903 Y281.3651 I0.0448 J0.1525 F900
G02 X85.1545 Y281.2875 I0.1097 J-0.1151 F900
G02 X84.9552 Y281.0975 I-0.1545 J-0.0375 F900
G00 Z8.0000 F480


;No. 26: Hole 23
G00 X84.9340 Y197.3554 Z8.0000 F1500
G00 Z0.5000 F480
G01 Z0.0000 F120
G02 X84.9078 Y197.6295 Z-0.5892 I0.0660 J0.1446 F120
G02 X85.1583 Y197.5151 Z-1.1785 I0.0922 J-0.1295 F120
G02 X84.9432 Y197.3515 Z-1.7500 I-0.1583 J-0.0151 F120
G03 X85.1583 Y197.5151 Z-2.3215 I0.0568 J0.1485 F120
G03 X84.9078 Y197.6295 Z-2.9108 I-0.1583 J-0.0151 F120
G03 X84.9340 Y197.3554 Z-3.5000 I0.0922 J-0.1295 F120
G02 X84.9078 Y197.6295 I0.0660 J0.1446 F900
G02 X85.1583 Y197.5151 I0.0922 J-0.1295 F900
G02 X84.9340 Y197.3554 I-0.1583 J-0.0151 F900
G00 Z8.0000 F480


;No. 27: Hole 22
G00 X9.9887 Y197.3414 Z8.0000 F1500
G00 Z0.5000 F480
G01 Z0.0000 F120
G02 X9.8683 Y197.5891 Z-0.5892 I0.0113 J0.1586 F120
G02 X10.1430 Y197.5695 Z-1.1785 I0.1317 J-0.0891 F120
G02 X9.9986 Y197.3410 Z-1.7500 I-0.1430 J-0.0695 F120
G03 X10.1430 Y197.5695 Z-2.3215 I0.0014 J0.1590 F120
G03 X9.8683 Y197.5891 Z-2.9108 I-0.1430 J-0.0695 F120
G03 X9.9887 Y197.3414 Z-3.5000 I0.1317 J-0.0891 F120
G02 X9.8683 Y197.5891 I0.0113 J0.1586 F900
G02 X10.1430 Y197.5695 I0.1317 J-0.0891 F900
G02 X9.9887 Y197.3414 I-0.1430 J-0.0695 F900
G00 Z8.0000 F480


;No. 28: Hole 20
G00 X9.9887 Y113.5914 Z8.0000 F1500
G00 Z0.5000 F480
G01 Z0.0000 F120
G02 X9.8683 Y113.8391 Z-0.5892 I0.0113 J0.1586 F120
G02 X10.1430 Y113.8195 Z-1.1785 I0.1317 J-0.0891 F120
G02 X9.9986 Y113.5910 Z-1.7500 I-0.1430 J-0.0695 F120
G03 X10.1430 Y113.8195 Z-2.3215 I0.0014 J0.1590 F120
G03 X9.8683 Y113.8391 Z-2.9108 I-0.1430 J-0.0695 F120
G03 X9.9887 Y113.5914 Z-3.5000 I0.1317 J-0.0891 F120
G02 X9.8683 Y113.8391 I0.0113 J0.1586 F900
G02 X10.1430 Y113.8195 I0.1317 J-0.0891 F900
G02 X9.9887 Y113.5914 I-0.1430 J-0.0695 F900
G00 Z8.0000 F480


;No. 29: Hole 21
G00 X84.9047 Y113.6227 Z8.0000 F1500
G00 Z0.5000 F480
G01 Z0.0000 F120
G02 X84.9374 Y113.8961 Z-0.5892 I0.0953 J0.1273 F120
G02 X85.1579 Y113.7311 Z-1.1785 I0.0626 J-0.1461 F120
G02 X84.9129 Y113.6170 Z-1.7500 I-0.1579 J0.0189 F120
G03 X85.1579 Y113.7311 Z-2.3215 I0.0871 J0.1330 F120
G03 X84.9374 Y113.8961 Z-2.9108 I-0.1579 J0.0189 F120
G03 X84.9047 Y113.6227 Z-3.5000 I0.0626 J-0.1461 F120
G02 X84.9374 Y113.8961 I0.0953 J0.1273 F900
G02 X85.1579 Y113.7311 I0.0626 J-0.1461 F900
G02 X84.9047 Y113.6227 I-0.1579 J0.0189 F900
G00 Z8.0000 F480
G00 X0.0000 Y0.0000 F1500

M05
