;FLAVOR:Marlin
;TIME:1149
;Filament used: 2.5039m
;Layer height: 0.28
;MINX:58.133
;MINY:116.249
;MINZ:0.24
;MAXX:191.867
;MAXY:133.751
;MAXZ:17.88
;TARGET_MACHINE.NAME:VORON2 250
;Generated with Cura_SteamEngine 5.6.0
M140 S75
M105
M190 S75
M104 S235
M105
M109 S235
M82 ;absolute extrusion mode
START_PRINT
G92 E0
G92 E0
G1 F1800 E-1
;LAYER_COUNT:63
;LAYER:0
M107
M204 S1000
G1 F600 Z0.52
G0 F9000 X61.524 Y117.952 Z0.52
;TYPE:SKIRT
G1 F600 Z0.24
G1 F720 E0
G1 F1800 X63.808 Y116.916 E0.15215
G1 X64.292 Y116.741 E0.18337
G1 X64.797 Y116.642 E0.21459
G1 X65.085 Y116.621 E0.23211
G1 X65.403 Y116.612 E0.25141
G1 X169.78 Y116.611 E6.5836
G1 X172.573 Y116.571 E6.75306
G1 X175.283 Y116.456 E6.91761
G1 X176.654 Y116.355 E7.00101
G1 X178.03 Y116.266 E7.08466
G1 X178.814 Y116.249 E7.13223
G1 X183.507 Y116.249 E7.41694
G1 X184.208 Y116.259 E7.45947
G1 X184.721 Y116.307 E7.49073
G1 X185.22 Y116.433 E7.52195
G1 X185.694 Y116.634 E7.55319
G1 X186.131 Y116.907 E7.58445
G1 X186.521 Y117.244 E7.61572
G1 X186.854 Y117.637 E7.64697
G1 X187.126 Y118.086 E7.67881
G1 X188.511 Y120.838 E7.86572
G1 X189.838 Y123.29 E8.03486
G1 X190.098 Y123.754 E8.06713
G1 X190.315 Y124.221 E8.09837
G1 X190.456 Y124.716 E8.12959
G1 X190.521 Y125.258 E8.16271
G1 X190.535 Y125.711 E8.19021
G1 X190.535 Y127.771 E8.31518
G1 X190.525 Y128.473 E8.35777
G1 X190.477 Y128.986 E8.38903
G1 X190.351 Y129.485 E8.42025
G1 X190.15 Y129.959 E8.45149
G1 X189.877 Y130.396 E8.48274
G1 X189.639 Y130.684 E8.50541
G1 X189.415 Y130.922 E8.52524
G1 X188.015 Y132.326 E8.64552
G1 X187.521 Y132.805 E8.68727
G1 X187.125 Y133.133 E8.71846
G1 X186.682 Y133.397 E8.74975
G1 X186.204 Y133.589 E8.781
G1 X185.703 Y133.704 E8.81218
G1 X185.27 Y133.74 E8.83854
G1 X184.653 Y133.751 E8.87598
G1 X168.866 Y133.751 E9.83372
G1 X168.151 Y133.739 E9.8771
G1 X167.639 Y133.69 E9.90831
G1 X167.324 Y133.619 E9.9279
G1 X166.587 Y133.416 E9.97427
G1 X163.959 Y132.733 E10.139
G1 X161.204 Y132.1 E10.31049
G1 X158.584 Y131.576 E10.47259
G1 X155.899 Y131.117 E10.63784
G1 X153.177 Y130.73 E10.80463
G1 X150.455 Y130.422 E10.97082
G1 X147.748 Y130.192 E11.13564
G1 X145 Y130.037 E11.30261
G1 X140.912 Y129.951 E11.55067
G1 X120.871 Y129.951 E12.76649
G1 X120.157 Y129.94 E12.80981
G1 X119.736 Y129.906 E12.83543
G1 X116.833 Y129.489 E13.01336
G1 X114.084 Y129.176 E13.18121
G1 X111.386 Y128.946 E13.34548
G1 X108.64 Y128.79 E13.51234
G1 X105.885 Y128.711 E13.67954
G1 X104.493 Y128.701 E13.76399
G1 X68.26 Y128.701 E15.96212
G1 X67.555 Y128.69 E16.0049
G1 X67.042 Y128.642 E16.03615
G1 X66.543 Y128.515 E16.06739
G1 X66.033 Y128.293 E16.10114
G1 X65.37 Y127.936 E16.14682
G1 X62.957 Y126.677 E16.31193
G1 X61.413 Y125.908 E16.41658
G1 X60.971 Y125.643 E16.44784
G1 X60.576 Y125.313 E16.47907
G1 X60.236 Y124.926 E16.51032
G1 X59.96 Y124.492 E16.54152
G1 X59.755 Y124.019 E16.5728
G1 X59.625 Y123.521 E16.60402
G1 X59.574 Y123.018 E16.63469
G1 X59.565 Y122.594 E16.66042
G1 X59.575 Y120.956 E16.75979
G1 X59.618 Y120.443 E16.79103
G1 X59.74 Y119.942 E16.82231
G1 X59.938 Y119.467 E16.85353
G1 X60.207 Y119.028 E16.88476
G1 X60.54 Y118.635 E16.91601
G1 X60.931 Y118.299 E16.94729
G1 X61.166 Y118.161 E16.96382
G0 F1620 X61.524 Y117.952
G1 F1800 E15.96382
G1 F600 Z0.52
;MESH:mount-tft-right.stl
G0 F9000 X63.873 Y121.957 Z0.52
;TYPE:WALL-INNER
G1 F600 Z0.24
G1 F720 E16.96382
G1 F1395.3 X65.167 Y121.957 E17.06376
G0 F9000 X66.292 Y121.945
G1 F1800 X68.226 Y123.881 E17.22759
G1 X114.744 Y123.881 E20.01254
G1 X115.029 Y123.908 E20.02968
G1 X115.048 Y123.931 E20.03146
G1 X120.215 Y123.931 E20.3408
G1 X120.672 Y124.001 E20.36848
G1 X121.067 Y124.195 E20.39483
G1 X121.366 Y124.468 E20.41907
G1 X121.575 Y124.796 E20.44235
G1 X121.649 Y125.131 E20.46289
G1 X166.215 Y125.131 E23.13098
G1 X166.586 Y125.177 E23.15336
G1 X166.924 Y125.308 E23.17506
G1 X167.205 Y125.503 E23.19554
G1 X167.419 Y125.734 E23.21439
G1 X167.566 Y125.978 E23.23144
G1 X167.657 Y126.216 E23.2467
G1 X167.698 Y126.405 E23.25828
G1 X167.715 Y126.631 E23.27185
G1 X167.715 Y127.811 E23.34249
G1 X168.835 Y128.931 E23.43732
G1 X184.595 Y128.931 E24.38084
G1 X185.715 Y127.811 E24.47567
G1 X185.715 Y126.881 E24.53134
G1 X184.17 Y126.881 E24.62384
G1 X183.68 Y126.801 E24.65356
G1 X183.266 Y126.582 E24.6816
G1 X182.966 Y126.282 E24.707
G1 X182.782 Y125.959 E24.72926
G1 X182.691 Y125.652 E24.74843
G1 X182.667 Y125.381 E24.76472
G1 X182.667 Y122.944 E24.91062
G1 X182.791 Y122.345 E24.94724
G1 X182.867 Y122.296 E24.95265
G1 X182.867 Y121.622 E24.993
G1 X182.794 Y121.575 E24.9982
G1 X182.688 Y121.069 E25.02915
G1 X178.836 Y121.069 E25.25976
G1 X178.48 Y121.311 E25.28553
G1 X178.149 Y121.409 E25.3062
G1 X177.89 Y121.431 E25.32176
G1 X66.552 Y121.432 E31.98737
G1 X66.517 Y121.571 E31.99595
G0 F1620 X66.49 Y121.678
G0 X66.292 Y121.945
G1 F1800 E30.99595
G1 F600 Z0.52
G0 F9000 X183.626 Y126.102 Z0.52
G1 F600 Z0.24
G1 F720 E31.99595
G1 F1800 X183.446 Y125.922 E32.01119
G1 X183.336 Y125.728 E32.02455
G1 X183.281 Y125.544 E32.03604
G1 X183.267 Y125.381 E32.04584
G1 X183.267 Y122.944 E32.19174
G1 X183.341 Y122.585 E32.21368
G1 X183.467 Y122.502 E32.22271
G1 X183.467 Y121.413 E32.28791
G1 X183.343 Y121.333 E32.29675
G1 X183.267 Y120.969 E32.31901
G1 X183.267 Y120.469 E32.34894
G1 X178.625 Y120.469 E32.62685
G1 X178.528 Y120.567 E32.63511
G1 X178.244 Y120.759 E32.65563
G1 X178.002 Y120.831 E32.67074
G1 X66.101 Y120.831 E39.37006
G1 X65.961 Y121.395 E39.40485
G1 X65.804 Y121.607 E39.42064
G1 F1744.7 X65.579 Y121.793 E39.43868
G1 F1529.7 X65.167 Y121.957 E39.46991
G1 X65.579 Y122.121 E39.50115
G1 F1744.7 X65.804 Y122.307 E39.51918
G1 F1800 X67.978 Y124.481 E39.70325
G1 X114.744 Y124.481 E42.50305
G1 X114.915 Y124.497 E42.51333
G1 X114.943 Y124.531 E42.51596
G1 X120.215 Y124.531 E42.83159
G1 X120.489 Y124.573 E42.84819
G1 X120.727 Y124.689 E42.86404
G1 X120.906 Y124.853 E42.87857
G1 X121.031 Y125.05 E42.89254
G1 X121.115 Y125.431 E42.9159
G1 X121.115 Y125.731 E42.93386
G1 X166.215 Y125.731 E45.63391
G1 X166.438 Y125.758 E45.64736
G1 X166.641 Y125.837 E45.6604
G1 X166.809 Y125.954 E45.67266
G1 X166.937 Y126.093 E45.68397
G1 X167.072 Y126.314 E45.69948
G1 X167.115 Y126.631 E45.71863
G1 X167.115 Y128.06 E45.80418
G1 X168.586 Y129.531 E45.92873
G1 X184.844 Y129.531 E46.90206
G1 X186.315 Y128.06 E47.02661
G1 X186.315 Y126.281 E47.13311
G1 X184.169 Y126.281 E47.26159
G1 X184.035 Y126.259 E47.26972
G0 F1620 X183.874 Y126.233
G0 X183.626 Y126.102
G1 F1800 E46.26972
G1 F600 Z0.52
G0 F9000 X166.456 Y126.451 Z0.52
;TYPE:WALL-OUTER
G1 F600 Z0.24
G1 F720 E47.26972
G1 F1800 X166.512 Y126.585 E47.27841
G1 X166.515 Y128.308 E47.38157
G1 X168.338 Y130.131 E47.53591
G1 X185.092 Y130.131 E48.53895
G1 X186.915 Y128.308 E48.69329
G1 X186.915 Y125.681 E48.85057
G1 X184.091 Y125.681 E49.01964
G1 X183.926 Y125.562 E49.03182
G1 X183.871 Y125.436 E49.04005
G1 X183.867 Y122.84 E49.19546
G1 X184.067 Y122.709 E49.20978
G1 X184.067 Y121.204 E49.29988
G1 X183.867 Y121.075 E49.31413
G1 X183.867 Y119.869 E49.38633
G1 X178.376 Y119.869 E49.71507
G1 X178.103 Y120.143 E49.73822
G1 X177.942 Y120.227 E49.74909
G1 X65.467 Y120.231 E56.48277
G1 X65.467 Y121.077 E56.53342
G1 F1803 X65.267 Y121.27 E56.55003
G1 X63.186 Y121.27 E56.67441
G1 F1800 X63.186 Y122.644 E56.75667
G1 X65.167 Y122.644 E56.87527
G1 F1803 X65.333 Y122.684 E56.88548
G1 X67.73 Y125.081 E57.08808
G1 F1800 X114.801 Y125.086 E59.90614
G1 X114.838 Y125.131 E59.90963
G1 X120.343 Y125.131 E60.2392
G1 X120.515 Y125.338 E60.25532
G1 X120.515 Y126.331 E60.31477
G1 X166.047 Y126.331 E63.04069
G0 F1620 X166.267 Y126.331
G0 X166.456 Y126.451
G0 F9000 X166.512 Y126.585
G0 X166.512 Y126.94
G1 F1800 E62.04069
G1 F600 Z0.52
G0 F9000 X185.123 Y127.512 Z0.52
;TYPE:SKIN
G1 F600 Z0.24
G1 F720 E63.04069
G1 F1463.8 X185.123 Y127.512
G1 X184.336 Y128.3 E63.12814
G1 F1417 X183.466 Y128.273 E63.19875
G1 F1449.1 X183.189 Y128.318 E63.22101
G1 F1657.6 X182.646 Y128.372 E63.25885
G1 F1800 X169.064 Y128.373 E64.12619
G1 X168.273 Y127.582 E64.19763
G1 X168.273 Y126.61 E64.2597
G1 X168.253 Y126.346 E64.27661
G1 X168.184 Y126.031 E64.2972
G1 X168.081 Y125.761 E64.31565
G1 X167.881 Y125.426 E64.34057
G1 X167.574 Y125.083 E64.36997
G1 X167.186 Y124.812 E64.40019
G1 X166.728 Y124.635 E64.43154
G1 X166.246 Y124.575 E64.46256
G1 X122.094 Y124.573 E67.28209
G1 X121.795 Y124.111 E67.31723
G1 X121.389 Y123.736 E67.35252
G1 X120.838 Y123.462 E67.39182
G1 X120.263 Y123.376 E67.42895
G1 X115.144 Y123.373 E67.75584
G1 X115.12 Y123.358 E67.75765
G1 X114.772 Y123.324 E67.77998
G1 X68.458 Y123.323 E70.73757
G1 X67.124 Y121.989 E70.85804
G1 X177.919 Y121.988 E77.93335
G1 X178.246 Y121.959 E77.95431
G1 X178.706 Y121.826 E77.98489
G1 X178.997 Y121.627 E78.00741
G1 X182.241 Y121.627 E78.21457
G1 X182.284 Y121.791 E78.22539
G1 X182.309 Y121.82 E78.22784
G1 X182.309 Y122.099 E78.24565
G1 X182.268 Y122.145 E78.24959
G1 X182.115 Y122.887 E78.29797
G1 X182.11 Y125.411 E78.45915
G1 X182.15 Y125.787 E78.4833
G1 X182.263 Y126.172 E78.50892
G1 X182.52 Y126.622 E78.54201
G1 X182.896 Y126.998 E78.57597
G1 F1672 X183.551 Y127.441 E78.63033
G1 F1505.9 X184.108 Y127.51 E78.67318
G1 F1460.1 X185.123 Y127.512 E78.75308
G1 F1800 E77.75308
G1 F600 Z0.52
G0 F9000 X181.683 Y121.946 Z0.52
G1 F600 Z0.24
G1 F720 E78.75308
G1 F1800 X181.93 Y122.193 E78.77539
G0 F9000 X181.788 Y122.957
G1 F1800 X180.778 Y121.946 E78.86665
G0 F9000 X179.873 Y121.946
G1 F1800 X181.789 Y123.863 E79.03973
G0 F9000 X181.79 Y124.768
G1 F1800 X179.02 Y121.999 E79.28985
G0 F9000 X178.369 Y122.253
G1 F1800 X181.814 Y125.698 E79.60097
G1 X181.92 Y125.804
G1 F1800 E78.60097
G1 F600 Z0.52
G0 F9000 X181.452 Y128.052 Z0.52
G1 F600 Z0.24
G1 F720 E79.60097
G1 F1800 X175.708 Y122.307 E80.11976
G0 F9000 X174.803 Y122.307
G1 F1800 X180.547 Y128.052 E80.63855
G0 F9000 X179.642 Y128.052
G1 F1800 X173.898 Y122.307 E81.15734
G0 F9000 X172.992 Y122.307
G1 F1800 X178.737 Y128.052 E81.67618
G0 F9000 X177.832 Y128.052
G1 F1800 X172.087 Y122.307 E82.19501
G0 F9000 X171.182 Y122.307
G1 F1800 X176.927 Y128.052 E82.71385
G0 F9000 X176.022 Y128.052
G1 F1800 X170.277 Y122.307 E83.23269
G0 F9000 X169.372 Y122.307
G1 F1800 X175.117 Y128.052 E83.75152
G0 F9000 X174.212 Y128.052
G1 F1800 X168.467 Y122.307 E84.27036
G0 F9000 X167.562 Y122.307
G1 F1800 X173.306 Y128.052 E84.78915
G0 F9000 X172.401 Y128.052
G1 F1800 X166.657 Y122.307 E85.30794
G0 F9000 X165.752 Y122.307
G1 F1800 X171.496 Y128.052 E85.82673
G0 F9000 X170.591 Y128.052
G1 F1800 X168.49 Y125.95 E86.01652
G0 F9000 X168.591 Y126.956
G1 F1800 X169.686 Y128.052 E86.11546
G1 X169.792 Y128.158
G1 F1800 E85.11546
G1 F600 Z0.52
G0 F9000 X166.898 Y124.358 Z0.52
G1 F600 Z0.24
G1 F720 E86.11546
G1 F1800 X164.847 Y122.307 E86.30068
G0 F9000 X163.942 Y122.307
G1 F1800 X165.89 Y124.256 E86.47665
G0 F9000 X164.985 Y124.256
G1 F1800 X163.036 Y122.307 E86.65267
G0 F9000 X162.131 Y122.307
G1 F1800 X164.08 Y124.256 E86.82869
G0 F9000 X163.175 Y124.256
G1 F1800 X161.226 Y122.307 E87.0047
G0 F9000 X160.321 Y122.307
G1 F1800 X162.27 Y124.256 E87.18072
G0 F9000 X161.365 Y124.256
G1 F1800 X159.416 Y122.307 E87.35673
G0 F9000 X158.511 Y122.307
G1 F1800 X160.46 Y124.256 E87.53275
G0 F9000 X159.554 Y124.255
G1 F1800 X157.606 Y122.307 E87.70868
G0 F9000 X156.701 Y122.307
G1 F1800 X158.649 Y124.255 E87.8846
G0 F9000 X157.744 Y124.255
G1 F1800 X155.796 Y122.307 E88.06053
G0 F9000 X154.891 Y122.307
G1 F1800 X156.839 Y124.255 E88.23645
G0 F9000 X155.934 Y124.255
G1 F1800 X153.985 Y122.307 E88.41242
G0 F9000 X153.08 Y122.307
G1 F1800 X155.028 Y124.255 E88.58835
G0 F9000 X154.123 Y124.255
G1 F1800 X152.175 Y122.307 E88.76427
G0 F9000 X151.27 Y122.307
G1 F1800 X153.218 Y124.254 E88.94015
G0 F9000 X152.312 Y124.254
G1 F1800 X150.365 Y122.307 E89.11599
G0 F9000 X149.46 Y122.307
G1 F1800 X151.407 Y124.254 E89.29183
G0 F9000 X150.502 Y124.254
G1 F1800 X148.555 Y122.307 E89.46766
G0 F9000 X147.65 Y122.307
G1 F1800 X149.597 Y124.254 E89.6435
G0 F9000 X148.692 Y124.254
G1 F1800 X146.745 Y122.307 E89.81933
G0 F9000 X145.84 Y122.307
G1 F1800 X147.787 Y124.254 E89.99517
G0 F9000 X146.881 Y124.254
G1 F1800 X144.934 Y122.307 E90.171
G0 F9000 X144.029 Y122.307
G1 F1800 X145.976 Y124.254 E90.34684
G0 F9000 X145.071 Y124.254
G1 F1800 X143.124 Y122.307 E90.52267
G0 F9000 X142.219 Y122.307
G1 F1800 X144.166 Y124.254 E90.69851
G0 F9000 X143.261 Y124.254
G1 F1800 X141.314 Y122.307 E90.87434
G0 F9000 X140.409 Y122.307
G1 F1800 X142.356 Y124.254 E91.05018
G0 F9000 X141.451 Y124.254
G1 F1800 X139.504 Y122.307 E91.22601
G0 F9000 X138.599 Y122.307
G1 F1800 X140.545 Y124.253 E91.40176
G0 F9000 X139.64 Y124.253
G1 F1800 X137.694 Y122.307 E91.5775
G0 F9000 X136.789 Y122.307
G1 F1800 X138.735 Y124.253 E91.75325
G0 F9000 X137.829 Y124.253
G1 F1800 X135.884 Y122.307 E91.92895
G0 F9000 X134.978 Y122.307
G1 F1800 X136.924 Y124.253 E92.10469
G0 F9000 X136.019 Y124.253
G1 F1800 X134.073 Y122.307 E92.28044
G0 F9000 X133.168 Y122.307
G1 F1800 X135.114 Y124.253 E92.45618
G0 F9000 X134.208 Y124.252
G1 F1800 X132.263 Y122.307 E92.63184
G0 F9000 X131.358 Y122.307
G1 F1800 X133.303 Y124.252 E92.80749
G0 F9000 X132.398 Y124.252
G1 F1800 X130.453 Y122.307 E92.98315
G0 F9000 X129.548 Y122.307
G1 F1800 X131.493 Y124.252 E93.1588
G0 F9000 X130.588 Y124.252
G1 F1800 X128.643 Y122.307 E93.33446
G0 F9000 X127.738 Y122.307
G1 F1800 X129.683 Y124.252 E93.51011
G0 F9000 X128.778 Y124.252
G1 F1800 X126.833 Y122.307 E93.68577
G0 F9000 X125.927 Y122.307
G1 F1800 X127.872 Y124.252 E93.86142
G0 F9000 X126.967 Y124.252
G1 F1800 X125.022 Y122.307 E94.03708
G0 F9000 X124.117 Y122.307
G1 F1800 X126.062 Y124.252 E94.21273
G0 F9000 X125.157 Y124.252
G1 F1800 X123.212 Y122.307 E94.38839
G0 F9000 X122.308 Y122.308
G1 F1800 X124.252 Y124.252 E94.56395
G0 F9000 X123.346 Y124.252
G1 F1800 X121.403 Y122.308 E94.73947
G0 F9000 X120.498 Y122.308
G1 F1800 X122.441 Y124.252 E94.91499
G1 X122.547 Y124.358
G1 F1800 E93.91499
G1 F600 Z0.52
G0 F9000 X120.348 Y123.064 Z0.52
G1 F600 Z0.24
G1 F720 E94.91499
G1 F1800 X119.592 Y122.308 E94.98326
G0 F9000 X119.436 Y123.057
G1 F1800 X118.687 Y122.308 E95.05091
G0 F9000 X118.53 Y123.055
G1 F1800 X117.782 Y122.308 E95.11841
G0 F9000 X117.624 Y123.054
G1 F1800 X116.877 Y122.308 E95.18583
G0 F9000 X116.717 Y123.053
G1 F1800 X115.972 Y122.308 E95.25311
G0 F9000 X115.812 Y123.052
G1 F1800 X115.067 Y122.308 E95.32035
G0 F9000 X114.865 Y123.011
G1 F1800 X114.162 Y122.308 E95.38384
G0 F9000 X113.953 Y123.004
G1 F1800 X113.257 Y122.308 E95.44669
G0 F9000 X113.047 Y123.004
G1 F1800 X112.352 Y122.308 E95.50951
G0 F9000 X112.142 Y123.004
G1 F1800 X111.447 Y122.308 E95.57232
G0 F9000 X111.237 Y123.004
G1 F1800 X110.542 Y122.308 E95.63513
G0 F9000 X110.332 Y123.004
G1 F1800 X109.636 Y122.308 E95.69799
G0 F9000 X109.427 Y123.004
G1 F1800 X108.731 Y122.308 E95.76084
G0 F9000 X108.522 Y123.004
G1 F1800 X107.826 Y122.308 E95.8237
G0 F9000 X107.617 Y123.004
G1 F1800 X106.921 Y122.308 E95.88655
G0 F9000 X106.712 Y123.004
G1 F1800 X106.016 Y122.308 E95.94941
G0 F9000 X105.807 Y123.004
G1 F1800 X105.111 Y122.308 E96.01227
G0 F9000 X104.902 Y123.004
G1 F1800 X104.206 Y122.308 E96.07512
G0 F9000 X103.997 Y123.004
G1 F1800 X103.301 Y122.308 E96.13798
G0 F9000 X103.091 Y123.004
G1 F1800 X102.396 Y122.308 E96.20079
G0 F9000 X102.186 Y123.004
G1 F1800 X101.491 Y122.308 E96.2636
G0 F9000 X101.281 Y123.004
G1 F1800 X100.585 Y122.308 E96.32646
G0 F9000 X100.376 Y123.004
G1 F1800 X99.68 Y122.308 E96.38932
G0 F9000 X99.471 Y123.004
G1 F1800 X98.775 Y122.308 E96.45217
G0 F9000 X98.565 Y123.003
G1 F1800 X97.87 Y122.308 E96.51494
G0 F9000 X97.66 Y123.003
G1 F1800 X96.965 Y122.308 E96.5777
G0 F9000 X96.755 Y123.003
G1 F1800 X96.06 Y122.308 E96.64047
G0 F9000 X95.85 Y123.003
G1 F1800 X95.155 Y122.308 E96.70324
G0 F9000 X94.945 Y123.003
G1 F1800 X94.25 Y122.308 E96.766
G0 F9000 X94.04 Y123.003
G1 F1800 X93.345 Y122.308 E96.82877
G0 F9000 X93.135 Y123.003
G1 F1800 X92.44 Y122.308 E96.89153
G0 F9000 X92.23 Y123.003
G1 F1800 X91.534 Y122.308 E96.95435
G0 F9000 X91.324 Y123.003
G1 F1800 X90.629 Y122.308 E97.01711
G0 F9000 X90.419 Y123.003
G1 F1800 X89.724 Y122.308 E97.07988
G0 F9000 X89.514 Y123.003
