;Project bed-snugger
;Created by Estlcam version 11 build 11.245
;Machining time about 00:07:27 hours

G90
M03 S10000
G00 X0.0000 Y0.0000 Z0.0000 F1500
G00 Z8.0000 F480


;No. 1: Part 1
G00 X-0.1835 Y-0.5125 F1500
G00 Z0.5000 F480
G01 Z0.0000 F360 S10000
G03 X2.9737 Y-1.7400 Z-3.0000 I3.1815 J3.5091 F360
G02 X-0.1835 Y-0.5125 Z-6.0000 I0.0243 J4.7366 F360
G03 X2.9786 Y-1.7400 I3.1815 J3.5091 F900
G01 X269.0214 F900
G03 X273.7400 Y2.9786 I-0.0202 J4.7388 F900
G01 Y269.0214 F900
G03 X269.0214 Y273.7400 I-4.7388 J-0.0202 F900
G01 X2.9573 F900
G03 X-1.7400 Y269.0427 I0.0473 J-4.7445 F900
G01 Y2.9786 F900
G03 X-0.1835 Y-0.5125 I4.7378 J0.0197 F900
G03 X2.9737 Y-1.7400 Z-9.0000 I3.1815 J3.5091 F360
G02 X-0.1835 Y-0.5125 Z-12.0000 I0.0243 J4.7366 F360
G03 X2.9786 Y-1.7400 I3.1815 J3.5091 F900
G01 X269.0214 F900
G03 X273.7400 Y2.9786 I-0.0202 J4.7388 F900
G01 Y269.0214 F900
G03 X269.0214 Y273.7400 I-4.7388 J-0.0202 F900
G01 X2.9573 F900
G03 X-1.7400 Y269.0427 I0.0473 J-4.7445 F900
G01 Y2.9786 F900
G03 X-0.1835 Y-0.5125 I4.7378 J0.0197 F900
G03 X0.1501 Y-0.7883 Z-12.3750 I3.1815 J3.5091 F360
G02 X-0.1835 Y-0.5125 Z-12.7500 I2.8479 J3.7849 F360
G03 X2.9786 Y-1.7400 I3.1815 J3.5091 F900
G01 X269.0214 F900
G03 X273.7400 Y2.9786 I-0.0202 J4.7388 F900
G01 Y269.0214 F900
G03 X269.0214 Y273.7400 I-4.7388 J-0.0202 F900
G01 X2.9573 F900
G03 X-1.7400 Y269.0427 I0.0473 J-4.7445 F900
G01 Y2.9786 F900
G03 X-0.1835 Y-0.5125 I4.7378 J0.0197 F900
G00 Z8.0000 F480


;No. 2: Part 1
G00 X-0.1835 Y-0.5125 Z8.0000 F1500
G00 Z0.5000 F480
G01 Z-6.0000 F360
G01 X-0.0828 Y-0.4013 F900
G03 X2.9805 Y-1.5900 I3.0809 J3.3982 F900
G01 X269.0195 F900
G03 X273.5900 Y2.9805 I-0.0184 J4.5889 F900
G01 Y269.0195 F900
G03 X269.0195 Y273.5900 I-4.5889 J-0.0184 F900
G01 X2.9610 F900
G03 X-1.5900 Y269.0390 I0.0433 J-4.5943 F900
G01 Y2.9805 F900
G03 X-0.0828 Y-0.4013 I4.5880 J0.0180 F900
G01 X-0.1835 Y-0.5125 F900
G00 Z0.0000 F480
G01 Z-12.0000 F360
G01 X-0.0828 Y-0.4013 F900
G03 X2.9805 Y-1.5900 I3.0809 J3.3982 F900
G01 X269.0195 F900
G03 X273.5900 Y2.9805 I-0.0184 J4.5889 F900
G01 Y269.0195 F900
G03 X269.0195 Y273.5900 I-4.5889 J-0.0184 F900
G01 X2.9610 F900
G03 X-1.5900 Y269.0390 I0.0433 J-4.5943 F900
G01 Y2.9805 F900
G03 X-0.0828 Y-0.4013 I4.5880 J0.0180 F900
G01 X-0.1835 Y-0.5125 F900
G00 Z0.0000 F480
G01 Z-12.7500 F360
G01 X-0.0828 Y-0.4013 F900
G03 X2.9805 Y-1.5900 I3.0809 J3.3982 F900
G01 X269.0195 F900
G03 X273.5900 Y2.9805 I-0.0184 J4.5889 F900
G01 Y269.0195 F900
G03 X269.0195 Y273.5900 I-4.5889 J-0.0184 F900
G01 X2.9610 F900
G03 X-1.5900 Y269.0390 I0.0433 J-4.5943 F900
G01 Y2.9805 F900
G03 X-0.0828 Y-0.4013 I4.5880 J0.0180 F900
G01 X-0.1835 Y-0.5125 F900
G00 Z0.0000 F480
G00 Z8.0000 F480
G00 X0.0000 Y0.0000 F1500

M05
