;FLAVOR:Marlin
;TIME:1263
;Filament used: 3.98609m
;Layer height: 0.32
;MINX:26.811
;MINY:58.227
;MINZ:0.28
;MAXX:200.577
;MAXY:221.274
;MAXZ:2.28
;Generated with Cura_SteamEngine 5.0.0
M140 S60
M105
M190 S60
M104 S215
M105
M109 S215
M82 ;absolute extrusion mode
START_PRINT
G92 E0
G92 E0
G1 F300 E-0.5
;LAYER_COUNT:6
;LAYER:0
M107
G1 F600 Z0.68
G0 F3600 X59.345 Y59.18 Z0.68
;TYPE:SKIRT
G1 F600 Z0.28
G1 F120 E0
G1 F2100 X59.897 Y58.834 E0.04824
G1 X60.394 Y58.569 E0.08994
G1 X60.924 Y58.378 E0.13165
G1 X61.476 Y58.263 E0.1734
G1 X62.039 Y58.227 E0.21517
G1 X62.6 Y58.271 E0.25683
G1 X63.15 Y58.395 E0.29857
G1 X63.77 Y58.639 E0.34791
G1 X64.577 Y59.039 E0.41459
G1 X80.388 Y67.199 E1.73195
G1 X81.044 Y67.549 E1.787
G1 X81.521 Y67.849 E1.82872
G1 X81.951 Y68.213 E1.87043
G1 X82.325 Y68.635 E1.91218
G1 X82.636 Y69.105 E1.95391
G1 X82.877 Y69.614 E1.99561
G1 X83.088 Y70.371 E2.05379
G1 X83.238 Y71.23 E2.11836
G1 X84.15 Y77.008 E2.55146
G1 X84.252 Y77.716 E2.60442
G1 X84.289 Y78.106 E2.63342
G1 X84.404 Y80.683 E2.82441
G1 X84.601 Y83.421 E3.02766
G1 X84.871 Y86.109 E3.22768
G1 X85.218 Y88.804 E3.42886
G1 X85.64 Y91.479 E3.62937
G1 X86.142 Y94.163 E3.83154
G1 X86.708 Y96.78 E4.02978
G1 X87.363 Y99.435 E4.23225
G1 X88.09 Y102.064 E4.43421
G1 X88.885 Y104.654 E4.6348
G1 X89.759 Y107.236 E4.83663
G1 X90.702 Y109.785 E5.03786
G1 X91.775 Y112.472 E5.25208
G1 X92.176 Y113.624 E5.34239
G1 X93.124 Y116.234 E5.54799
G1 X94.118 Y118.745 E5.74794
G1 X95.2 Y121.265 E5.95099
G1 X96.335 Y123.714 E6.15084
G1 X97.537 Y126.131 E6.35071
G1 X98.83 Y128.554 E6.55405
G1 X100.172 Y130.908 E6.75467
G1 X101.569 Y133.203 E6.9536
G1 X103.072 Y135.522 E7.15821
G1 X104.589 Y137.723 E7.35613
G1 X106.21 Y139.94 E7.55947
G1 X107.857 Y142.063 E7.75841
G1 X109.598 Y144.181 E7.96141
G1 X111.367 Y146.211 E8.16077
G1 X113.205 Y148.206 E8.36161
G1 X115.114 Y150.165 E8.56414
G1 X117.07 Y152.058 E8.76568
G1 X119.056 Y153.878 E8.96512
G1 X121.112 Y155.654 E9.16628
G1 X123.237 Y157.39 E9.36944
G1 X125.377 Y159.038 E9.56943
G1 X127.584 Y160.64 E9.77134
G1 X129.808 Y162.162 E9.97088
G1 X132.088 Y163.628 E10.17157
G1 X134.432 Y165.043 E10.37429
G1 X136.79 Y166.377 E10.57488
G1 X139.194 Y167.65 E10.77629
G1 X141.626 Y168.85 E10.97708
G1 X144.094 Y169.982 E11.17811
G1 X146.322 Y170.933 E11.35747
G1 X147.212 Y171.308 E11.42898
G1 X148.089 Y171.728 E11.50098
G1 X150.562 Y172.872 E11.70272
G1 X153.077 Y173.95 E11.90531
G1 X155.62 Y174.957 E12.10782
G1 X158.147 Y175.875 E12.30689
G1 X160.726 Y176.729 E12.50803
G1 X163.326 Y177.511 E12.70905
G1 X165.955 Y178.22 E12.91066
G1 X168.637 Y178.863 E13.11486
G1 X171.235 Y179.409 E13.31142
G1 X173.942 Y179.898 E13.51509
G1 X176.618 Y180.304 E13.71549
G1 X179.709 Y180.676 E13.946
G1 X180.839 Y180.794 E14.03012
G1 X181.183 Y180.846 E14.05588
G1 X181.619 Y180.932 E14.08878
G1 X196.903 Y184.33 E15.24804
G1 X197.529 Y184.479 E15.29568
G1 X198.067 Y184.648 E15.33743
G1 X198.575 Y184.891 E15.37913
G1 X199.044 Y185.204 E15.42087
G1 X199.464 Y185.58 E15.46261
G1 X199.826 Y186.012 E15.50434
G1 X200.124 Y186.49 E15.54605
G1 X200.351 Y187.006 E15.58779
G1 X200.503 Y187.549 E15.62953
G1 X200.577 Y188.107 E15.67121
G1 X200.571 Y188.671 E15.71297
G1 X200.485 Y189.228 E15.7547
G1 X200.321 Y189.767 E15.79641
G1 X200.083 Y190.278 E15.83815
G1 X199.775 Y190.75 E15.87988
G1 X199.393 Y191.183 E15.92263
G1 X199.063 Y191.505 E15.95677
G1 X170.066 Y218.761 E18.90326
G1 X169.576 Y219.209 E18.95242
G1 X169.134 Y219.558 E18.99411
G1 X168.648 Y219.842 E19.03579
G1 X168.125 Y220.054 E19.07757
G1 X167.579 Y220.191 E19.11925
G1 X167.232 Y220.236 E19.14516
G1 X166.232 Y220.32 E19.21946
G1 X152.369 Y221.239 E20.24813
G1 X151.705 Y221.274 E20.29736
G1 X151.142 Y221.264 E20.33905
G1 X150.585 Y221.174 E20.38083
G1 X150.047 Y221.007 E20.42254
G1 X149.424 Y220.697 E20.47406
G1 X148.452 Y220.103 E20.5584
G1 X95.431 Y186.19 E25.2184
G1 X94.852 Y185.807 E25.2698
G1 X94.405 Y185.464 E25.31152
G1 X94.011 Y185.061 E25.35325
G1 X93.774 Y184.751 E25.38214
G1 X93.423 Y184.241 E25.42798
G1 X27.845 Y85.217 E34.22168
G1 X27.444 Y84.594 E34.27653
G1 X27.173 Y84.1 E34.31825
G1 X26.975 Y83.572 E34.36
G1 X26.853 Y83.022 E34.40171
G1 X26.811 Y82.46 E34.44344
G1 X26.849 Y81.898 E34.48515
G1 X26.965 Y81.347 E34.52684
G1 X27.159 Y80.817 E34.56862
G1 X27.425 Y80.321 E34.61029
G1 X27.759 Y79.867 E34.65203
G1 X28.154 Y79.464 E34.69381
G1 X28.571 Y79.142 E34.73281
G1 X29.092 Y78.794 E34.7792
G1 X59.345 Y59.18 E37.4487
G0 F3600 X59.69 Y59.731
G1 F2100 X60.242 Y59.385 E37.49694
G1 X60.699 Y59.146 E37.53512
G1 X61.187 Y58.98 E37.57329
G1 X61.694 Y58.892 E37.61139
G1 X62.21 Y58.883 E37.6496
G1 X62.72 Y58.954 E37.68772
G1 X63.214 Y59.103 E37.72593
G1 X63.482 Y59.222 E37.74764
G1 X64.279 Y59.616 E37.81346
G1 X80.082 Y67.772 E39.13016
G1 X80.738 Y68.122 E39.18521
G1 X81.173 Y68.4 E39.22343
G1 X81.559 Y68.74 E39.26152
G1 X81.888 Y69.137 E39.29969
G1 X82.152 Y69.58 E39.33787
G1 X82.345 Y70.058 E39.37604
G1 X82.448 Y70.483 E39.40842
G1 X82.596 Y71.331 E39.47215
G1 X83.507 Y77.101 E39.90466
G1 X83.609 Y77.809 E39.95762
G1 X83.64 Y78.135 E39.98186
G1 X83.757 Y80.757 E40.17619
G1 X83.952 Y83.46 E40.37684
G1 X84.222 Y86.159 E40.57767
G1 X84.577 Y88.912 E40.78319
G1 X85.001 Y91.599 E40.9846
G1 X85.501 Y94.272 E41.18594
G1 X86.078 Y96.939 E41.38797
G1 X86.729 Y99.582 E41.58951
G1 X87.469 Y102.255 E41.79486
G1 X88.271 Y104.869 E41.99731
G1 X89.146 Y107.453 E42.1993
G1 X90.09 Y110.004 E42.40069
G1 X91.161 Y112.685 E42.61444
G1 X91.565 Y113.846 E42.70546
G1 X92.51 Y116.447 E42.91036
G1 X93.53 Y119.023 E43.11549
G1 X94.601 Y121.517 E43.31645
G1 X95.744 Y123.986 E43.5179
G1 X96.977 Y126.464 E43.72282
G1 X98.249 Y128.849 E43.92295
G1 X99.604 Y131.223 E44.12534
G1 X101.036 Y133.576 E44.32928
G1 X102.505 Y135.843 E44.52929
G1 X104.069 Y138.114 E44.73345
G1 X105.679 Y140.315 E44.93536
G1 X107.367 Y142.49 E45.1392
G1 X109.099 Y144.598 E45.3412
G1 X110.877 Y146.638 E45.54156
G1 X112.755 Y148.677 E45.74681
G1 X114.656 Y150.627 E45.94844
G1 X116.601 Y152.509 E46.14883
G1 X118.635 Y154.373 E46.3531
G1 X120.717 Y156.172 E46.55682
G1 X122.813 Y157.884 E46.7572
G1 X124.983 Y159.555 E46.95998
G1 X127.196 Y161.162 E47.16247
G1 X129.458 Y162.71 E47.36542
G1 X131.762 Y164.191 E47.56821
G1 X134.095 Y165.599 E47.76996
G1 X136.458 Y166.936 E47.97098
G1 X138.921 Y168.24 E48.17732
G1 X141.344 Y169.436 E48.37739
G1 X143.828 Y170.575 E48.57972
G1 X146.074 Y171.534 E48.76053
G1 X146.931 Y171.894 E48.82936
G1 X147.79 Y172.306 E48.89989
G1 X150.323 Y173.477 E49.10651
G1 X152.841 Y174.557 E49.30937
G1 X155.364 Y175.556 E49.51028
G1 X157.937 Y176.49 E49.71295
G1 X160.54 Y177.353 E49.91599
G1 X163.152 Y178.138 E50.11793
G1 X165.8 Y178.852 E50.32099
G1 X168.466 Y179.491 E50.52397
G1 X171.127 Y180.05 E50.72529
G1 X173.83 Y180.538 E50.92865
G1 X176.511 Y180.945 E51.12943
G1 X179.665 Y181.326 E51.36465
G1 X180.771 Y181.441 E51.44698
G1 X181.059 Y181.484 E51.46854
G1 X181.478 Y181.566 E51.50015
G1 X196.753 Y184.962 E52.65872
G1 X197.379 Y185.111 E52.70637
G1 X197.87 Y185.269 E52.74456
G1 X198.33 Y185.501 E52.7827
G1 X198.749 Y185.801 E52.82086
G1 X199.116 Y186.162 E52.85897
G1 X199.424 Y186.576 E52.89718
G1 X199.663 Y187.032 E52.9353
G1 X199.83 Y187.52 E52.97349
G1 X199.919 Y188.028 E53.01167
G1 X199.928 Y188.543 E53.04981
G1 X199.858 Y189.053 E53.08792
G1 X199.71 Y189.547 E53.1261
G1 X199.487 Y190.012 E53.16429
G1 X199.195 Y190.436 E53.2024
G1 X198.938 Y190.719 E53.23071
G1 X198.618 Y191.032 E53.26385
G1 X169.628 Y218.281 E56.20961
G1 X169.138 Y218.729 E56.25876
G1 X168.731 Y219.046 E56.29696
G1 X168.281 Y219.297 E56.33511
G1 X167.798 Y219.475 E56.37322
G1 X167.177 Y219.588 E56.41996
G1 X166.189 Y219.672 E56.49337
G1 X152.335 Y220.59 E57.52137
G1 X151.671 Y220.625 E57.5706
G1 X151.156 Y220.613 E57.60874
G1 X150.649 Y220.52 E57.64691
G1 X150.162 Y220.351 E57.68507
G1 X149.763 Y220.142 E57.71842
G1 X148.802 Y219.555 E57.8018
G1 X95.79 Y185.648 E62.461
G1 X95.211 Y185.265 E62.5124
G1 X94.804 Y184.948 E62.5506
G1 X94.309 Y184.381 E62.60632
G1 X93.965 Y183.882 E62.6512
G1 X28.391 Y84.866 E71.44424
G1 X27.99 Y84.243 E71.4991
G1 X27.746 Y83.789 E71.53726
G1 X27.574 Y83.303 E71.57543
G1 X27.48 Y82.796 E71.61361
G1 X27.465 Y82.281 E71.65175
G1 X27.53 Y81.77 E71.68989
G1 X27.673 Y81.275 E71.72804
G1 X27.891 Y80.808 E71.7662
G1 X28.178 Y80.38 E71.80435
G1 X28.528 Y80.002 E71.8425
G1 X28.933 Y79.682 E71.88071
G1 X29.445 Y79.339 E71.92634
G1 X59.69 Y59.731 E74.5951
G1 F300 E74.0951
G1 F600 Z0.68
;MESH:LR-Core-slice-2mm.stl
G0 F3600 X52.54 Y76.579 Z0.68
;TYPE:WALL-INNER
G1 F600 Z0.28
G1 F120 E74.5951
G1 F2100 X52.947 Y76.47 E74.62329
G1 X53.208 Y76.461 E74.64077
G1 X53.453 Y76.495 E74.65732
G1 X74.668 Y81.209 E76.11134
G1 X74.684 Y81.184 E76.11333
G1 X75.255 Y80.392 E76.17865
G1 X75.376 Y80.245 E76.19139
G1 X76.383 Y79.165 E76.29018
G1 X76.516 Y79.039 E76.30244
G1 X76.564 Y79 E76.30658
G1 X78.123 Y77.797 E76.43833
G1 X78.323 Y77.667 E76.45429
G1 X78.681 Y77.473 E76.48153
G1 X77.823 Y72.037 E76.84973
G1 X62.097 Y63.921 E78.03375
G1 X52.329 Y70.254 E78.81262
G1 X51.667 Y70.68 E78.86529
G1 X48.759 Y72.566 E79.09719
G1 X32.86 Y82.875 E80.36497
G1 X98.115 Y181.407 E88.27197
G1 X151.866 Y215.787 E92.54093
G1 X162.664 Y215.07 E93.26497
G1 X166.252 Y214.83 E93.50556
G1 X185.764 Y196.49 E95.29718
G1 X186.187 Y196.095 E95.3359
G1 X186.525 Y195.775 E95.36704
G1 X193.53 Y189.191 E96.01024
G1 X181.165 Y186.442 E96.85773
G1 X181.109 Y186.527 E96.86454
G1 X180.494 Y187.365 E96.93408
G1 X180.364 Y187.52 E96.94762
G1 X179.23 Y188.693 E97.05678
G1 X179.13 Y188.779 E97.0656
G1 X177.898 Y189.748 E97.17047
G1 X177.727 Y189.864 E97.1843
G1 X176.819 Y190.394 E97.25464
G1 X176.7 Y190.456 E97.26362
G1 X175.946 Y190.81 E97.31935
G1 X175.625 Y190.943 E97.34259
G1 X175.493 Y190.99 E97.35197
G1 X174.169 Y191.391 E97.44452
G1 X174.02 Y191.428 E97.4548
G1 X173.336 Y191.56 E97.5014
G1 X172.445 Y191.699 E97.56174
G1 X172.059 Y191.728 E97.58764
G1 X171.723 Y191.748 E97.61016
G1 X171.341 Y191.845 E97.63653
G1 X166.929 Y192.795 E97.93848
G1 X166.729 Y192.824 E97.952
G1 X166.68 Y192.785 E97.95619
G1 X160.823 Y195.048 E98.37629
G1 X160.612 Y195.112 E98.39104
G1 X160.503 Y195.132 E98.39846
G1 X159.187 Y195.331 E98.48751
G1 X158.988 Y195.347 E98.50086
G1 X158.802 Y195.339 E98.51332
G1 X158.69 Y195.323 E98.52089
G1 X157.383 Y195.082 E98.60981
G1 X157.18 Y195.029 E98.62385
G1 X157.001 Y194.956 E98.63678
G1 X156.088 Y194.513 E98.70468
G1 X155.934 Y194.427 E98.71648
G1 X155.841 Y194.363 E98.72403
G1 X154.095 Y193.051 E98.87015
G1 X153.991 Y192.965 E98.87918
G1 X152.372 Y191.501 E99.02522
G1 X152.274 Y191.404 E99.03445
G1 X151.286 Y190.33 E99.13208
G1 X151.218 Y190.251 E99.13906
G1 X150.307 Y189.111 E99.23669
G1 X150.248 Y189.032 E99.24329
G1 X149.419 Y187.843 E99.34027
G1 X149.347 Y187.729 E99.34929
G1 X148.236 Y185.781 E99.49933
G1 X148.204 Y185.714 E99.50429
G1 X147.274 Y183.654 E99.65552
G1 X144.894 Y177.5 E100.09697
G1 X140.557 Y181.577 E100.49522
G1 X140.427 Y181.685 E100.50653
G1 X140.217 Y181.818 E100.52316
G1 X139.951 Y181.923 E100.5423
G1 X139.707 Y181.973 E100.55896
G1 X139.519 Y181.984 E100.57156
G1 X139.305 Y181.967 E100.58592
G1 X139.114 Y181.925 E100.59901
G1 X138.951 Y181.868 E100.61056
G1 X138.747 Y181.764 E100.62588
G1 X138.582 Y181.648 E100.63938
G1 X138.436 Y181.511 E100.65277
G1 X128.201 Y170.626 E101.65242
G1 X120.945 Y173.66 E102.17862
G1 X120.771 Y173.715 E102.19083
G1 X120.582 Y173.75 E102.20369
G1 X120.38 Y173.76 E102.21722
G1 X120.171 Y173.742 E102.23126
G1 X119.961 Y173.694 E102.24567
G1 X119.756 Y173.613 E102.26042
G1 X119.596 Y173.524 E102.27267
G1 X119.564 Y173.503 E102.27523
G1 X119.39 Y173.366 E102.29004
G1 X119.312 Y173.288 E102.29742
G1 X102.084 Y154.967 E103.98002
G1 X101.954 Y154.984 E103.9888
G1 X101.756 Y154.865 E104.00425
G1 X101.608 Y154.743 E104.01708
G1 X101.539 Y154.674 E104.02361
G1 X86.025 Y138.177 E105.53875
G1 X85.867 Y137.978 E105.55575
G1 X85.78 Y137.828 E105.56735
G1 X85.676 Y137.566 E105.58621
G1 X85.625 Y137.297 E105.60453
G1 X85.622 Y137.033 E105.6222
G1 X85.661 Y136.789 E105.63873
G1 X85.734 Y136.57 E105.65417
G1 X85.83 Y136.379 E105.66848
G1 X85.984 Y136.167 E105.68601
G1 X86.09 Y136.055 E105.69632
G1 X91.19 Y131.262 E106.16458
G1 X80.97 Y120.391 E107.16286
G1 X80.836 Y120.226 E107.17708
G1 X80.727 Y120.044 E107.19128
G1 X80.644 Y119.849 E107.20546
G1 X80.591 Y119.649 E107.2193
G1 X80.566 Y119.449 E107.23279
G1 X80.567 Y119.253 E107.2459
G1 X80.59 Y119.081 E107.25751
G1 X80.631 Y118.917 E107.26882
G1 X80.693 Y118.751 E107.28068
G1 X80.792 Y118.567 E107.29466
G1 X80.89 Y118.428 E107.30603
G1 X81.036 Y118.27 E107.32043
G1 X85.372 Y114.193 E107.71863
G1 X79.398 Y111.452 E108.15839
G1 X77.994 Y110.747 E108.2635
G1 X76.706 Y109.987 E108.36356
G1 X76.622 Y109.933 E108.37024
G1 X75.405 Y109.1 E108.46891
G1 X75.322 Y109.039 E108.4758
G1 X74.195 Y108.147 E108.57197
G1 X74.115 Y108.079 E108.57899
G1 X73.036 Y107.096 E108.67665
G1 X72.964 Y107.026 E108.68337
G1 X71.951 Y105.97 E108.78127
G1 X71.889 Y105.901 E108.78748
G1 X70.951 Y104.779 E108.88533
G1 X70.889 Y104.7 E108.89204
G1 X70.031 Y103.522 E108.98955
G1 X69.973 Y103.436 E108.99649
G1 X69.201 Y102.206 E109.09365
G1 X69.12 Y102.06 E109.10482
G1 X68.825 Y101.448 E109.15028
G1 X68.735 Y101.213 E109.16711
G1 X68.548 Y100.566 E109.21217
G1 X68.501 Y100.336 E109.22788
G1 X68.415 Y99.649 E109.2742
G1 X68.407 Y99.413 E109.29
G1 X68.436 Y98.759 E109.3338
G1 X68.485 Y98.44 E109.35539
G1 X68.742 Y97.474 E109.42227
G1 X68.843 Y97.202 E109.44168
G1 X71.001 Y92.775 E109.77119
G1 X51.071 Y88.343 E111.1372
G1 X50.796 Y88.253 E111.15656
G1 X50.529 Y88.102 E111.17708
G1 X50.308 Y87.91 E111.19667
G1 X50.187 Y87.767 E111.2092
G1 X50.099 Y87.631 E111.22004
G1 X50.021 Y87.478 E111.23153
G1 X49.928 Y87.184 E111.25216
G1 X49.897 Y86.88 E111.2726
G1 X49.924 Y86.592 E111.29196
G1 X51.654 Y77.674 E111.89974
G1 X51.72 Y77.437 E111.9162
G1 X51.832 Y77.202 E111.93362
G1 X51.989 Y76.981 E111.95176
G1 X52.105 Y76.861 E111.96293
G1 X52.31 Y76.701 E111.98033
G1 X52.54 Y76.579 E111.99774
G1 F300 E111.49774
G1 F600 Z0.68
G0 F3600 X51.201 Y87.757 Z0.68
G1 F600 Z0.28
G1 F120 E111.99774
G1 F2100 X51.036 Y87.703 E112.00936
G1 X50.876 Y87.613 E112.02164
G1 X50.743 Y87.498 E112.03341
G1 X50.618 Y87.33 E112.04742
G1 X50.539 Y87.153 E112.06038
G1 X50.501 Y86.97 E112.07289
G1 X50.501 Y86.79 E112.08493
G1 X50.562 Y86.453 E112.10785
G1 X52.243 Y77.788 E112.69839
G1 X52.35 Y77.505 E112.71864
G1 X52.444 Y77.373 E112.72948
G1 X52.564 Y77.257 E112.74064
G1 X52.705 Y77.164 E112.75194
G1 X52.859 Y77.1 E112.7631
G1 X53.019 Y77.066 E112.77405
G1 X53.323 Y77.081 E112.79441
G1 X74.96 Y81.89 E114.27738
G1 X75.123 Y81.609 E114.29911
G1 X75.171 Y81.535 E114.30501
G1 X75.742 Y80.743 E114.37034
G1 X75.814 Y80.655 E114.37794
G1 X76.848 Y79.547 E114.47934
G1 X76.931 Y79.475 E114.48669
G1 X78.49 Y78.272 E114.61844
G1 X78.61 Y78.194 E114.62802
G1 X79.34 Y77.797 E114.68361
G1 X78.369 Y71.643 E115.10045
G1 X62.063 Y63.228 E116.32812
G1 X32.025 Y82.701 E118.7232
G1 X97.685 Y181.844 E126.67924
G1 X107.238 Y187.954 E127.43794
G1 X117.839 Y194.736 E128.27993
G1 X124.189 Y198.796 E128.7842
G1 X134.617 Y205.466 E129.61241
G1 X151.709 Y216.399 E130.96989
G1 X166.506 Y215.415 E131.96209
G1 X194.768 Y188.851 E134.55712
G1 X180.871 Y185.761 E135.50962
G1 X180.676 Y186.094 E135.53544
G1 X180.625 Y186.172 E135.54167
G1 X180.01 Y187.011 E135.61127
G1 X179.932 Y187.103 E135.61934
G1 X178.819 Y188.255 E135.72651
G1 X178.759 Y188.307 E135.73182
G1 X177.527 Y189.276 E135.83669
G1 X177.424 Y189.346 E135.84503
G1 X176.516 Y189.876 E135.91537
G1 X176.445 Y189.913 E135.92072
G1 X175.649 Y190.286 E135.97954
G1 X175.398 Y190.388 E135.99767
G1 X175.319 Y190.416 E136.00327
G1 X173.995 Y190.817 E136.09583
G1 X173.906 Y190.839 E136.10196
G1 X173.243 Y190.967 E136.14714
G1 X172.352 Y191.106 E136.20748
G1 X172.024 Y191.129 E136.22947
G1 X171.63 Y191.153 E136.25588
G1 X171.213 Y191.259 E136.28467
G1 X166.829 Y192.202 E136.5847
G1 X166.683 Y192.226 E136.59459
G1 X166.61 Y192.169 E136.60079
G1 X160.607 Y194.488 E137.03135
G1 X160.414 Y194.539 E137.04471
