;FLAVOR:Marlin
;TIME:4479
;Filament used: 13.1765m
;Layer height: 0.32
;MINX:72.785
;MINY:48.51
;MINZ:0.28
;MAXX:127.215
;MAXY:120.89
;MAXZ:54.12
;Generated with Cura_SteamEngine 5.4.0
M140 S60
M105
M190 S60
M104 S215
M105
M109 S215
M82 ;absolute extrusion mode
START_PRINT
G92 E0
G92 E0
G1 F300 E-0.5
;LAYER_COUNT:168
;LAYER:0
M107
M204 S1800
G1 F600 Z0.68
G0 F4800 X73.83 Y51.224 Z0.68
;TYPE:SKIRT
G1 F600 Z0.28
G1 F120 E0
G1 F1800 X74.628 Y50.288 E0.09107
G1 X75.512 Y49.56 E0.17586
G1 X76.507 Y49.011 E0.26
G1 X77.778 Y48.623 E0.35839
G1 X78.803 Y48.519 E0.43467
G1 X85.697 Y48.51 E0.9451
G1 X87.105 Y48.843 E1.05223
G1 X88.501 Y49.555 E1.16825
G1 X89.437 Y50.353 E1.25932
G1 X90.165 Y51.237 E1.34411
G1 X90.714 Y52.232 E1.42825
G1 X91.102 Y53.503 E1.52664
G1 X91.206 Y54.528 E1.60292
G1 X91.215 Y66.86 E2.51599
G1 X121.697 Y66.861 E4.77287
G1 X123.105 Y67.194 E4.88
G1 X124.501 Y67.906 E4.99602
G1 X125.437 Y68.704 E5.08709
G1 X126.165 Y69.588 E5.17188
G1 X126.714 Y70.583 E5.25602
G1 X127.102 Y71.854 E5.35441
G1 X127.206 Y72.879 E5.43069
G1 X127.215 Y115.372 E8.57687
G1 X126.882 Y116.78 E8.684
G1 X126.17 Y118.176 E8.80003
G1 X125.372 Y119.112 E8.89109
G1 X124.488 Y119.84 E8.97588
G1 X123.493 Y120.389 E9.06002
G1 X122.222 Y120.777 E9.15842
G1 X121.197 Y120.881 E9.2347
G1 X114.428 Y120.89 E9.73587
G1 X113.02 Y120.557 E9.843
G1 X111.624 Y119.845 E9.95902
G1 X110.688 Y119.047 E10.05009
G1 X110.006 Y118.219 E10.12952
G1 X109.247 Y119.111 E10.21623
G1 X108.364 Y119.839 E10.30097
G1 X107.368 Y120.389 E10.38521
G1 X106.097 Y120.777 E10.4836
G1 X105.072 Y120.881 E10.55988
G1 X94.428 Y120.89 E11.34796
G1 X93.02 Y120.557 E11.45508
G1 X91.624 Y119.845 E11.57111
G1 X90.688 Y119.047 E11.66218
G1 X90.069 Y118.295 E11.7343
G1 X89.372 Y119.112 E11.81381
G1 X88.488 Y119.84 E11.8986
G1 X87.493 Y120.389 E11.98274
G1 X86.222 Y120.777 E12.08113
G1 X85.197 Y120.881 E12.15741
G1 X78.303 Y120.89 E12.66784
G1 X76.895 Y120.557 E12.77497
G1 X75.499 Y119.845 E12.89099
G1 X74.563 Y119.047 E12.98206
G1 X73.835 Y118.163 E13.06685
G1 X73.286 Y117.168 E13.15099
G1 X72.898 Y115.897 E13.24938
G1 X72.794 Y114.872 E13.32566
G1 X72.785 Y54.028 E17.83055
G1 X73.118 Y52.62 E17.93768
G1 X73.83 Y51.224 E18.0537
G0 F4800 X74.374 Y51.587
G1 F1800 X75.084 Y50.755 E18.13469
G1 X75.879 Y50.1 E18.21095
G1 X76.76 Y49.614 E18.28545
G1 X77.908 Y49.263 E18.37433
G1 X78.868 Y49.166 E18.44577
G1 X85.62 Y49.16 E18.94569
G1 X86.881 Y49.458 E19.04162
G1 X88.138 Y50.099 E19.14609
G1 X88.97 Y50.809 E19.22708
G1 X89.625 Y51.604 E19.30334
G1 X90.111 Y52.485 E19.37784
G1 X90.462 Y53.633 E19.46672
G1 X90.559 Y54.593 E19.53816
G1 X90.565 Y66.88 E20.44789
G1 X90.579 Y67.245 E20.47494
G1 X90.786 Y67.448 E20.4964
G1 X90.967 Y67.502 E20.51039
G1 X91.199 Y67.51 E20.52757
G1 X121.62 Y67.511 E22.77994
G1 X122.881 Y67.809 E22.87588
G1 X124.138 Y68.45 E22.98035
G1 X124.97 Y69.16 E23.06133
G1 X125.625 Y69.955 E23.1376
G1 X126.111 Y70.836 E23.2121
G1 X126.462 Y71.984 E23.30098
G1 X126.559 Y72.944 E23.37242
G1 X126.565 Y115.295 E26.50809
G1 X126.267 Y116.556 E26.60402
G1 X125.626 Y117.813 E26.70849
G1 X124.916 Y118.645 E26.78947
G1 X124.121 Y119.3 E26.86574
G1 X123.24 Y119.786 E26.94024
G1 X122.092 Y120.137 E27.02912
G1 X121.132 Y120.234 E27.10056
G1 X114.505 Y120.24 E27.59122
G1 X113.244 Y119.942 E27.68716
G1 X111.987 Y119.301 E27.79163
G1 X111.155 Y118.591 E27.87261
G1 X110.5 Y117.796 E27.94888
G1 X109.985 Y116.862 E28.02785
G1 X109.501 Y117.813 E28.10685
G1 X108.791 Y118.645 E28.18784
G1 X107.996 Y119.3 E28.2641
G1 X107.115 Y119.786 E28.3386
G1 X105.967 Y120.137 E28.42748
G1 X105.007 Y120.234 E28.49892
G1 X94.505 Y120.24 E29.27649
G1 X93.244 Y119.942 E29.37243
G1 X91.987 Y119.301 E29.4769
G1 X91.155 Y118.591 E29.55788
G1 X90.501 Y117.797 E29.63404
G1 X90.05 Y116.98 E29.70314
G1 X89.626 Y117.813 E29.77234
G1 X88.916 Y118.645 E29.85332
G1 X88.121 Y119.3 E29.92959
G1 X87.24 Y119.786 E30.00409
G1 X86.092 Y120.137 E30.09297
G1 X85.132 Y120.234 E30.16441
G1 X78.38 Y120.24 E30.66433
G1 X77.119 Y119.942 E30.76026
G1 X75.862 Y119.301 E30.86473
G1 X75.03 Y118.591 E30.94572
G1 X74.375 Y117.796 E31.02198
G1 X73.889 Y116.915 E31.09648
G1 X73.538 Y115.767 E31.18536
G1 X73.441 Y114.807 E31.2568
G1 X73.435 Y54.105 E35.75117
G1 X73.733 Y52.844 E35.84711
G1 X74.374 Y51.587 E35.95158
G0 F4800 X74.917 Y51.953
G1 F1800 X75.543 Y51.219 E36.02301
G1 X76.246 Y50.64 E36.09044
G1 X77.013 Y50.217 E36.15529
G1 X78.037 Y49.904 E36.23457
G1 X78.934 Y49.813 E36.30133
G1 X85.542 Y49.81 E36.79058
G1 X86.658 Y50.074 E36.87549
G1 X87.772 Y50.642 E36.96807
G1 X88.506 Y51.268 E37.0395
G1 X89.085 Y51.971 E37.10693
G1 X89.508 Y52.738 E37.17178
G1 X89.821 Y53.762 E37.25106
G1 X89.912 Y54.659 E37.31782
G1 X89.915 Y66.904 E38.22444
G1 X89.924 Y67.145 E38.24229
G1 X89.954 Y67.365 E38.25873
G1 X90.057 Y67.621 E38.27916
G1 X90.231 Y67.837 E38.2997
G1 X90.458 Y68.019 E38.32124
G1 X90.682 Y68.105 E38.33901
G1 X90.888 Y68.15 E38.35462
G1 X91.176 Y68.16 E38.37596
G1 X121.542 Y68.161 E40.62425
G1 X122.658 Y68.425 E40.70916
G1 X123.772 Y68.993 E40.80175
G1 X124.506 Y69.619 E40.87317
G1 X125.085 Y70.322 E40.9406
G1 X125.508 Y71.089 E41.00545
G1 X125.821 Y72.113 E41.08473
G1 X125.912 Y73.01 E41.15149
G1 X125.915 Y115.217 E44.27649
G1 X125.651 Y116.333 E44.3614
G1 X125.083 Y117.447 E44.45399
G1 X124.457 Y118.181 E44.52541
G1 X123.754 Y118.76 E44.59284
G1 X122.987 Y119.183 E44.6577
G1 X121.963 Y119.496 E44.73698
G1 X121.066 Y119.587 E44.80373
G1 X114.583 Y119.59 E45.28373
G1 X113.467 Y119.326 E45.36864
G1 X112.353 Y118.758 E45.46122
G1 X111.619 Y118.132 E45.53265
G1 X111.04 Y117.429 E45.60008
G1 X110.617 Y116.662 E45.66493
G1 X110.304 Y115.638 E45.74421
G1 X110.213 Y114.741 E45.81097
G1 X110.21 Y100.99 E46.82909
G1 X109.79 Y100.99 E46.86019
G1 X109.79 Y115.217 E47.91355
G1 X109.526 Y116.333 E47.99846
G1 X108.958 Y117.447 E48.09105
G1 X108.332 Y118.181 E48.16247
G1 X107.629 Y118.76 E48.2299
G1 X106.862 Y119.183 E48.29476
G1 X105.838 Y119.496 E48.37404
G1 X104.941 Y119.587 E48.44079
G1 X94.583 Y119.59 E49.2077
G1 X93.467 Y119.326 E49.29261
G1 X92.353 Y118.758 E49.38519
G1 X91.619 Y118.132 E49.45661
G1 X91.04 Y117.429 E49.52405
G1 X90.617 Y116.662 E49.5889
G1 X90.304 Y115.638 E49.66818
G1 X90.213 Y114.741 E49.73493
G1 X90.21 Y100.99 E50.75306
G1 X89.915 Y100.99 E50.7749
G1 X89.915 Y115.217 E51.82826
G1 X89.651 Y116.333 E51.91317
G1 X89.083 Y117.447 E52.00576
G1 X88.457 Y118.181 E52.07718
G1 X87.754 Y118.76 E52.14461
G1 X86.987 Y119.183 E52.20947
G1 X85.963 Y119.496 E52.28875
G1 X85.066 Y119.587 E52.3555
G1 X78.458 Y119.59 E52.84476
G1 X77.342 Y119.326 E52.92967
G1 X76.228 Y118.758 E53.02225
G1 X75.494 Y118.132 E53.09367
G1 X74.915 Y117.429 E53.16111
G1 X74.492 Y116.662 E53.22596
G1 X74.179 Y115.638 E53.30524
G1 X74.088 Y114.741 E53.37199
G1 X74.085 Y54.183 E57.85571
G1 X74.349 Y53.067 E57.94061
G1 X74.917 Y51.953 E58.0332
G0 F4800 X75.46 Y52.319
G1 F1800 X76.002 Y51.683 E58.09507
G1 X76.613 Y51.18 E58.15366
G1 X77.27 Y50.818 E58.2092
G1 X78.161 Y50.545 E58.2782
G1 X79 Y50.46 E58.34064
G1 X85.465 Y50.46 E58.81931
G1 X86.434 Y50.689 E58.89303
G1 X87.406 Y51.185 E58.97382
G1 X88.042 Y51.727 E59.03569
G1 X88.545 Y52.338 E59.09429
G1 X88.907 Y52.995 E59.14983
G1 X89.18 Y53.886 E59.21882
G1 X89.265 Y54.725 E59.28126
G1 X89.265 Y66.928 E60.18477
G1 X89.275 Y67.198 E60.20477
G1 X89.321 Y67.531 E60.22966
G1 X89.444 Y67.838 E60.25415
G1 X89.566 Y68.048 E60.27213
G1 X89.77 Y68.301 E60.2962
G1 X90.03 Y68.509 E60.32085
G1 X90.239 Y68.631 E60.33877
G1 X90.498 Y68.73 E60.3593
G1 X90.807 Y68.798 E60.38272
G1 X91.154 Y68.81 E60.40843
G1 X121.465 Y68.811 E62.65265
G1 X122.434 Y69.04 E62.72638
G1 X123.406 Y69.536 E62.80717
G1 X124.042 Y70.078 E62.86904
G1 X124.545 Y70.689 E62.92764
G1 X124.907 Y71.346 E62.98318
G1 X125.18 Y72.237 E63.05217
G1 X125.265 Y73.076 E63.11461
G1 X125.265 Y115.14 E66.22903
G1 X125.036 Y116.109 E66.30275
G1 X124.54 Y117.081 E66.38354
G1 X123.998 Y117.717 E66.44541
G1 X123.387 Y118.22 E66.50401
G1 X122.73 Y118.582 E66.55955
G1 X121.839 Y118.855 E66.62854
G1 X121 Y118.94 E66.69098
G1 X114.66 Y118.94 E67.1604
G1 X113.691 Y118.711 E67.23412
G1 X112.719 Y118.215 E67.31491
G1 X112.083 Y117.673 E67.37678
G1 X111.58 Y117.062 E67.43538
G1 X111.218 Y116.405 E67.49092
G1 X110.945 Y115.514 E67.55991
G1 X110.86 Y114.675 E67.62235
G1 X110.86 Y100.34 E68.68371
G1 X109.14 Y100.34 E68.81106
G1 X109.14 Y115.14 E69.90685
G1 X108.911 Y116.109 E69.98057
G1 X108.415 Y117.081 E70.06137
G1 X107.873 Y117.717 E70.12324
G1 X107.262 Y118.22 E70.18184
G1 X106.605 Y118.582 E70.23737
G1 X105.714 Y118.855 E70.30637
G1 X104.875 Y118.94 E70.36881
G1 X94.66 Y118.94 E71.12513
G1 X93.691 Y118.711 E71.19885
G1 X92.719 Y118.215 E71.27964
G1 X92.083 Y117.673 E71.34151
G1 X91.58 Y117.062 E71.40011
G1 X91.218 Y116.405 E71.45565
G1 X90.945 Y115.514 E71.52464
G1 X90.86 Y114.675 E71.58708
G1 X90.86 Y100.34 E72.64845
G1 X89.265 Y100.34 E72.76654
G1 X89.265 Y115.14 E73.86233
G1 X89.036 Y116.109 E73.93605
G1 X88.54 Y117.081 E74.01685
G1 X87.998 Y117.717 E74.07872
G1 X87.387 Y118.22 E74.13731
G1 X86.73 Y118.582 E74.19285
G1 X85.839 Y118.855 E74.26185
G1 X85 Y118.94 E74.32429
G1 X78.535 Y118.94 E74.80295
G1 X77.566 Y118.711 E74.87668
G1 X76.594 Y118.215 E74.95747
G1 X75.958 Y117.673 E75.01934
G1 X75.455 Y117.062 E75.07794
G1 X75.093 Y116.405 E75.13348
G1 X74.82 Y115.514 E75.20247
G1 X74.735 Y114.675 E75.26491
G1 X74.735 Y54.26 E79.73803
G1 X74.964 Y53.291 E79.81176
G1 X75.46 Y52.319 E79.89255
G0 F4800 X76.004 Y52.682
G1 F1800 X76.458 Y52.149 E79.94439
G1 X76.982 Y51.718 E79.99462
G1 X77.52 Y51.422 E80.04009
G1 X78.294 Y51.185 E80.10002
G1 X79 Y51.11 E80.15259
G1 X85.388 Y51.11 E80.62556
G1 X86.21 Y51.304 E80.68809
G1 X87.043 Y51.729 E80.75733
G1 X87.576 Y52.183 E80.80917
G1 X88.007 Y52.707 E80.8594
G1 X88.303 Y53.245 E80.90487
G1 X88.54 Y54.019 E80.9648
G1 X88.615 Y54.725 E81.01736
G1 X88.615 Y66.952 E81.92265
G1 X88.626 Y67.252 E81.94488
G1 X88.674 Y67.598 E81.97074
G1 X88.728 Y67.798 E81.98608
G1 X88.855 Y68.114 E82.0113
G1 X88.933 Y68.261 E82.02362
G1 X89.038 Y68.428 E82.03822
G1 X89.238 Y68.677 E82.06187
G1 X89.392 Y68.831 E82.07799
G1 X89.661 Y69.047 E82.10354
G1 X89.944 Y69.212 E82.12779
G1 X90.1 Y69.279 E82.14036
G1 X90.303 Y69.351 E82.15631
G1 X90.471 Y69.396 E82.16919
G1 X90.737 Y69.446 E82.18923
G1 X91.131 Y69.46 E82.21842
G1 X121.388 Y69.461 E84.45864
G1 X122.21 Y69.655 E84.52118
G1 X123.043 Y70.08 E84.59042
G1 X123.576 Y70.534 E84.64225
G1 X124.007 Y71.058 E84.69249
G1 X124.303 Y71.596 E84.73795
G1 X124.54 Y72.37 E84.79789
G1 X124.615 Y73.076 E84.85045
G1 X124.615 Y115.063 E87.95917
G1 X124.421 Y115.885 E88.0217
G1 X123.996 Y116.718 E88.09094
G1 X123.542 Y117.251 E88.14278
G1 X123.018 Y117.682 E88.19301
G1 X122.48 Y117.978 E88.23848
G1 X121.706 Y118.215 E88.29841
G1 X121 Y118.29 E88.35098
G1 X114.737 Y118.29 E88.81469
G1 X113.915 Y118.096 E88.87722
G1 X113.082 Y117.671 E88.94646
G1 X112.549 Y117.217 E88.9983
G1 X112.118 Y116.693 E89.04854
G1 X111.822 Y116.155 E89.094
G1 X111.585 Y115.381 E89.15393
G1 X111.51 Y114.675 E89.2065
G1 X111.51 Y99.69 E90.31599
G1 X108.49 Y99.69 E90.53959
G1 X108.49 Y115.063 E91.67781
G1 X108.296 Y115.885 E91.74034
G1 X107.871 Y116.718 E91.80958
G1 X107.417 Y117.251 E91.86142
G1 X106.893 Y117.682 E91.91165
G1 X106.355 Y117.978 E91.95712
G1 X105.581 Y118.215 E92.01705
G1 X104.875 Y118.29 E92.06962
G1 X94.737 Y118.29 E92.82023
G1 X93.915 Y118.096 E92.88277
G1 X93.082 Y117.671 E92.952
G1 X92.549 Y117.217 E93.00384
G1 X92.118 Y116.693 E93.05408
G1 X91.822 Y116.155 E93.09954
G1 X91.585 Y115.381 E93.15948
G1 X91.51 Y114.675 E93.21204
G1 X91.51 Y99.69 E94.32153
G1 X88.615 Y99.69 E94.53588
G1 X88.615 Y115.063 E95.67409
G1 X88.421 Y115.885 E95.73663
G1 X87.996 Y116.718 E95.80586
G1 X87.542 Y117.251 E95.8577
G1 X87.018 Y117.682 E95.90794
G1 X86.48 Y117.978 E95.9534
G1 X85.706 Y118.215 E96.01334
G1 X85 Y118.29 E96.0659
G1 X78.612 Y118.29 E96.53887
G1 X77.79 Y118.096 E96.6014
G1 X76.957 Y117.671 E96.67064
G1 X76.424 Y117.217 E96.72248
G1 X75.993 Y116.693 E96.77272
G1 X75.697 Y116.155 E96.81818
G1 X75.46 Y115.381 E96.87811
G1 X75.385 Y114.675 E96.93068
G1 X75.385 Y54.337 E101.3981
G1 X75.579 Y53.515 E101.46064
G1 X76.004 Y52.682 E101.52987
G0 F4800 X76.548 Y53.045
G1 F1800 X76.914 Y52.616 E101.57163
G1 X77.347 Y52.259 E101.61318
G1 X77.778 Y52.022 E101.64959
G1 X78.421 Y51.825 E101.69939
G1 X79 Y51.76 E101.74253
G1 X85.31 Y51.76 E102.20972
G1 X85.987 Y51.92 E102.26122
G1 X86.68 Y52.273 E102.31881
G1 X87.109 Y52.639 E102.36056
G1 X87.466 Y53.072 E102.40211
G1 X87.703 Y53.503 E102.43853
G1 X87.9 Y54.146 E102.48832
G1 X87.965 Y54.725 E102.53146
G1 X87.965 Y66.975 E103.43845
G1 X87.977 Y67.308 E103.46312
G1 X88.036 Y67.729 E103.49459
G1 X88.104 Y67.981 E103.51392
G1 X88.171 Y68.172 E103.52891
G1 X88.268 Y68.394 E103.54684
G1 X88.369 Y68.584 E103.56277
G1 X88.503 Y68.797 E103.58141
G1 X88.625 Y68.962 E103.5966
G1 X88.765 Y69.124 E103.61245
G1 X88.95 Y69.309 E103.63182
G1 X89.127 Y69.46 E103.64905
G1 X89.292 Y69.582 E103.66424
G1 X89.489 Y69.706 E103.68148
G1 X89.672 Y69.803 E103.69681
G1 X89.857 Y69.883 E103.71174
G1 X90.113 Y69.973 E103.73183
G1 X90.33 Y70.031 E103.74846
G1 X90.557 Y70.074 E103.76556
G1 X90.767 Y70.098 E103.78121
G1 X91.108 Y70.11 E103.80648
G1 X121.31 Y70.111 E106.04263
G1 X121.987 Y70.271 E106.09414
G1 X122.68 Y70.624 E106.15172
G1 X123.109 Y70.99 E106.19347
G1 X123.466 Y71.423 E106.23502
G1 X123.703 Y71.854 E106.27144
G1 X123.9 Y72.497 E106.32123
G1 X123.965 Y73.076 E106.36437
G1 X123.965 Y114.985 E109.46731
G1 X123.805 Y115.662 E109.51882
G1 X123.452 Y116.355 E109.5764
G1 X123.086 Y116.784 E109.61815
G1 X122.653 Y117.141 E109.6597
G1 X122.222 Y117.378 E109.69612
G1 X121.579 Y117.575 E109.74591
G1 X121 Y117.64 E109.78905
G1 X114.815 Y117.64 E110.24699
G1 X114.138 Y117.48 E110.2985
G1 X113.445 Y117.127 E110.35608
G1 X113.016 Y116.761 E110.39783
G1 X112.659 Y116.328 E110.43938
G1 X112.422 Y115.897 E110.4758
G1 X112.225 Y115.254 E110.52559
G1 X112.16 Y114.675 E110.56873
G1 X112.16 Y99.04 E111.72634
G1 X107.84 Y99.04 E112.0462
G1 X107.84 Y114.985 E113.22676
G1 X107.68 Y115.662 E113.27827
G1 X107.327 Y116.355 E113.33585
G1 X106.961 Y116.784 E113.3776
G1 X106.528 Y117.141 E113.41916
G1 X106.097 Y117.378 E113.45557
G1 X105.454 Y117.575 E113.50536
G1 X104.875 Y117.64 E113.5485
G1 X94.815 Y117.64 E114.29335
G1 X94.138 Y117.48 E114.34485
G1 X93.445 Y117.127 E114.40243
G1 X93.016 Y116.761 E114.44419
G1 X92.659 Y116.328 E114.48574
G1 X92.422 Y115.897 E114.52215
G1 X92.225 Y115.254 E114.57195
G1 X92.16 Y114.675 E114.61508
G1 X92.16 Y99.04 E115.7727
G1 X87.965 Y99.04 E116.0833
G1 X87.965 Y114.985 E117.26386
G1 X87.805 Y115.662 E117.31537
G1 X87.452 Y116.355 E117.37295
G1 X87.086 Y116.784 E117.41471
G1 X86.653 Y117.141 E117.45626
G1 X86.222 Y117.378 E117.49267
G1 X85.579 Y117.575 E117.54247
G1 X85 Y117.64 E117.5856
G1 X78.69 Y117.64 E118.0528
G1 X78.013 Y117.48 E118.1043
G1 X77.32 Y117.127 E118.16189
G1 X76.891 Y116.761 E118.20364
G1 X76.534 Y116.328 E118.24519
G1 X76.297 Y115.897 E118.28161
G1 X76.1 Y115.254 E118.3314
G1 X76.035 Y114.675 E118.37454
G1 X76.035 Y54.415 E122.83618
G1 X76.195 Y53.738 E122.88769
G1 X76.548 Y53.045 E122.94527
G0 F4800 X77.091 Y53.411
G1 F1800 X77.374 Y53.079 E122.97757
G1 X77.712 Y52.8 E123.01002
G1 X78.032 Y52.624 E123.03706
G1 X78.558 Y52.463 E123.07779
G1 X79 Y52.41 E123.11075
G1 X85.233 Y52.41 E123.57224
G1 X85.763 Y52.535 E123.61256
G1 X86.314 Y52.816 E123.65836
G1 X86.646 Y53.099 E123.69066
G1 X86.925 Y53.437 E123.72311
G1 X87.101 Y53.757 E123.75015
G1 X87.262 Y54.283 E123.79087
G1 X87.315 Y54.725 E123.82383
G1 X87.315 Y66.999 E124.7326
G1 X87.328 Y67.356 E124.75905
G1 X87.364 Y67.664 E124.78201
G1 X87.401 Y67.869 E124.79743
G1 X87.482 Y68.172 E124.82066
G1 X87.566 Y68.41 E124.83934
G1 X87.684 Y68.679 E124.86109
G1 X87.808 Y68.914 E124.88076
G1 X87.963 Y69.16 E124.90229
G1 X88.117 Y69.369 E124.92151
G1 X88.294 Y69.573 E124.94151
G1 X88.506 Y69.785 E124.96371
G1 X88.721 Y69.969 E124.98466
G1 X88.921 Y70.116 E125.00304
G1 X89.161 Y70.267 E125.02403
G1 X89.393 Y70.39 E125.04347
G1 X89.625 Y70.491 E125.06221
