;FLAVOR:Marlin
;TIME:187
;Filament used: 0.159381m
;Layer height: 0.2
;MINX:98.937
;MINY:98.937
;MINZ:0.32
;MAXX:201.063
;MAXY:201.063
;MAXZ:0.92
;Generated with Cura_SteamEngine 5.0.0
M140 S65
M105
M190 S65
M104 S215
M105
M109 S215
M82 ;absolute extrusion mode
; Ender 3 Max Custom Start G-code
G92 E0 ; Reset Extruder
G28 ; Home all axes
G1 Z2.0 F3000 ; Move Z Axis up little to prevent scratching of Heat Bed
G1 X0.1 Y20 Z0.3 F5000.0 ; Move to start position
G1 X0.1 Y200.0 Z0.3 F1500.0 E15 ; Draw the first line
G1 X0.4 Y200.0 Z0.3 F5000.0 ; Move to side a little
G1 X0.4 Y20 Z0.3 F1500.0 E30 ; Draw the second line
G92 E0 ; Reset Extruder
G1 Z2.0 F3000 ; Move Z Axis up little to prevent scratching of Heat Bed
G1 X5 Y20 Z0.3 F5000.0 ; Move over to prevent blob squish
G92 E0
G92 E0
G1 F3000 E-6
;LAYER_COUNT:4
;LAYER:0
M107
M204 S1000
;MESH:100mm-crown.stl
G0 F9000 X147.138 Y127.75 Z0.32
M204 S250
;TYPE:WALL-OUTER
G1 F3000 E0
G1 F2165.4 X148.21 Y127.778 E0.05408
G1 F2170.9 X148.523 Y127.783 E0.06983
G1 X149.961 Y127.797 E0.14216
G1 F2160 X151.137 Y127.787 E0.20162
G1 F2170.9 X151.4 Y127.783 E0.21485
G1 F2176.3 X152.56 Y127.756 E0.27307
G1 F2165.4 X154.118 Y127.694 E0.3517
G1 X155.394 Y127.62 E0.41616
G1 F2170.9 X156.617 Y127.528 E0.47785
G1 F2165.4 X157.931 Y127.407 E0.54439
G1 F2160 X159.061 Y127.281 E0.60188
G1 X160.135 Y127.144 E0.65661
G1 F2154.6 X161.15 Y126.997 E0.70859
G1 F2160 X162.107 Y126.843 E0.7576
G1 F2165.4 X163.009 Y126.682 E0.8038
G1 F2154.6 X163.854 Y126.516 E0.84745
G1 X164.64 Y126.348 E0.88818
G1 X165.367 Y126.18 E0.926
G1 F2149.3 X166.036 Y126.014 E0.96102
G1 F2154.6 X166.483 Y125.898 E0.98442
G1 F1990.8 X166.602 Y125.83 E0.99194
G1 F2000 X166.589 Y125.66 E1.00125
G1 F2170.9 X166.445 Y125.173 E1.0268
G1 F1995.4 X166.366 Y125.025 E1.03598
G1 F1990.8 X166.204 Y125.034 E1.04488
G1 F2149.3 X165.594 Y125.192 E1.07689
G1 F2165.4 X164.413 Y125.468 E1.13806
G1 F2170.9 X164.214 Y125.512 E1.14831
G1 F2160 X163.445 Y125.672 E1.18802
G1 F2165.4 X162.811 Y125.794 E1.22058
G1 F2170.9 X161.926 Y125.951 E1.26579
G1 X160.984 Y126.102 E1.31378
G1 F2165.4 X160.806 Y126.129 E1.32286
G1 F2160 X159.821 Y126.267 E1.37314
G1 X158.778 Y126.396 E1.42627
G1 X157.681 Y126.513 E1.48205
G1 X156.532 Y126.618 E1.54038
G1 X155.326 Y126.707 E1.60151
G1 X154.066 Y126.78 E1.66532
G1 X152.751 Y126.834 E1.73186
G1 F2149.3 X151.386 Y126.866 E1.80123
G1 X150.252 Y126.877 E1.85885
G1 F2160 X148.801 Y126.87 E1.9322
G1 F2149.3 X148.538 Y126.866 E1.94557
G1 X147.394 Y126.839 E2.00371
G1 X147.17 Y126.832 E2.01509
G1 X145.778 Y126.776 E2.08588
G1 F2165.4 X144.497 Y126.7 E2.15059
G1 F2170.9 X143.272 Y126.608 E2.21238
G1 X142.104 Y126.5 E2.27139
G1 X140.992 Y126.378 E2.32766
G1 X139.938 Y126.246 E2.38109
G1 F2165.4 X139.114 Y126.129 E2.42306
G1 F2160 X138.181 Y125.982 E2.47081
G1 F2165.4 X137.998 Y125.952 E2.48017
G1 F2170.9 X137.112 Y125.794 E2.52544
G1 X136.295 Y125.636 E2.5673
G1 F2160 X135.708 Y125.512 E2.59763
G1 F2165.4 X135.37 Y125.437 E2.61509
G1 X134.461 Y125.225 E2.66216
G1 F2160 X134.14 Y125.146 E2.67887
G1 F2138.6 X133.688 Y125.027 E2.70274
G1 F1968.1 X133.558 Y125.026 E2.70995
G1 F1995.4 X133.478 Y125.175 E2.7192
G1 F2154.6 X133.325 Y125.691 E2.74648
G1 F1981.7 X133.321 Y125.829 E2.75409
G1 F2004.6 X133.478 Y125.907 E2.76364
G1 F2181.8 X134.017 Y126.044 E2.79147
G1 F2160 X134.557 Y126.181 E2.81964
G1 F2165.4 X134.764 Y126.231 E2.83038
G1 F2176.3 X135.283 Y126.35 E2.85709
G1 F2170.9 X135.493 Y126.396 E2.86791
G1 X136.286 Y126.56 E2.90864
G1 F2165.4 X136.912 Y126.682 E2.9408
G1 F2160 X137.813 Y126.842 E2.98707
G1 F2165.4 X138.01 Y126.876 E2.99715
G1 F2170.9 X138.959 Y127.026 E3.04548
G1 X139.964 Y127.168 E3.09653
G1 X141.023 Y127.3 E3.15022
G1 F2165.4 X141.993 Y127.407 E3.19943
G1 X143.308 Y127.528 E3.26602
G1 F2170.9 X144.531 Y127.62 E3.32772
G1 F2176.3 X145.807 Y127.694 E3.39185
G1 X147.138 Y127.75 E3.45869
M204 S1000
G1 F3000 E-2.54131
G0 F9000 X137.313 Y137.217
M204 S250
G1 F3000 E3.45869
G1 F1636.4 X137.253 Y137.178 E3.46347
G1 F1898.9 X137.037 Y137.042 E3.47815
G1 F2000 X136.775 Y136.817 E3.49701
G1 F1968.1 X136.494 Y136.477 E3.52148
G1 F1697.4 X136.322 Y136.181 E3.5435
G1 F1677.7 X136.386 Y136.009 E3.55545
G1 F2076.9 X136.432 Y135.712 E3.57125
G1 F2170.9 X136.61 Y135.299 E3.59387
G1 F2176.3 X136.922 Y134.993 E3.6158
G1 X137.252 Y134.847 E3.63391
G1 F2181.8 X137.507 Y134.811 E3.6468
G1 F2187.3 X137.753 Y134.838 E3.65915
G1 X137.991 Y134.92 E3.67172
G1 F1770.5 X138.271 Y135.009 E3.68984
G1 F1763.3 X138.325 Y134.762 E3.7055
G1 F2181.8 X138.241 Y134.188 E3.73453
G1 X138.139 Y133.539 E3.76741
G1 F2160 X138.026 Y133.062 E3.79219
G1 X137.868 Y132.617 E3.81607
G1 F2165.4 X137.669 Y132.212 E3.83882
G1 F2192.9 X137.421 Y131.819 E3.86196
G1 F2204.1 X137.159 Y131.495 E3.88261
G1 F2192.9 X136.857 Y131.189 E3.90402
G1 F2187.3 X136.52 Y130.906 E3.92599
G1 F2181.8 X136.169 Y130.663 E3.94735
G1 F2187.3 X135.786 Y130.444 E3.96938
G1 F2192.9 X135.385 Y130.254 E3.99148
G1 F2149.3 X134.956 Y130.096 E4.0147
G1 F2143.9 X134.549 Y129.963 E4.03651
G1 F2176.3 X133.658 Y129.775 E4.08221
G1 X132.769 Y129.691 E4.12701
G1 X132.193 Y129.701 E4.15592
G1 F2154.6 X132.15 Y129.704 E4.1581
G1 F2149.3 X131.583 Y129.809 E4.1874
G1 F2170.9 X131.065 Y129.985 E4.21492
G1 F2160 X130.993 Y130.016 E4.21888
G1 F2170.9 X130.594 Y130.227 E4.24159
G1 F1862.1 X130.416 Y130.379 E4.25531
G1 F1615 X130.345 Y130.374 E4.26013
G1 F1850.1 X130.219 Y130.218 E4.27196
G1 F2165.4 X129.495 Y129.494 E4.3236
G1 F1878.3 X129.299 Y129.381 E4.33675
G1 F1870.1 X129.167 Y129.559 E4.34969
G1 F2154.6 X128.658 Y130.797 E4.41753
G1 F2160 X128.039 Y132.126 E4.49165
G1 F2149.3 X127.48 Y133.211 E4.55366
G1 F2154.6 X127.352 Y133.45 E4.5674
G1 X126.831 Y134.384 E4.6216
G1 F2165.4 X126.619 Y134.75 E4.64293
G1 F2176.3 X126.386 Y135.138 E4.66564
G1 F2143.9 X126.152 Y135.527 E4.68877
G1 F2160 X125.853 Y136.009 E4.71744
G1 F2165.4 X125.456 Y136.632 E4.7547
G1 F2154.6 X125.068 Y137.222 E4.79048
G1 F2149.3 X124.749 Y137.697 E4.81956
G1 X124.281 Y138.375 E4.86141
G1 F2138.6 X124.04 Y138.716 E4.88273
G1 F1608.9 X123.977 Y139.026 E4.9042
G1 F1325.2 X123.997 Y139.03 E4.90589
G1 F1633.3 X124.307 Y138.997 E4.92673
G1 F2107.3 X124.633 Y138.85 E4.94526
G1 F2165.4 X124.95 Y138.726 E4.96243
G1 F2204.1 X125.308 Y138.624 E4.98087
G1 F2261.8 X125.632 Y138.573 E4.9967
G1 F2238.3 X125.931 Y138.545 E5.01135
G1 F2138.6 X126.393 Y138.578 E5.035
G1 F1615 X126.699 Y138.73 E5.05811
M204 S1000
G0 F9000 X127.735 Y138.761
G0 X127.754 Y138.732
M204 S250
G1 F1092.3 X127.62 Y138.721 E5.07155
G1 F1272.5 X127.338 Y138.716 E5.09575
G1 F1440 X126.962 Y138.72 E5.12427
G1 F1389.1 X126.699 Y138.73 E5.14496
G1 F1627.1 X126.495 Y138.947 E5.16495
G1 F2117.6 X126.219 Y139.155 E5.18277
G1 F2133.3 X125.999 Y139.415 E5.2002
G1 F2198.5 X125.838 Y139.836 E5.22259
G1 X125.811 Y140.089 E5.23523
G1 F2176.3 X125.835 Y140.339 E5.24783
G1 F2133.3 X125.919 Y140.578 E5.2608
G1 F2143.9 X126.049 Y140.826 E5.27506
G1 F2198.5 X126.353 Y141.13 E5.29641
G1 F2143.9 X126.589 Y141.248 E5.30985
G1 F2138.6 X126.855 Y141.334 E5.32413
G1 F2160 X127.31 Y141.334 E5.34713
G1 F2154.6 X127.606 Y141.239 E5.36289
G1 F2138.6 X127.906 Y141.044 E5.38116
G1 F1777.8 X128.108 Y140.942 E5.39506
G1 F1781.4 X128.225 Y141.17 E5.41076
G1 F2149.3 X128.289 Y141.511 E5.42839
G1 F2215.4 X128.353 Y141.853 E5.44554
G1 F2209.7 X128.417 Y142.137 E5.45993
G1 F2128.1 X128.482 Y142.421 E5.47488
G1 F1734.9 X128.463 Y142.689 E5.49179
G1 F1752.5 X128.225 Y142.657 E5.50675
G1 F2160 X127.983 Y142.576 E5.51966
G1 F2181.8 X127.726 Y142.542 E5.53263
G1 F2176.3 X127.465 Y142.565 E5.54578
G1 F2170.9 X127.218 Y142.643 E5.55881
G1 F2112.5 X126.996 Y142.779 E5.57226
G1 F2107.3 X126.797 Y142.939 E5.5855
G1 F2165.4 X126.64 Y143.138 E5.59828
G1 F2122.9 X126.533 Y143.365 E5.61119
G1 X126.448 Y143.611 E5.62458
G1 F2165.4 X126.422 Y143.872 E5.6378
G1 F2170.9 X126.448 Y144.126 E5.65065
G1 F2181.8 X126.532 Y144.386 E5.66432
G1 F2187.3 X126.667 Y144.616 E5.67764
G1 X126.971 Y144.918 E5.69903
G1 F2133.3 X127.208 Y145.035 E5.71256
G1 F2128.1 X127.461 Y145.12 E5.72625
G1 F2176.3 X127.723 Y145.141 E5.73944
G1 F2143.9 X128.055 Y145.09 E5.75655
G1 F2170.9 X128.435 Y144.914 E5.77762
G1 F2160 X128.653 Y144.711 E5.79268
G1 F2047.4 X128.858 Y144.406 E5.81228
G1 F1674.4 X129.023 Y144.23 E5.82801
G1 F1707.5 X129.218 Y144.441 E5.84638
G1 F2160 X129.383 Y144.802 E5.86645
G1 F2192.9 X129.503 Y145.042 E5.87981
G1 F2143.9 X129.624 Y145.282 E5.8935
G1 F1759.7 X129.669 Y145.543 E5.90994
G1 F1700.8 X129.537 Y145.57 E5.91859
G1 F2062.1 X129.236 Y145.557 E5.93454
G1 F2181.8 X128.977 Y145.583 E5.94757
G1 F2128.1 X128.737 Y145.668 E5.96064
G1 F2133.3 X128.486 Y145.8 E5.97515
G1 F2187.3 X128.18 Y146.107 E5.99679
G1 F2128.1 X128.062 Y146.343 E6.01033
G1 F2122.9 X127.977 Y146.583 E6.02343
G1 F2170.9 X127.952 Y146.841 E6.03647
G1 X127.977 Y147.095 E6.04931
G1 F2117.6 X128.062 Y147.333 E6.06234
G1 F2128.1 X128.194 Y147.581 E6.07675
G1 F2192.9 X128.501 Y147.886 E6.0983
G1 F2133.3 X128.737 Y148.003 E6.11179
G1 X128.992 Y148.088 E6.12555
G1 F2192.9 X129.252 Y148.109 E6.13854
G1 F2143.9 X129.647 Y148.035 E6.15901
G1 F2128.1 X130.006 Y147.85 E6.17973
G1 F2181.8 X130.301 Y147.538 E6.20122
G1 F2165.4 X130.471 Y147.171 E6.22162
G1 F1759.7 X130.591 Y146.978 E6.23572
G1 X130.812 Y147.13 E6.25236
G1 F2170.9 X131.052 Y147.434 E6.27185
G1 F2192.9 X131.227 Y147.641 E6.28535
G1 F2143.9 X131.403 Y147.849 E6.29922
G1 F1826.6 X131.501 Y148.061 E6.31319
G1 X131.337 Y148.162 E6.3247
G1 F2154.6 X130.925 Y148.372 E6.34814
G1 F2221.1 X130.607 Y148.729 E6.37164
G1 F2250 X130.457 Y149.106 E6.39134
G1 F2221.1 X130.418 Y149.377 E6.4048
G1 F2187.3 X130.441 Y149.649 E6.41842
G1 F2128.1 X130.524 Y149.889 E6.43145
G1 F2133.3 X130.654 Y150.139 E6.44588
G1 F2192.9 X130.977 Y150.457 E6.46845
G1 X131.209 Y150.58 E6.48153
G1 X131.449 Y150.651 E6.49399
G1 F2187.3 X131.706 Y150.674 E6.50687
G1 F2176.3 X131.986 Y150.636 E6.52105
G1 F2143.9 X132.327 Y150.5 E6.53975
G1 F2107.3 X132.504 Y150.374 E6.55101
G1 F2128.1 X132.785 Y150.055 E6.57282
G1 F2170.9 X132.938 Y149.674 E6.59347
G1 F1850.1 X133.036 Y149.437 E6.60861
G1 F1830.5 X133.238 Y149.506 E6.62135
G1 F2149.3 X133.473 Y149.689 E6.63648
G1 X133.717 Y149.866 E6.65179
G1 F1846.2 X133.859 Y150.041 E6.66512
G1 F1842.2 X133.722 Y150.186 E6.67695
G1 F2138.6 X133.464 Y150.391 E6.69377
G1 F2176.3 X133.262 Y150.674 E6.71122
G1 F2160 X133.175 Y150.916 E6.72422
G1 F2097.1 X133.136 Y151.243 E6.74137
G1 F2117.6 X133.153 Y151.493 E6.75429
G1 X133.236 Y151.733 E6.76739
G1 F2128.1 X133.366 Y151.983 E6.78185
G1 F2187.3 X133.669 Y152.287 E6.80327
G1 F2181.8 X133.903 Y152.417 E6.81667
G1 X134.145 Y152.493 E6.82937
G1 F2176.3 X134.4 Y152.518 E6.84222
G1 F2170.9 X134.66 Y152.493 E6.85536
G1 F2117.6 X134.906 Y152.408 E6.86878
G1 X135.133 Y152.301 E6.88172
G1 F2170.9 X135.334 Y152.142 E6.89462
G1 F2112.5 X135.491 Y151.944 E6.90768
G1 X135.628 Y151.72 E6.92125
G1 F2187.3 X135.707 Y151.475 E6.9341
G1 F1866.1 X135.769 Y150.984 E6.96306
G1 F1826.6 X135.973 Y150.995 E6.97528
G1 F2138.6 X136.31 Y151.124 E6.9937
G1 F2149.3 X136.652 Y151.241 E7.01207
G1 F1846.2 X136.838 Y151.365 E7.02529
G1 F1862.1 X136.748 Y151.545 E7.03709
G1 F2122.9 X136.534 Y151.918 E7.05921
G1 F2133.3 X136.461 Y152.204 E7.07432
G1 F2170.9 X136.476 Y152.552 E7.09184
G1 F2165.4 X136.554 Y152.794 E7.10466
G1 F2160 X136.683 Y153.025 E7.11804
G1 F2102.2 X136.856 Y153.209 E7.13116
G1 F2112.5 X137.05 Y153.376 E7.14439
G1 F2117.6 X137.276 Y153.483 E7.15729
G1 X137.523 Y153.568 E7.17076
G1 F2170.9 X137.782 Y153.593 E7.18385
G1 X138.038 Y153.568 E7.19678
G1 F2122.9 X138.278 Y153.483 E7.20988
G1 F2133.3 X138.53 Y153.35 E7.22447
G1 F2198.5 X138.822 Y153.058 E7.24498
G1 X138.895 Y153.027 E7.24892
G1 F2192.9 X138.87 Y153.069 E7.25135
G1 X138.822 Y153.069 E7.25374
G1 X138.798 Y153.027 E7.25615
G1 X138.822 Y152.985 E7.25856
G1 X138.87 Y152.985 E7.26095
G1 F2138.6 X138.953 Y152.808 E7.27093
G1 F2128.1 X139.04 Y152.549 E7.28495
G1 F2192.9 X139.06 Y152.279 E7.29843
G1 F2221.1 X139.008 Y151.988 E7.31297
G1 F1874.2 X138.968 Y151.715 E7.32904
G1 F1826.6 X139.193 Y151.666 E7.34281
G1 F2122.9 X139.926 Y151.702 E7.38056
G1 F2149.3 X139.938 Y151.701 E7.38117
G1 F1815.1 X140.19 Y151.772 E7.39692
G1 F1788.8 X140.141 Y151.98 E7.40997
G1 F2117.6 X140.02 Y152.255 E7.42546
G1 F2165.4 X139.983 Y152.543 E7.4401
G1 F2176.3 X140.017 Y152.799 E7.45306
G1 X140.111 Y153.053 E7.46665
G1 F2165.4 X140.369 Y153.41 E7.48886
G1 F2170.9 X140.566 Y153.566 E7.5015
G1 F2122.9 X140.806 Y153.682 E7.51522
G1 F2117.6 X141.054 Y153.767 E7.52874
G1 F2170.9 X141.313 Y153.792 E7.54182
G1 X141.568 Y153.767 E7.55471
G1 F2122.9 X141.808 Y153.683 E7.56779
G1 F2133.3 X142.059 Y153.552 E7.58229
G1 F2187.3 X142.376 Y153.23 E7.60484
G1 F2192.9 X142.5 Y153 E7.61786
G1 X142.57 Y152.759 E7.63035
G1 F2176.3 X142.592 Y152.494 E7.6437
G1 F2181.8 X142.549 Y152.194 E7.65886
G1 F2226.8 X142.436 Y151.929 E7.67299
G1 F1870.1 X142.228 Y151.537 E7.6989
G1 F1815.1 X142.41 Y151.429 E7.71163
G1 F2138.6 X142.67 Y151.371 E7.72524
G1 F2204.1 X142.931 Y151.313 E7.73848
G1 F2209.7 X143.183 Y151.247 E7.75136
G1 F2154.6 X143.435 Y151.181 E7.76456
G1 F1834.4 X143.666 Y151.182 E7.77831
G1 F1785.1 X143.684 Y151.299 E7.78555
G1 F2076.9 X143.669 Y151.591 E7.80093
G1 F2165.4 X143.695 Y151.849 E7.814
G1 F2122.9 X143.778 Y152.089 E7.82706
G1 F2133.3 X143.908 Y152.338 E7.84144
G1 F2187.3 X144.214 Y152.645 E7.86308
G1 F2128.1 X144.449 Y152.764 E7.8766
G1 X144.687 Y152.849 E7.88957
G1 F2176.3 X144.942 Y152.874 E7.90242
G1 F2165.4 X145.202 Y152.848 E7.9156
G1 F2112.5 X145.448 Y152.763 E7.92905
G1 F2117.6 X145.705 Y152.633 E7.94391
G1 F2170.9 X146.026 Y152.326 E7.96625
G1 F2165.4 X146.164 Y152.092 E7.97995
G1 X146.245 Y151.849 E7.99287
G1 F2122.9 X146.264 Y151.593 E8.00607
G1 F2097.1 X146.231 Y151.293 E8.02179
G1 F2154.6 X146.099 Y150.986 E8.03872
G1 F2209.7 X145.886 Y150.728 E8.05526
G1 F2165.4 X145.669 Y150.567 E8.06888
G1 F1803.8 X145.524 Y150.408 E8.08191
G1 F1792.5 X145.664 Y150.247 E8.09491
G1 F2112.5 X145.898 Y150.105 E8.10906
G1 F2181.8 X146.133 Y149.962 E8.12283
G1 F2176.3 X146.525 Y149.702 E8.14643
G1 F1774.1 X146.78 Y149.626 E8.16281
G1 F1763.3 X146.854 Y150.114 E8.19337
G1 F2138.6 X146.892 Y150.456 E8.21094
G1 F2170.9 X147.054 Y151.019 E8.24041
G1 X147.067 Y151.053 E8.24224
G1 X147.313 Y151.548 E8.27005
G1 X147.332 Y151.579 E8.27188
G1 X147.659 Y152.02 E8.29949
G1 F1792.5 X147.818 Y152.182 E8.31332
G1 F1785.1 X147.949 Y152.052 E8.32461
G1 F2154.6 X148.468 Y151.532 E8.36185
G1 F1788.8 X148.611 Y151.39 E8.37415
G1 F1796.3 X148.778 Y151.55 E8.38821
G1 F2187.3 X149.039 Y151.734 E8.40415
G1 X149.321 Y151.877 E8.41994
G1 F2176.3 X149.63 Y151.981 E8.4363
G1 F2181.8 X149.997 Y152.035 E8.45486
G1 F2192.9 X150.336 Y151.969 E8.47206
G1 F2176.3 X150.656 Y151.854 E8.48912
G1 F2165.4 X150.948 Y151.695 E8.50589
G1 F1972.6 X151.148 Y151.526 E8.52038
G1 F1668 X151.349 Y151.357 E8.53758
G1 F1800 X151.219 Y151.217 E8.54917
G1 F2154.6 X150.142 Y150.142 E8.62629
G1 F1788.8 X150 Y150 E8.63855
G1 F1785.1 X150.129 Y149.87 E8.64975
G1 F2160 X151.316 Y148.685 E8.73455
G1 F1838.3 X151.475 Y148.555 E8.74675
G1 F1591.2 X151.477 Y148.498 E8.75066
G1 F1830.5 X151.359 Y148.38 E8.76062
G1 F2170.9 X151.055 Y148.12 E8.78074
G1 F2176.3 X150.72 Y147.923 E8.80024
G1 F2165.4 X150.345 Y147.784 E8.82041
G1 F2170.9 X149.926 Y147.722 E8.84171
G1 F2176.3 X149.583 Y147.783 E8.85919
G1 F2165.4 X149.222 Y147.913 E8.87854
G1 X148.9 Y148.097 E8.89724
G1 F2176.3 X148.63 Y148.317 E8.91472
G1 F1830.5 X148.483 Y148.504 E8.92891
G1 F1573.8 X148.481 Y148.464 E8.93169
G1 F1811.3 X148.352 Y148.352 E8.94199
G1 F2154.6 X147.519 Y147.518 E9.00173
G1 F1803.8 X147.38 Y147.372 E9.01393
G1 F1792.5 X147.505 Y147.246 E9.02475
G1 F2149.3 X147.927 Y146.803 E9.05583
G1 F2160 X148.308 Y146.357 E9.08549
G1 X148.362 Y146.288 E9.08992
G1 F2176.3 X148.667 Y145.884 E9.11531
G1 X148.74 Y145.782 E9.12161
G1 F2181.8 X149 Y145.392 E9.14507
G1 F2067 X149.059 Y145.254 E9.153
G1 X148.971 Y145.136 E9.16077
G1 F2181.8 X148.609 Y144.799 E9.18553
G1 F2165.4 X147.91 Y144.174 E9.23281
G1 F2160 X147.738 Y143.985 E9.24573
