;FLAVOR:Marlin
;TIME:183
;Filament used: 0.569008m
;Layer height: 0.4
;MINX:70.714
;MINY:69.458
;MINZ:0.32
;MAXX:179.25
;MAXY:177.997
;MAXZ:2.2
;TARGET_MACHINE.NAME:VORON2 250
;Generated with Cura_SteamEngine 5.6.0
M140 S60
M105
M190 S60
M104 S215
M105
M109 S215
M82 ;absolute extrusion mode
START_PRINT
G92 E0
G92 E0
G1 F300 E-0.5
;LAYER_COUNT:5
;LAYER:0
M107
G1 F600 Z0.6
G0 F3600 X72.143 Y70.731 Z0.6
;TYPE:SKIRT
G1 F600 Z0.32
G1 F120 E0
G1 F1800 X72.617 Y70.304 E0.06451
G1 X73.152 Y69.958 E0.12893
G1 X73.734 Y69.697 E0.19342
G1 X74.361 Y69.524 E0.25919
G1 X75.275 Y69.458 E0.35184
G1 X78.479 Y69.569 E0.67599
G1 X80.296 Y69.587 E0.85972
G1 X169.591 Y69.587 E9.88841
G1 X172.369 Y69.548 E10.16933
G1 X173.555 Y69.496 E10.28936
G1 X174.69 Y69.459 E10.40418
G1 X175.327 Y69.486 E10.46864
G1 X175.952 Y69.612 E10.53311
G1 X176.542 Y69.828 E10.59664
G1 X177.111 Y70.144 E10.66245
G1 X177.693 Y70.613 E10.73802
G1 X177.984 Y70.893 E10.77885
G1 X178.409 Y71.368 E10.8433
G1 X178.753 Y71.901 E10.90744
G1 X179.013 Y72.481 E10.97171
G1 X179.186 Y73.116 E11.03825
G1 X179.25 Y74.03 E11.1309
G1 X179.147 Y76.813 E11.41248
G1 X179.122 Y79.03 E11.63666
G1 X179.122 Y168.29 E20.66181
G1 X179.162 Y171.071 E20.94303
G1 X179.204 Y171.977 E21.03473
G1 X179.25 Y173.423 E21.18101
G1 X179.224 Y174.061 E21.24557
G1 X179.103 Y174.674 E21.30875
G1 X178.883 Y175.281 E21.37403
G1 X178.573 Y175.843 E21.43893
G1 X178.151 Y176.375 E21.50759
G1 X177.784 Y176.76 E21.56137
G1 X177.356 Y177.144 E21.61951
G1 X176.817 Y177.495 E21.68454
G1 X176.238 Y177.756 E21.74876
G1 X175.61 Y177.929 E21.81462
G1 X174.689 Y177.997 E21.908
G1 X171.464 Y177.885 E22.23428
G1 X169.647 Y177.867 E22.418
G1 X80.446 Y177.867 E31.43719
G1 X77.657 Y177.906 E31.71922
G1 X75.221 Y177.995 E31.96569
G1 X74.641 Y177.972 E32.02438
G1 X74.023 Y177.85 E32.08807
G1 X73.42 Y177.632 E32.1529
G1 X72.85 Y177.32 E32.2186
G1 X72.252 Y176.834 E32.29652
G1 X71.879 Y176.461 E32.34985
G1 X71.501 Y176.019 E32.40866
G1 X71.168 Y175.478 E32.47289
G1 X70.923 Y174.895 E32.53683
G1 X70.765 Y174.263 E32.6027
G1 X70.714 Y173.429 E32.68718
G1 X70.817 Y170.642 E32.96917
G1 X70.842 Y168.425 E33.19335
G1 X70.842 Y79.164 E42.2186
G1 X70.803 Y76.389 E42.49921
G1 X70.715 Y73.984 E42.74255
G1 X70.738 Y73.403 E42.80134
G1 X70.86 Y72.785 E42.86503
G1 X71.078 Y72.182 E42.92986
G1 X71.387 Y71.617 E42.99498
G1 X71.863 Y71.023 E43.07194
G1 X72.143 Y70.731 E43.11284
G0 F3600 X72.692 Y71.257
G1 F1800 X73.08 Y70.91 E43.16548
G1 X73.516 Y70.628 E43.21798
G1 X73.99 Y70.415 E43.27052
G1 X74.491 Y70.277 E43.32306
G1 X75.249 Y70.218 E43.39994
G1 X78.453 Y70.329 E43.72409
G1 X80.289 Y70.347 E43.90974
G1 X169.602 Y70.347 E52.94025
G1 X172.38 Y70.308 E53.22116
G1 X173.588 Y70.255 E53.34342
G1 X174.714 Y70.219 E53.45733
G1 X175.233 Y70.242 E53.50986
G1 X175.742 Y70.345 E53.56237
G1 X176.23 Y70.524 E53.61492
G1 X176.684 Y70.776 E53.66743
G1 X177.166 Y71.161 E53.7298
G1 X177.457 Y71.441 E53.77063
G1 X177.802 Y71.829 E53.82313
G1 X178.084 Y72.266 E53.87572
G1 X178.296 Y72.74 E53.92822
G1 X178.433 Y73.242 E53.98083
G1 X178.491 Y74.002 E54.0579
G1 X178.387 Y76.804 E54.34141
G1 X178.362 Y79.021 E54.56558
G1 X178.362 Y168.29 E63.59164
G1 X178.402 Y171.085 E63.87428
G1 X178.444 Y172.001 E63.96699
G1 X178.49 Y173.447 E64.11327
G1 X178.468 Y173.966 E64.1658
G1 X178.367 Y174.476 E64.21836
G1 X178.19 Y174.964 E64.27085
G1 X177.939 Y175.42 E64.32348
G1 X177.556 Y175.902 E64.38573
G1 X177.277 Y176.194 E64.42656
G1 X176.89 Y176.541 E64.47912
G1 X176.455 Y176.825 E64.53165
G1 X175.981 Y177.038 E64.58419
G1 X175.48 Y177.176 E64.63673
G1 X174.715 Y177.237 E64.71433
G1 X171.49 Y177.125 E65.04061
G1 X169.654 Y177.107 E65.22626
G1 X80.435 Y177.107 E74.24726
G1 X77.646 Y177.146 E74.52929
G1 X75.252 Y177.236 E74.77152
G1 X74.733 Y177.215 E74.82404
G1 X74.223 Y177.115 E74.87659
G1 X73.735 Y176.938 E74.92907
G1 X73.279 Y176.689 E74.98161
G1 X72.732 Y176.244 E75.0529
G1 X72.457 Y175.968 E75.0923
G1 X72.119 Y175.572 E75.14494
G1 X71.846 Y175.13 E75.19747
G1 X71.645 Y174.651 E75.24999
G1 X71.519 Y174.147 E75.30252
G1 X71.473 Y173.457 E75.37244
G1 X71.577 Y170.651 E75.65635
G1 X71.602 Y168.434 E75.88053
G1 X71.602 Y79.164 E84.90669
G1 X71.563 Y76.378 E85.18841
G1 X71.474 Y74.015 E85.42751
G1 X71.495 Y73.495 E85.48013
G1 X71.595 Y72.985 E85.53268
G1 X71.772 Y72.497 E85.58516
G1 X72.021 Y72.041 E85.6377
G1 X72.412 Y71.549 E85.70124
G1 X72.692 Y71.257 E85.74214
G1 F300 E85.24214
G1 F600 Z0.6
;MESH:100mm-crown.stl
G0 F3600 X124.943 Y101.524 Z0.6
;TYPE:WALL-OUTER
G1 F600 Z0.32
G1 F120 E85.74214
G1 F3420 X123.508 Y101.512 E85.81851
G1 X122.122 Y101.478 E85.89229
G1 F3428.6 X120.791 Y101.423 E85.96301
G1 F3437.2 X119.537 Y101.349 E86.02952
G1 X118.386 Y101.263 E86.09064
G1 X117.122 Y101.15 E86.15783
G1 F3420 X115.845 Y101.009 E86.2262
G1 F3411.5 X114.88 Y100.886 E86.2781
G1 F3437.2 X113.944 Y100.753 E86.32816
G1 F3445.8 X112.026 Y100.436 E86.43084
G1 F3437.2 X111.256 Y100.285 E86.47239
G1 F3445.8 X109.752 Y99.959 E86.55367
G1 X108.459 Y99.634 E86.62408
G1 F3280.6 X108.27 Y99.539 E86.63582
G1 F3264.9 X108.458 Y98.901 E86.6729
G1 F3288.5 X108.554 Y98.723 E86.68409
G1 F3320.4 X109.705 Y99.017 E86.7492
G1 F3472.1 X110.495 Y99.196 E86.79166
G1 F3445.8 X111.463 Y99.4 E86.84391
G1 F3411.5 X112.389 Y99.577 E86.89421
G1 F3403 X114.2 Y99.87 E86.99233
G1 F3411.5 X115.19 Y100.008 E87.04565
G1 X116.238 Y100.137 E87.10198
G1 F3420 X117.089 Y100.229 E87.14754
G1 F3445.8 X118.254 Y100.335 E87.20932
G1 F3437.2 X119.574 Y100.435 E87.27942
G1 F3428.6 X120.762 Y100.503 E87.34258
G1 F3437.2 X122.1 Y100.559 E87.41349
G1 F3428.6 X123.494 Y100.595 E87.48751
G1 F3420 X124.943 Y100.607 E87.56463
G1 X126.366 Y100.595 E87.64036
G1 X127.732 Y100.561 E87.71307
G1 X129.048 Y100.507 E87.78316
G1 F3428.6 X130.306 Y100.436 E87.85005
G1 F3437.2 X131.513 Y100.345 E87.91414
G1 X132.566 Y100.251 E87.97012
G1 F3420 X133.759 Y100.124 E88.03396
G1 F3428.6 X134.801 Y99.996 E88.08969
G1 F3437.2 X135.788 Y99.856 E88.14248
G1 F3428.6 X136.911 Y99.678 E88.20283
G1 F3420 X138.424 Y99.4 E88.2847
G1 F3394.5 X139.916 Y99.077 E88.36655
G1 F3386.1 X141.187 Y98.762 E88.43693
G1 F3137.6 X141.35 Y98.753 E88.4464
G1 F3152.1 X141.428 Y98.901 E88.45606
G1 F3280.6 X141.616 Y99.537 E88.49285
G1 F3264.9 X141.464 Y99.625 E88.50264
G1 F3411.5 X140.141 Y99.958 E88.57542
G1 F3420 X138.834 Y100.243 E88.64661
G1 F3411.5 X137.886 Y100.428 E88.69814
G1 F3428.6 X137.088 Y100.57 E88.74116
G1 X136.131 Y100.725 E88.79263
G1 F3445.8 X134.842 Y100.909 E88.8614
G1 F3454.5 X132.815 Y101.143 E88.9689
G1 X131.504 Y101.264 E89.03826
G1 F3445.8 X130.479 Y101.34 E89.09255
G1 F3420 X129.181 Y101.418 E89.16175
G1 X127.823 Y101.476 E89.23408
G1 X126.411 Y101.512 E89.30925
G1 X124.943 Y101.524 E89.38737
G1 F300 E88.88737
G1 F600 Z0.6
G0 F3600 X137.627 Y110.961 Z0.6
G1 F600 Z0.32
G1 F120 E89.38737
G1 F6114.9 X137.818 Y110.84 E89.40307
G1 F7304.3 X138.015 Y110.689 E89.4175
G1 F7901 X138.255 Y110.454 E89.43556
G0 F3600 X139.16 Y110.308
G1 F8627 X140.248 Y109.61 E89.49919
G1 F6791.5 X140.511 Y109.454 E89.51831
G1 F6691.8 X140.561 Y109.274 E89.53016
G1 F8000 X140.688 Y109.028 E89.54486
G1 F8101.5 X140.75 Y108.864 E89.55405
G1 F8060.6 X140.822 Y108.61 E89.56796
G0 F3600 X140.511 Y109.454
G1 F6198.1 X140.555 Y109.481 E89.5715
G1 F7125 X140.711 Y109.54 E89.58144
G1 F8000 X140.847 Y109.564 E89.58877
G1 F8020.1 X141.119 Y109.635 E89.60365
G1 F7785.4 X142.022 Y109.977 E89.65632
G1 F7862.1 X142.333 Y110.082 E89.67405
G1 F7940.3 X142.512 Y110.125 E89.6839
G1 F7920.6 X142.745 Y110.164 E89.69656
G1 F8101.5 X142.932 Y110.166 E89.70637
G1 F8400 X143.23 Y110.118 E89.72163
G1 X143.435 Y110.011 E89.73332
G1 F8163.7 X143.644 Y109.842 E89.7473
G1 F8101.5 X143.829 Y109.607 E89.76298
G1 F8020.1 X144.158 Y109.011 E89.79902
G1 X144.375 Y108.673 E89.82029
G1 F8040.3 X144.575 Y108.452 E89.83603
G1 X144.935 Y108.091 E89.86296
G1 F8101.5 X145.244 Y107.967 E89.88041
G1 F7960.1 X145.483 Y107.997 E89.89326
G1 X145.639 Y108.042 E89.90193
G1 F7980 X145.771 Y108.146 E89.91087
G1 F7920.6 X145.771 Y108.48 E89.92878
G1 F7901 X145.725 Y108.983 E89.95592
G1 F8000 X145.418 Y109.028 E89.9724
G1 F8205.7 X145.189 Y109.095 E89.98474
G1 F8142.9 X144.913 Y109.274 E90.0019
G1 F8081 X144.745 Y109.431 E90.01398
G1 F7940.3 X144.606 Y109.623 E90.02666
G1 F7842.8 X144.459 Y109.891 E90.04321
G1 F7881.5 X144.346 Y110.195 E90.06069
G1 F7920.6 X144.249 Y110.61 E90.08354
G1 F7221.7 X144.281 Y110.796 E90.09463
G1 F7271.1 X144.471 Y110.825 E90.10586
G1 F8000 X144.784 Y110.763 E90.1228
G1 F7901 X145.045 Y110.663 E90.13782
G1 F7920.6 X145.218 Y110.564 E90.14851
G1 F7440.6 X145.538 Y110.465 E90.16763
G1 X145.613 Y110.811 E90.18783
G1 F7980 X145.515 Y112.032 E90.25302
G1 X145.465 Y113.388 E90.32523
G1 F8020.1 X145.41 Y114.483 E90.38328
G1 F8040.3 X145.249 Y115.531 E90.43928
G1 X144.988 Y116.549 E90.49479
G1 F8060.6 X144.629 Y117.529 E90.54978
G1 X144.183 Y118.456 E90.60397
G1 X143.647 Y119.336 E90.65826
G1 F8040.3 X143.036 Y120.154 E90.71218
G1 F8081 X142.35 Y120.91 E90.76583
G1 F8101.5 X141.58 Y121.61 E90.82038
G1 F8040.3 X140.774 Y122.214 E90.87358
G1 F8020.1 X139.893 Y122.75 E90.92818
G1 X138.973 Y123.196 E90.98232
G1 X137.99 Y123.558 E91.03778
G1 F8000 X136.978 Y123.819 E91.09326
G1 X135.922 Y123.982 E91.14998
G1 X134.822 Y124.039 E91.20845
G1 X133.815 Y123.99 E91.26197
G1 F7980 X132.812 Y123.845 E91.3159
G1 F7960.1 X131.87 Y123.617 E91.36761
G1 F7980 X130.947 Y123.298 E91.41957
G1 X130.071 Y122.902 E91.47073
G1 F8000 X129.241 Y122.432 E91.52137
G1 F8020.1 X128.449 Y121.883 E91.57239
G1 F8040.3 X127.732 Y121.286 E91.62167
G1 F6691.8 X127.58 Y121.136 E91.63522
G1 F5803.6 X128.414 Y120.302 E91.72153
G1 F5977.5 X129.248 Y119.467 E91.80537
G1 F6150.3 X130.082 Y118.632 E91.88686
G1 F6345.9 X130.916 Y117.798 E91.96579
G1 F6554.4 X131.75 Y116.963 E92.04225
G1 F6762.7 X132.584 Y116.128 E92.11636
G1 F7000 X133.418 Y115.294 E92.18791
G1 F7238.1 X134.252 Y114.459 E92.25715
G1 F7510.6 X135.086 Y113.624 E92.32388
G1 F7804.4 X135.921 Y112.789 E92.38814
G1 F7000 X136.01 Y112.639 E92.39872
G1 F7046.4 X135.711 Y112.356 E92.42353
G1 F8040.3 X135.558 Y112.127 E92.43808
G1 F8020.1 X135.467 Y111.871 E92.45246
G1 F7940.3 X135.435 Y111.567 E92.46881
G1 F7337.9 X135.398 Y111.378 E92.47996
G1 F7388.9 X135.039 Y111.405 E92.50065
G1 F7980 X134.786 Y111.378 E92.51419
G1 F8000 X134.568 Y111.309 E92.52633
G1 F7980 X134.372 Y111.2 E92.53826
G1 F7960.1 X134.193 Y111.051 E92.55069
G1 F8000 X134.051 Y110.879 E92.56253
G1 X133.942 Y110.677 E92.57471
G1 X133.873 Y110.46 E92.5868
G1 F8020.1 X133.85 Y110.219 E92.59962
G1 F8040.3 X133.871 Y109.999 E92.61129
G1 F8060.6 X133.935 Y109.793 E92.62265
G1 X134.03 Y109.617 E92.63319
G1 X134.169 Y109.448 E92.64472
G1 X134.438 Y109.233 E92.66286
G1 F7475.4 X135.152 Y109.006 E92.70542
G1 X134.984 Y108.678 E92.72636
G1 F8000 X134.254 Y107.927 E92.78195
G1 X133.922 Y107.608 E92.80639
G1 F8040.3 X133.574 Y107.323 E92.83015
G1 F8101.5 X133.223 Y107.076 E92.85265
G1 F8122.1 X132.835 Y106.85 E92.87613
G1 F8142.9 X132.468 Y106.673 E92.89738
G1 F8163.7 X132.079 Y106.526 E92.91901
G1 F8184.6 X131.664 Y106.407 E92.94141
G1 F8226.8 X131.276 Y106.333 E92.9618
G1 F8184.6 X130.859 Y106.291 E92.98354
G1 F8142.9 X130.453 Y106.289 E93.00472
G1 F8122.1 X130.053 Y106.325 E93.02572
G1 F8081 X129.643 Y106.401 E93.04763
G1 F8040.3 X129.263 Y106.513 E93.06855
G1 F8000 X128.854 Y106.677 E93.09194
G1 F7980 X128.48 Y106.87 E93.11434
G1 X128.11 Y107.111 E93.13784
G1 F7940.3 X127.771 Y107.448 E93.1634
G1 F7901 X127.439 Y107.839 E93.19097
G1 F7862.1 X127.123 Y108.278 E93.22019
G1 X126.935 Y108.587 E93.23973
G1 F7920.6 X126.709 Y109.023 E93.26606
G1 F7842.8 X126.637 Y109.187 E93.27576
G1 F7881.5 X126.532 Y109.468 E93.29192
G1 F7901 X126.465 Y109.677 E93.30372
G1 F7920.6 X126.404 Y109.916 E93.31694
G1 F7940.3 X126.361 Y110.153 E93.32982
G1 X126.335 Y110.405 E93.34337
G1 F7205.4 X126.376 Y110.575 E93.35368
G1 F6777.1 X126.641 Y110.594 E93.37033
G1 F7354.8 X126.748 Y110.75 E93.38125
G1 F6222.2 X126.873 Y110.89 E93.39406
G1 F5115.4 X127.14 Y110.86 E93.41636
G1 F4888.2 X127.351 Y111.025 E93.43963
G1 F4995.3 X127.569 Y111.036 E93.45819
G1 F6126.7 X127.729 Y111.129 E93.47102
G1 F7747.6 X127.962 Y111.183 E93.48413
G1 F6748.4 X128.264 Y111.463 E93.51004
G1 F6705.9 X128.452 Y111.282 E93.52657
G1 F7960.1 X128.97 Y110.335 E93.58416
G1 F7600 X129.018 Y110.153 E93.59467
G1 F7581.9 X129.304 Y110.033 E93.61204
G1 F7881.5 X129.613 Y109.959 E93.62916
G1 F7747.6 X129.825 Y109.942 E93.64082
G1 F7710.1 X130.117 Y109.939 E93.65691
G1 F7881.5 X130.394 Y109.973 E93.67194
G1 F7960.1 X130.668 Y110.05 E93.68713
G1 F8000 X130.897 Y110.166 E93.70075
G1 F8081 X131.087 Y110.331 E93.71398
G1 X131.738 Y111.24 E93.77273
G1 F7920.6 X132.021 Y111.596 E93.79712
G1 F8000 X132.345 Y111.931 E93.82186
G1 F7728.8 X132.576 Y112.137 E93.83886
G1 F7564 X132.474 Y112.313 E93.85028
G1 F7960.1 X132.203 Y112.617 E93.87201
G1 F7980 X132.086 Y112.764 E93.88201
G1 F7862.1 X131.734 Y113.258 E93.91477
G1 F7920.6 X131.448 Y113.716 E93.94372
G1 F8020.1 X131.13 Y114.272 E93.97764
G1 X130.951 Y114.448 E93.99093
G1 F7862.1 X130.718 Y114.598 E94.0059
G1 F7691.6 X130.465 Y114.708 E94.02113
G1 F7673.1 X130.198 Y114.78 E94.03643
G1 F7766.4 X129.906 Y114.812 E94.0525
G1 F7881.5 X129.637 Y114.8 E94.06701
G1 F7980 X129.374 Y114.738 E94.08138
G1 F8000 X129.138 Y114.622 E94.09534
G1 F7940.3 X129.011 Y114.442 E94.10713
G1 F7747.6 X128.851 Y114.158 E94.12499
G1 F6461.5 X128.724 Y114.038 E94.13648
G1 F6622.4 X128.401 Y114.341 E94.16488
G1 F7940.3 X128.235 Y114.416 E94.17462
G1 F7030.8 X128.023 Y114.603 E94.19169
G1 F7046.4 X128.211 Y114.853 E94.21054
G1 F7980 X128.393 Y114.959 E94.22175
G1 F8020.1 X128.782 Y115.086 E94.24342
G1 F7980 X128.972 Y115.273 E94.25761
G1 F8122.1 X129.105 Y115.457 E94.26948
G1 X129.236 Y115.771 E94.28727
G1 F7980 X129.362 Y116.405 E94.32166
G1 F6791.5 X129.347 Y116.616 E94.33489
G1 F6720 X129.137 Y116.628 E94.34818
G1 F7862.1 X128.574 Y116.528 E94.37907
G1 F8060.6 X128.279 Y116.418 E94.39566
G1 F8122.1 X127.964 Y116.165 E94.41678
G1 F8060.6 X127.878 Y115.902 E94.43136
G1 X127.761 Y115.668 E94.44514
G1 F8000 X127.565 Y115.389 E94.46324
G1 F6734.2 X127.361 Y115.238 E94.47925
G1 F6663.9 X127.241 Y115.376 E94.4909
G1 F8000 X127.04 Y115.581 E94.50614
G1 F6820.5 X126.884 Y115.689 E94.51796
G1 F6748.4 X127.024 Y115.88 E94.53286
G1 F8184.6 X127.208 Y116.045 E94.54568
G1 F8312.5 X127.383 Y116.327 E94.56264
G1 F8248.1 X127.488 Y116.712 E94.58318
G1 F8000 X127.469 Y116.974 E94.59713
G1 X127.433 Y117.182 E94.60833
G1 F8081 X127.325 Y117.462 E94.6241
G1 F8020.1 X127.161 Y117.72 E94.64029
G1 X127.012 Y117.885 E94.65206
G1 F8040.3 X126.414 Y118.414 E94.69423
G1 F7920.6 X125.809 Y118.981 E94.73869
G1 F7940.3 X126.236 Y119.611 E94.77939
G1 F8020.1 X126.557 Y120.034 E94.80751
G1 F8000 X126.982 Y120.536 E94.84242
G1 F6691.8 X127.565 Y121.137 E94.89556
G1 F6174.1 X127.075 Y121.63 E94.94337
G1 F7271.1 X126.584 Y122.123 E94.98401
G1 F6806 X126.459 Y122.225 E94.99407
G1 X126.342 Y122.108 E95.0044
G1 F8020.1 X126.04 Y121.85 E95.02543
G1 F8040.3 X125.696 Y121.649 E95.04647
G1 F8020.1 X125.34 Y121.516 E95.0666
G1 F8060.6 X124.958 Y121.445 E95.08707
G1 F8081 X124.562 Y121.512 E95.10817
G1 F8020.1 X124.2 Y121.642 E95.12854
G1 F8000 X123.882 Y121.825 E95.14801
G1 F7960.1 X123.584 Y122.066 E95.16846
G1 F6720 X123.464 Y122.189 E95.17932
G1 F6748.4 X123.312 Y122.058 E95.19195
G1 F7254.5 X122.836 Y121.579 E95.23148
G1 F6138.5 X122.359 Y121.1 E95.27824
G1 F6650 X122.932 Y120.503 E95.33109
G1 F8000 X123.347 Y120.012 E95.36521
G1 X123.727 Y119.504 E95.39889
G1 F8060.6 X123.982 Y119.121 E95.42313
G1 F7842.8 X124.052 Y118.957 E95.43279
G1 F7766.4 X123.466 Y118.408 E95.47669
G1 F8000 X122.894 Y117.906 E95.51709
G1 F7960.1 X122.724 Y117.718 E95.53061
G1 F7920.6 X122.55 Y117.428 E95.54875
G1 F7940.3 X122.447 Y117.137 E95.56526
G1 F7823.5 X122.419 Y116.972 E95.57434
G1 F7901 X122.403 Y116.749 E95.58636
G1 F8122.1 X122.457 Y116.445 E95.6025
G1 F8184.6 X122.616 Y116.126 E95.62099
G1 F8081 X122.726 Y116.007 E95.62951
G1 F8000 X122.869 Y115.878 E95.63973
G1 F6705.9 X123.005 Y115.69 E95.65443
