;FLAVOR:Marlin
;TIME:783
;Filament used: 1.04262m
;Layer height: 0.4
;MINX:110.1
;MINY:110.1
;MINZ:0.32
;MAXX:139.9
;MAXY:139.9
;MAXZ:19.92
;TARGET_MACHINE.NAME:VORON2 250
;Generated with Cura_SteamEngine 5.6.0
M140 S60
M105
M190 S60
M104 S215
M105
M109 S215
M82 ;absolute extrusion mode
START_PRINT
G92 E0
G92 E0
G1 F300 E-0.5
;LAYER_COUNT:50
;LAYER:0
M107
G1 F600 Z0.6
G0 F3600 X111.537 Y111.545 Z0.6
;TYPE:SKIRT
G1 F600 Z0.32
G1 F120 E0
G1 F1800 X112.103 Y111.058 E0.07251
G1 X112.742 Y110.659 E0.14566
G1 X113.444 Y110.361 E0.21972
G1 X114.158 Y110.179 E0.29127
G1 X114.873 Y110.11 E0.36102
G1 X115.235 Y110.101 E0.39619
G1 X134.365 Y110.1 E2.25384
G1 X135.179 Y110.116 E2.3329
G1 X135.805 Y110.174 E2.39395
G1 X136.546 Y110.359 E2.46812
G1 X137.242 Y110.653 E2.54148
G1 X137.879 Y111.045 E2.61412
G1 X138.455 Y111.538 E2.68774
G1 X138.945 Y112.107 E2.76066
G1 X139.341 Y112.743 E2.83341
G1 X139.64 Y113.445 E2.90751
G1 X139.822 Y114.168 E2.9799
G1 X139.89 Y114.874 E3.04878
G1 X139.899 Y115.235 E3.08384
G1 X139.9 Y134.327 E4.93781
G1 X139.888 Y135.114 E5.01424
G1 X139.828 Y135.805 E5.08159
G1 X139.648 Y136.53 E5.15413
G1 X139.352 Y137.236 E5.22847
G1 X138.966 Y137.865 E5.30014
G1 X138.47 Y138.448 E5.37447
G1 X137.9 Y138.94 E5.44759
G1 X137.262 Y139.337 E5.52055
G1 X136.564 Y139.638 E5.59437
G1 X135.844 Y139.82 E5.66649
G1 X135.127 Y139.89 E5.73644
G1 X134.765 Y139.899 E5.77161
G1 X115.641 Y139.9 E7.62868
G1 X114.828 Y139.885 E7.70764
G1 X114.191 Y139.828 E7.76974
G1 X113.466 Y139.647 E7.8423
G1 X112.772 Y139.356 E7.91538
G1 X112.12 Y138.955 E7.98971
G1 X111.558 Y138.476 E8.06142
G1 X111.057 Y137.895 E8.13592
G1 X110.66 Y137.258 E8.2088
G1 X110.366 Y136.57 E8.28146
G1 X110.178 Y135.837 E8.35494
G1 X110.11 Y135.122 E8.42469
G1 X110.101 Y134.749 E8.46092
G1 X110.1 Y115.605 E10.31993
G1 X110.115 Y114.825 E10.39569
G1 X110.172 Y114.198 E10.45682
G1 X110.358 Y113.454 E10.5313
G1 X110.646 Y112.77 E10.60336
G1 X111.042 Y112.126 E10.67678
G1 X111.537 Y111.545 E10.7509
G0 F3600 X112.075 Y112.085
G1 F1800 X112.555 Y111.672 E10.81239
G1 X113.095 Y111.335 E10.8742
G1 X113.685 Y111.084 E10.93646
G1 X114.294 Y110.929 E10.99748
G1 X114.893 Y110.87 E11.05593
G1 X115.235 Y110.861 E11.08915
G1 X134.352 Y110.86 E12.94555
G1 X135.109 Y110.873 E13.01907
G1 X135.681 Y110.926 E13.07485
G1 X136.302 Y111.081 E13.137
G1 X136.892 Y111.33 E13.19919
G1 X137.429 Y111.661 E13.26045
G1 X137.917 Y112.078 E13.32278
G1 X138.331 Y112.56 E13.38448
G1 X138.665 Y113.096 E13.44581
G1 X138.917 Y113.687 E13.5082
G1 X139.072 Y114.301 E13.56969
G1 X139.13 Y114.894 E13.62755
G1 X139.139 Y115.235 E13.66067
G1 X139.14 Y134.315 E15.51347
G1 X139.128 Y135.102 E15.5899
G1 X139.076 Y135.678 E15.64606
G1 X138.923 Y136.294 E15.7077
G1 X138.676 Y136.884 E15.76981
G1 X138.346 Y137.421 E15.83102
G1 X137.93 Y137.91 E15.89336
G1 X137.448 Y138.326 E15.95519
G1 X136.91 Y138.661 E16.01673
G1 X136.32 Y138.915 E16.07911
G1 X135.709 Y139.07 E16.14032
G1 X135.107 Y139.13 E16.19907
G1 X134.765 Y139.139 E16.23229
G1 X115.653 Y139.14 E18.0882
G1 X114.896 Y139.128 E18.16171
G1 X114.32 Y139.076 E18.21788
G1 X113.705 Y138.923 E18.27942
G1 X113.117 Y138.676 E18.34135
G1 X112.572 Y138.341 E18.40347
G1 X112.094 Y137.934 E18.46443
G1 X111.671 Y137.443 E18.52737
G1 X111.337 Y136.907 E18.5887
G1 X111.086 Y136.321 E18.6506
G1 X110.929 Y135.706 E18.71224
G1 X110.87 Y135.103 E18.77107
G1 X110.861 Y134.749 E18.80546
G1 X110.86 Y115.618 E20.66321
G1 X110.872 Y114.894 E20.73352
G1 X110.924 Y114.322 E20.7893
G1 X111.08 Y113.698 E20.85176
G1 X111.325 Y113.115 E20.91317
G1 X111.658 Y112.574 E20.97486
G1 X112.075 Y112.085 E21.03726
G0 F3600 X112.613 Y112.625
G1 F1800 X113.007 Y112.286 E21.08774
G1 X113.448 Y112.011 E21.1382
G1 X113.926 Y111.807 E21.18867
G1 X114.429 Y111.679 E21.23907
G1 X114.914 Y111.63 E21.28641
G1 X115.235 Y111.621 E21.31759
G1 X134.341 Y111.62 E23.17292
G1 X135.039 Y111.63 E23.2407
G1 X135.557 Y111.678 E23.29122
G1 X136.061 Y111.804 E23.34167
G1 X136.54 Y112.006 E23.39215
G1 X136.982 Y112.279 E23.4426
G1 X137.377 Y112.616 E23.49302
G1 X137.716 Y113.01 E23.54349
G1 X137.99 Y113.451 E23.59391
G1 X138.194 Y113.929 E23.64437
G1 X138.321 Y114.433 E23.69485
G1 X138.37 Y114.915 E23.74189
G1 X138.379 Y115.235 E23.77298
G1 X138.38 Y134.306 E25.6249
G1 X138.371 Y135.033 E25.69551
G1 X138.324 Y135.55 E25.74592
G1 X138.199 Y136.055 E25.79644
G1 X137.998 Y136.534 E25.84688
G1 X137.726 Y136.977 E25.89736
G1 X137.39 Y137.372 E25.94772
G1 X136.996 Y137.712 E25.99825
G1 X136.555 Y137.987 E26.04872
G1 X136.078 Y138.192 E26.09914
G1 X135.574 Y138.32 E26.14963
G1 X135.086 Y138.37 E26.19727
G1 X134.765 Y138.379 E26.22845
G1 X115.663 Y138.38 E28.08339
G1 X114.965 Y138.371 E28.15117
G1 X114.448 Y138.324 E28.20158
G1 X113.944 Y138.199 E28.25201
G1 X113.465 Y137.998 E28.30245
G1 X113.022 Y137.725 E28.35298
G1 X112.626 Y137.388 E28.40348
G1 X112.287 Y136.995 E28.45388
G1 X112.012 Y136.554 E28.50434
G1 X111.808 Y136.076 E28.55481
G1 X111.679 Y135.573 E28.60524
G1 X111.63 Y135.082 E28.65315
G1 X111.621 Y134.749 E28.6855
G1 X111.62 Y115.628 E30.54228
G1 X111.629 Y114.963 E30.60686
G1 X111.676 Y114.446 E30.65728
G1 X111.802 Y113.942 E30.70772
G1 X112.003 Y113.463 E30.75817
G1 X112.276 Y113.02 E30.8087
G1 X112.613 Y112.625 E30.85912
G1 F300 E30.35912
G1 F600 Z0.6
;MESH:Cube
G0 F3600 X133.86 Y133.86 Z0.6
;TYPE:WALL-INNER
G1 F600 Z0.32
G1 F120 E30.85912
G1 F1800 X133.86 Y116.14 E32.56229
G1 X116.14 Y116.14 E34.26547
G1 X116.14 Y133.86 E35.96864
G1 X133.86 Y133.86 E37.67182
G0 F3600 X134.62 Y134.62
;TYPE:WALL-OUTER
G1 F1800 X134.62 Y115.38 E39.52109
G1 X115.38 Y115.38 E41.37036
G1 X115.38 Y134.62 E43.21963
G1 X134.62 Y134.62 E45.0689
G0 F3600 X134.62 Y134.42
G1 F300 E44.5689
G1 F600 Z0.6
G0 F3600 X133.138 Y133.138 Z0.6
;TYPE:SKIN
G1 F600 Z0.32
G1 F120 E45.0689
G1 F1800 X116.862 Y133.138 E46.64941
G1 X116.862 Y116.862 E48.22992
G1 X133.138 Y116.862 E49.81043
G1 X133.138 Y133.138 E51.39094
G1 F300 E50.89094
G1 F600 Z0.6
G0 F3600 X132.289 Y117.241 Z0.6
G1 F600 Z0.32
G1 F120 E51.39094
G1 F1800 X132.757 Y117.71 E51.45528
G0 F3600 X132.757 Y118.785
G1 F1800 X131.214 Y117.241 E51.66725
G0 F3600 X130.139 Y117.241
G1 F1800 X132.757 Y119.86 E52.02685
G0 F3600 X132.757 Y120.935
G1 F1800 X129.064 Y117.241 E52.53407
G0 F3600 X127.989 Y117.241
G1 F1800 X132.757 Y122.009 E53.18886
G0 F3600 X132.757 Y123.084
G1 F1800 X126.915 Y117.241 E53.99121
G0 F3600 X125.84 Y117.241
G1 F1800 X132.757 Y124.159 E54.94119
G0 F3600 X132.757 Y125.234
G1 F1800 X124.765 Y117.241 E56.0388
G0 F3600 X123.69 Y117.241
G1 F1800 X132.757 Y126.309 E57.28404
G0 F3600 X132.757 Y127.383
G1 F1800 X122.615 Y117.241 E58.67683
G0 F3600 X121.541 Y117.241
G1 F1800 X132.757 Y128.458 E60.21719
G0 F3600 X132.757 Y129.533
G1 F1800 X120.466 Y117.241 E61.90518
G0 F3600 X119.391 Y117.241
G1 F1800 X132.757 Y130.608 E63.7408
G0 F3600 X132.757 Y131.683
G1 F1800 X118.316 Y117.241 E65.72405
G0 F3600 X117.241 Y117.241
G1 F1800 X132.757 Y132.757 E67.85486
G0 F3600 X131.682 Y132.757
G1 F1800 X117.241 Y118.316 E69.83804
G0 F3600 X117.241 Y119.391
G1 F1800 X130.607 Y132.757 E71.67359
G0 F3600 X129.532 Y132.757
G1 F1800 X117.241 Y120.466 E73.36151
G0 F3600 X117.241 Y121.541
G1 F1800 X128.457 Y132.757 E74.9018
G0 F3600 X127.383 Y132.757
G1 F1800 X117.241 Y122.615 E76.2946
G0 F3600 X117.241 Y123.69
G1 F1800 X126.308 Y132.757 E77.53977
G0 F3600 X125.233 Y132.757
G1 F1800 X117.241 Y124.765 E78.63731
G0 F3600 X117.241 Y125.84
G1 F1800 X124.158 Y132.757 E79.58722
G0 F3600 X123.083 Y132.757
M104 S210
G1 F1800 X117.241 Y126.915 E80.3895
G0 F3600 X117.241 Y127.989
G1 F1800 X122.009 Y132.757 E81.04429
G0 F3600 X120.934 Y132.757
G1 F1800 X117.241 Y129.064 E81.55145
G0 F3600 X117.241 Y130.139
G1 F1800 X119.859 Y132.757 E81.91097
G0 F3600 X118.784 Y132.757
G1 F1800 X117.241 Y131.214 E82.12287
G0 F3600 X117.241 Y132.289
G1 F1800 X117.709 Y132.757 E82.18714
G1 F300 E81.68714
G1 F600 Z0.6
;MESH:NONMESH
G0 F3600 X112.613 Y112.625 Z0.6
;TIME_ELAPSED:38.674107
;LAYER:1
M106 S68
G0 F4950 X112.613 Y112.625 Z1
;TYPE:SKIRT
G1 F600 Z0.72
G1 F120 E82.18714
G1 F1800 X113.007 Y112.286 E82.25152
G1 X113.448 Y112.011 E82.3159
G1 X113.926 Y111.807 E82.38027
G1 X114.429 Y111.679 E82.44456
G1 X114.914 Y111.63 E82.50493
G1 X115.235 Y111.621 E82.54471
G1 X134.341 Y111.62 E84.91119
G1 X135.039 Y111.63 E84.99766
G1 X135.557 Y111.678 E85.06209
G1 X136.061 Y111.804 E85.12644
G1 X136.54 Y112.006 E85.19083
G1 X136.982 Y112.279 E85.25517
G1 X137.377 Y112.616 E85.31949
G1 X137.716 Y113.01 E85.38386
G1 X137.99 Y113.451 E85.44817
G1 X138.194 Y113.929 E85.51254
G1 X138.321 Y114.433 E85.57692
G1 X138.37 Y114.915 E85.63693
G1 X138.379 Y115.235 E85.67658
G1 X138.38 Y134.306 E88.03873
G1 X138.371 Y135.033 E88.12878
G1 X138.324 Y135.55 E88.19308
G1 X138.199 Y136.055 E88.25752
G1 X137.998 Y136.534 E88.32186
G1 X137.726 Y136.977 E88.38625
G1 X137.39 Y137.372 E88.45048
G1 X136.996 Y137.712 E88.51494
G1 X136.555 Y137.987 E88.57931
G1 X136.078 Y138.192 E88.64362
G1 X135.574 Y138.32 E88.70803
G1 X135.086 Y138.37 E88.76879
G1 X134.765 Y138.379 E88.80856
G1 X115.663 Y138.38 E91.17455
G1 X114.965 Y138.371 E91.26101
G1 X114.448 Y138.324 E91.32531
G1 X113.944 Y138.199 E91.38963
G1 X113.465 Y137.998 E91.45397
G1 X113.022 Y137.725 E91.51842
G1 X112.626 Y137.388 E91.58283
G1 X112.287 Y136.995 E91.64711
G1 X112.012 Y136.554 E91.71148
G1 X111.808 Y136.076 E91.77586
G1 X111.679 Y135.573 E91.84017
G1 X111.63 Y135.082 E91.90129
G1 X111.621 Y134.749 E91.94255
G1 X111.62 Y115.628 E94.31089
G1 X111.629 Y114.963 E94.39327
G1 X111.676 Y114.446 E94.45757
G1 X111.802 Y113.942 E94.52192
G1 X112.003 Y113.463 E94.58626
G1 X112.276 Y113.02 E94.65071
G1 X112.613 Y112.625 E94.71502
G1 F300 E94.21502
G1 F600 Z1
;MESH:Cube
G0 F4950 X133.86 Y133.86 Z1
;TYPE:WALL-INNER
G1 F600 Z0.72
G1 F120 E94.71502
G1 F2700 X133.86 Y116.14 E96.88744
G1 X116.14 Y116.14 E99.05985
G1 X116.14 Y133.86 E101.23227
G1 X133.86 Y133.86 E103.40469
G0 F4950 X134.62 Y134.62
;TYPE:WALL-OUTER
G1 F2400 X134.62 Y115.38 E105.76345
G1 X115.38 Y115.38 E108.12221
G1 X115.38 Y134.62 E110.48098
G1 X134.62 Y134.62 E112.83974
G0 F4950 X134.62 Y134.42
G1 F300 E112.33974
G1 F600 Z1
G0 F4950 X133.138 Y133.138 Z1
;TYPE:SKIN
G1 F600 Z0.72
G1 F120 E112.83974
G1 F1950 X133.138 Y133.138
G1 X116.862 Y133.138 E114.8557
G1 X116.862 Y116.862 E116.87166
G1 X133.138 Y116.862 E118.88761
G1 X133.138 Y133.138 E120.90357
G0 F4950 X132.757 Y131.644
G1 F1950 X131.643 Y132.757 E121.09862
G0 F4950 X130.568 Y132.757
G1 F1950 X132.757 Y130.569 E121.48197
G0 F4950 X132.757 Y129.494
G1 F1950 X129.493 Y132.757 E122.05362
G0 F4950 X128.419 Y132.757
G1 F1950 X132.757 Y128.419 E122.81349
G0 F4950 X132.757 Y127.344
G1 F1950 X127.344 Y132.757 E123.76166
G0 F4950 X126.269 Y132.757
G1 F1950 X132.757 Y126.27 E124.89805
G0 F4950 X132.757 Y125.195
G1 F1950 X125.194 Y132.757 E126.22274
G0 F4950 X124.119 Y132.757
G1 F1950 X132.757 Y124.12 E127.73573
G0 F4950 X132.757 Y123.045
G1 F1950 X123.045 Y132.757 E129.43694
G0 F4950 X121.97 Y132.757
G1 F1950 X132.757 Y121.97 E131.32645
G0 F4950 X132.757 Y120.896
G1 F1950 X120.895 Y132.757 E133.40417
G0 F4950 X119.82 Y132.757
G1 F1950 X132.757 Y119.821 E135.6702
G0 F4950 X132.757 Y118.746
G1 F1950 X118.745 Y132.757 E138.12453
G0 F4950 X117.671 Y132.757
G1 F1950 X132.757 Y117.671 E140.76708
G0 F4950 X132.112 Y117.241
G1 F1950 X117.241 Y132.112 E143.37197
G0 F4950 X117.241 Y131.037
G1 F1950 X131.037 Y117.241 E145.78855
G0 F4950 X129.962 Y117.241
G1 F1950 X117.241 Y129.962 E148.01683
G0 F4950 X117.241 Y128.887
G1 F1950 X128.887 Y117.241 E150.05681
G0 F4950 X127.813 Y117.241
G1 F1950 X117.241 Y127.813 E151.90866
G0 F4950 X117.241 Y126.738
G1 F1950 X126.738 Y117.241 E153.57221
G0 F4950 X125.663 Y117.241
G1 F1950 X117.241 Y125.663 E155.04745
G0 F4950 X117.241 Y124.588
G1 F1950 X124.588 Y117.241 E156.33439
G0 F4950 X123.513 Y117.241
G1 F1950 X117.241 Y123.513 E157.43303
G0 F4950 X117.241 Y122.439
G1 F1950 X122.439 Y117.241 E158.34354
G0 F4950 X121.364 Y117.241
G1 F1950 X117.241 Y121.364 E159.06575
G0 F4950 X117.241 Y120.289
G1 F1950 X120.289 Y117.241 E159.59965
G0 F4950 X119.214 Y117.241
G1 F1950 X117.241 Y119.214 E159.94526
G0 F4950 X117.241 Y118.139
G1 F1950 X118.139 Y117.241 E160.10255
G1 F300 E159.60255
G1 F600 Z1
;MESH:NONMESH
G0 F4950 X112.613 Y112.625 Z1
;TIME_ELAPSED:60.242645
;LAYER:2
M106 S191.2
G0 F6300 X112.613 Y112.625 Z1.4
;TYPE:SKIRT
G1 F600 Z1.12
G1 F120 E160.10255
G1 F1030.2 X113.007 Y112.286 E160.16693
G1 X113.448 Y112.011 E160.23131
G1 X113.926 Y111.807 E160.29568
G1 X114.429 Y111.679 E160.35996
G1 X114.914 Y111.63 E160.42034
G1 X115.235 Y111.621 E160.46012
G1 X134.341 Y111.62 E162.8266
G1 X135.039 Y111.63 E162.91306
G1 X135.557 Y111.678 E162.9775
G1 X136.061 Y111.804 E163.04185
G1 X136.54 Y112.006 E163.10624
G1 X136.982 Y112.279 E163.17058
G1 X137.377 Y112.616 E163.23489
G1 X137.716 Y113.01 E163.29927
G1 X137.99 Y113.451 E163.36358
G1 X138.194 Y113.929 E163.42795
G1 X138.321 Y114.433 E163.49233
G1 X138.37 Y114.915 E163.55234
G1 X138.379 Y115.235 E163.59199
G1 X138.38 Y134.306 E165.95414
G1 X138.371 Y135.033 E166.04419
G1 X138.324 Y135.55 E166.10849
G1 X138.199 Y136.055 E166.17293
G1 X137.998 Y136.534 E166.23727
G1 X137.726 Y136.977 E166.30166
G1 X137.39 Y137.372 E166.36589
G1 X136.996 Y137.712 E166.43035
G1 X136.555 Y137.987 E166.49472
G1 X136.078 Y138.192 E166.55903
G1 X135.574 Y138.32 E166.62343
G1 X135.086 Y138.37 E166.6842
G1 X134.765 Y138.379 E166.72397
G1 X115.663 Y138.38 E169.08996
G1 X114.965 Y138.371 E169.17642
G1 X114.448 Y138.324 E169.24072
G1 X113.944 Y138.199 E169.30504
G1 X113.465 Y137.998 E169.36938
G1 X113.022 Y137.725 E169.43383
G1 X112.626 Y137.388 E169.49824
G1 X112.287 Y136.995 E169.56252
G1 X112.012 Y136.554 E169.62689
G1 X111.808 Y136.076 E169.69127
G1 X111.679 Y135.573 E169.75558
G1 X111.63 Y135.082 E169.8167
G1 X111.621 Y134.749 E169.85796
G1 X111.62 Y115.628 E172.2263
G1 X111.629 Y114.963 E172.30868
G1 X111.676 Y114.446 E172.37298
G1 X111.802 Y113.942 E172.43733
G1 X112.003 Y113.463 E172.50167
G1 X112.276 Y113.02 E172.56612
G1 X112.613 Y112.625 E172.63043
G1 F300 E172.13043
G1 F600 Z1.4
;MESH:Cube
G0 F6300 X133.86 Y133.86 Z1.4
;TYPE:WALL-INNER
G1 F600 Z1.12
G1 F120 E172.63043
G1 F1030.2 X133.86 Y116.14 E174.80285
G1 X116.14 Y116.14 E176.97526
G1 X116.14 Y133.86 E179.14768
G1 X133.86 Y133.86 E181.3201
G0 F6300 X133.486 Y133.486
G0 X134.62 Y134.62
;TYPE:WALL-OUTER
G1 F1030.2 X134.62 Y115.38 E183.67886
G1 X115.38 Y115.38 E186.03762
G1 X115.38 Y134.62 E188.39639
G1 X134.62 Y134.62 E190.75515
G0 F6300 X134.62 Y134.42
G0 X132.796 Y133.019
;MESH:NONMESH
G0 F600 X132.796 Y133.019 Z1.52
G0 F6300 X133.486 Y133.486
G0 X133.86 Y133.86
;TIME_ELAPSED:75.844771
;LAYER:3
;TYPE:WALL-INNER
;MESH:Cube
G1 F600 X133.86 Y116.14 E192.92757
G1 X116.14 Y116.14 E195.09998
G1 X116.14 Y133.86 E197.2724
G1 X133.86 Y133.86 E199.44482
G0 F7650 X133.486 Y133.486
G0 X134.62 Y134.62
;TYPE:WALL-OUTER
G1 F600 X134.62 Y115.38 E201.80358
G1 X115.38 Y115.38 E204.16234
G1 X115.38 Y134.62 E206.52111
G1 X134.62 Y134.62 E208.87987
G0 F7650 X134.62 Y134.42
G0 X132.796 Y133.019
;MESH:NONMESH
G0 F600 X132.796 Y133.019 Z1.92
G0 F7650 X133.486 Y133.486
G0 X133.86 Y133.86
;TIME_ELAPSED:90.903136
;LAYER:4
;TYPE:WALL-INNER
;MESH:Cube
G1 F600 X133.86 Y116.14 E211.05229
G1 X116.14 Y116.14 E213.2247
G1 X116.14 Y133.86 E215.39712
G1 X133.86 Y133.86 E217.56954
G0 F9000 X133.486 Y133.486
G0 X134.62 Y134.62
;TYPE:WALL-OUTER
G1 F600 X134.62 Y115.38 E219.9283
G1 X115.38 Y115.38 E222.28706
G1 X115.38 Y134.62 E224.64583
G1 X134.62 Y134.62 E227.00459
G0 F9000 X134.62 Y134.42
G0 X132.796 Y133.019
;MESH:NONMESH
G0 F600 X132.796 Y133.019 Z2.32
G0 F9000 X133.486 Y133.486
G0 X133.86 Y133.86
;TIME_ELAPSED:105.961761
;LAYER:5
;TYPE:WALL-INNER
;MESH:Cube
G1 F600 X133.86 Y116.14 E229.17701
G1 X116.14 Y116.14 E231.34942
G1 X116.14 Y133.86 E233.52184
G1 X133.86 Y133.86 E235.69425
G0 F9000 X133.486 Y133.486
G0 X134.62 Y134.62
;TYPE:WALL-OUTER
G1 F600 X134.62 Y115.38 E238.05302
G1 X115.38 Y115.38 E240.41178
G1 X115.38 Y134.62 E242.77055
G1 X134.62 Y134.62 E245.12931
G0 F9000 X134.62 Y134.42
G0 X132.796 Y133.019
;MESH:NONMESH
