;FLAVOR:Marlin
;TIME:145
;Filament used: 0.243391m
;Layer height: 0.32
;MINX:70.897
;MINY:70.897
;MINZ:0.28
;MAXX:179.103
;MAXY:179.103
;MAXZ:1.2
;Generated with Cura_SteamEngine 5.0.0
M140 S60
M105
M190 S60
M104 S215
M105
M109 S215
M82 ;absolute extrusion mode
START_PRINT
G92 E0
G92 E0
G1 F300 E-0.5
;LAYER_COUNT:3
;LAYER:0
M107
G1 F600 Z0.56
G0 F3600 X72.277 Y72.118 Z0.56
G1 F600 Z0.56
G0 F3600 X70.897 Y75.284
;TYPE:SKIRT
G1 F600 Z0.28
G1 F120 E0
G1 F1800 X70.919 Y74.721 E0.0405
G1 X71.021 Y74.167 E0.08099
G1 X71.199 Y73.632 E0.12152
G1 X71.452 Y73.129 E0.162
G1 X71.773 Y72.666 E0.2025
G1 X72 Y72.407 E0.22725
G1 X72.277 Y72.118 E0.25603
G1 X72.695 Y71.74 E0.29654
G1 X73.162 Y71.425 E0.33703
G1 X73.669 Y71.179 E0.37754
G1 X74.206 Y71.007 E0.41807
G1 X74.762 Y70.913 E0.45861
G1 X75.29 Y70.897 E0.49658
G1 X78.279 Y71.004 E0.71158
G1 X80.305 Y71.025 E0.85722
G1 X169.614 Y71.025 E7.27706
G1 X172.396 Y70.986 E7.47706
G1 X173.586 Y70.933 E7.56269
G1 X174.715 Y70.897 E7.64389
G1 X175.278 Y70.919 E7.68439
G1 X175.833 Y71.02 E7.72494
G1 X176.367 Y71.199 E7.76542
G1 X176.871 Y71.452 E7.80596
G1 X177.334 Y71.773 E7.84646
G1 X177.593 Y72 E7.87121
G1 X177.882 Y72.277 E7.89999
G1 X178.26 Y72.695 E7.9405
G1 X178.575 Y73.162 E7.98099
G1 X178.821 Y73.669 E8.0215
G1 X178.993 Y74.206 E8.06204
G1 X179.087 Y74.762 E8.10257
G1 X179.103 Y75.29 E8.14054
G1 X178.996 Y78.279 E8.35554
G1 X178.975 Y80.305 E8.50118
G1 X178.975 Y169.613 E14.92095
G1 X179.014 Y172.393 E15.12081
G1 X179.066 Y173.553 E15.20428
G1 X179.103 Y174.715 E15.28785
G1 X179.081 Y175.279 E15.32842
G1 X178.979 Y175.833 E15.36891
G1 X178.801 Y176.367 E15.40937
G1 X178.548 Y176.871 E15.44991
G1 X178.227 Y177.334 E15.49041
G1 X178 Y177.593 E15.51517
G1 X177.723 Y177.882 E15.54394
G1 X177.305 Y178.26 E15.58445
G1 X176.838 Y178.575 E15.62495
G1 X176.331 Y178.821 E15.66546
G1 X175.794 Y178.993 E15.70599
G1 X175.238 Y179.087 E15.74652
G1 X174.71 Y179.103 E15.78449
G1 X171.721 Y178.996 E15.99949
G1 X169.695 Y178.975 E16.14514
G1 X80.387 Y178.975 E22.5649
G1 X77.603 Y179.014 E22.76505
G1 X76.413 Y179.067 E22.85067
G1 X75.285 Y179.103 E22.9318
G1 X74.722 Y179.081 E22.9723
G1 X74.167 Y178.98 E23.01285
G1 X73.633 Y178.801 E23.05334
G1 X73.129 Y178.548 E23.09387
G1 X72.666 Y178.227 E23.13437
G1 X72.407 Y178 E23.15913
G1 X72.118 Y177.723 E23.18791
G1 X71.74 Y177.305 E23.22842
G1 X71.425 Y176.838 E23.26891
G1 X71.179 Y176.331 E23.30942
G1 X71.007 Y175.794 E23.34995
G1 X70.913 Y175.238 E23.39048
G1 X70.897 Y174.71 E23.42846
G1 X71.004 Y171.721 E23.64345
G1 X71.025 Y169.695 E23.7891
G1 X71.025 Y80.387 E30.20887
G1 X70.986 Y77.603 E30.40901
G1 X70.932 Y76.386 E30.49658
G1 X70.897 Y75.284 E30.57583
G0 F3600 X71.547 Y75.264
G1 F1800 X71.57 Y74.749 E30.61289
G1 X71.673 Y74.244 E30.64994
G1 X71.853 Y73.761 E30.68699
G1 X72.105 Y73.311 E30.72407
G1 X72.47 Y72.857 E30.76594
G1 X72.747 Y72.568 E30.79472
G1 X73.131 Y72.225 E30.83173
G1 X73.564 Y71.945 E30.86879
G1 X74.035 Y71.736 E30.90583
G1 X74.532 Y71.601 E30.94285
G1 X75.266 Y71.546 E30.99577
G1 X78.287 Y71.654 E31.21306
G1 X80.298 Y71.675 E31.35763
G1 X169.623 Y71.675 E37.77862
G1 X172.401 Y71.636 E37.97833
G1 X173.607 Y71.583 E38.06511
G1 X174.736 Y71.547 E38.1463
G1 X175.251 Y71.57 E38.18336
G1 X175.756 Y71.673 E38.22041
G1 X176.239 Y71.853 E38.25746
G1 X176.688 Y72.105 E38.29447
G1 X177.143 Y72.47 E38.3364
G1 X177.432 Y72.747 E38.36518
G1 X177.775 Y73.131 E38.40219
G1 X178.055 Y73.564 E38.43926
G1 X178.264 Y74.035 E38.4763
G1 X178.399 Y74.532 E38.51332
G1 X178.454 Y75.266 E38.56623
G1 X178.346 Y78.287 E38.78353
G1 X178.325 Y80.298 E38.92809
G1 X178.325 Y169.622 E45.34901
G1 X178.364 Y172.399 E45.54865
G1 X178.416 Y173.574 E45.6332
G1 X178.453 Y174.736 E45.71677
G1 X178.43 Y175.251 E45.75383
G1 X178.327 Y175.756 E45.79088
G1 X178.147 Y176.239 E45.82793
G1 X177.895 Y176.689 E45.865
G1 X177.53 Y177.143 E45.90688
G1 X177.253 Y177.432 E45.93565
G1 X176.869 Y177.775 E45.97266
G1 X176.436 Y178.055 E46.00973
G1 X175.965 Y178.264 E46.04677
G1 X175.468 Y178.399 E46.08379
G1 X174.734 Y178.454 E46.1367
G1 X171.713 Y178.346 E46.354
G1 X169.702 Y178.325 E46.49857
G1 X80.378 Y178.325 E52.91948
G1 X77.598 Y178.364 E53.11934
G1 X76.392 Y178.417 E53.20612
G1 X75.264 Y178.453 E53.28724
G1 X74.749 Y178.43 E53.3243
G1 X74.244 Y178.327 E53.36135
G1 X73.761 Y178.147 E53.3984
G1 X73.312 Y177.895 E53.43541
G1 X72.857 Y177.53 E53.47734
G1 X72.568 Y177.253 E53.50612
G1 X72.225 Y176.869 E53.54313
G1 X71.945 Y176.436 E53.58019
G1 X71.736 Y175.965 E53.61724
G1 X71.601 Y175.468 E53.65426
G1 X71.546 Y174.734 E53.70717
G1 X71.654 Y171.713 E53.92446
G1 X71.675 Y169.702 E54.06903
G1 X71.675 Y80.378 E60.48995
G1 X71.636 Y77.597 E60.68988
G1 X71.582 Y76.366 E60.77845
G1 X71.547 Y75.264 E60.85771
G1 F300 E60.35771
G1 F600 Z0.56
;MESH:100mm-crown.stl
G0 F3600 X75.2 Y75.717 Z0.56
;TYPE:WALL-OUTER
G1 F600 Z0.28
G1 F120 E60.85771
G1 F2700 X75.2 Y79.661 E61.03217
G1 X75.2 Y83.605 E61.20664
G1 X75.2 Y87.549 E61.38111
G1 X75.2 Y91.493 E61.55557
G1 X75.2 Y95.437 E61.73004
G1 X75.2 Y99.381 E61.90451
G1 X75.2 Y103.325 E62.07897
G1 X75.2 Y107.269 E62.25344
G1 X75.2 Y111.213 E62.42791
G1 X75.2 Y115.157 E62.60237
G1 X75.2 Y119.101 E62.77684
G1 X75.2 Y123.045 E62.95131
G1 F2693.3 X75.2 Y126.989 E63.12621
G1 X75.2 Y130.933 E63.30111
G1 X75.2 Y134.877 E63.47602
G1 X75.2 Y138.821 E63.65092
G1 X75.2 Y142.765 E63.82582
G1 X75.2 Y146.709 E64.00072
G1 X75.2 Y150.653 E64.17563
G1 X75.2 Y154.597 E64.35053
G1 X75.2 Y158.541 E64.52543
G1 X75.2 Y162.485 E64.70034
G1 X75.2 Y166.429 E64.87524
G1 X75.2 Y170.373 E65.05014
G1 X75.201 Y174.317 E65.22504
G1 F2186.2 X75.293 Y174.556 E65.23903
G1 F1791 X75.419 Y174.69 E65.2513
G1 F2117.6 X75.717 Y174.8 E65.26922
G1 F2700 X79.661 Y174.8 E65.44368
G1 X83.605 Y174.8 E65.61815
G1 X87.549 Y174.8 E65.79262
G1 X91.493 Y174.8 E65.96708
G1 X95.437 Y174.8 E66.14155
G1 X99.381 Y174.8 E66.31602
G1 X103.325 Y174.8 E66.49048
G1 X107.269 Y174.8 E66.66495
G1 X111.213 Y174.8 E66.83942
G1 X115.157 Y174.8 E67.01388
G1 X119.101 Y174.8 E67.18835
G1 X123.045 Y174.8 E67.36282
G1 F2693.3 X126.989 Y174.8 E67.53772
G1 X130.933 Y174.8 E67.71262
G1 X134.877 Y174.8 E67.88753
G1 X138.821 Y174.8 E68.06243
G1 X142.765 Y174.8 E68.23733
G1 X146.709 Y174.8 E68.41223
G1 X150.653 Y174.8 E68.58714
G1 X154.597 Y174.8 E68.76204
G1 X158.541 Y174.8 E68.93694
G1 X162.485 Y174.8 E69.11185
G1 X166.429 Y174.8 E69.28675
G1 X170.373 Y174.8 E69.46165
G1 X174.317 Y174.799 E69.63655
G1 F2186.2 X174.556 Y174.707 E69.65055
G1 F1661.5 X174.643 Y174.643 E69.65831
G1 F1698.1 X174.721 Y174.48 E69.67102
G1 F2250 X174.799 Y174.317 E69.68061
G1 F2693.3 X174.799 Y170.373 E69.85551
G1 X174.799 Y166.429 E70.03042
G1 X174.799 Y162.485 E70.20532
G1 X174.799 Y158.541 E70.38022
G1 X174.799 Y154.597 E70.55513
G1 X174.799 Y150.653 E70.73003
G1 X174.799 Y146.709 E70.90493
G1 X174.799 Y142.765 E71.07983
G1 X174.799 Y138.821 E71.25474
G1 X174.799 Y134.877 E71.42964
G1 X174.799 Y130.933 E71.60454
G1 X174.799 Y126.989 E71.77945
G1 X174.799 Y123.045 E71.95435
G1 F2700 X174.799 Y119.101 E72.12881
G1 X174.799 Y115.157 E72.30328
G1 X174.799 Y111.213 E72.47775
G1 X174.799 Y107.269 E72.65221
G1 X174.799 Y103.325 E72.82668
G1 X174.799 Y99.381 E73.00115
G1 X174.799 Y95.437 E73.17561
G1 X174.799 Y91.493 E73.35008
G1 X174.799 Y87.549 E73.52455
G1 X174.799 Y83.605 E73.69902
G1 X174.799 Y79.661 E73.87348
G1 X174.8 Y75.717 E74.04795
G1 F2190.7 X174.707 Y75.444 E74.06367
G1 F1661.5 X174.643 Y75.357 E74.07144
G1 F1935.5 X174.846 Y75.153 E74.0892
G1 X174.643 Y75.357 E74.10696
G1 F1700.8 X174.463 Y75.279 E74.12073
G1 F2259.4 X174.283 Y75.2 E74.13112
G1 F2700 X170.339 Y75.2 E74.30559
G1 X166.395 Y75.2 E74.48006
G1 X162.451 Y75.2 E74.65452
G1 X158.507 Y75.2 E74.82899
G1 X154.563 Y75.2 E75.00346
G1 X150.619 Y75.2 E75.17792
G1 X146.675 Y75.2 E75.35239
G1 X142.731 Y75.2 E75.52686
G1 X138.787 Y75.2 E75.70132
G1 X134.843 Y75.2 E75.87579
G1 X130.899 Y75.2 E76.05026
G1 X126.955 Y75.2 E76.22472
G1 F2693.3 X123.011 Y75.2 E76.39963
G1 X119.067 Y75.2 E76.57453
G1 X115.123 Y75.2 E76.74943
G1 X111.179 Y75.2 E76.92433
G1 X107.235 Y75.2 E77.09924
G1 X103.291 Y75.2 E77.27414
G1 X99.347 Y75.2 E77.44904
G1 X95.403 Y75.2 E77.62395
G1 X91.459 Y75.2 E77.79885
G1 X87.515 Y75.2 E77.97375
G1 X83.571 Y75.2 E78.14865
G1 X79.627 Y75.2 E78.32356
G1 X75.683 Y75.201 E78.49846
G1 F2186.2 X75.444 Y75.293 E78.51245
G1 F1661.5 X75.357 Y75.357 E78.52022
G1 F1939 X75.153 Y75.153 E78.53799
G1 X75.357 Y75.357 E78.55576
G1 F1700.8 X75.279 Y75.537 E78.56953
G1 F2259.4 X75.2 Y75.717 E78.57992
G0 F3600 X75.357 Y75.357
G1 F1935.5 X75.565 Y75.565 E78.59808
G1 F2686.6 X104.053 Y104.055 E80.38924
G1 F2673.3 X104.078 Y104.078 E80.39075
G1 F2405.3 X104.274 Y104.145 E80.40104
G1 F2437.9 X104.372 Y104.009 E80.40925
G1 F2713.6 X104.648 Y103.194 E80.44712
G1 F2706.8 X104.699 Y103.033 E80.45458
G1 F2700 X104.941 Y102.209 E80.49257
G1 F2693.3 X104.962 Y102.131 E80.49615
G1 F2713.6 X105.185 Y101.206 E80.53803
G1 F2700 X105.355 Y100.266 E80.58028
G1 F2686.6 X105.36 Y100.228 E80.58199
G1 F2720.4 X105.406 Y99.969 E80.59354
G1 F2776.3 X105.517 Y99.743 E80.60437
G1 F2755.1 X105.653 Y99.571 E80.61388
G1 F2660.1 X105.867 Y99.375 E80.6269
G1 F2640.6 X106.08 Y99.229 E80.63858
G1 F2666.7 X106.272 Y99.119 E80.6485
G1 F2653.6 X106.511 Y99.01 E80.66032
G1 F2640.6 X106.875 Y98.866 E80.67802
G1 F2634.1 X107.481 Y98.671 E80.70689
G1 X108.274 Y98.464 E80.74405
G1 F2653.6 X108.735 Y98.368 E80.76525
G1 F2686.6 X109.197 Y98.272 E80.78622
G1 F2700 X110.202 Y98.096 E80.83136
G1 X111.327 Y97.934 E80.88164
G1 F2693.3 X112.547 Y97.788 E80.93612
G1 X113.872 Y97.655 E80.99518
G1 X115.505 Y97.525 E81.06783
G1 F2706.8 X116.729 Y97.445 E81.12195
G1 F2713.6 X116.986 Y97.43 E81.13328
G1 X118.264 Y97.364 E81.18961
G1 F2720.4 X119.058 Y97.332 E81.2245
G1 F2700 X119.853 Y97.299 E81.25969
G1 F2693.3 X121.513 Y97.253 E81.33334
G1 F2700 X123.216 Y97.225 E81.40868
G1 X124.962 Y97.216 E81.48592
G1 X126.705 Y97.225 E81.56302
G1 X128.407 Y97.253 E81.63832
G1 F2706.8 X130.061 Y97.3 E81.71134
G1 F2713.6 X130.35 Y97.31 E81.72406
G1 X131.94 Y97.377 E81.79411
G1 X133.193 Y97.444 E81.84934
G1 X134.658 Y97.541 E81.91396
G1 X136.048 Y97.655 E81.97535
G1 F2706.8 X137.357 Y97.785 E82.03339
G1 X138.576 Y97.932 E82.08757
G1 F2700 X139.679 Y98.09 E82.13686
G1 F2693.3 X140.721 Y98.27 E82.18375
G1 F2686.6 X141.635 Y98.463 E82.22528
G1 F2679.9 X142.431 Y98.668 E82.26192
G1 F2713.6 X142.781 Y98.779 E82.27808
G1 F2720.4 X143.112 Y98.89 E82.29341
G1 F2700 X143.411 Y99.01 E82.30766
G1 X143.698 Y99.147 E82.32173
G1 F2713.6 X143.929 Y99.28 E82.33346
G1 X144.073 Y99.377 E82.3411
G1 F2727.3 X144.264 Y99.567 E82.3529
G1 F2686.6 X144.408 Y99.765 E82.36378
G1 F2653.6 X144.531 Y100.035 E82.37714
G1 F2713.6 X144.569 Y100.28 E82.38805
G1 F2720.4 X144.744 Y101.228 E82.43037
G1 F2700 X144.988 Y102.234 E82.47617
G1 X145.24 Y103.093 E82.51577
G1 F2693.3 X145.283 Y103.224 E82.52188
G1 F2706.8 X145.559 Y104.037 E82.55977
G1 F2720.4 X145.572 Y104.068 E82.56124
G1 F2443.4 X145.666 Y104.201 E82.5692
G1 F2236 X145.732 Y104.212 E82.57278
G1 F2454.5 X145.888 Y104.113 E82.58177
G1 F2700 X148.483 Y101.518 E82.74411
G1 X151.078 Y98.923 E82.90645
G1 X153.673 Y96.328 E83.06879
G1 X156.268 Y93.733 E83.23113
G1 X158.863 Y91.138 E83.39347
G1 F2693.3 X161.458 Y88.543 E83.55622
G1 X164.053 Y85.947 E83.719
G1 X166.648 Y83.352 E83.88174
G1 X169.243 Y80.757 E84.04449
G1 X171.838 Y78.162 E84.20724
G1 X174.433 Y75.567 E84.36998
G1 F1935.5 X174.643 Y75.357 E84.38831
G1 F300 E83.88831
G1 F600 Z0.56
G0 F3600 X143.867 Y106.191 Z0.56
G1 F600 Z0.28
G1 F120 E84.38831
G1 F2358.1 X144.019 Y106.328 E84.39867
G1 F2660.1 X144.334 Y106.512 E84.41505
G1 F2621.4 X144.595 Y106.616 E84.42786
G1 F2700 X144.757 Y106.646 E84.43514
G1 F2776.3 X144.932 Y106.63 E84.4427
G1 F2734.2 X145.062 Y106.514 E84.45031
G1 F2693.3 X145.124 Y106.308 E84.45985
G1 F2700 X145.057 Y105.963 E84.4754
G1 X144.93 Y105.746 E84.48652
G1 F2706.8 X144.752 Y105.545 E84.49837
G1 F2307.7 X144.617 Y105.409 E84.50829
G1 F2288.1 X144.46 Y105.534 E84.51876
G1 F2686.6 X144.426 Y105.573 E84.52106
G1 X143.958 Y106.041 E84.55049
G1 F2337.7 X143.867 Y106.191 E84.55945
G1 F300 E84.05945
G1 F600 Z0.56
G0 F3600 X142.169 Y107.966 Z0.56
G1 F600 Z0.28
G1 F120 E84.55945
G1 F2173 X142.273 Y107.726 E84.57383
G1 F2660.1 X142.807 Y107.193 E84.6077
G1 F2327.6 X142.902 Y107.055 E84.6163
G1 F2342.7 X142.785 Y106.938 E84.62474
G1 F2720.4 X142.667 Y106.817 E84.63216
G1 F2734.2 X142.558 Y106.685 E84.63964
G1 F2700 X142.46 Y106.531 E84.64771
G1 F2693.3 X142.365 Y106.312 E84.6583
G1 F2494.2 X142.352 Y106.101 E84.66842
G1 F2505.8 X142.517 Y106.036 E84.67687
G1 F2693.3 X142.663 Y106.025 E84.68336
G1 F2666.7 X142.993 Y106.023 E84.69815
G1 F2686.6 X143.032 Y106.024 E84.69988
G1 F2679.9 X143.395 Y106.073 E84.7162
G1 F2358.1 X143.65 Y106.191 E84.73044
G1 F2151.4 X143.661 Y106.274 E84.73508
G1 F2405.3 X143.582 Y106.418 E84.74324
G1 F2660.1 X143.134 Y106.866 E84.77169
G1 F2283.3 X143.036 Y107.041 E84.78218
G1 F2250 X143.222 Y107.178 E84.79444
G1 F2634.1 X143.454 Y107.245 E84.80539
G1 F2700 X143.519 Y107.254 E84.80829
G1 F2673.3 X143.923 Y107.254 E84.82634
G1 F2653.6 X144.293 Y107.227 E84.84304
G1 F2679.9 X144.468 Y107.234 E84.85085
G1 F2748.1 X144.672 Y107.334 E84.86072
G1 F2762.1 X144.756 Y107.5 E84.86877
G1 F2686.6 X144.749 Y107.768 E84.88068
G1 F2734.2 X144.716 Y107.951 E84.88881
G1 F2776.3 X144.607 Y108.141 E84.89823
G1 F2693.3 X144.35 Y108.306 E84.91177
G1 F2615 X144.164 Y108.338 E84.92039
G1 F2634.1 X143.94 Y108.337 E84.93055
G1 F2660.1 X143.754 Y108.321 E84.93893
G1 F2673.3 X143.583 Y108.293 E84.94668
G1 F2713.6 X143.565 Y108.292 E84.94747
G1 F2700 X142.828 Y108.133 E84.98082
G1 F2693.3 X142.412 Y108.064 E84.99952
G1 F2421.5 X142.247 Y108.009 E85.0081
G1 F2007.4 X142.162 Y107.969 E85.01369
G1 F2121.8 X141.913 Y108.109 E85.02977
G1 F2421.5 X141.748 Y108.232 E85.03992
G1 F2273.7 X141.582 Y108.355 E85.05077
G1 F2164.3 X141.396 Y108.527 E85.06475
G1 F2186.2 X141.233 Y108.71 E85.07814
G1 F2427 X141.088 Y108.906 E85.09014
G1 F2577.6 X141.04 Y108.978 E85.09415
G1 F2268.9 X140.943 Y109.144 E85.10427
G1 F1888.1 X140.845 Y109.31 E85.11646
G1 F1711.6 X140.825 Y109.345 E85.11928
G0 F3600 X140.527 Y110.738
G1 F2045.5 X140.465 Y110.772 E85.12341
G1 F2358.1 X140.292 Y110.869 E85.13345
G1 F2647.1 X140.144 Y110.963 E85.14136
G1 F2700 X139.996 Y111.058 E85.14914
G1 F2755.1 X139.847 Y111.153 E85.1568
G1 F2812.5 X139.699 Y111.248 E85.16427
G1 F2872.3 X139.55 Y111.342 E85.1716
G1 F2934.8 X139.402 Y111.437 E85.17875
G1 F3000 X139.254 Y111.532 E85.18576
G1 F3068.2 X139.105 Y111.627 E85.19263
G1 F3139.5 X138.957 Y111.722 E85.19932
G0 F3600 X138.277 Y111.723
G1 F2679.9 X138.253 Y111.748 E85.20087
G1 F2673.3 X138.034 Y111.962 E85.21455
G1 F2454.5 X137.836 Y112.113 E85.22667
G1 F2049.3 X137.648 Y112.224 E85.23939
G1 F1901.4 X137.607 Y112.497 E85.25673
G1 F2053.2 X137.555 Y112.514 E85.25991
G1 F2410.7 X137.381 Y112.62 E85.27001
G1 F2700 X136.858 Y113.142 E85.3027
G1 F2673.3 X136.335 Y113.665 E85.33574
G1 F2240.7 X136.237 Y113.874 E85.34805
G1 F2160 X136.387 Y113.972 E85.35795
G1 F2494.2 X136.575 Y113.996 E85.36703
G1 F2634.1 X136.834 Y113.98 E85.37879
G1 F2727.3 X137.045 Y113.914 E85.38848
G1 F2734.2 X137.244 Y113.809 E85.39831
G1 F2741.1 X137.416 Y113.67 E85.40794
G1 X137.559 Y113.499 E85.41765
G1 F2755.1 X137.668 Y113.303 E85.42738
G1 X137.73 Y113.091 E85.43695
G1 F2734.2 X137.751 Y112.854 E85.44734
G1 F2615 X137.718 Y112.671 E85.45584
G1 F2195.1 X137.607 Y112.497 E85.46707
G1 F300 E84.96707
G1 F600 Z0.56
G0 F3600 X146.923 Y114.136 Z0.56
G1 F600 Z0.28
G1 F120 E85.46707
G1 F2596.2 X147.085 Y114.009 E85.47654
G1 X147.258 Y113.918 E85.48553
G1 F2155.7 X147.511 Y113.746 E85.50248
G1 F1794 X147.565 Y113.717 E85.50656
G1 F1960.1 X147.334 Y113.596 E85.52245
G1 F2400 X147.132 Y113.509 E85.5334
G1 F2596.2 X146.981 Y113.458 E85.54073
G1 X146.939 Y113.93 E85.56253
G1 X146.923 Y114.136 E85.57204
G0 F3600 X147.081 Y114.013
G0 X147.565 Y113.717
G1 F1806 X147.856 Y113.713 E85.59128
G1 F1855.7 X147.946 Y113.722 E85.5971
G1 F300 E85.0971
G1 F600 Z0.56
G0 F3600 X146.46 Y117.69 Z0.56
G1 F600 Z0.28
