;FLAVOR:Marlin
;TIME:196
;Filament used: 0.244506m
;Layer height: 0.24
;MINX:71.196
;MINY:71.196
;MINZ:0.32
;MAXX:178.804
;MAXY:178.804
;MAXZ:1.32
;Generated with Cura_SteamEngine 5.0.0
M140 S60
M105
M190 S60
M104 S220
M105
M109 S220
M82 ;absolute extrusion mode
START_PRINT
G92 E0
G92 E0
G1 F300 E-0.5
;LAYER_COUNT:4
;LAYER:0
M107
G1 F600 Z0.6
G0 F7200 X72.494 Y72.326 Z0.6
G1 F600 Z0.6
G0 F7200 X71.197 Y75.275
;TYPE:SKIRT
G1 F600 Z0.32
G1 F120 E0
G1 F1800 X71.22 Y74.733 E0.03248
G1 X71.322 Y74.201 E0.06491
G1 X71.501 Y73.69 E0.09732
G1 X71.754 Y73.21 E0.12981
G1 X72.217 Y72.615 E0.17494
G1 X72.494 Y72.326 E0.19891
G1 X72.897 Y71.964 E0.23134
G1 X73.348 Y71.664 E0.26377
G1 X73.839 Y71.435 E0.2962
G1 X74.358 Y71.28 E0.32863
G1 X74.895 Y71.203 E0.36111
G1 X75.279 Y71.196 E0.3841
G1 X78.304 Y71.305 E0.56532
G1 X80.302 Y71.325 E0.68495
G1 X169.618 Y71.325 E6.03214
G1 X172.413 Y71.285 E6.19949
G1 X173.596 Y71.233 E6.27038
G1 X174.725 Y71.197 E6.338
G1 X175.266 Y71.22 E6.37042
G1 X175.798 Y71.322 E6.40285
G1 X176.31 Y71.501 E6.43532
G1 X176.789 Y71.753 E6.46773
G1 X177.385 Y72.217 E6.51295
G1 X177.674 Y72.494 E6.53691
G1 X178.036 Y72.897 E6.56934
G1 X178.336 Y73.348 E6.60177
G1 X178.565 Y73.839 E6.63421
G1 X178.72 Y74.358 E6.66664
G1 X178.797 Y74.895 E6.69911
G1 X178.804 Y75.279 E6.72211
G1 X178.695 Y78.304 E6.90333
G1 X178.675 Y80.302 E7.02295
G1 X178.675 Y169.617 E12.37008
G1 X178.715 Y172.412 E12.53743
G1 X178.766 Y173.563 E12.60641
G1 X178.803 Y174.725 E12.67601
G1 X178.78 Y175.266 E12.70843
G1 X178.678 Y175.799 E12.74091
G1 X178.499 Y176.31 E12.77333
G1 X178.247 Y176.789 E12.80573
G1 X177.783 Y177.385 E12.85095
G1 X177.506 Y177.674 E12.87492
G1 X177.103 Y178.036 E12.90735
G1 X176.652 Y178.336 E12.93978
G1 X176.161 Y178.565 E12.97221
G1 X175.642 Y178.72 E13.00464
G1 X175.105 Y178.797 E13.03712
G1 X174.721 Y178.804 E13.06011
G1 X171.696 Y178.695 E13.24133
G1 X169.698 Y178.675 E13.36096
G1 X80.383 Y178.675 E18.70809
G1 X77.586 Y178.715 E18.87556
G1 X76.403 Y178.767 E18.94645
G1 X75.275 Y178.803 E19.01401
G1 X74.734 Y178.78 E19.04643
G1 X74.202 Y178.678 E19.07886
G1 X73.69 Y178.499 E19.11133
G1 X73.211 Y178.247 E19.14374
G1 X72.615 Y177.783 E19.18896
G1 X72.326 Y177.506 E19.21292
G1 X71.964 Y177.103 E19.24535
G1 X71.664 Y176.652 E19.27778
G1 X71.435 Y176.161 E19.31022
G1 X71.28 Y175.642 E19.34265
G1 X71.203 Y175.105 E19.37512
G1 X71.196 Y174.721 E19.39812
G1 X71.305 Y171.696 E19.57934
G1 X71.325 Y169.698 E19.69896
G1 X71.325 Y80.383 E25.04609
G1 X71.285 Y77.584 E25.21368
G1 X71.232 Y76.377 E25.28601
G1 X71.197 Y75.275 E25.35202
G0 F7200 X71.647 Y75.26
G1 F1800 X71.67 Y74.753 E25.3824
G1 X71.774 Y74.256 E25.4128
G1 X71.953 Y73.782 E25.44314
G1 X72.205 Y73.341 E25.47354
G1 X72.542 Y72.926 E25.50555
G1 X72.819 Y72.637 E25.52951
G1 X73.198 Y72.3 E25.55988
G1 X73.625 Y72.026 E25.59025
G1 X74.09 Y71.822 E25.62065
G1 X74.581 Y71.694 E25.65103
G1 X75.263 Y71.646 E25.69196
G1 X78.283 Y71.754 E25.87288
G1 X80.297 Y71.775 E25.99346
G1 X169.624 Y71.775 E31.34131
G1 X172.407 Y71.736 E31.50794
G1 X173.61 Y71.683 E31.58003
G1 X174.739 Y71.647 E31.64766
G1 X175.246 Y71.67 E31.67804
G1 X175.743 Y71.773 E31.70843
G1 X176.218 Y71.953 E31.73884
G1 X176.658 Y72.205 E31.7692
G1 X177.074 Y72.542 E31.80125
G1 X177.363 Y72.819 E31.82521
G1 X177.7 Y73.198 E31.85558
G1 X177.974 Y73.625 E31.88595
G1 X178.178 Y74.09 E31.91635
G1 X178.306 Y74.581 E31.94673
G1 X178.354 Y75.263 E31.98766
G1 X178.246 Y78.283 E32.16858
G1 X178.225 Y80.297 E32.28916
G1 X178.225 Y169.623 E37.63695
G1 X178.264 Y172.406 E37.80358
G1 X178.316 Y173.577 E37.87375
G1 X178.353 Y174.739 E37.94335
G1 X178.33 Y175.246 E37.97374
G1 X178.226 Y175.743 E38.00414
G1 X178.047 Y176.218 E38.03453
G1 X177.795 Y176.659 E38.06494
G1 X177.458 Y177.074 E38.09694
G1 X177.181 Y177.363 E38.12091
G1 X176.802 Y177.7 E38.15127
G1 X176.375 Y177.974 E38.18164
G1 X175.91 Y178.178 E38.21204
G1 X175.419 Y178.306 E38.24242
G1 X174.737 Y178.354 E38.28335
G1 X171.717 Y178.246 E38.46427
G1 X169.703 Y178.225 E38.58485
G1 X80.377 Y178.225 E43.93264
G1 X77.592 Y178.264 E44.09939
G1 X76.389 Y178.317 E44.17148
G1 X75.261 Y178.353 E44.23905
G1 X74.754 Y178.33 E44.26943
G1 X74.257 Y178.227 E44.29982
G1 X73.782 Y178.047 E44.33023
G1 X73.342 Y177.795 E44.36059
G1 X72.926 Y177.458 E44.39264
G1 X72.637 Y177.181 E44.41661
G1 X72.3 Y176.802 E44.44697
G1 X72.026 Y176.375 E44.47734
G1 X71.822 Y175.91 E44.50774
G1 X71.694 Y175.419 E44.53812
G1 X71.646 Y174.737 E44.57905
G1 X71.754 Y171.717 E44.75997
G1 X71.775 Y169.703 E44.88055
G1 X71.775 Y80.377 E50.22834
G1 X71.736 Y77.592 E50.39509
G1 X71.682 Y76.362 E50.4688
G1 X71.647 Y75.26 E50.53481
G1 F300 E50.03481
G1 F600 Z0.6
;MESH:100mm-crown.stl
G0 F7200 X75.2 Y75.717 Z0.6
;TYPE:WALL-OUTER
G1 F600 Z0.32
G1 F120 E50.53481
G1 F1800 X75.2 Y79.661 E50.74469
G1 X75.2 Y83.605 E50.95458
G1 X75.2 Y87.549 E51.16446
G1 X75.2 Y91.493 E51.37435
G1 X75.2 Y95.437 E51.58423
G1 X75.2 Y99.381 E51.79412
G1 X75.2 Y103.325 E52.004
G1 X75.2 Y107.269 E52.21389
G1 X75.2 Y111.213 E52.42377
G1 X75.2 Y115.157 E52.63365
G1 X75.2 Y119.101 E52.84354
G1 X75.2 Y123.045 E53.05342
G1 F1795.5 X75.2 Y126.989 E53.26383
G1 X75.2 Y130.933 E53.47424
G1 X75.2 Y134.877 E53.68465
G1 X75.2 Y138.821 E53.89506
G1 X75.2 Y142.765 E54.10547
G1 X75.2 Y146.709 E54.31588
G1 X75.2 Y150.653 E54.52629
G1 X75.2 Y154.597 E54.7367
G1 X75.2 Y158.541 E54.94711
G1 X75.2 Y162.485 E55.15752
G1 X75.2 Y166.429 E55.36793
G1 X75.2 Y170.373 E55.57834
G1 X75.201 Y174.317 E55.78875
G1 F1457.5 X75.293 Y174.556 E55.80558
G1 F1194 X75.419 Y174.69 E55.82033
G1 F1411.8 X75.717 Y174.8 E55.84189
G1 F1800 X79.661 Y174.8 E56.05177
G1 X83.605 Y174.8 E56.26166
G1 X87.549 Y174.8 E56.47154
G1 X91.493 Y174.8 E56.68143
G1 X95.437 Y174.8 E56.89131
G1 X99.381 Y174.8 E57.1012
G1 X103.325 Y174.8 E57.31108
G1 X107.269 Y174.8 E57.52097
G1 X111.213 Y174.8 E57.73085
G1 X115.157 Y174.8 E57.94074
G1 X119.101 Y174.8 E58.15062
G1 X123.045 Y174.8 E58.3605
G1 F1795.5 X126.989 Y174.8 E58.57091
G1 X130.933 Y174.8 E58.78132
G1 X134.877 Y174.8 E58.99173
G1 X138.821 Y174.8 E59.20214
G1 X142.765 Y174.8 E59.41255
G1 X146.709 Y174.8 E59.62296
G1 X150.653 Y174.8 E59.83337
G1 X154.597 Y174.8 E60.04378
G1 X158.541 Y174.8 E60.25419
G1 X162.485 Y174.8 E60.4646
G1 X166.429 Y174.8 E60.67501
G1 X170.373 Y174.8 E60.88542
G1 X174.317 Y174.799 E61.09583
G1 F1457.5 X174.556 Y174.707 E61.11266
G1 F1107.7 X174.643 Y174.643 E61.122
G1 F1132.1 X174.721 Y174.48 E61.13729
G1 F1500 X174.799 Y174.317 E61.14883
G1 F1795.5 X174.799 Y170.373 E61.35924
G1 X174.799 Y166.429 E61.56965
G1 X174.799 Y162.485 E61.78006
G1 X174.799 Y158.541 E61.99047
G1 X174.799 Y154.597 E62.20088
G1 X174.799 Y150.653 E62.41128
G1 X174.799 Y146.709 E62.62169
G1 X174.799 Y142.765 E62.8321
G1 X174.799 Y138.821 E63.04251
G1 X174.799 Y134.877 E63.25292
G1 X174.799 Y130.933 E63.46333
G1 X174.799 Y126.989 E63.67374
G1 X174.799 Y123.045 E63.88415
G1 F1800 X174.799 Y119.101 E64.09404
G1 X174.799 Y115.157 E64.30392
G1 X174.799 Y111.213 E64.51381
G1 X174.799 Y107.269 E64.72369
G1 X174.799 Y103.325 E64.93357
G1 X174.799 Y99.381 E65.14346
G1 X174.799 Y95.437 E65.35334
G1 X174.799 Y91.493 E65.56323
G1 X174.799 Y87.549 E65.77311
G1 X174.799 Y83.605 E65.983
G1 X174.799 Y79.661 E66.19288
G1 X174.8 Y75.717 E66.40277
G1 F1460.4 X174.707 Y75.444 E66.42168
G1 F1107.7 X174.643 Y75.357 E66.43102
G1 F1290.3 X174.846 Y75.153 E66.45239
G1 X174.643 Y75.357 E66.47375
G1 F1133.9 X174.463 Y75.279 E66.49033
G1 F1506.3 X174.283 Y75.2 E66.50283
G1 F1800 X170.339 Y75.2 E66.71271
G1 X166.395 Y75.2 E66.9226
G1 X162.451 Y75.2 E67.13248
G1 X158.507 Y75.2 E67.34237
G1 X154.563 Y75.2 E67.55225
G1 X150.619 Y75.2 E67.76214
G1 X146.675 Y75.2 E67.97202
G1 X142.731 Y75.2 E68.18191
G1 X138.787 Y75.2 E68.39179
G1 X134.843 Y75.2 E68.60168
G1 X130.899 Y75.2 E68.81156
G1 X126.955 Y75.2 E69.02144
G1 F1795.5 X123.011 Y75.2 E69.23185
G1 X119.067 Y75.2 E69.44226
G1 X115.123 Y75.2 E69.65267
G1 X111.179 Y75.2 E69.86308
G1 X107.235 Y75.2 E70.07349
G1 X103.291 Y75.2 E70.2839
G1 X99.347 Y75.2 E70.49431
G1 X95.403 Y75.2 E70.70472
G1 X91.459 Y75.2 E70.91513
G1 X87.515 Y75.2 E71.12554
G1 X83.571 Y75.2 E71.33595
G1 X79.627 Y75.2 E71.54636
G1 X75.683 Y75.201 E71.75677
G1 F1457.5 X75.444 Y75.293 E71.7736
G1 F1107.7 X75.357 Y75.357 E71.78294
G1 F1292.6 X75.153 Y75.153 E71.80432
G1 X75.357 Y75.357 E71.8257
G1 F1133.9 X75.279 Y75.537 E71.84227
G1 F1506.3 X75.2 Y75.717 E71.85477
G0 F7200 X75.357 Y75.357
G1 F1290.3 X75.565 Y75.565 E71.87661
G1 F1791 X104.053 Y104.055 E74.03138
G1 F1782.2 X104.078 Y104.078 E74.03321
G1 F1603.6 X104.274 Y104.145 E74.04558
G1 F1625.3 X104.372 Y104.009 E74.05546
G1 F1809 X104.648 Y103.194 E74.10102
G1 F1804.5 X104.699 Y103.033 E74.10999
G1 F1800 X104.941 Y102.209 E74.15569
G1 F1795.5 X104.962 Y102.131 E74.16
G1 F1804.5 X105.182 Y101.213 E74.21011
G1 X105.356 Y100.272 E74.26091
G1 F1786.6 X105.404 Y99.991 E74.27619
G1 F1809 X105.517 Y99.744 E74.29058
G1 F1832.1 X105.654 Y99.57 E74.30215
G1 F1809 X105.873 Y99.361 E74.31818
G1 F1804.5 X106.084 Y99.224 E74.33154
G1 F1795.5 X106.307 Y99.103 E74.34507
G1 F1777.8 X106.513 Y99.009 E74.35727
G1 F1760.4 X106.883 Y98.864 E74.3789
G1 F1756.1 X107.481 Y98.671 E74.41317
G1 X108.274 Y98.464 E74.45788
G1 F1769 X108.735 Y98.368 E74.48338
G1 F1791 X109.197 Y98.272 E74.50861
G1 F1800 X110.202 Y98.096 E74.56291
G1 X111.327 Y97.934 E74.62339
G1 F1795.5 X112.547 Y97.788 E74.68895
G1 F1791 X113.855 Y97.657 E74.75925
G1 F1800 X114.558 Y97.6 E74.79678
G1 F1813.6 X115.262 Y97.543 E74.83409
G1 F1818.2 X116.729 Y97.445 E74.91155
G1 X118.264 Y97.364 E74.99253
G1 F1813.6 X119.058 Y97.332 E75.0345
G1 F1800 X119.853 Y97.299 E75.07685
G1 F1795.5 X121.513 Y97.253 E75.16544
G1 F1800 X123.216 Y97.225 E75.25608
G1 X124.962 Y97.216 E75.349
G1 X126.705 Y97.225 E75.44175
G1 X128.407 Y97.253 E75.53234
G1 F1804.5 X130.39 Y97.312 E75.63765
G1 F1813.6 X131.658 Y97.364 E75.70468
G1 X131.979 Y97.379 E75.72165
G1 X133.193 Y97.445 E75.78586
G1 X134.658 Y97.541 E75.86341
G1 F1809 X136.048 Y97.655 E75.93726
G1 F1804.5 X137.357 Y97.785 E76.00708
G1 X138.576 Y97.932 E76.07226
G1 F1800 X139.679 Y98.09 E76.13156
G1 F1795.5 X140.721 Y98.27 E76.18797
G1 F1791 X141.635 Y98.463 E76.23793
G1 F1786.6 X142.431 Y98.668 E76.282
G1 F1809 X142.781 Y98.779 E76.30144
G1 F1813.6 X143.112 Y98.89 E76.31988
G1 F1804.5 X143.411 Y99.01 E76.33699
G1 F1800 X143.703 Y99.15 E76.35422
G1 X143.936 Y99.285 E76.36855
G1 F1804.5 X144.08 Y99.384 E76.37782
G1 F1809 X144.287 Y99.596 E76.39351
G1 F1777.8 X144.411 Y99.768 E76.40494
G1 F1760.4 X144.521 Y99.981 E76.41798
G1 F1800 X144.567 Y100.269 E76.4335
G1 F1809 X144.744 Y101.228 E76.48514
G1 F1800 X144.988 Y102.234 E76.54023
G1 X145.24 Y103.093 E76.58787
G1 F1795.5 X145.283 Y103.224 E76.59522
G1 F1804.5 X145.559 Y104.037 E76.6408
G1 F1813.6 X145.572 Y104.068 E76.64257
G1 F1629 X145.666 Y104.201 E76.65215
G1 F1490.7 X145.732 Y104.212 E76.65645
G1 F1636.4 X145.888 Y104.113 E76.66727
G1 F1800 X148.483 Y101.518 E76.86256
G1 X151.078 Y98.923 E77.05786
G1 X153.673 Y96.328 E77.25316
G1 X156.268 Y93.733 E77.44846
G1 X158.863 Y91.138 E77.64375
G1 F1795.5 X161.458 Y88.543 E77.83954
G1 X164.053 Y85.947 E78.03536
G1 X166.648 Y83.352 E78.23115
G1 X169.243 Y80.757 E78.42693
G1 X171.838 Y78.162 E78.62272
G1 X174.433 Y75.567 E78.8185
G1 F1290.3 X174.643 Y75.357 E78.84055
G1 F300 E78.34055
G1 F600 Z0.6
G0 F7200 X142.169 Y107.966 Z0.6
G1 F600 Z0.32
G1 F120 E78.84055
G1 F1448.7 X142.273 Y107.726 E78.85785
G1 F1773.4 X142.807 Y107.193 E78.8986
G1 F1551.7 X142.902 Y107.055 E78.90894
G1 F1561.8 X142.785 Y106.938 E78.91909
G1 F1813.6 X142.67 Y106.82 E78.92779
G1 F1822.8 X142.562 Y106.69 E78.93667
G1 F1800 X142.461 Y106.531 E78.9467
G1 F1795.5 X142.365 Y106.312 E78.95946
G1 F1662.8 X142.352 Y106.101 E78.97163
G1 F1670.5 X142.517 Y106.036 E78.9818
G1 F1795.5 X142.663 Y106.025 E78.98961
G1 F1777.8 X142.993 Y106.023 E79.00739
G1 F1791 X143.032 Y106.024 E79.00948
G1 F1786.6 X143.395 Y106.073 E79.02912
G1 F1572.1 X143.65 Y106.191 E79.04624
G1 F1434.3 X143.661 Y106.274 E79.05183
G1 F1603.6 X143.582 Y106.418 E79.06164
G1 F1773.4 X143.134 Y106.866 E79.09587
G1 F1522.2 X143.036 Y107.041 E79.10849
G1 F1500 X143.222 Y107.178 E79.12324
G1 F1756.1 X143.454 Y107.245 E79.13641
G1 F1800 X143.519 Y107.254 E79.1399
G1 F1782.2 X143.924 Y107.254 E79.16167
G1 F1769 X144.286 Y107.228 E79.18132
G1 F1786.6 X144.468 Y107.234 E79.19109
G1 F1832.1 X144.673 Y107.335 E79.20303
G1 F1841.4 X144.757 Y107.501 E79.21271
G1 F1791 X144.749 Y107.768 E79.227
G1 F1822.8 X144.716 Y107.951 E79.23677
G1 F1850.9 X144.607 Y108.141 E79.24811
G1 F1786.6 X144.336 Y108.31 E79.26523
G1 F1739.1 X144.164 Y108.339 E79.27484
G1 F1756.1 X143.972 Y108.338 E79.28531
G1 F1769 X143.754 Y108.322 E79.29715
G1 F1773.4 X143.565 Y108.292 E79.30748
G1 F1804.5 X142.828 Y108.134 E79.34749
G1 F1800 X142.412 Y108.064 E79.36994
G1 F1614.3 X142.247 Y108.009 E79.38026
G1 F1338.3 X142.162 Y107.969 E79.38699
G1 F1414.5 X141.913 Y108.109 E79.40633
G1 F1614.3 X141.748 Y108.232 E79.41854
G1 F1515.8 X141.582 Y108.355 E79.4316
G1 F1442.9 X141.396 Y108.527 E79.44842
G1 F1457.5 X141.233 Y108.71 E79.46452
G1 F1618 X141.088 Y108.906 E79.47896
G1 F1718.4 X141.04 Y108.978 E79.48378
G1 F1512.6 X140.943 Y109.144 E79.49596
G1 F1258.7 X140.845 Y109.31 E79.51063
G1 F1141 X140.825 Y109.345 E79.51401
G0 F7200 X140.527 Y110.738
G1 F1361.1 X140.47 Y110.77 E79.51861
G1 F1558.4 X140.323 Y110.847 E79.52881
G1 F1739.1 X140.188 Y110.933 E79.53763
G1 F1764.7 X140.052 Y111.02 E79.54639
G1 F1795.5 X139.916 Y111.107 E79.555
G1 F1822.8 X139.781 Y111.194 E79.56344
G1 F1855.7 X139.645 Y111.281 E79.57178
G1 F1884.8 X139.509 Y111.367 E79.57996
G1 F1920 X139.374 Y111.454 E79.58797
G1 F1951.2 X139.238 Y111.541 E79.59589
G1 F1989 X139.102 Y111.628 E79.60367
G1 F2022.5 X138.967 Y111.715 E79.61128
G1 F2063 X138.831 Y111.801 E79.61875
G1 F2099.1 X138.695 Y111.888 E79.62611
G0 F7200 X138.699 Y111.886
G0 X138.277 Y111.723
G1 F1786.6 X138.253 Y111.748 E79.62797
G1 F1782.2 X138.034 Y111.962 E79.64443
G1 F1636.4 X137.836 Y112.113 E79.65901
G1 F1366.2 X137.648 Y112.224 E79.67431
G1 F1267.6 X137.607 Y112.497 E79.69517
G1 F1368.8 X137.555 Y112.514 E79.699
G1 F1607.1 X137.381 Y112.62 E79.71115
G1 F1800 X136.858 Y113.142 E79.75047
G1 F1782.2 X136.335 Y113.665 E79.79022
G1 F1493.8 X136.237 Y113.874 E79.80503
G1 F1440 X136.387 Y113.972 E79.81695
G1 F1662.8 X136.575 Y113.996 E79.82786
G1 F1756.1 X136.834 Y113.98 E79.84202
G1 F1818.2 X137.045 Y113.914 E79.85367
G1 F1822.8 X137.244 Y113.809 E79.86549
G1 F1827.4 X137.416 Y113.67 E79.87708
G1 X137.559 Y113.499 E79.88877
G1 F1836.7 X137.668 Y113.303 E79.90046
G1 X137.73 Y113.091 E79.91198
G1 F1822.8 X137.751 Y112.854 E79.92448
G1 F1743.3 X137.718 Y112.671 E79.9347
G1 F1463.4 X137.607 Y112.497 E79.94821
G1 F300 E79.44821
G1 F600 Z0.6
G0 F7200 X146.982 Y113.458 Z0.6
G1 F600 Z0.32
G1 F120 E79.94821
G1 F1730.8 X146.939 Y113.93 E79.97444
G1 X146.923 Y114.136 E79.98588
G1 X147.085 Y114.009 E79.99727
G1 X147.258 Y113.918 E80.00809
G1 F1437.1 X147.511 Y113.746 E80.02848
G1 F1196 X147.565 Y113.717 E80.03339
G1 F1306.7 X147.334 Y113.596 E80.0525
G1 F1600 X147.135 Y113.51 E80.06548
G1 F1730.8 X146.982 Y113.458 E80.07443
G0 F7200 X146.964 Y113.657
G0 X147.565 Y113.717
G1 F1204 X147.856 Y113.713 E80.09758
G1 F1237.1 X147.947 Y113.722 E80.10466
G1 F300 E79.60466
G1 F600 Z0.6
G0 F7200 X146.46 Y117.69 Z0.6
G1 F600 Z0.32
G1 F120 E80.10466
G1 F1276.6 X146.43 Y117.734 E80.10866
G1 F1506.3 X146.311 Y117.928 E80.12313
G1 F1836.7 X146.188 Y118.124 E80.1352
G1 F2016.8 X146.064 Y118.32 E80.14621
G1 F2117.6 X146.037 Y118.376 E80.14903
G1 F2045.5 X146.005 Y118.548 E80.15722
G1 F1914.9 X145.973 Y118.72 E80.16597
G1 F1800 X145.941 Y118.893 E80.17533
G1 F1568.6 X145.919 Y119.066 E80.18598
G1 F1299.6 X145.897 Y119.24 E80.19891
G1 F300 E79.69891
G1 F600 Z0.6
G0 F7200 X129.365 Y117.89 Z0.6
G1 F600 Z0.32
G1 F120 E80.19891
G1 F1519 X129.38 Y117.682 E80.21206
G1 F1791 X129.302 Y117.274 E80.23428
G1 F1818.2 X129.242 Y117.025 E80.24777
G1 F1827.4 X129.171 Y116.837 E80.2583
G1 F1818.2 X128.999 Y116.56 E80.27548
G1 F1827.4 X128.844 Y116.402 E80.28708
